G21 (This is GCode, generated with Skeinforge version 35 from ReplicatorG)
G21 (Ultimaker profile - Quality print from alterations/start.gcode)
G21 (Metric: The unit is a millimeter)
M18 (Disable motors for now, to allow manual moving of the head)
G90 (Absolute positioning)
G92 X0 Y0 Z0 E0 (set origin to current position)
;G91 (Relative positioning)
G21 (end of start.txt)
G90
G21
;M103
M105
M106
M113 S1.0
;M108 S50.04
M104 S245.0
M104 S244.471
;M108 S27.6
;M108 S28.98

G1 X0 Y40 Z0 F1191.264 E134.948
G1 X0 Y0 Z0 F1191.264 E179.931
G1 X0 Y40 Z0 F1191.264 E134.948
G1 X0 Y0 Z0 F1191.264 E179.931
G1 X0 Y40 Z0 F1191.264 E134.948
G1 X0 Y0 Z0 F1191.264 E179.931
G1 X0 Y40 Z0 F1191.264 E134.948
G1 X0 Y0 Z0 F1191.264 E179.931
G1 X0 Y40 Z0 F1191.264 E134.948
G1 X0 Y0 Z0 F1191.264 E179.931
G1 X0 Y40 Z0 F1191.264 E134.948
G1 X0 Y0 Z0 F1191.264 E179.931
G1 X0 Y40 Z0 F1191.264 E134.948
G1 X0 Y0 Z0 F1191.264 E179.931
G1 X0 Y40 Z0 F1191.264 E134.948
G1 X0 Y0 Z0 F1191.264 E179.931
G1 X0 Y40 Z0 F1191.264 E134.948
G1 X0 Y0 Z0 F1191.264 E179.931
G1 X0 Y40 Z0 F1191.264 E134.948
G1 X0 Y0 Z0 F1191.264 E179.931
G1 X0 Y40 Z0 F1191.264 E134.948
G1 X0 Y0 Z0 F1191.264 E179.931
G1 X0 Y40 Z0 F1191.264 E134.948
G1 X0 Y0 Z0 F1191.264 E179.931
G1 X0 Y40 Z0 F1191.264 E134.948
G1 X0 Y0 Z0 F1191.264 E179.931
G1 X0 Y40 Z0 F1191.264 E134.948
G1 X0 Y0 Z0 F1191.264 E179.931
G1 X0 Y40 Z0 F1191.264 E134.948
G1 X0 Y0 Z0 F1191.264 E179.931
G1 X0 Y40 Z0 F1191.264 E134.948
G1 X0 Y0 Z0 F1191.264 E179.931
G1 X0 Y40 Z0 F1191.264 E134.948
G1 X0 Y0 Z0 F1191.264 E179.931
G1 X0 Y40 Z0 F1191.264 E134.948
G1 X0 Y0 Z0 F1191.264 E179.931
G1 X0 Y40 Z0 F1191.264 E134.948
G1 X0 Y0 Z0 F1191.264 E179.931
G1 X0 Y40 Z0 F1191.264 E134.948
G1 X0 Y0 Z0 F1191.264 E179.931
G1 X0 Y40 Z0 F1191.264 E134.948
G1 X0 Y0 Z0 F1191.264 E179.931
G1 X0 Y40 Z0 F1191.264 E134.948
G1 X0 Y0 Z0 F1191.264 E179.931
G1 X0 Y40 Z0 F1191.264 E134.948
G1 X0 Y0 Z0 F1191.264 E179.931
G1 X0 Y40 Z0 F1191.264 E134.948
G1 X0 Y0 Z0 F1191.264 E179.931
G1 X0 Y40 Z0 F1191.264 E134.948
G1 X0 Y0 Z0 F1191.264 E179.931
G1 X0 Y40 Z0 F1191.264 E134.948
G1 X0 Y0 Z0 F1191.264 E179.931
G1 X0 Y40 Z0 F1191.264 E134.948
G1 X0 Y0 Z0 F1191.264 E179.931
G1 X0 Y40 Z0 F1191.264 E134.948
G1 X0 Y0 Z0 F1191.264 E179.931
G1 X0 Y40 Z0 F1191.264 E134.948
G1 X0 Y0 Z0 F1191.264 E179.931
G1 X0 Y40 Z0 F1191.264 E134.948
G1 X0 Y0 Z0 F1191.264 E179.931
G1 X0 Y40 Z0 F1191.264 E134.948
G1 X0 Y0 Z0 F1191.264 E179.931
G1 X0 Y40 Z0 F1191.264 E134.948
G1 X0 Y0 Z0 F1191.264 E179.931
G1 X0 Y40 Z0 F1191.264 E134.948
G1 X0 Y0 Z0 F1191.264 E179.931
G1 X0 Y40 Z0 F1191.264 E134.948
G1 X0 Y0 Z0 F1191.264 E179.931
G1 X0 Y40 Z0 F1191.264 E134.948
G1 X0 Y0 Z0 F1191.264 E179.931
G1 X0 Y40 Z0 F1191.264 E134.948
G1 X0 Y0 Z0 F1191.264 E179.931
G1 X0 Y40 Z0 F1191.264 E134.948
G1 X0 Y0 Z0 F1191.264 E179.931
G1 X0 Y40 Z0 F1191.264 E134.948
G1 X0 Y0 Z0 F1191.264 E179.931
G1 X0 Y40 Z0 F1191.264 E134.948
G1 X0 Y0 Z0 F1191.264 E179.931
G1 X0 Y40 Z0 F1191.264 E134.948
G1 X0 Y0 Z0 F1191.264 E179.931
G1 X0 Y40 Z0 F1191.264 E134.948
G1 X0 Y0 Z0 F1191.264 E179.931
G1 X0 Y40 Z0 F1191.264 E134.948
G1 X0 Y0 Z0 F1191.264 E179.931
G1 X0 Y40 Z0 F1191.264 E134.948
G1 X0 Y0 Z0 F1191.264 E179.931
G1 X0 Y40 Z0 F1191.264 E134.948
G1 X0 Y0 Z0 F1191.264 E179.931
G1 X0 Y40 Z0 F1191.264 E134.948
G1 X0 Y0 Z0 F1191.264 E179.931
G1 X0 Y40 Z0 F1191.264 E134.948
G1 X0 Y0 Z0 F1191.264 E179.931
G1 X0 Y40 Z0 F1191.264 E134.948
G1 X0 Y0 Z0 F1191.264 E179.931
G1 X0 Y40 Z0 F1191.264 E134.948
G1 X0 Y0 Z0 F1191.264 E179.931
G1 X0 Y40 Z0 F1191.264 E134.948
G1 X0 Y0 Z0 F1191.264 E179.931
G1 X0 Y40 Z0 F1191.264 E134.948
G1 X0 Y0 Z0 F1191.264 E179.931
G1 X0 Y40 Z0 F1191.264 E134.948
G1 X0 Y0 Z0 F1191.264 E179.931
G1 X0 Y40 Z0 F1191.264 E134.948
G1 X0 Y0 Z0 F1191.264 E179.931
G1 X0 Y40 Z0 F1191.264 E134.948
G1 X0 Y0 Z0 F1191.264 E179.931
G1 X0 Y40 Z0 F1191.264 E134.948
G1 X0 Y0 Z0 F1191.264 E179.931
G1 X0 Y40 Z0 F1191.264 E134.948
G1 X0 Y0 Z0 F1191.264 E179.931
G1 X0 Y40 Z0 F1191.264 E134.948
G1 X0 Y0 Z0 F1191.264 E179.931
G1 X0 Y40 Z0 F1191.264 E134.948
G1 X0 Y0 Z0 F1191.264 E179.931
G1 X0 Y40 Z0 F1191.264 E134.948
G1 X0 Y0 Z0 F1191.264 E179.931
G1 X0 Y40 Z0 F1191.264 E134.948
G1 X0 Y0 Z0 F1191.264 E179.931
G1 X0 Y40 Z0 F1191.264 E134.948
G1 X0 Y0 Z0 F1191.264 E179.931
G1 X0 Y40 Z0 F1191.264 E134.948
G1 X0 Y0 Z0 F1191.264 E179.931
G1 X0 Y40 Z0 F1191.264 E134.948
G1 X0 Y0 Z0 F1191.264 E179.931
G1 X0 Y40 Z0 F1191.264 E134.948
G1 X0 Y0 Z0 F1191.264 E179.931
G1 X0 Y40 Z0 F1191.264 E134.948
G1 X0 Y0 Z0 F1191.264 E179.931
G1 X0 Y40 Z0 F1191.264 E134.948
G1 X0 Y0 Z0 F1191.264 E179.931
G1 X0 Y40 Z0 F1191.264 E134.948
G1 X0 Y0 Z0 F1191.264 E179.931
G1 X0 Y40 Z0 F1191.264 E134.948
G1 X0 Y0 Z0 F1191.264 E179.931
G1 X0 Y40 Z0 F1191.264 E134.948
G1 X0 Y0 Z0 F1191.264 E179.931
G1 X0 Y40 Z0 F1191.264 E134.948
G1 X0 Y0 Z0 F1191.264 E179.931
G1 X0 Y40 Z0 F1191.264 E134.948
G1 X0 Y0 Z0 F1191.264 E179.931
G1 X0 Y40 Z0 F1191.264 E134.948
G1 X0 Y0 Z0 F1191.264 E179.931
G1 X0 Y40 Z0 F1191.264 E134.948
G1 X0 Y0 Z0 F1191.264 E179.931
G1 X0 Y40 Z0 F1191.264 E134.948
G1 X0 Y0 Z0 F1191.264 E179.931
G1 X0 Y40 Z0 F1191.264 E134.948
G1 X0 Y0 Z0 F1191.264 E179.931
G1 X0 Y40 Z0 F1191.264 E134.948
G1 X0 Y0 Z0 F1191.264 E179.931
G1 X0 Y40 Z0 F1191.264 E134.948
G1 X0 Y0 Z0 F1191.264 E179.931
G1 X0 Y40 Z0 F1191.264 E134.948
G1 X0 Y0 Z0 F1191.264 E179.931
G1 X0 Y40 Z0 F1191.264 E134.948
G1 X0 Y0 Z0 F1191.264 E179.931
G1 X0 Y40 Z0 F1191.264 E134.948
G1 X0 Y0 Z0 F1191.264 E179.931
G1 X0 Y40 Z0 F1191.264 E134.948
G1 X0 Y0 Z0 F1191.264 E179.931
G1 X0 Y40 Z0 F1191.264 E134.948
G1 X0 Y0 Z0 F1191.264 E179.931
G1 X0 Y40 Z0 F1191.264 E134.948
G1 X0 Y0 Z0 F1191.264 E179.931
G1 X0 Y40 Z0 F1191.264 E134.948
G1 X0 Y0 Z0 F1191.264 E179.931
G1 X0 Y40 Z0 F1191.264 E134.948
G1 X0 Y0 Z0 F1191.264 E179.931
G1 X0 Y40 Z0 F1191.264 E134.948
G1 X0 Y0 Z0 F1191.264 E179.931
G1 X0 Y40 Z0 F1191.264 E134.948
G1 X0 Y0 Z0 F1191.264 E179.931
G1 X0 Y40 Z0 F1191.264 E134.948
G1 X0 Y0 Z0 F1191.264 E179.931
G1 X0 Y40 Z0 F1191.264 E134.948
G1 X0 Y0 Z0 F1191.264 E179.931
G1 X0 Y40 Z0 F1191.264 E134.948
G1 X0 Y0 Z0 F1191.264 E179.931
G1 X0 Y40 Z0 F1191.264 E134.948
G1 X0 Y0 Z0 F1191.264 E179.931
G1 X0 Y40 Z0 F1191.264 E134.948
G1 X0 Y0 Z0 F1191.264 E179.931
G1 X0 Y40 Z0 F1191.264 E134.948
G1 X0 Y0 Z0 F1191.264 E179.931
G1 X0 Y40 Z0 F1191.264 E134.948
G1 X0 Y0 Z0 F1191.264 E179.931
G1 X0 Y40 Z0 F1191.264 E134.948
G1 X0 Y0 Z0 F1191.264 E179.931
G1 X0 Y40 Z0 F1191.264 E134.948
G1 X0 Y0 Z0 F1191.264 E179.931
G1 X0 Y40 Z0 F1191.264 E134.948
G1 X0 Y0 Z0 F1191.264 E179.931
G1 X0 Y40 Z0 F1191.264 E134.948
G1 X0 Y0 Z0 F1191.264 E179.931
G1 X0 Y40 Z0 F1191.264 E134.948
G1 X0 Y0 Z0 F1191.264 E179.931
G1 X0 Y40 Z0 F1191.264 E134.948
G1 X0 Y0 Z0 F1191.264 E179.931
G1 X0 Y40 Z0 F1191.264 E134.948
G1 X0 Y0 Z0 F1191.264 E179.931
G1 X0 Y40 Z0 F1191.264 E134.948
G1 X0 Y0 Z0 F1191.264 E179.931
G1 X0 Y40 Z0 F1191.264 E134.948
G1 X0 Y0 Z0 F1191.264 E179.931
G1 X0 Y40 Z0 F1191.264 E134.948
G1 X0 Y0 Z0 F1191.264 E179.931
G1 X0 Y40 Z0 F1191.264 E134.948
G1 X0 Y0 Z0 F1191.264 E179.931
G1 X0 Y40 Z0 F1191.264 E134.948
G1 X0 Y0 Z0 F1191.264 E179.931
G1 X0 Y40 Z0 F1191.264 E134.948
G1 X0 Y0 Z0 F1191.264 E179.931
G1 X0 Y40 Z0 F1191.264 E134.948
G1 X0 Y0 Z0 F1191.264 E179.931
G1 X0 Y40 Z0 F1191.264 E134.948
G1 X0 Y0 Z0 F1191.264 E179.931
G1 X0 Y40 Z0 F1191.264 E134.948
G1 X0 Y0 Z0 F1191.264 E179.931
G1 X0 Y40 Z0 F1191.264 E134.948
G1 X0 Y0 Z0 F1191.264 E179.931
G1 X0 Y40 Z0 F1191.264 E134.948
G1 X0 Y0 Z0 F1191.264 E179.931
G1 X0 Y40 Z0 F1191.264 E134.948
G1 X0 Y0 Z0 F1191.264 E179.931
G1 X0 Y40 Z0 F1191.264 E134.948
G1 X0 Y0 Z0 F1191.264 E179.931
G1 X0 Y40 Z0 F1191.264 E134.948
G1 X0 Y0 Z0 F1191.264 E179.931
G1 X0 Y40 Z0 F1191.264 E134.948
G1 X0 Y0 Z0 F1191.264 E179.931
G1 X0 Y40 Z0 F1191.264 E134.948
G1 X0 Y0 Z0 F1191.264 E179.931
G1 X0 Y40 Z0 F1191.264 E134.948
G1 X0 Y0 Z0 F1191.264 E179.931
G1 X0 Y40 Z0 F1191.264 E134.948
G1 X0 Y0 Z0 F1191.264 E179.931
G1 X0 Y40 Z0 F1191.264 E134.948
G1 X0 Y0 Z0 F1191.264 E179.931
G1 X0 Y40 Z0 F1191.264 E134.948
G1 X0 Y0 Z0 F1191.264 E179.931
G1 X0 Y40 Z0 F1191.264 E134.948
G1 X0 Y0 Z0 F1191.264 E179.931
G1 X0 Y40 Z0 F1191.264 E134.948
G1 X0 Y0 Z0 F1191.264 E179.931
G1 X0 Y40 Z0 F1191.264 E134.948
G1 X0 Y0 Z0 F1191.264 E179.931
G1 X0 Y40 Z0 F1191.264 E134.948
G1 X0 Y0 Z0 F1191.264 E179.931
G1 X0 Y40 Z0 F1191.264 E134.948
G1 X0 Y0 Z0 F1191.264 E179.931
G1 X0 Y40 Z0 F1191.264 E134.948
G1 X0 Y0 Z0 F1191.264 E179.931
G1 X0 Y40 Z0 F1191.264 E134.948
G1 X0 Y0 Z0 F1191.264 E179.931
G1 X0 Y40 Z0 F1191.264 E134.948
G1 X0 Y0 Z0 F1191.264 E179.931
G1 X0 Y40 Z0 F1191.264 E134.948
G1 X0 Y0 Z0 F1191.264 E179.931
G1 X0 Y40 Z0 F1191.264 E134.948
G1 X0 Y0 Z0 F1191.264 E179.931
G1 X0 Y40 Z0 F1191.264 E134.948
G1 X0 Y0 Z0 F1191.264 E179.931
G1 X0 Y40 Z0 F1191.264 E134.948
G1 X0 Y0 Z0 F1191.264 E179.931
G1 X0 Y40 Z0 F1191.264 E134.948
G1 X0 Y0 Z0 F1191.264 E179.931
G1 X0 Y40 Z0 F1191.264 E134.948
G1 X0 Y0 Z0 F1191.264 E179.931
G1 X0 Y40 Z0 F1191.264 E134.948
G1 X0 Y0 Z0 F1191.264 E179.931
G1 X0 Y40 Z0 F1191.264 E134.948
G1 X0 Y0 Z0 F1191.264 E179.931
G1 X0 Y40 Z0 F1191.264 E134.948
G1 X0 Y0 Z0 F1191.264 E179.931
G1 X0 Y40 Z0 F1191.264 E134.948
G1 X0 Y0 Z0 F1191.264 E179.931
G1 X0 Y40 Z0 F1191.264 E134.948
G1 X0 Y0 Z0 F1191.264 E179.931
G1 X0 Y40 Z0 F1191.264 E134.948
G1 X0 Y0 Z0 F1191.264 E179.931
G1 X0 Y40 Z0 F1191.264 E134.948
G1 X0 Y0 Z0 F1191.264 E179.931
G1 X0 Y40 Z0 F1191.264 E134.948
G1 X0 Y0 Z0 F1191.264 E179.931
G1 X0 Y40 Z0 F1191.264 E134.948
G1 X0 Y0 Z0 F1191.264 E179.931
G1 X0 Y40 Z0 F1191.264 E134.948
G1 X0 Y0 Z0 F1191.264 E179.931
G1 X0 Y40 Z0 F1191.264 E134.948
G1 X0 Y0 Z0 F1191.264 E179.931
G1 X0 Y40 Z0 F1191.264 E134.948
G1 X0 Y0 Z0 F1191.264 E179.931
G1 X0 Y40 Z0 F1191.264 E134.948
G1 X0 Y0 Z0 F1191.264 E179.931
G1 X0 Y40 Z0 F1191.264 E134.948
G1 X0 Y0 Z0 F1191.264 E179.931
G1 X0 Y40 Z0 F1191.264 E134.948
G1 X0 Y0 Z0 F1191.264 E179.931
G1 X0 Y40 Z0 F1191.264 E134.948
G1 X0 Y0 Z0 F1191.264 E179.931
G1 X0 Y40 Z0 F1191.264 E134.948
G1 X0 Y0 Z0 F1191.264 E179.931
G1 X0 Y40 Z0 F1191.264 E134.948
G1 X0 Y0 Z0 F1191.264 E179.931
G1 X0 Y40 Z0 F1191.264 E134.948
G1 X0 Y0 Z0 F1191.264 E179.931
G1 X0 Y40 Z0 F1191.264 E134.948
G1 X0 Y0 Z0 F1191.264 E179.931
G1 X0 Y40 Z0 F1191.264 E134.948
G1 X0 Y0 Z0 F1191.264 E179.931
G1 X0 Y40 Z0 F1191.264 E134.948
G1 X0 Y0 Z0 F1191.264 E179.931
G1 X0 Y40 Z0 F1191.264 E134.948
G1 X0 Y0 Z0 F1191.264 E179.931
G1 X0 Y40 Z0 F1191.264 E134.948
G1 X0 Y0 Z0 F1191.264 E179.931
G1 X0 Y40 Z0 F1191.264 E134.948
G1 X0 Y0 Z0 F1191.264 E179.931
G1 X0 Y40 Z0 F1191.264 E134.948
G1 X0 Y0 Z0 F1191.264 E179.931
G1 X0 Y40 Z0 F1191.264 E134.948
G1 X0 Y0 Z0 F1191.264 E179.931
G1 X0 Y40 Z0 F1191.264 E134.948
G1 X0 Y0 Z0 F1191.264 E179.931
G1 X0 Y40 Z0 F1191.264 E134.948
G1 X0 Y0 Z0 F1191.264 E179.931
G1 X0 Y40 Z0 F1191.264 E134.948
G1 X0 Y0 Z0 F1191.264 E179.931
G1 X0 Y40 Z0 F1191.264 E134.948
G1 X0 Y0 Z0 F1191.264 E179.931
G1 X0 Y40 Z0 F1191.264 E134.948
G1 X0 Y0 Z0 F1191.264 E179.931
G1 X0 Y40 Z0 F1191.264 E134.948
G1 X0 Y0 Z0 F1191.264 E179.931
G1 X0 Y40 Z0 F1191.264 E134.948
G1 X0 Y0 Z0 F1191.264 E179.931
G1 X0 Y40 Z0 F1191.264 E134.948
G1 X0 Y0 Z0 F1191.264 E179.931
G1 X0 Y40 Z0 F1191.264 E134.948
G1 X0 Y0 Z0 F1191.264 E179.931
