G21 (This is GCode, generated with Skeinforge version 35 from ReplicatorG)
G21 (Ultimaker profile - Quality print - alterations/start-centered.gcode)
G21 (Metric: The unit is a millimeter)
G90 (Absolute Positioning)
G92 X0 Y0 Z0 E0 (set origin to current position)
G21 (end of start .gcode file)
G90
G21
;M103
M105
M106
M113 S1.0
;M108 S7.506
M104 S245.0
G1 X-3.0 Y-1.18 Z0.53 F54.0
;M101
G1 X-3.0 Y61.24 Z0.53 F54.0 E520.549
G1 X61.66 Y61.24 Z0.53 F54.0 E1059.814
G1 X61.66 Y-1.18 Z0.53 F54.0 E1580.363
G1 X-3.0 Y-1.18 Z0.53 F54.0 E2119.628
;M103
G1 X0.0 Y25.56 Z0.53 F54.0
;M101
G1 X0.0 Y34.49 Z0.53 F54.0 E2194.096
;M103
G1 X2.1 Y41.48 Z0.53 F54.0
;M101
G1 X2.1 Y18.58 Z0.53 F54.0 E2385.048
G1 X4.19 Y14.86 Z0.53 F54.0 E2420.684
G1 X4.19 Y45.2 Z0.53 F54.0 E2673.761
G1 X6.29 Y47.99 Z0.53 F54.0 E2702.879
G1 X6.29 Y11.6 Z0.53 F54.0 E3006.43
G1 X8.38 Y9.74 Z0.53 F54.0 E3029.806
G1 X8.38 Y50.32 Z0.53 F54.0 E3368.302
G1 X10.48 Y52.18 Z0.53 F54.0 E3391.678
G1 X10.48 Y7.87 Z0.53 F54.0 E3761.231
G1 X12.57 Y6.48 Z0.53 F54.0 E3782.232
G1 X12.57 Y53.58 Z0.53 F54.0 E4175.088
G1 X14.67 Y54.98 Z0.53 F54.0 E4196.084
G1 X14.67 Y5.08 Z0.53 F54.0 E4612.233
G1 X16.76 Y4.15 Z0.53 F54.0 E4631.353
G1 X16.76 Y55.91 Z0.53 F54.0 E5063.04
G1 X18.86 Y56.84 Z0.53 F54.0 E5082.16
G1 X18.86 Y3.22 Z0.53 F54.0 E5529.375
G1 X20.95 Y2.75 Z0.53 F54.0 E5547.275
G1 X20.95 Y57.31 Z0.53 F54.0 E6002.255
G1 X23.05 Y57.77 Z0.53 F54.0 E6020.154
G1 X23.05 Y2.29 Z0.53 F54.0 E6482.899
G1 X25.14 Y1.82 Z0.53 F54.0 E6500.799
G1 X25.14 Y57.77 Z0.53 F54.0 E6967.43
G1 X27.24 Y58.24 Z0.53 F54.0 E6985.327
G1 X27.24 Y1.82 Z0.53 F54.0 E7455.837
G1 X29.33 Y1.82 Z0.53 F54.0 E7473.309
G1 X29.33 Y58.24 Z0.53 F54.0 E7943.819
G1 X31.43 Y58.24 Z0.53 F54.0 E7961.291
G1 X31.43 Y1.82 Z0.53 F54.0 E8431.8
G1 X33.52 Y1.82 Z0.53 F54.0 E8449.273
G1 X33.52 Y58.24 Z0.53 F54.0 E8919.782
G1 X35.62 Y57.77 Z0.53 F54.0 E8937.68
G1 X35.62 Y2.29 Z0.53 F54.0 E9400.425
G1 X37.71 Y2.29 Z0.53 F54.0 E9417.897
G1 X37.71 Y57.77 Z0.53 F54.0 E9880.642
G1 X39.81 Y57.31 Z0.53 F54.0 E9898.541
G1 X39.81 Y3.22 Z0.53 F54.0 E10349.635
G1 X41.9 Y3.68 Z0.53 F54.0 E10367.534
G1 X41.9 Y56.37 Z0.53 F54.0 E10806.977
G1 X44.0 Y55.44 Z0.53 F54.0 E10826.097
G1 X44.0 Y4.61 Z0.53 F54.0 E11250.011
G1 X46.09 Y5.55 Z0.53 F54.0 E11269.131
G1 X46.09 Y54.51 Z0.53 F54.0 E11677.516
G1 X48.19 Y53.12 Z0.53 F54.0 E11698.516
G1 X48.19 Y6.94 Z0.53 F54.0 E12083.607
G1 X50.28 Y8.34 Z0.53 F54.0 E12104.608
G1 X50.28 Y51.72 Z0.53 F54.0 E12466.406
G1 X52.38 Y49.39 Z0.53 F54.0 E12492.525
G1 X52.38 Y10.2 Z0.53 F54.0 E12819.378
G1 X54.47 Y12.99 Z0.53 F54.0 E12848.503
G1 X54.47 Y47.06 Z0.53 F54.0 E13132.639
G1 X56.57 Y44.27 Z0.53 F54.0 E13161.757
G1 X56.57 Y15.79 Z0.53 F54.0 E13399.305
G1 X58.66 Y19.98 Z0.53 F54.0 E13438.374
G1 X58.66 Y39.61 Z0.53 F54.0 E13602.147
;M103
G1 X25.12 Y1.86 Z0.89 F360.0
;M101
G1 X33.54 Y1.86 Z0.89 F360.0 E13612.683
;M103
G1 X20.93 Y2.79 Z0.89 F360.0
;M101
G1 X23.02 Y2.33 Z0.89 F360.0 E13615.368
G1 X37.73 Y2.33 Z0.89 F360.0 E13633.766
G1 X37.73 Y2.79 Z0.89 F360.0 E13634.348
G1 X22.31 Y2.79 Z0.89 F360.0 E13653.637
;M103
G1 X39.83 Y3.26 Z0.89 F360.0
;M101
G1 X18.83 Y3.26 Z0.89 F360.0 E13679.898
G1 X18.83 Y3.72 Z0.89 F360.0 E13680.48
G1 X41.92 Y3.72 Z0.89 F360.0 E13709.361
G1 X41.92 Y4.19 Z0.89 F360.0 E13709.944
G1 X16.74 Y4.19 Z0.89 F360.0 E13741.447
G1 X16.74 Y4.66 Z0.89 F360.0 E13742.03
G1 X44.02 Y4.66 Z0.89 F360.0 E13776.154
G1 X44.02 Y5.12 Z0.89 F360.0 E13776.735
G1 X14.64 Y5.12 Z0.89 F360.0 E13813.48
G1 X14.64 Y5.59 Z0.89 F360.0 E13814.063
G1 X46.11 Y5.59 Z0.89 F360.0 E13853.428
G1 X46.11 Y6.05 Z0.89 F360.0 E13854.01
G1 X14.64 Y6.05 Z0.89 F360.0 E13893.375
;M103
G1 X12.55 Y6.52 Z0.89 F360.0
;M101
G1 X46.11 Y6.52 Z0.89 F360.0 E13935.361
G1 X48.21 Y6.98 Z0.89 F360.0 E13938.045
;M103
G1 X46.82 Y6.98 Z0.89 F360.0
;M101
G1 X12.55 Y6.98 Z0.89 F360.0 E13980.922
G1 X12.55 Y7.45 Z0.89 F360.0 E13981.505
G1 X48.21 Y7.45 Z0.89 F360.0 E14026.112
G1 X48.21 Y7.91 Z0.89 F360.0 E14026.694
G1 X10.45 Y7.91 Z0.89 F360.0 E14073.922
G1 X10.45 Y8.38 Z0.89 F360.0 E14074.505
G1 X50.3 Y8.38 Z0.89 F360.0 E14124.353
G1 X50.3 Y8.85 Z0.89 F360.0 E14124.936
G1 X10.45 Y8.85 Z0.89 F360.0 E14174.785
G1 X10.45 Y9.31 Z0.89 F360.0 E14175.366
G1 X50.3 Y9.31 Z0.89 F360.0 E14225.215
G1 X50.3 Y9.78 Z0.89 F360.0 E14225.798
G1 X8.36 Y9.78 Z0.89 F360.0 E14278.267
G1 X8.36 Y10.24 Z0.89 F360.0 E14278.849
G1 X52.4 Y10.24 Z0.89 F360.0 E14333.939
G1 X52.4 Y10.71 Z0.89 F360.0 E14334.522
G1 X8.36 Y10.71 Z0.89 F360.0 E14389.613
G1 X8.36 Y11.17 Z0.89 F360.0 E14390.194
G1 X52.4 Y11.17 Z0.89 F360.0 E14445.285
G1 X52.4 Y11.64 Z0.89 F360.0 E14445.868
G1 X6.26 Y11.64 Z0.89 F360.0 E14503.579
G1 X6.26 Y12.1 Z0.89 F360.0 E14504.161
G1 X52.4 Y12.1 Z0.89 F360.0 E14561.872
G1 X52.4 Y12.57 Z0.89 F360.0 E14562.455
G1 X6.26 Y12.57 Z0.89 F360.0 E14620.166
G1 X6.26 Y13.04 Z0.89 F360.0 E14620.749
G1 X54.49 Y13.04 Z0.89 F360.0 E14681.081
G1 X54.49 Y13.5 Z0.89 F360.0 E14681.662
G1 X6.26 Y13.5 Z0.89 F360.0 E14741.994
G1 X6.26 Y13.97 Z0.89 F360.0 E14742.577
G1 X54.49 Y13.97 Z0.89 F360.0 E14802.909
G1 X54.49 Y14.43 Z0.89 F360.0 E14803.491
G1 X6.26 Y14.43 Z0.89 F360.0 E14863.823
G1 X4.17 Y14.9 Z0.89 F360.0 E14866.508
;M103
G1 X5.55 Y14.9 Z0.89 F360.0
;M101
G1 X54.49 Y14.9 Z0.89 F360.0 E14927.731
G1 X54.49 Y15.36 Z0.89 F360.0 E14928.312
G1 X4.17 Y15.36 Z0.89 F360.0 E14991.265
G1 X4.17 Y15.83 Z0.89 F360.0 E14991.848
G1 X56.59 Y15.83 Z0.89 F360.0 E15057.422
G1 X56.59 Y16.29 Z0.89 F360.0 E15058.004
G1 X4.17 Y16.29 Z0.89 F360.0 E15123.577
G1 X4.17 Y16.76 Z0.89 F360.0 E15124.16
G1 X56.59 Y16.76 Z0.89 F360.0 E15189.734
G1 X56.59 Y17.23 Z0.89 F360.0 E15190.317
G1 X4.17 Y17.23 Z0.89 F360.0 E15255.89
G1 X4.17 Y17.69 Z0.89 F360.0 E15256.472
G1 X56.59 Y17.69 Z0.89 F360.0 E15322.046
G1 X56.59 Y18.16 Z0.89 F360.0 E15322.629
G1 X4.17 Y18.16 Z0.89 F360.0 E15388.202
;M103
G1 X2.07 Y18.62 Z0.89 F360.0
;M101
G1 X56.59 Y18.62 Z0.89 F360.0 E15456.397
G1 X56.59 Y19.09 Z0.89 F360.0 E15456.98
G1 X2.07 Y19.09 Z0.89 F360.0 E15525.174
G1 X2.07 Y19.55 Z0.89 F360.0 E15525.756
G1 X56.59 Y19.55 Z0.89 F360.0 E15593.951
G1 X58.68 Y20.02 Z0.89 F360.0 E15596.636
;M103
G1 X57.3 Y20.02 Z0.89 F360.0
;M101
G1 X2.07 Y20.02 Z0.89 F360.0 E15665.721
G1 X2.07 Y20.48 Z0.89 F360.0 E15666.303
G1 X58.68 Y20.48 Z0.89 F360.0 E15737.118
G1 X58.68 Y20.95 Z0.89 F360.0 E15737.701
G1 X2.07 Y20.95 Z0.89 F360.0 E15808.516
G1 X2.07 Y21.42 Z0.89 F360.0 E15809.099
G1 X58.68 Y21.42 Z0.89 F360.0 E15879.915
G1 X58.68 Y21.88 Z0.89 F360.0 E15880.496
G1 X2.07 Y21.88 Z0.89 F360.0 E15951.312
G1 X2.07 Y22.35 Z0.89 F360.0 E15951.895
G1 X58.68 Y22.35 Z0.89 F360.0 E16022.71
G1 X58.68 Y22.81 Z0.89 F360.0 E16023.292
G1 X2.07 Y22.81 Z0.89 F360.0 E16094.107
G1 X2.07 Y23.28 Z0.89 F360.0 E16094.69
G1 X58.68 Y23.28 Z0.89 F360.0 E16165.505
G1 X58.68 Y23.74 Z0.89 F360.0 E16166.087
G1 X2.07 Y23.74 Z0.89 F360.0 E16236.902
G1 X2.07 Y24.21 Z0.89 F360.0 E16237.485
G1 X58.68 Y24.21 Z0.89 F360.0 E16308.301
G1 X58.68 Y24.67 Z0.89 F360.0 E16308.882
G1 X2.07 Y24.67 Z0.89 F360.0 E16379.698
G1 X2.07 Y25.14 Z0.89 F360.0 E16380.281
G1 X58.68 Y25.14 Z0.89 F360.0 E16451.096
G1 X58.68 Y25.61 Z0.89 F360.0 E16451.679
G1 X-0.02 Y25.61 Z0.89 F360.0 E16525.115
G1 X-0.02 Y26.07 Z0.89 F360.0 E16525.697
G1 X58.68 Y26.07 Z0.89 F360.0 E16599.133
G1 X58.68 Y26.54 Z0.89 F360.0 E16599.716
G1 X-0.02 Y26.54 Z0.89 F360.0 E16673.152
G1 X-0.02 Y27.0 Z0.89 F360.0 E16673.734
G1 X58.68 Y27.0 Z0.89 F360.0 E16747.17
G1 X58.68 Y27.47 Z0.89 F360.0 E16747.753
G1 X-0.02 Y27.47 Z0.89 F360.0 E16821.189
G1 X-0.02 Y27.93 Z0.89 F360.0 E16821.771
G1 X58.68 Y27.93 Z0.89 F360.0 E16895.207
G1 X58.68 Y28.4 Z0.89 F360.0 E16895.79
G1 X-0.02 Y28.4 Z0.89 F360.0 E16969.227
G1 X-0.02 Y28.86 Z0.89 F360.0 E16969.808
G1 X58.68 Y28.86 Z0.89 F360.0 E17043.244
G1 X58.68 Y29.33 Z0.89 F360.0 E17043.827
G1 X-0.02 Y29.33 Z0.89 F360.0 E17117.264
G1 X-0.02 Y29.8 Z0.89 F360.0 E17117.847
G1 X58.68 Y29.8 Z0.89 F360.0 E17191.283
G1 X58.68 Y30.26 Z0.89 F360.0 E17191.864
G1 X-0.02 Y30.26 Z0.89 F360.0 E17265.301
G1 X-0.02 Y30.73 Z0.89 F360.0 E17265.884
G1 X58.68 Y30.73 Z0.89 F360.0 E17339.32
G1 X58.68 Y31.19 Z0.89 F360.0 E17339.902
G1 X-0.02 Y31.19 Z0.89 F360.0 E17413.338
G1 X-0.02 Y31.66 Z0.89 F360.0 E17413.921
G1 X58.68 Y31.66 Z0.89 F360.0 E17487.357
G1 X58.68 Y32.12 Z0.89 F360.0 E17487.939
G1 X-0.02 Y32.12 Z0.89 F360.0 E17561.375
G1 X-0.02 Y32.59 Z0.89 F360.0 E17561.958
G1 X58.68 Y32.59 Z0.89 F360.0 E17635.394
G1 X58.68 Y33.05 Z0.89 F360.0 E17635.976
G1 X-0.02 Y33.05 Z0.89 F360.0 E17709.412
G1 X-0.02 Y33.52 Z0.89 F360.0 E17709.995
G1 X58.68 Y33.52 Z0.89 F360.0 E17783.431
G1 X58.68 Y33.99 Z0.89 F360.0 E17784.014
G1 X-0.02 Y33.99 Z0.89 F360.0 E17857.45
G1 X-0.02 Y34.45 Z0.89 F360.0 E17858.032
G1 X58.68 Y34.45 Z0.89 F360.0 E17931.468
G1 X58.68 Y34.92 Z0.89 F360.0 E17932.051
G1 X2.07 Y34.92 Z0.89 F360.0 E18002.867
G1 X2.07 Y35.38 Z0.89 F360.0 E18003.448
G1 X58.68 Y35.38 Z0.89 F360.0 E18074.264
G1 X58.68 Y35.85 Z0.89 F360.0 E18074.847
G1 X2.07 Y35.85 Z0.89 F360.0 E18145.662
G1 X2.07 Y36.31 Z0.89 F360.0 E18146.244
G1 X58.68 Y36.31 Z0.89 F360.0 E18217.059
G1 X58.68 Y36.78 Z0.89 F360.0 E18217.642
G1 X2.07 Y36.78 Z0.89 F360.0 E18288.457
G1 X2.07 Y37.24 Z0.89 F360.0 E18289.039
G1 X58.68 Y37.24 Z0.89 F360.0 E18359.854
G1 X58.68 Y37.71 Z0.89 F360.0 E18360.437
G1 X2.07 Y37.71 Z0.89 F360.0 E18431.253
G1 X2.07 Y38.18 Z0.89 F360.0 E18431.836
G1 X58.68 Y38.18 Z0.89 F360.0 E18502.651
G1 X58.68 Y38.64 Z0.89 F360.0 E18503.233
G1 X2.07 Y38.64 Z0.89 F360.0 E18574.048
G1 X2.07 Y39.11 Z0.89 F360.0 E18574.631
G1 X58.68 Y39.11 Z0.89 F360.0 E18645.446
G1 X58.68 Y39.57 Z0.89 F360.0 E18646.028
G1 X2.07 Y39.57 Z0.89 F360.0 E18716.843
G1 X2.07 Y40.04 Z0.89 F360.0 E18717.426
G1 X56.59 Y40.04 Z0.89 F360.0 E18785.621
G1 X56.59 Y40.5 Z0.89 F360.0 E18786.203
G1 X2.07 Y40.5 Z0.89 F360.0 E18854.397
G1 X2.07 Y40.97 Z0.89 F360.0 E18854.98
G1 X56.59 Y40.97 Z0.89 F360.0 E18923.175
G1 X56.59 Y41.43 Z0.89 F360.0 E18923.756
G1 X2.07 Y41.43 Z0.89 F360.0 E18991.951
;M103
G1 X4.17 Y41.9 Z0.89 F360.0
;M101
G1 X56.59 Y41.9 Z0.89 F360.0 E19057.525
G1 X56.59 Y42.37 Z0.89 F360.0 E19058.108
G1 X4.17 Y42.37 Z0.89 F360.0 E19123.681
G1 X4.17 Y42.83 Z0.89 F360.0 E19124.263
G1 X56.59 Y42.83 Z0.89 F360.0 E19189.837
G1 X56.59 Y43.3 Z0.89 F360.0 E19190.42
G1 X4.17 Y43.3 Z0.89 F360.0 E19255.993
G1 X4.17 Y43.76 Z0.89 F360.0 E19256.575
G1 X56.59 Y43.76 Z0.89 F360.0 E19322.149
G1 X56.59 Y44.23 Z0.89 F360.0 E19322.732
G1 X4.17 Y44.23 Z0.89 F360.0 E19388.305
G1 X4.17 Y44.69 Z0.89 F360.0 E19388.887
G1 X54.49 Y44.69 Z0.89 F360.0 E19451.84
G1 X54.49 Y45.16 Z0.89 F360.0 E19452.423
G1 X4.17 Y45.16 Z0.89 F360.0 E19515.376
G1 X6.26 Y46.56 Z0.89 F360.0 E19518.526
G1 X54.49 Y46.56 Z0.89 F360.0 E19578.858
G1 X54.49 Y46.09 Z0.89 F360.0 E19579.441
G1 X6.26 Y46.09 Z0.89 F360.0 E19639.773
G1 X6.26 Y45.62 Z0.89 F360.0 E19640.356
G1 X54.49 Y45.62 Z0.89 F360.0 E19700.688
;M103
G1 X8.36 Y48.42 Z0.89 F360.0
;M101
G1 X52.4 Y48.42 Z0.89 F360.0 E19755.778
G1 X52.4 Y48.88 Z0.89 F360.0 E19756.36
G1 X8.36 Y48.88 Z0.89 F360.0 E19811.45
G1 X8.36 Y49.35 Z0.89 F360.0 E19812.033
G1 X52.4 Y49.35 Z0.89 F360.0 E19867.123
G1 X50.3 Y50.75 Z0.89 F360.0 E19870.273
G1 X10.45 Y50.75 Z0.89 F360.0 E19920.122
G1 X10.45 Y51.21 Z0.89 F360.0 E19920.703
G1 X50.3 Y51.21 Z0.89 F360.0 E19970.552
G1 X50.3 Y51.68 Z0.89 F360.0 E19971.135
G1 X10.45 Y51.68 Z0.89 F360.0 E20020.984
G1 X10.45 Y52.14 Z0.89 F360.0 E20021.565
G1 X48.21 Y52.14 Z0.89 F360.0 E20068.793
G1 X48.21 Y52.61 Z0.89 F360.0 E20069.376
G1 X12.55 Y52.61 Z0.89 F360.0 E20113.983
G1 X12.55 Y53.07 Z0.89 F360.0 E20114.565
G1 X48.21 Y53.07 Z0.89 F360.0 E20159.172
G1 X46.11 Y54.47 Z0.89 F360.0 E20162.322
G1 X14.64 Y54.47 Z0.89 F360.0 E20201.687
G1 X14.64 Y54.0 Z0.89 F360.0 E20202.27
G1 X46.11 Y54.0 Z0.89 F360.0 E20241.635
G1 X46.11 Y53.54 Z0.89 F360.0 E20242.217
G1 X12.55 Y53.54 Z0.89 F360.0 E20284.203
;M103
G1 X14.64 Y54.94 Z0.89 F360.0
;M101
G1 X44.02 Y54.94 Z0.89 F360.0 E20320.947
G1 X44.02 Y55.4 Z0.89 F360.0 E20321.529
G1 X16.74 Y55.4 Z0.89 F360.0 E20355.652
G1 X16.74 Y55.87 Z0.89 F360.0 E20356.235
G1 X41.92 Y55.87 Z0.89 F360.0 E20387.738
G1 X41.92 Y56.33 Z0.89 F360.0 E20388.32
G1 X18.83 Y56.33 Z0.89 F360.0 E20417.202
G1 X18.83 Y56.8 Z0.89 F360.0 E20417.785
G1 X39.83 Y56.8 Z0.89 F360.0 E20444.046
G1 X39.83 Y57.26 Z0.89 F360.0 E20444.627
G1 X20.93 Y57.26 Z0.89 F360.0 E20468.267
;M103
G1 X23.02 Y57.73 Z0.89 F360.0
;M101
G1 X37.73 Y57.73 Z0.89 F360.0 E20486.666
;M103
G1 X33.54 Y58.19 Z0.89 F360.0
;M101
G1 X27.21 Y58.19 Z0.89 F360.0 E20494.581
;M103
G1 X54.49 Y47.02 Z0.89 F360.0
;M101
G1 X6.26 Y47.02 Z0.89 F360.0 E20554.913
G1 X6.26 Y47.49 Z0.89 F360.0 E20555.496
G1 X52.4 Y47.49 Z0.89 F360.0 E20613.207
G1 X52.4 Y47.95 Z0.89 F360.0 E20613.789
G1 X6.26 Y47.95 Z0.89 F360.0 E20671.5
G1 X8.36 Y49.81 Z0.89 F360.0 E20675.006
G1 X50.3 Y49.81 Z0.89 F360.0 E20727.476
G1 X50.3 Y50.28 Z0.89 F360.0 E20728.059
G1 X8.36 Y50.28 Z0.89 F360.0 E20780.528
;M103
;M108 S7.881
G1 X22.38 Y17.64 Z1.2 F2880.0
;M101
G1 X17.14 Y12.4 Z1.2 F288.0 E20792.695
;M103
G1 X17.78 Y13.64 Z1.2 F2880.0
;M101
G1 X23.94 Y19.79 Z1.2 F288.0 E20806.98
;M103
G1 X22.22 Y20.44 Z1.2 F2880.0
;M101
G1 X27.39 Y25.62 Z1.2 F288.0 E20819.007
;M103
G1 X32.88 Y25.77 Z1.2 F2880.0
;M101
G1 X29.86 Y22.76 Z1.2 F288.0 E20826.007
G1 X29.27 Y22.76 Z1.2 F288.0 E20826.979
G1 X31.69 Y25.17 Z1.2 F288.0 E20832.59
G1 X30.89 Y24.96 Z1.2 F288.0 E20833.949
G1 X28.76 Y22.84 Z1.2 F288.0 E20838.882
G1 X28.29 Y22.96 Z1.2 F288.0 E20839.681
G1 X30.23 Y24.9 Z1.2 F288.0 E20844.193
G1 X29.64 Y24.9 Z1.2 F288.0 E20845.165
G1 X27.82 Y23.08 Z1.2 F288.0 E20849.398
G1 X27.35 Y23.2 Z1.2 F288.0 E20850.198
G1 X29.11 Y24.96 Z1.2 F288.0 E20854.293
G1 X28.64 Y25.09 Z1.2 F288.0 E20855.088
G1 X26.88 Y23.32 Z1.2 F288.0 E20859.188
;M103
G1 X25.49 Y21.93 Z1.2 F2880.0
;M101
G1 X17.9 Y14.35 Z1.2 F288.0 E20876.8
G1 X17.59 Y14.63 Z1.2 F288.0 E20877.488
G1 X28.17 Y25.21 Z1.2 F288.0 E20902.054
G1 X27.77 Y25.4 Z1.2 F288.0 E20902.782
G1 X17.28 Y14.91 Z1.2 F288.0 E20927.149
G1 X16.97 Y15.19 Z1.2 F288.0 E20927.837
G1 X18.86 Y17.09 Z1.2 F288.0 E20932.244
G1 X18.24 Y17.06 Z1.2 F288.0 E20933.268
G1 X16.66 Y15.47 Z1.2 F288.0 E20936.953
G1 X16.34 Y15.75 Z1.2 F288.0 E20937.643
G1 X17.89 Y17.3 Z1.2 F288.0 E20941.232
G1 X17.61 Y17.61 Z1.2 F288.0 E20941.92
G1 X16.03 Y16.03 Z1.2 F288.0 E20945.58
G1 X15.72 Y16.31 Z1.2 F288.0 E20946.268
G1 X17.33 Y17.92 Z1.2 F288.0 E20949.997
G1 X17.04 Y18.23 Z1.2 F288.0 E20950.686
G1 X14.86 Y16.05 Z1.2 F288.0 E20955.753
G1 X14.14 Y15.92 Z1.2 F288.0 E20956.954
G1 X16.76 Y18.54 Z1.2 F288.0 E20963.037
G1 X16.48 Y18.85 Z1.2 F288.0 E20963.725
G1 X14.88 Y17.25 Z1.2 F288.0 E20967.432
G1 X14.63 Y17.59 Z1.2 F288.0 E20968.128
G1 X16.2 Y19.16 Z1.2 F288.0 E20971.757
G1 X15.93 Y19.48 Z1.2 F288.0 E20972.448
G1 X14.38 Y17.94 Z1.2 F288.0 E20976.042
G1 X14.13 Y18.28 Z1.2 F288.0 E20976.736
G1 X15.7 Y19.85 Z1.2 F288.0 E20980.375
G1 X15.47 Y20.21 Z1.2 F288.0 E20981.08
G1 X13.88 Y18.62 Z1.2 F288.0 E20984.765
G1 X13.63 Y18.97 Z1.2 F288.0 E20985.461
G1 X15.24 Y20.57 Z1.2 F288.0 E20989.19
G1 X15.01 Y20.93 Z1.2 F288.0 E20989.894
G1 X13.38 Y19.31 Z1.2 F288.0 E20993.669
G1 X13.14 Y19.65 Z1.2 F288.0 E20994.365
G1 X14.78 Y21.3 Z1.2 F288.0 E20998.184
G1 X14.55 Y21.66 Z1.2 F288.0 E20998.889
G1 X12.46 Y19.56 Z1.2 F288.0 E21003.753
G1 X11.48 Y19.18 Z1.2 F288.0 E21005.477
;M103
G1 X12.22 Y19.92 Z1.2 F2880.0
;M101
G1 X14.34 Y22.05 Z1.2 F288.0 E21010.408
G1 X14.17 Y22.46 Z1.2 F288.0 E21011.152
G1 X12.51 Y20.8 Z1.2 F288.0 E21015.015
G1 X12.32 Y21.21 Z1.2 F288.0 E21015.751
G1 X13.99 Y22.88 Z1.2 F288.0 E21019.632
G1 X13.82 Y23.3 Z1.2 F288.0 E21020.375
G1 X12.14 Y21.62 Z1.2 F288.0 E21024.272
G1 X11.96 Y22.03 Z1.2 F288.0 E21025.008
G1 X13.64 Y23.71 Z1.2 F288.0 E21028.924
G1 X13.47 Y24.13 Z1.2 F288.0 E21029.667
G1 X11.77 Y22.44 Z1.2 F288.0 E21033.6
G1 X11.59 Y22.85 Z1.2 F288.0 E21034.336
G1 X13.29 Y24.55 Z1.2 F288.0 E21038.287
G1 X13.18 Y25.02 Z1.2 F288.0 E21039.091
G1 X11.41 Y23.26 Z1.2 F288.0 E21043.197
G1 X11.07 Y23.51 Z1.2 F288.0 E21043.893
G1 X13.06 Y25.5 Z1.2 F288.0 E21048.534
G1 X12.95 Y25.98 Z1.2 F288.0 E21049.344
G1 X10.35 Y23.39 Z1.2 F288.0 E21055.375
G1 X10.14 Y23.76 Z1.2 F288.0 E21056.086
G1 X9.64 Y23.27 Z1.2 F288.0 E21057.233
;M103
G1 X10.98 Y24.61 Z1.2 F2880.0
;M101
G1 X12.84 Y26.46 Z1.2 F288.0 E21061.55
G1 X12.73 Y26.94 Z1.2 F288.0 E21062.359
G1 X10.88 Y25.09 Z1.2 F288.0 E21066.656
G1 X10.77 Y25.58 Z1.2 F288.0 E21067.475
G1 X12.61 Y27.42 Z1.2 F288.0 E21071.752
G1 X12.58 Y27.98 Z1.2 F288.0 E21072.666
G1 X10.67 Y26.07 Z1.2 F288.0 E21077.098
G1 X10.56 Y26.56 Z1.2 F288.0 E21077.919
G1 X12.54 Y28.54 Z1.2 F288.0 E21082.512
G1 X12.51 Y29.09 Z1.2 F288.0 E21083.428
G1 X10.46 Y27.05 Z1.2 F288.0 E21088.181
G1 X10.36 Y27.54 Z1.2 F288.0 E21089.002
G1 X12.47 Y29.65 Z1.2 F288.0 E21093.915
G1 X12.44 Y30.21 Z1.2 F288.0 E21094.832
G1 X9.82 Y27.6 Z1.2 F288.0 E21100.897
G1 X9.8 Y28.16 Z1.2 F288.0 E21101.828
G1 X9.26 Y27.62 Z1.2 F288.0 E21103.087
G1 X9.0 Y27.96 Z1.2 F288.0 E21103.781
G1 X8.69 Y27.65 Z1.2 F288.0 E21104.5
G1 X8.2 Y27.75 Z1.2 F288.0 E21105.322
G1 X8.13 Y27.68 Z1.2 F288.0 E21105.487
;M103
G1 X10.28 Y28.64 Z1.2 F2880.0
;M101
G1 X12.48 Y30.84 Z1.2 F288.0 E21110.602
G1 X12.55 Y31.51 Z1.2 F288.0 E21111.702
G1 X10.28 Y29.23 Z1.2 F288.0 E21116.99
G1 X10.28 Y29.82 Z1.2 F288.0 E21117.961
G1 X12.63 Y32.18 Z1.2 F288.0 E21123.423
G1 X12.7 Y32.84 Z1.2 F288.0 E21124.523
G1 X10.27 Y30.42 Z1.2 F288.0 E21130.159
G1 X10.27 Y31.01 Z1.2 F288.0 E21131.131
G1 X15.23 Y35.96 Z1.2 F288.0 E21142.632
G1 X15.67 Y35.81 Z1.2 F288.0 E21143.403
G1 X13.92 Y34.06 Z1.2 F288.0 E21147.469
G1 X14.37 Y33.92 Z1.2 F288.0 E21148.242
G1 X16.12 Y35.67 Z1.2 F288.0 E21152.305
G1 X16.57 Y35.52 Z1.2 F288.0 E21153.076
G1 X14.82 Y33.77 Z1.2 F288.0 E21157.136
G1 X15.27 Y33.63 Z1.2 F288.0 E21157.909
G1 X17.01 Y35.38 Z1.2 F288.0 E21161.965
G1 X17.46 Y35.23 Z1.2 F288.0 E21162.737
G1 X15.71 Y33.49 Z1.2 F288.0 E21166.79
G1 X16.16 Y33.34 Z1.2 F288.0 E21167.564
G1 X17.91 Y35.08 Z1.2 F288.0 E21171.613
G1 X18.35 Y34.94 Z1.2 F288.0 E21172.385
G1 X16.61 Y33.2 Z1.2 F288.0 E21176.433
G1 X17.06 Y33.05 Z1.2 F288.0 E21177.204
G1 X18.8 Y34.79 Z1.2 F288.0 E21181.249
G1 X19.25 Y34.65 Z1.2 F288.0 E21182.021
G1 X17.5 Y32.91 Z1.2 F288.0 E21186.064
G1 X17.95 Y32.76 Z1.2 F288.0 E21186.836
G1 X19.69 Y34.5 Z1.2 F288.0 E21190.874
G1 X20.14 Y34.35 Z1.2 F288.0 E21191.646
G1 X18.4 Y32.62 Z1.2 F288.0 E21195.682
G1 X18.85 Y32.47 Z1.2 F288.0 E21196.455
G1 X20.58 Y34.21 Z1.2 F288.0 E21200.487
G1 X21.03 Y34.06 Z1.2 F288.0 E21201.259
G1 X19.3 Y32.33 Z1.2 F288.0 E21205.289
G1 X19.74 Y32.18 Z1.2 F288.0 E21206.062
G1 X21.48 Y33.92 Z1.2 F288.0 E21210.088
G1 X21.92 Y33.77 Z1.2 F288.0 E21210.859
G1 X20.19 Y32.04 Z1.2 F288.0 E21214.88
G1 X20.64 Y31.89 Z1.2 F288.0 E21215.653
G1 X22.37 Y33.63 Z1.2 F288.0 E21219.673
G1 X22.82 Y33.48 Z1.2 F288.0 E21220.443
G1 X21.09 Y31.75 Z1.2 F288.0 E21224.459
G1 X21.53 Y31.61 Z1.2 F288.0 E21225.23
G1 X25.92 Y35.99 Z1.2 F288.0 E21235.419
G1 X27.21 Y36.69 Z1.2 F288.0 E21237.82
;M103
G1 X31.79 Y42.12 Z1.2 F3600.0
G1 X31.85 Y46.38 Z1.2 F3600.0
G1 X32.2 Y46.66 Z1.2 F3600.0
G1 X37.61 Y48.27 Z1.2 F2880.0
;M101
G1 X35.86 Y46.52 Z1.2 F288.0 E21241.888
G1 X35.43 Y46.69 Z1.2 F288.0 E21242.637
G1 X37.16 Y48.42 Z1.2 F288.0 E21246.651
G1 X36.71 Y48.56 Z1.2 F288.0 E21247.424
G1 X35.0 Y46.85 Z1.2 F288.0 E21251.409
G1 X34.51 Y46.95 Z1.2 F288.0 E21252.232
G1 X36.27 Y48.71 Z1.2 F288.0 E21256.319
G1 X35.82 Y48.85 Z1.2 F288.0 E21257.092
G1 X34.02 Y47.05 Z1.2 F288.0 E21261.278
G1 X33.52 Y47.15 Z1.2 F288.0 E21262.101
G1 X35.37 Y49.0 Z1.2 F288.0 E21266.39
G1 X34.92 Y49.14 Z1.2 F288.0 E21267.163
G1 X33.03 Y47.25 Z1.2 F288.0 E21271.551
G1 X32.54 Y47.35 Z1.2 F288.0 E21272.373
G1 X34.48 Y49.29 Z1.2 F288.0 E21276.862
G1 X34.51 Y49.91 Z1.2 F288.0 E21277.883
G1 X28.9 Y44.3 Z1.2 F288.0 E21290.898
G1 X28.9 Y43.71 Z1.2 F288.0 E21291.87
G1 X31.1 Y45.91 Z1.2 F288.0 E21296.984
G1 X31.1 Y45.32 Z1.2 F288.0 E21297.959
G1 X28.9 Y43.12 Z1.2 F288.0 E21303.067
G1 X28.9 Y42.53 Z1.2 F288.0 E21304.038
G1 X31.1 Y44.73 Z1.2 F288.0 E21309.141
G1 X31.1 Y44.13 Z1.2 F288.0 E21310.117
G1 X28.9 Y41.94 Z1.2 F288.0 E21315.216
G1 X28.91 Y41.35 Z1.2 F288.0 E21316.186
G1 X31.1 Y43.54 Z1.2 F288.0 E21321.28
G1 X31.1 Y42.95 Z1.2 F288.0 E21322.254
G1 X28.91 Y40.75 Z1.2 F288.0 E21327.344
G1 X28.91 Y40.16 Z1.2 F288.0 E21328.316
G1 X31.1 Y42.35 Z1.2 F288.0 E21333.401
G1 X31.1 Y41.76 Z1.2 F288.0 E21334.375
G1 X28.91 Y39.57 Z1.2 F288.0 E21339.455
G1 X28.91 Y38.98 Z1.2 F288.0 E21340.427
G1 X31.1 Y41.17 Z1.2 F288.0 E21345.503
G1 X31.09 Y40.57 Z1.2 F288.0 E21346.476
G1 X28.91 Y38.39 Z1.2 F288.0 E21351.548
G1 X28.91 Y37.8 Z1.2 F288.0 E21352.518
G1 X31.09 Y39.98 Z1.2 F288.0 E21357.585
G1 X31.09 Y39.39 Z1.2 F288.0 E21358.56
G1 X22.68 Y30.97 Z1.2 F288.0 E21378.097
G1 X22.43 Y31.32 Z1.2 F288.0 E21378.794
G1 X28.19 Y37.08 Z1.2 F288.0 E21392.171
;M103
G1 X28.71 Y36.41 Z1.2 F2880.0
;M101
G1 X31.09 Y38.79 Z1.2 F288.0 E21397.704
G1 X31.09 Y38.2 Z1.2 F288.0 E21398.68
G1 X29.3 Y36.41 Z1.2 F288.0 E21402.834
G1 X29.89 Y36.41 Z1.2 F288.0 E21403.806
G1 X31.09 Y37.6 Z1.2 F288.0 E21406.583
G1 X31.34 Y37.26 Z1.2 F288.0 E21407.278
G1 X30.49 Y36.41 Z1.2 F288.0 E21409.26
G1 X31.08 Y36.41 Z1.2 F288.0 E21410.232
G1 X31.76 Y37.1 Z1.2 F288.0 E21411.825
G1 X32.19 Y36.93 Z1.2 F288.0 E21412.574
G1 X31.67 Y36.41 Z1.2 F288.0 E21413.777
G1 X31.81 Y35.96 Z1.2 F288.0 E21414.55
G1 X32.61 Y36.76 Z1.2 F288.0 E21416.404
G1 X33.04 Y36.59 Z1.2 F288.0 E21417.153
G1 X31.81 Y35.37 Z1.2 F288.0 E21419.992
G1 X31.81 Y34.78 Z1.2 F288.0 E21420.965
G1 X33.46 Y36.42 Z1.2 F288.0 E21424.79
G1 X33.82 Y36.18 Z1.2 F288.0 E21425.491
G1 X32.25 Y34.62 Z1.2 F288.0 E21429.125
G1 X32.61 Y34.39 Z1.2 F288.0 E21429.827
G1 X34.16 Y35.94 Z1.2 F288.0 E21433.423
G1 X34.5 Y35.69 Z1.2 F288.0 E21434.119
G1 X32.97 Y34.15 Z1.2 F288.0 E21437.683
G1 X33.32 Y33.92 Z1.2 F288.0 E21438.384
G1 X34.84 Y35.44 Z1.2 F288.0 E21441.917
G1 X35.15 Y35.15 Z1.2 F288.0 E21442.604
G1 X33.61 Y33.61 Z1.2 F288.0 E21446.168
G1 X33.89 Y33.3 Z1.2 F288.0 E21446.857
G1 X35.41 Y34.82 Z1.2 F288.0 E21450.394
G1 X35.68 Y34.5 Z1.2 F288.0 E21451.084
G1 X34.17 Y32.99 Z1.2 F288.0 E21454.595
G1 X34.39 Y32.61 Z1.2 F288.0 E21455.305
G1 X35.95 Y34.17 Z1.2 F288.0 E21458.932
G1 X36.22 Y33.85 Z1.2 F288.0 E21459.623
G1 X34.59 Y32.22 Z1.2 F288.0 E21463.405
G1 X34.79 Y31.83 Z1.2 F288.0 E21464.128
G1 X36.49 Y33.53 Z1.2 F288.0 E21468.069
G1 X36.96 Y33.41 Z1.2 F288.0 E21468.87
G1 X34.92 Y31.36 Z1.2 F288.0 E21473.612
G1 X35.03 Y30.88 Z1.2 F288.0 E21474.426
G1 X37.84 Y33.69 Z1.2 F288.0 E21480.96
G1 X38.72 Y33.98 Z1.2 F288.0 E21482.48
G1 X35.12 Y30.38 Z1.2 F288.0 E21490.853
G1 X35.09 Y29.76 Z1.2 F288.0 E21491.863
G1 X39.6 Y34.27 Z1.2 F288.0 E21502.332
G1 X40.48 Y34.56 Z1.2 F288.0 E21503.852
G1 X35.07 Y29.14 Z1.2 F288.0 E21516.427
G1 X34.81 Y28.29 Z1.2 F288.0 E21517.881
G1 X37.31 Y30.79 Z1.2 F288.0 E21523.687
G1 X37.27 Y30.16 Z1.2 F288.0 E21524.727
G1 X34.19 Y27.08 Z1.2 F288.0 E21531.874
;M103
G1 X30.46 Y22.76 Z1.2 F2880.0
;M101
G1 X37.23 Y29.53 Z1.2 F288.0 E21547.603
G1 X37.19 Y28.9 Z1.2 F288.0 E21548.644
G1 X31.1 Y22.8 Z1.2 F288.0 E21562.793
G1 X31.89 Y23.01 Z1.2 F288.0 E21564.142
G1 X37.01 Y28.12 Z1.2 F288.0 E21576.021
G1 X36.72 Y27.25 Z1.2 F288.0 E21577.535
G1 X32.69 Y23.21 Z1.2 F288.0 E21586.907
G1 X33.46 Y23.39 Z1.2 F288.0 E21588.208
G1 X35.99 Y25.92 Z1.2 F288.0 E21594.094
;M103
G1 X35.27 Y24.6 Z1.2 F2880.0
;M101
G1 X33.71 Y23.05 Z1.2 F288.0 E21597.712
G1 X33.96 Y22.7 Z1.2 F288.0 E21598.408
G1 X35.52 Y24.26 Z1.2 F288.0 E21602.03
G1 X35.77 Y23.92 Z1.2 F288.0 E21602.727
G1 X34.21 Y22.36 Z1.2 F288.0 E21606.352
G1 X34.45 Y22.01 Z1.2 F288.0 E21607.048
G1 X36.02 Y23.58 Z1.2 F288.0 E21610.675
G1 X36.27 Y23.23 Z1.2 F288.0 E21611.37
G1 X34.7 Y21.67 Z1.2 F288.0 E21614.999
G1 X34.95 Y21.33 Z1.2 F288.0 E21615.693
G1 X36.52 Y22.89 Z1.2 F288.0 E21619.324
G1 X36.77 Y22.55 Z1.2 F288.0 E21620.019
G1 X35.2 Y20.98 Z1.2 F288.0 E21623.653
G1 X35.45 Y20.64 Z1.2 F288.0 E21624.351
G1 X37.02 Y22.21 Z1.2 F288.0 E21627.987
G1 X37.27 Y21.86 Z1.2 F288.0 E21628.682
G1 X35.7 Y20.3 Z1.2 F288.0 E21632.321
G1 X35.95 Y19.95 Z1.2 F288.0 E21633.017
G1 X37.51 Y21.52 Z1.2 F288.0 E21636.658
G1 X37.76 Y21.18 Z1.2 F288.0 E21637.355
G1 X36.2 Y19.61 Z1.2 F288.0 E21640.998
G1 X36.44 Y19.27 Z1.2 F288.0 E21641.694
G1 X38.01 Y20.84 Z1.2 F288.0 E21645.339
G1 X38.26 Y20.49 Z1.2 F288.0 E21646.036
G1 X36.69 Y18.92 Z1.2 F288.0 E21649.684
G1 X36.94 Y18.58 Z1.2 F288.0 E21650.38
G1 X38.51 Y20.15 Z1.2 F288.0 E21654.033
G1 X38.76 Y19.81 Z1.2 F288.0 E21654.729
G1 X37.19 Y18.23 Z1.2 F288.0 E21658.381
G1 X37.44 Y17.89 Z1.2 F288.0 E21659.078
G1 X39.01 Y19.47 Z1.2 F288.0 E21662.734
G1 X39.26 Y19.12 Z1.2 F288.0 E21663.431
G1 X37.69 Y17.55 Z1.2 F288.0 E21667.089
G1 X37.94 Y17.2 Z1.2 F288.0 E21667.784
G1 X39.51 Y18.78 Z1.2 F288.0 E21671.445
G1 X39.76 Y18.44 Z1.2 F288.0 E21672.14
G1 X38.19 Y16.86 Z1.2 F288.0 E21675.805
G1 X38.43 Y16.52 Z1.2 F288.0 E21676.5
G1 X40.01 Y18.09 Z1.2 F288.0 E21680.164
G1 X40.26 Y17.75 Z1.2 F288.0 E21680.86
G1 X38.68 Y16.17 Z1.2 F288.0 E21684.528
G1 X38.93 Y15.83 Z1.2 F288.0 E21685.224
G1 X40.51 Y17.41 Z1.2 F288.0 E21688.895
G1 X40.8 Y17.11 Z1.2 F288.0 E21689.582
G1 X38.74 Y15.04 Z1.2 F288.0 E21694.373
;M103
G1 X38.18 Y14.49 Z1.2 F2880.0
;M101
G1 X33.9 Y10.2 Z1.2 F288.0 E21704.314
G1 X33.66 Y10.55 Z1.2 F288.0 E21705.012
G1 X37.1 Y14.0 Z1.2 F288.0 E21713.009
;M103
G1 X36.02 Y13.51 Z1.2 F2880.0
;M101
G1 X32.99 Y10.48 Z1.2 F288.0 E21720.034
G1 X32.33 Y10.41 Z1.2 F288.0 E21721.129
G1 X35.16 Y13.24 Z1.2 F288.0 E21727.702
G1 X34.36 Y13.04 Z1.2 F288.0 E21729.053
G1 X31.67 Y10.34 Z1.2 F288.0 E21735.313
G1 X31.0 Y10.27 Z1.2 F288.0 E21736.408
G1 X33.57 Y12.83 Z1.2 F288.0 E21742.357
G1 X32.8 Y12.66 Z1.2 F288.0 E21743.646
G1 X29.73 Y9.59 Z1.2 F288.0 E21750.768
G1 X29.81 Y9.08 Z1.2 F288.0 E21751.623
G1 X30.26 Y9.52 Z1.2 F288.0 E21752.655
G1 X30.15 Y8.82 Z1.2 F288.0 E21753.812
G1 X29.89 Y8.56 Z1.2 F288.0 E21754.423
G1 X30.05 Y8.13 Z1.2 F288.0 E21755.182
G1 X29.97 Y8.05 Z1.2 F288.0 E21755.371
;M103
G1 X29.66 Y10.11 Z1.2 F2880.0
;M101
G1 X32.15 Y12.6 Z1.2 F288.0 E21761.169
G1 X31.51 Y12.55 Z1.2 F288.0 E21762.235
G1 X29.21 Y10.25 Z1.2 F288.0 E21767.574
G1 X28.67 Y10.31 Z1.2 F288.0 E21768.461
G1 X30.86 Y12.5 Z1.2 F288.0 E21773.543
G1 X30.21 Y12.44 Z1.2 F288.0 E21774.609
G1 X28.13 Y10.36 Z1.2 F288.0 E21779.436
G1 X27.6 Y10.42 Z1.2 F288.0 E21780.322
G1 X29.63 Y12.45 Z1.2 F288.0 E21785.05
G1 X29.09 Y12.5 Z1.2 F288.0 E21785.949
G1 X27.06 Y10.47 Z1.2 F288.0 E21790.654
G1 X26.52 Y10.53 Z1.2 F288.0 E21791.54
G1 X28.54 Y12.55 Z1.2 F288.0 E21796.221
G1 X27.99 Y12.59 Z1.2 F288.0 E21797.121
G1 X25.5 Y10.09 Z1.2 F288.0 E21802.923
G1 X26.04 Y10.05 Z1.2 F288.0 E21803.824
G1 X25.46 Y9.46 Z1.2 F288.0 E21805.183
G1 X25.69 Y9.1 Z1.2 F288.0 E21805.887
G1 X25.42 Y8.83 Z1.2 F288.0 E21806.51
;M103
G1 X25.53 Y10.72 Z1.2 F2880.0
;M101
G1 X27.45 Y12.64 Z1.2 F288.0 E21810.976
G1 X26.92 Y12.71 Z1.2 F288.0 E21811.843
G1 X25.08 Y10.86 Z1.2 F288.0 E21816.132
G1 X24.63 Y11.01 Z1.2 F288.0 E21816.904
G1 X26.45 Y12.83 Z1.2 F288.0 E21821.137
G1 X25.98 Y12.95 Z1.2 F288.0 E21821.937
G1 X24.18 Y11.15 Z1.2 F288.0 E21826.114
G1 X23.74 Y11.3 Z1.2 F288.0 E21826.885
G1 X25.51 Y13.07 Z1.2 F288.0 E21831.007
G1 X25.04 Y13.19 Z1.2 F288.0 E21831.805
G1 X23.29 Y11.44 Z1.2 F288.0 E21835.873
G1 X22.84 Y11.58 Z1.2 F288.0 E21836.645
G1 X24.57 Y13.31 Z1.2 F288.0 E21840.656
G1 X24.11 Y13.45 Z1.2 F288.0 E21841.436
G1 X21.2 Y10.54 Z1.2 F288.0 E21848.202
G1 X21.42 Y11.35 Z1.2 F288.0 E21849.597
G1 X23.7 Y13.63 Z1.2 F288.0 E21854.89
G1 X23.3 Y13.82 Z1.2 F288.0 E21855.626
G1 X21.57 Y12.09 Z1.2 F288.0 E21859.634
G1 X21.19 Y12.31 Z1.2 F288.0 E21860.346
G1 X22.89 Y14.0 Z1.2 F288.0 E21864.279
G1 X22.48 Y14.19 Z1.2 F288.0 E21865.014
G1 X20.82 Y12.53 Z1.2 F288.0 E21868.874
G1 X20.44 Y12.74 Z1.2 F288.0 E21869.586
G1 X22.07 Y14.37 Z1.2 F288.0 E21873.37
G1 X21.66 Y14.56 Z1.2 F288.0 E21874.106
G1 X20.07 Y12.96 Z1.2 F288.0 E21877.818
G1 X19.69 Y13.17 Z1.2 F288.0 E21878.53
G1 X21.33 Y14.81 Z1.2 F288.0 E21882.327
G1 X21.2 Y15.28 Z1.2 F288.0 E21883.12
G1 X19.31 Y13.39 Z1.2 F288.0 E21887.5
G1 X18.94 Y13.61 Z1.2 F288.0 E21888.212
G1 X21.08 Y15.74 Z1.2 F288.0 E21893.176
;M103
G1 X23.49 Y22.9 Z1.2 F2880.0
;M101
G1 X26.7 Y26.1 Z1.2 F288.0 E21900.62
G1 X27.02 Y25.83 Z1.2 F288.0 E21901.31
G1 X21.9 Y20.71 Z1.2 F288.0 E21913.198
G1 X20.3 Y18.52 Z1.2 F288.0 E21917.643
;M103
G1 X23.84 Y24.71 Z1.2 F3600.0
G1 X25.72 Y32.83 Z1.2 F2880.0
;M101
G1 X22.75 Y29.86 Z1.2 F288.0 E21924.551
G1 X22.79 Y29.3 Z1.2 F288.0 E21925.467
G1 X25.15 Y31.67 Z1.2 F288.0 E21930.955
G1 X24.98 Y30.9 Z1.2 F288.0 E21932.239
G1 X22.82 Y28.74 Z1.2 F288.0 E21937.25
G1 X22.94 Y28.27 Z1.2 F288.0 E21938.047
G1 X24.89 Y30.22 Z1.2 F288.0 E21942.571
G1 X24.91 Y29.65 Z1.2 F288.0 E21943.509
G1 X23.09 Y27.83 Z1.2 F288.0 E21947.744
G1 X23.23 Y27.38 Z1.2 F288.0 E21948.515
G1 X24.95 Y29.1 Z1.2 F288.0 E21952.499
G1 X25.09 Y28.64 Z1.2 F288.0 E21953.279
G1 X23.38 Y26.93 Z1.2 F288.0 E21957.244
G1 X23.6 Y26.56 Z1.2 F288.0 E21957.953
G1 X25.22 Y28.19 Z1.2 F288.0 E21961.719
G1 X25.39 Y27.76 Z1.2 F288.0 E21962.466
G1 X23.83 Y26.2 Z1.2 F288.0 E21966.094
G1 X24.06 Y25.84 Z1.2 F288.0 E21966.799
G1 X25.62 Y27.4 Z1.2 F288.0 E21970.414
G1 X25.84 Y27.03 Z1.2 F288.0 E21971.121
G1 X24.29 Y25.48 Z1.2 F288.0 E21974.725
G1 X24.52 Y25.11 Z1.2 F288.0 E21975.43
G1 X26.09 Y26.69 Z1.2 F288.0 E21979.083
G1 X26.4 Y26.4 Z1.2 F288.0 E21979.77
G1 X24.75 Y24.75 Z1.2 F288.0 E21983.59
;M103
G1 X22.71 Y30.42 Z1.2 F2880.0
;M101
G1 X28.19 Y35.89 Z1.2 F288.0 E21996.298
G1 X28.19 Y35.3 Z1.2 F288.0 E21997.272
G1 X27.06 Y34.17 Z1.2 F288.0 E21999.893
;M103
G1 X26.18 Y35.65 Z1.2 F2880.0
;M101
G1 X21.98 Y31.46 Z1.2 F288.0 E22009.629
;M103
G1 X15.0 Y36.82 Z1.2 F3600.0
G1 X14.55 Y38.24 Z1.2 F2880.0
;M101
G1 X10.79 Y34.48 Z1.2 F288.0 E22018.364
G1 X10.63 Y33.73 Z1.2 F288.0 E22019.623
G1 X14.06 Y37.17 Z1.2 F288.0 E22027.599
G1 X14.23 Y36.74 Z1.2 F288.0 E22028.35
G1 X10.47 Y32.98 Z1.2 F288.0 E22037.079
G1 X9.89 Y31.81 Z1.2 F288.0 E22039.216
;M103
G1 X10.81 Y32.73 Z1.2 F2880.0
;M101
G1 X14.39 Y36.31 Z1.2 F288.0 E22047.526
G1 X14.78 Y36.11 Z1.2 F288.0 E22048.245
G1 X10.27 Y31.6 Z1.2 F288.0 E22058.71
G1 X9.42 Y31.93 Z1.2 F288.0 E22060.21
G1 X9.9 Y32.41 Z1.2 F288.0 E22061.307
G1 X9.28 Y32.38 Z1.2 F288.0 E22062.324
G1 X8.95 Y32.06 Z1.2 F288.0 E22063.077
G1 X8.66 Y32.35 Z1.2 F288.0 E22063.764
G1 X8.48 Y32.18 Z1.2 F288.0 E22064.168
;M103
G1 X9.7 Y33.2 Z1.2 F3600.0
G1 X10.94 Y35.23 Z1.2 F2880.0
;M101
G1 X15.33 Y39.62 Z1.2 F288.0 E22074.358
;M103
G1 X20.68 Y48.32 Z1.2 F3600.0
G1 X21.07 Y50.1 Z1.2 F2880.0
;M101
G1 X21.03 Y50.06 Z1.2 F288.0 E22074.451
G1 X21.31 Y49.75 Z1.2 F288.0 E22075.141
G1 X21.16 Y49.6 Z1.2 F288.0 E22075.487
G1 X21.29 Y49.13 Z1.2 F288.0 E22076.277
G1 X21.54 Y49.38 Z1.2 F288.0 E22076.86
G1 X21.77 Y49.02 Z1.2 F288.0 E22077.563
G1 X21.42 Y48.67 Z1.2 F288.0 E22078.384
G1 X21.55 Y48.2 Z1.2 F288.0 E22079.174
G1 X22.0 Y48.66 Z1.2 F288.0 E22080.233
G1 X22.23 Y48.3 Z1.2 F288.0 E22080.937
G1 X20.82 Y47.48 Z1.2 F288.0 E22083.615
G1 X12.47 Y39.13 Z1.2 F288.0 E22103.011
;M103
G1 X12.35 Y37.82 Z1.2 F2880.0
;M101
G1 X22.99 Y48.46 Z1.2 F288.0 E22127.721
G1 X23.87 Y48.75 Z1.2 F288.0 E22129.241
G1 X10.95 Y35.83 Z1.2 F288.0 E22159.236
G1 X10.56 Y36.03 Z1.2 F288.0 E22159.961
G1 X11.03 Y36.5 Z1.2 F288.0 E22161.058
G1 X10.52 Y36.59 Z1.2 F288.0 E22161.904
G1 X10.16 Y36.23 Z1.2 F288.0 E22162.74
G1 X9.77 Y36.42 Z1.2 F288.0 E22163.465
G1 X10.01 Y36.67 Z1.2 F288.0 E22164.038
G1 X9.51 Y36.76 Z1.2 F288.0 E22164.884
G1 X9.37 Y36.62 Z1.2 F288.0 E22165.195
;M103
G1 X10.8 Y37.35 Z1.2 F3600.0
G1 X21.08 Y47.15 Z1.2 F2880.0
;M101
G1 X12.0 Y38.06 Z1.2 F288.0 E22186.288
G1 X11.52 Y36.99 Z1.2 F288.0 E22188.203
;M103
G1 X19.42 Y46.67 Z1.2 F2880.0
;M101
G1 X12.49 Y39.74 Z1.2 F288.0 E22204.289
G1 X12.16 Y40.0 Z1.2 F288.0 E22204.981
G1 X12.56 Y40.4 Z1.2 F288.0 E22205.903
G1 X12.13 Y40.56 Z1.2 F288.0 E22206.652
G1 X11.83 Y40.26 Z1.2 F288.0 E22207.353
G1 X11.5 Y40.53 Z1.2 F288.0 E22208.043
G1 X11.7 Y40.73 Z1.2 F288.0 E22208.52
G1 X11.28 Y40.9 Z1.2 F288.0 E22209.271
G1 X11.17 Y40.79 Z1.2 F288.0 E22209.527
;M103
G1 X12.75 Y41.18 Z1.2 F3600.0
G1 X14.8 Y42.64 Z1.2 F2880.0
;M101
G1 X16.98 Y44.82 Z1.2 F288.0 E22214.582
;M103
G1 X18.04 Y45.88 Z1.2 F2880.0
;M101
G1 X18.52 Y46.36 Z1.2 F288.0 E22215.705
G1 X18.23 Y46.66 Z1.2 F288.0 E22216.391
G1 X17.83 Y46.27 Z1.2 F288.0 E22217.302
G1 X17.63 Y46.66 Z1.2 F288.0 E22218.023
G1 X17.93 Y46.96 Z1.2 F288.0 E22218.722
G1 X17.64 Y47.26 Z1.2 F288.0 E22219.411
G1 X17.43 Y47.05 Z1.2 F288.0 E22219.9
G1 X17.23 Y47.44 Z1.2 F288.0 E22220.621
G1 X17.35 Y47.56 Z1.2 F288.0 E22220.897
;M103
G1 X18.79 Y47.23 Z1.2 F3600.0
G1 X24.75 Y49.04 Z1.2 F2880.0
;M101
G1 X20.34 Y44.63 Z1.2 F288.0 E22231.137
;M103
G1 X24.67 Y47.18 Z1.2 F2880.0
;M101
G1 X27.01 Y49.52 Z1.2 F288.0 E22236.575
G1 X26.35 Y49.45 Z1.2 F288.0 E22237.67
G1 X22.94 Y46.04 Z1.2 F288.0 E22245.576
G1 X21.84 Y45.53 Z1.2 F288.0 E22247.567
;M103
G1 X22.7 Y46.39 Z1.2 F2880.0
;M101
G1 X26.1 Y49.8 Z1.2 F288.0 E22255.471
G1 X25.94 Y50.23 Z1.2 F288.0 E22256.227
G1 X25.5 Y49.79 Z1.2 F288.0 E22257.242
G1 X25.47 Y50.35 Z1.2 F288.0 E22258.161
G1 X25.78 Y50.66 Z1.2 F288.0 E22258.879
G1 X25.44 Y50.91 Z1.2 F288.0 E22259.575
G1 X25.62 Y51.09 Z1.2 F288.0 E22259.997
G1 X25.4 Y51.47 Z1.2 F288.0 E22260.711
G1 X25.45 Y51.52 Z1.2 F288.0 E22260.831
;M103
G1 X26.77 Y50.3 Z1.2 F3600.0
G1 X29.0 Y49.73 Z1.2 F2880.0
;M101
G1 X26.4 Y47.13 Z1.2 F288.0 E22266.859
G1 X25.65 Y46.98 Z1.2 F288.0 E22268.112
G1 X28.33 Y49.66 Z1.2 F288.0 E22274.335
G1 X27.67 Y49.59 Z1.2 F288.0 E22275.428
G1 X24.9 Y46.82 Z1.2 F288.0 E22281.861
G1 X23.92 Y46.43 Z1.2 F288.0 E22283.591
;M103
G1 X33.48 Y49.47 Z1.2 F2880.0
;M101
G1 X28.9 Y44.89 Z1.2 F288.0 E22294.219
G1 X28.9 Y45.49 Z1.2 F288.0 E22295.191
G1 X32.94 Y49.53 Z1.2 F288.0 E22304.574
G1 X32.4 Y49.58 Z1.2 F288.0 E22305.459
G1 X28.9 Y46.08 Z1.2 F288.0 E22313.6
G1 X28.9 Y46.67 Z1.2 F288.0 E22314.57
G1 X31.87 Y49.64 Z1.2 F288.0 E22321.467
G1 X31.33 Y49.69 Z1.2 F288.0 E22322.352
G1 X28.61 Y46.97 Z1.2 F288.0 E22328.677
G1 X28.28 Y47.24 Z1.2 F288.0 E22329.368
G1 X30.79 Y49.75 Z1.2 F288.0 E22335.207
G1 X30.34 Y49.89 Z1.2 F288.0 E22335.981
G1 X27.89 Y47.44 Z1.2 F288.0 E22341.67
G1 X27.15 Y47.29 Z1.2 F288.0 E22342.923
G1 X30.27 Y50.41 Z1.2 F288.0 E22350.167
G1 X30.19 Y50.92 Z1.2 F288.0 E22351.022
G1 X29.75 Y50.48 Z1.2 F288.0 E22352.055
G1 X29.85 Y51.18 Z1.2 F288.0 E22353.212
G1 X30.11 Y51.44 Z1.2 F288.0 E22353.822
G1 X29.95 Y51.87 Z1.2 F288.0 E22354.581
G1 X30.04 Y51.95 Z1.2 F288.0 E22354.77
;M103
G1 X31.06 Y50.53 Z1.2 F3600.0
G1 X33.96 Y49.95 Z1.2 F2880.0
;M101
G1 X34.54 Y50.54 Z1.2 F288.0 E22356.129
G1 X34.31 Y50.9 Z1.2 F288.0 E22356.833
G1 X34.58 Y51.17 Z1.2 F288.0 E22357.456
;M103
G1 X35.3 Y49.86 Z1.2 F3600.0
G1 X41.87 Y46.61 Z1.2 F2880.0
;M101
G1 X39.8 Y44.54 Z1.2 F288.0 E22362.268
G1 X39.43 Y44.76 Z1.2 F288.0 E22362.975
G1 X41.06 Y46.39 Z1.2 F288.0 E22366.758
G1 X40.69 Y46.61 Z1.2 F288.0 E22367.471
G1 X39.06 Y44.99 Z1.2 F288.0 E22371.237
G1 X38.7 Y45.21 Z1.2 F288.0 E22371.945
G1 X40.31 Y46.83 Z1.2 F288.0 E22375.695
G1 X39.93 Y47.04 Z1.2 F288.0 E22376.408
G1 X38.33 Y45.44 Z1.2 F288.0 E22380.141
G1 X37.96 Y45.66 Z1.2 F288.0 E22380.849
G1 X39.56 Y47.26 Z1.2 F288.0 E22384.567
G1 X39.18 Y47.48 Z1.2 F288.0 E22385.279
G1 X37.55 Y45.85 Z1.2 F288.0 E22389.059
G1 X37.13 Y46.02 Z1.2 F288.0 E22389.808
G1 X38.81 Y47.69 Z1.2 F288.0 E22393.7
G1 X38.43 Y47.91 Z1.2 F288.0 E22394.412
G1 X36.71 Y46.18 Z1.2 F288.0 E22398.418
G1 X36.28 Y46.35 Z1.2 F288.0 E22399.166
G1 X38.58 Y48.65 Z1.2 F288.0 E22404.495
G1 X38.0 Y48.66 Z1.2 F288.0 E22405.442
G1 X38.8 Y49.47 Z1.2 F288.0 E22407.304
;M103
G1 X39.32 Y48.32 Z1.2 F3600.0
G1 X47.55 Y40.44 Z1.2 F2880.0
;M101
G1 X45.42 Y38.31 Z1.2 F288.0 E22412.248
G1 X45.2 Y38.69 Z1.2 F288.0 E22412.962
G1 X46.87 Y40.35 Z1.2 F288.0 E22416.826
G1 X46.62 Y40.69 Z1.2 F288.0 E22417.522
G1 X44.99 Y39.06 Z1.2 F288.0 E22421.307
G1 X44.77 Y39.44 Z1.2 F288.0 E22422.021
G1 X46.37 Y41.04 Z1.2 F288.0 E22425.724
G1 X46.12 Y41.38 Z1.2 F288.0 E22426.42
G1 X44.56 Y39.82 Z1.2 F288.0 E22430.045
G1 X44.32 Y40.17 Z1.2 F288.0 E22430.746
G1 X45.87 Y41.72 Z1.2 F288.0 E22434.345
G1 X45.62 Y42.06 Z1.2 F288.0 E22435.04
G1 X44.05 Y40.49 Z1.2 F288.0 E22438.682
G1 X43.78 Y40.82 Z1.2 F288.0 E22439.372
G1 X45.37 Y42.41 Z1.2 F288.0 E22443.057
G1 X45.12 Y42.75 Z1.2 F288.0 E22443.753
G1 X43.51 Y41.14 Z1.2 F288.0 E22447.482
G1 X43.25 Y41.47 Z1.2 F288.0 E22448.174
G1 X45.86 Y44.08 Z1.2 F288.0 E22454.246
G1 X45.14 Y43.96 Z1.2 F288.0 E22455.446
G1 X42.98 Y41.79 Z1.2 F288.0 E22460.469
G1 X42.71 Y42.12 Z1.2 F288.0 E22461.159
G1 X44.28 Y43.69 Z1.2 F288.0 E22464.81
G1 X43.97 Y43.97 Z1.2 F288.0 E22465.499
G1 X42.42 Y42.42 Z1.2 F288.0 E22469.1
G1 X42.1 Y42.69 Z1.2 F288.0 E22469.789
G1 X43.66 Y44.25 Z1.2 F288.0 E22473.402
G1 X43.35 Y44.53 Z1.2 F288.0 E22474.091
G1 X41.78 Y42.97 Z1.2 F288.0 E22477.719
G1 X41.47 Y43.24 Z1.2 F288.0 E22478.41
G1 X43.03 Y44.81 Z1.2 F288.0 E22482.051
G1 X42.72 Y45.09 Z1.2 F288.0 E22482.739
G1 X41.15 Y43.52 Z1.2 F288.0 E22486.394
G1 X40.83 Y43.79 Z1.2 F288.0 E22487.084
G1 X42.41 Y45.37 Z1.2 F288.0 E22490.753
G1 X42.1 Y45.65 Z1.2 F288.0 E22491.441
G1 X40.51 Y44.07 Z1.2 F288.0 E22495.124
G1 X40.17 Y44.32 Z1.2 F288.0 E22495.819
G1 X42.22 Y46.36 Z1.2 F288.0 E22500.568
G1 X42.86 Y47.6 Z1.2 F288.0 E22502.849
;M103
G1 X42.92 Y45.99 Z1.2 F3600.0
G1 X45.63 Y37.93 Z1.2 F2880.0
;M101
G1 X48.52 Y40.82 Z1.2 F288.0 E22509.562
;M103
G1 X48.31 Y39.35 Z1.2 F3600.0
G1 X48.94 Y36.5 Z1.2 F2880.0
;M101
G1 X46.44 Y34.0 Z1.2 F288.0 E22515.356
G1 X45.83 Y33.98 Z1.2 F288.0 E22516.358
G1 X48.59 Y36.74 Z1.2 F288.0 E22522.77
G1 X48.41 Y37.15 Z1.2 F288.0 E22523.505
G1 X44.96 Y33.7 Z1.2 F288.0 E22531.523
G1 X44.08 Y33.42 Z1.2 F288.0 E22533.033
G1 X48.23 Y37.56 Z1.2 F288.0 E22542.657
G1 X48.04 Y37.97 Z1.2 F288.0 E22543.395
G1 X43.21 Y33.14 Z1.2 F288.0 E22554.626
G1 X42.33 Y32.85 Z1.2 F288.0 E22556.136
G1 X47.86 Y38.38 Z1.2 F288.0 E22568.974
G1 X47.68 Y38.79 Z1.2 F288.0 E22569.711
G1 X45.87 Y36.98 Z1.2 F288.0 E22573.916
G1 X45.85 Y37.55 Z1.2 F288.0 E22574.856
G1 X47.49 Y39.2 Z1.2 F288.0 E22578.683
;M103
G1 X49.19 Y27.27 Z1.2 F2880.0
;M101
G1 X46.79 Y24.87 Z1.2 F288.0 E22584.253
G1 X46.97 Y25.64 Z1.2 F288.0 E22585.556
G1 X49.73 Y28.4 Z1.2 F288.0 E22591.963
G1 X49.73 Y28.99 Z1.2 F288.0 E22592.935
G1 X47.15 Y26.42 Z1.2 F288.0 E22598.918
G1 X47.33 Y27.19 Z1.2 F288.0 E22600.224
G1 X49.73 Y29.59 Z1.2 F288.0 E22605.785
G1 X49.73 Y30.18 Z1.2 F288.0 E22606.757
G1 X47.42 Y27.87 Z1.2 F288.0 E22612.12
G1 X47.46 Y28.5 Z1.2 F288.0 E22613.16
G1 X49.73 Y30.77 Z1.2 F288.0 E22618.43
G1 X49.72 Y31.36 Z1.2 F288.0 E22619.402
G1 X47.5 Y29.13 Z1.2 F288.0 E22624.577
G1 X47.54 Y29.76 Z1.2 F288.0 E22625.617
G1 X50.18 Y32.4 Z1.2 F288.0 E22631.747
G1 X49.64 Y32.46 Z1.2 F288.0 E22632.625
G1 X47.57 Y30.39 Z1.2 F288.0 E22637.437
G1 X47.51 Y30.93 Z1.2 F288.0 E22638.317
G1 X49.54 Y32.95 Z1.2 F288.0 E22643.026
G1 X49.44 Y33.44 Z1.2 F288.0 E22643.846
G1 X47.45 Y31.46 Z1.2 F288.0 E22648.45
G1 X47.39 Y31.99 Z1.2 F288.0 E22649.332
G1 X49.33 Y33.93 Z1.2 F288.0 E22653.832
G1 X49.23 Y34.42 Z1.2 F288.0 E22654.651
G1 X47.33 Y32.53 Z1.2 F288.0 E22659.048
G1 X47.28 Y33.06 Z1.2 F288.0 E22659.928
G1 X49.12 Y34.91 Z1.2 F288.0 E22664.221
G1 X49.02 Y35.4 Z1.2 F288.0 E22665.041
G1 X47.16 Y33.54 Z1.2 F288.0 E22669.358
G1 X46.8 Y33.77 Z1.2 F288.0 E22670.061
G1 X49.65 Y36.61 Z1.2 F288.0 E22676.669
G1 X49.86 Y36.24 Z1.2 F288.0 E22677.381
G1 X50.36 Y36.73 Z1.2 F288.0 E22678.531
;M103
G1 X49.85 Y35.34 Z1.2 F3600.0
G1 X50.2 Y31.84 Z1.2 F2880.0
;M101
G1 X50.74 Y32.38 Z1.2 F288.0 E22679.789
G1 X51.0 Y32.04 Z1.2 F288.0 E22680.484
G1 X51.31 Y32.35 Z1.2 F288.0 E22681.202
G1 X51.8 Y32.25 Z1.2 F288.0 E22682.024
G1 X51.87 Y32.32 Z1.2 F288.0 E22682.189
;M103
G1 X50.53 Y31.09 Z1.2 F3600.0
G1 X46.45 Y23.94 Z1.2 F2880.0
;M101
G1 X49.53 Y27.02 Z1.2 F288.0 E22689.337
G1 X50.11 Y28.19 Z1.2 F288.0 E22691.474
G1 X50.11 Y27.59 Z1.2 F288.0 E22692.451
G1 X50.58 Y28.07 Z1.2 F288.0 E22693.549
G1 X50.72 Y27.62 Z1.2 F288.0 E22694.32
G1 X51.05 Y27.95 Z1.2 F288.0 E22695.072
G1 X51.34 Y27.65 Z1.2 F288.0 E22695.759
G1 X51.52 Y27.82 Z1.2 F288.0 E22696.163
;M103
G1 X50.3 Y26.8 Z1.2 F3600.0
G1 X49.06 Y24.77 Z1.2 F2880.0
;M101
G1 X44.59 Y20.3 Z1.2 F288.0 E22706.537
;M103
G1 X45.59 Y21.9 Z1.2 F2880.0
;M101
G1 X49.22 Y25.52 Z1.2 F288.0 E22714.946
G1 X49.37 Y26.27 Z1.2 F288.0 E22716.204
G1 X46.02 Y22.92 Z1.2 F288.0 E22723.983
;M103
G1 X47.65 Y22.18 Z1.2 F2880.0
;M101
G1 X37.01 Y11.54 Z1.2 F288.0 E22748.692
G1 X36.13 Y11.25 Z1.2 F288.0 E22750.209
G1 X49.05 Y24.17 Z1.2 F288.0 E22780.202
G1 X49.44 Y23.97 Z1.2 F288.0 E22780.928
G1 X48.97 Y23.5 Z1.2 F288.0 E22782.022
G1 X49.48 Y23.42 Z1.2 F288.0 E22782.868
G1 X49.84 Y23.77 Z1.2 F288.0 E22783.702
G1 X50.23 Y23.58 Z1.2 F288.0 E22784.426
G1 X49.99 Y23.33 Z1.2 F288.0 E22784.999
G1 X50.5 Y23.25 Z1.2 F288.0 E22785.843
G1 X50.63 Y23.38 Z1.2 F288.0 E22786.153
;M103
G1 X49.2 Y22.65 Z1.2 F3600.0
G1 X38.92 Y12.86 Z1.2 F2880.0
;M101
G1 X48.0 Y21.94 Z1.2 F288.0 E22807.245
G1 X48.48 Y23.0 Z1.2 F288.0 E22809.159
;M103
G1 X47.53 Y20.87 Z1.2 F2880.0
;M101
G1 X39.18 Y12.52 Z1.2 F288.0 E22828.554
G1 X37.77 Y11.7 Z1.2 F288.0 E22831.232
;M103
G1 X38.45 Y11.8 Z1.2 F2880.0
;M101
G1 X38.0 Y11.34 Z1.2 F288.0 E22832.291
G1 X38.23 Y10.98 Z1.2 F288.0 E22832.996
G1 X38.58 Y11.33 Z1.2 F288.0 E22833.816
G1 X38.71 Y10.87 Z1.2 F288.0 E22834.607
G1 X38.46 Y10.62 Z1.2 F288.0 E22835.19
G1 X38.69 Y10.26 Z1.2 F288.0 E22835.894
G1 X38.84 Y10.4 Z1.2 F288.0 E22836.24
G1 X38.97 Y9.94 Z1.2 F288.0 E22837.031
G1 X38.93 Y9.9 Z1.2 F288.0 E22837.124
;M103
G1 X39.32 Y11.68 Z1.2 F3600.0
G1 X40.58 Y13.33 Z1.2 F2880.0
;M101
G1 X47.51 Y20.26 Z1.2 F288.0 E22853.21
G1 X47.84 Y20.0 Z1.2 F288.0 E22853.902
G1 X47.45 Y19.6 Z1.2 F288.0 E22854.824
G1 X47.87 Y19.44 Z1.2 F288.0 E22855.574
G1 X48.17 Y19.74 Z1.2 F288.0 E22856.274
G1 X48.5 Y19.48 Z1.2 F288.0 E22856.964
G1 X48.3 Y19.27 Z1.2 F288.0 E22857.441
G1 X48.72 Y19.1 Z1.2 F288.0 E22858.192
G1 X48.83 Y19.21 Z1.2 F288.0 E22858.448
;M103
G1 X47.25 Y18.82 Z1.2 F3600.0
G1 X45.97 Y17.05 Z1.2 F3600.0
G1 X46.17 Y15.37 Z1.2 F2880.0
;M101
G1 X46.25 Y15.45 Z1.2 F288.0 E22858.634
G1 X45.98 Y15.77 Z1.2 F288.0 E22859.324
G1 X45.81 Y15.6 Z1.2 F288.0 E22859.716
G1 X45.46 Y15.84 Z1.2 F288.0 E22860.417
G1 X45.71 Y16.09 Z1.2 F288.0 E22861.015
G1 X45.45 Y16.42 Z1.2 F288.0 E22861.707
G1 X45.1 Y16.07 Z1.2 F288.0 E22862.512
G1 X44.74 Y16.31 Z1.2 F288.0 E22863.214
G1 X45.18 Y16.74 Z1.2 F288.0 E22864.226
G1 X45.2 Y17.36 Z1.2 F288.0 E22865.235
G1 X41.48 Y13.64 Z1.2 F288.0 E22873.871
G1 X41.77 Y13.34 Z1.2 F288.0 E22874.557
G1 X42.17 Y13.73 Z1.2 F288.0 E22875.469
G1 X42.37 Y13.34 Z1.2 F288.0 E22876.19
G1 X42.07 Y13.04 Z1.2 F288.0 E22876.889
G1 X42.36 Y12.74 Z1.2 F288.0 E22877.577
G1 X42.57 Y12.95 Z1.2 F288.0 E22878.066
G1 X42.77 Y12.56 Z1.2 F288.0 E22878.787
G1 X42.66 Y12.44 Z1.2 F288.0 E22879.063
;M103
G1 X41.21 Y12.77 Z1.2 F3600.0
G1 X35.25 Y10.97 Z1.2 F2880.0
;M101
G1 X41.36 Y17.08 Z1.2 F288.0 E22893.254
;M103
G1 X34.06 Y9.77 Z1.2 F2880.0
;M101
G1 X34.5 Y10.21 Z1.2 F288.0 E22894.269
G1 X34.53 Y9.65 Z1.2 F288.0 E22895.188
G1 X34.22 Y9.34 Z1.2 F288.0 E22895.906
G1 X34.57 Y9.09 Z1.2 F288.0 E22896.602
G1 X34.38 Y8.91 Z1.2 F288.0 E22897.024
G1 X34.6 Y8.53 Z1.2 F288.0 E22897.738
G1 X34.55 Y8.48 Z1.2 F288.0 E22897.858
;M103
G1 X37.13 Y14.77 Z1.2 F3600.0
G1 X38.02 Y15.23 Z1.2 F3600.0
G1 X38.13 Y15.66 Z1.2 F3600.0
G1 X37.68 Y16.37 Z1.2 F3600.0
G1 X38.97 Y20.7 Z1.2 F3600.0
G1 X36.16 Y24.71 Z1.2 F3600.0
G1 X37.24 Y26.6 Z1.2 F3600.0
G1 X37.86 Y28.5 Z1.2 F3600.0
G1 X38.09 Y30.66 Z1.2 F3600.0
G1 X44.88 Y35.99 Z1.2 F2880.0
;M101
G1 X41.46 Y32.57 Z1.2 F288.0 E22905.81
G1 X40.58 Y32.29 Z1.2 F288.0 E22907.32
G1 X44.0 Y35.71 Z1.2 F288.0 E22915.261
G1 X43.12 Y35.42 Z1.2 F288.0 E22916.781
G1 X39.71 Y32.01 Z1.2 F288.0 E22924.711
G1 X38.83 Y31.72 Z1.2 F288.0 E22926.218
G1 X42.24 Y35.13 Z1.2 F288.0 E22934.134
G1 X41.36 Y34.85 Z1.2 F288.0 E22935.654
G1 X37.96 Y31.44 Z1.2 F288.0 E22943.559
;M103
G1 X31.12 Y35.29 Z1.2 F3600.0
G1 X30.98 Y35.57 Z1.2 F3600.0
G1 X30.57 Y35.72 Z1.2 F3600.0
G1 X26.78 Y37.26 Z1.2 F3600.0
G1 X26.14 Y37.01 Z1.2 F3600.0
G1 X24.52 Y35.84 Z1.2 F3600.0
G1 X23.07 Y34.22 Z1.2 F3600.0
G1 X15.0 Y36.82 Z1.2 F3600.0
G1 X14.83 Y37.24 Z1.2 F3600.0
G1 X15.26 Y43.69 Z1.2 F2880.0
;M101
G1 X14.82 Y43.26 Z1.2 F288.0 E22944.571
G1 X14.55 Y43.58 Z1.2 F288.0 E22945.262
G1 X14.9 Y43.93 Z1.2 F288.0 E22946.068
G1 X14.54 Y44.16 Z1.2 F288.0 E22946.769
G1 X14.29 Y43.91 Z1.2 F288.0 E22947.367
G1 X14.02 Y44.23 Z1.2 F288.0 E22948.058
G1 X14.19 Y44.4 Z1.2 F288.0 E22948.449
G1 X13.83 Y44.64 Z1.2 F288.0 E22949.152
G1 X13.75 Y44.56 Z1.2 F288.0 E22949.338
;M103
G1 X16.14 Y39.63 Z1.2 F3600.0
G1 X14.83 Y37.24 Z1.2 F3600.0
G1 X15.0 Y36.82 Z1.2 F3600.0
G1 X19.07 Y35.43 Z1.2 F3600.0
G1 X26.99 Y22.93 Z1.2 F3600.0
;M101
G1 X29.04 Y22.4 Z1.2 F288.0 E22952.824
G1 X30.96 Y22.4 Z1.2 F288.0 E22955.966
G1 X33.3 Y23.0 Z1.2 F288.0 E22959.939
G1 X38.56 Y15.74 Z1.2 F288.0 E22974.65
G1 X38.35 Y14.95 Z1.2 F288.0 E22975.994
G1 X35.67 Y13.74 Z1.2 F288.0 E22980.817
G1 X32.87 Y13.02 Z1.2 F288.0 E22985.555
G1 X30.0 Y12.78 Z1.2 F288.0 E22990.289
G1 X27.13 Y13.02 Z1.2 F288.0 E22995.023
G1 X24.33 Y13.74 Z1.2 F288.0 E22999.761
G1 X21.66 Y14.95 Z1.2 F288.0 E23004.584
G1 X21.45 Y15.74 Z1.2 F288.0 E23005.928
G1 X26.7 Y23.0 Z1.2 F288.0 E23020.639
G1 X26.99 Y22.93 Z1.2 F288.0 E23021.126
;M103
G1 X24.36 Y24.7 Z1.2 F3600.0
;M101
G1 X19.08 Y17.45 Z1.2 F288.0 E23035.842
G1 X18.26 Y17.42 Z1.2 F288.0 E23037.185
G1 X16.29 Y19.58 Z1.2 F288.0 E23042.003
G1 X14.74 Y22.02 Z1.2 F288.0 E23046.742
G1 X13.62 Y24.68 Z1.2 F288.0 E23051.476
G1 X12.97 Y27.49 Z1.2 F288.0 E23056.212
G1 X12.78 Y30.37 Z1.2 F288.0 E23060.948
G1 X13.11 Y33.29 Z1.2 F288.0 E23065.772
G1 X13.8 Y33.73 Z1.2 F288.0 E23067.116
G1 X22.32 Y30.98 Z1.2 F288.0 E23081.825
G1 X22.48 Y28.56 Z1.2 F288.0 E23085.8
G1 X23.07 Y26.74 Z1.2 F288.0 E23088.941
G1 X24.36 Y24.7 Z1.2 F288.0 E23092.915
;M103
G1 X26.44 Y26.85 Z1.2 F3600.0
;M101
G1 X26.27 Y27.01 Z1.2 F288.0 E23093.29
G1 X25.64 Y28.05 Z1.2 F288.0 E23095.291
G1 X25.28 Y29.22 Z1.2 F288.0 E23097.292
G1 X25.24 Y30.44 Z1.2 F288.0 E23099.295
G1 X25.5 Y31.62 Z1.2 F288.0 E23101.295
G1 X26.06 Y32.71 Z1.2 F288.0 E23103.298
G1 X26.87 Y33.62 Z1.2 F288.0 E23105.299
G1 X27.89 Y34.29 Z1.2 F288.0 E23107.302
G1 X28.54 Y34.51 Z1.2 F288.0 E23108.433
G1 X28.54 Y36.05 Z1.2 F288.0 E23110.961
G1 X31.46 Y36.05 Z1.2 F288.0 E23115.746
G1 X31.46 Y34.51 Z1.2 F288.0 E23118.274
G1 X32.11 Y34.29 Z1.2 F288.0 E23119.405
G1 X33.13 Y33.62 Z1.2 F288.0 E23121.408
G1 X33.94 Y32.71 Z1.2 F288.0 E23123.409
G1 X34.5 Y31.62 Z1.2 F288.0 E23125.412
G1 X34.76 Y30.44 Z1.2 F288.0 E23127.412
G1 X34.72 Y29.22 Z1.2 F288.0 E23129.415
G1 X34.36 Y28.05 Z1.2 F288.0 E23131.416
G1 X33.73 Y27.01 Z1.2 F288.0 E23133.417
G1 X32.85 Y26.16 Z1.2 F288.0 E23135.416
G1 X31.79 Y25.57 Z1.2 F288.0 E23137.419
G1 X30.61 Y25.26 Z1.2 F288.0 E23139.419
G1 X29.39 Y25.26 Z1.2 F288.0 E23141.422
G1 X28.21 Y25.57 Z1.2 F288.0 E23143.422
G1 X27.15 Y26.16 Z1.2 F288.0 E23145.425
G1 X26.44 Y26.85 Z1.2 F288.0 E23147.05
;M103
G1 X23.21 Y33.72 Z1.2 F3600.0
;M101
G1 X14.7 Y36.51 Z1.2 F288.0 E23161.759
G1 X14.4 Y37.27 Z1.2 F288.0 E23163.104
G1 X15.86 Y39.82 Z1.2 F288.0 E23167.925
G1 X17.7 Y42.05 Z1.2 F288.0 E23172.662
G1 X19.88 Y43.93 Z1.2 F288.0 E23177.398
G1 X22.35 Y45.43 Z1.2 F288.0 E23182.135
G1 X25.03 Y46.49 Z1.2 F288.0 E23186.87
G1 X27.9 Y47.08 Z1.2 F288.0 E23191.69
G1 X28.54 Y46.57 Z1.2 F288.0 E23193.036
G1 X28.56 Y37.6 Z1.2 F288.0 E23207.748
G1 X26.31 Y36.71 Z1.2 F288.0 E23211.721
G1 X24.76 Y35.59 Z1.2 F288.0 E23214.863
G1 X23.21 Y33.72 Z1.2 F288.0 E23218.835
;M103
G1 X31.45 Y37.6 Z1.2 F3600.0
;M101
G1 X31.46 Y46.57 Z1.2 F288.0 E23233.547
G1 X32.1 Y47.08 Z1.2 F288.0 E23234.893
G1 X34.97 Y46.49 Z1.2 F288.0 E23239.713
G1 X37.65 Y45.43 Z1.2 F288.0 E23244.449
G1 X40.12 Y43.93 Z1.2 F288.0 E23249.185
G1 X42.31 Y42.05 Z1.2 F288.0 E23253.921
G1 X44.14 Y39.82 Z1.2 F288.0 E23258.658
G1 X45.6 Y37.27 Z1.2 F288.0 E23263.479
G1 X45.3 Y36.51 Z1.2 F288.0 E23264.824
G1 X36.79 Y33.72 Z1.2 F288.0 E23279.534
G1 X35.24 Y35.59 Z1.2 F288.0 E23283.506
G1 X33.69 Y36.71 Z1.2 F288.0 E23286.648
G1 X31.45 Y37.6 Z1.2 F288.0 E23290.621
;M103
G1 X37.68 Y30.98 Z1.2 F3600.0
;M101
G1 X46.2 Y33.73 Z1.2 F288.0 E23305.33
G1 X46.89 Y33.29 Z1.2 F288.0 E23306.674
G1 X47.22 Y30.37 Z1.2 F288.0 E23311.498
G1 X47.04 Y27.49 Z1.2 F288.0 E23316.234
G1 X46.38 Y24.68 Z1.2 F288.0 E23320.97
G1 X45.26 Y22.02 Z1.2 F288.0 E23325.704
G1 X43.71 Y19.58 Z1.2 F288.0 E23330.443
G1 X41.74 Y17.42 Z1.2 F288.0 E23335.261
G1 X40.92 Y17.45 Z1.2 F288.0 E23336.604
G1 X35.64 Y24.7 Z1.2 F288.0 E23351.32
G1 X36.93 Y26.74 Z1.2 F288.0 E23355.294
G1 X37.53 Y28.56 Z1.2 F288.0 E23358.436
G1 X37.68 Y30.98 Z1.2 F288.0 E23362.41
;M103
G1 X46.15 Y33.3 Z1.2 F3600.0
G1 X49.78 Y33.55 Z1.2 F3600.0
;M101
G1 X49.34 Y35.58 Z1.2 F288.0 E23365.816
G1 X52.9 Y37.35 Z1.2 F288.0 E23372.334
G1 X52.85 Y37.51 Z1.2 F288.0 E23372.598
G1 X48.93 Y36.86 Z1.2 F288.0 E23379.111
G1 X47.76 Y39.48 Z1.2 F288.0 E23383.83
G1 X50.87 Y41.95 Z1.2 F288.0 E23390.351
G1 X50.79 Y42.09 Z1.2 F288.0 E23390.617
G1 X47.09 Y40.64 Z1.2 F288.0 E23397.131
G1 X45.4 Y42.97 Z1.2 F288.0 E23401.852
G1 X47.93 Y46.03 Z1.2 F288.0 E23408.37
G1 X47.82 Y46.15 Z1.2 F288.0 E23408.636
G1 X44.51 Y43.96 Z1.2 F288.0 E23415.148
G1 X42.37 Y45.89 Z1.2 F288.0 E23419.867
G1 X44.2 Y49.41 Z1.2 F288.0 E23426.386
G1 X44.07 Y49.5 Z1.2 F288.0 E23426.651
G1 X41.29 Y46.67 Z1.2 F288.0 E23433.164
G1 X38.8 Y48.11 Z1.2 F288.0 E23437.882
G1 X39.85 Y51.94 Z1.2 F288.0 E23444.401
G1 X39.71 Y52.0 Z1.2 F288.0 E23444.667
G1 X37.57 Y48.66 Z1.2 F288.0 E23451.181
G1 X34.84 Y49.54 Z1.2 F288.0 E23455.901
G1 X35.08 Y53.51 Z1.2 F288.0 E23462.42
G1 X34.92 Y53.54 Z1.2 F288.0 E23462.685
G1 X33.53 Y49.82 Z1.2 F288.0 E23469.2
G1 X30.67 Y50.12 Z1.2 F288.0 E23473.92
G1 X30.08 Y54.05 Z1.2 F288.0 E23480.441
G1 X29.92 Y54.05 Z1.2 F288.0 E23480.707
G1 X29.33 Y50.12 Z1.2 F288.0 E23487.223
G1 X26.47 Y49.82 Z1.2 F288.0 E23491.945
G1 X25.08 Y53.54 Z1.2 F288.0 E23498.466
G1 X24.92 Y53.51 Z1.2 F288.0 E23498.731
G1 X25.16 Y49.55 Z1.2 F288.0 E23505.245
G1 X22.43 Y48.65 Z1.2 F288.0 E23509.963
G1 X20.29 Y52.0 Z1.2 F288.0 E23516.485
G1 X20.15 Y51.94 Z1.2 F288.0 E23516.752
G1 X21.2 Y48.11 Z1.2 F288.0 E23523.266
G1 X18.71 Y46.67 Z1.2 F288.0 E23527.988
G1 X15.93 Y49.5 Z1.2 F288.0 E23534.507
G1 X15.8 Y49.41 Z1.2 F288.0 E23534.77
G1 X17.63 Y45.89 Z1.2 F288.0 E23541.284
G1 X15.5 Y43.96 Z1.2 F288.0 E23546.005
G1 X12.18 Y46.15 Z1.2 F288.0 E23552.524
G1 X12.08 Y46.03 Z1.2 F288.0 E23552.79
G1 X14.6 Y42.97 Z1.2 F288.0 E23559.303
G1 X12.91 Y40.64 Z1.2 F288.0 E23564.026
G1 X9.22 Y42.09 Z1.2 F288.0 E23570.544
G1 X9.13 Y41.95 Z1.2 F288.0 E23570.81
G1 X12.24 Y39.48 Z1.2 F288.0 E23577.325
G1 X11.07 Y36.85 Z1.2 F288.0 E23582.044
G1 X7.16 Y37.51 Z1.2 F288.0 E23588.563
G1 X7.11 Y37.35 Z1.2 F288.0 E23588.827
G1 X10.65 Y35.58 Z1.2 F288.0 E23595.339
G1 X10.06 Y32.77 Z1.2 F288.0 E23600.057
G1 X6.09 Y32.59 Z1.2 F288.0 E23606.58
G1 X6.08 Y32.43 Z1.2 F288.0 E23606.846
G1 X9.92 Y31.44 Z1.2 F288.0 E23613.361
G1 X9.92 Y28.56 Z1.2 F288.0 E23618.08
G1 X6.08 Y27.57 Z1.2 F288.0 E23624.6
G1 X6.09 Y27.41 Z1.2 F288.0 E23624.864
G1 X10.06 Y27.23 Z1.2 F288.0 E23631.38
G1 X10.66 Y24.42 Z1.2 F288.0 E23636.099
G1 X7.11 Y22.65 Z1.2 F288.0 E23642.617
G1 X7.16 Y22.49 Z1.2 F288.0 E23642.881
G1 X11.07 Y23.15 Z1.2 F288.0 E23649.395
G1 X12.24 Y20.52 Z1.2 F288.0 E23654.115
G1 X9.13 Y18.05 Z1.2 F288.0 E23660.634
G1 X9.22 Y17.91 Z1.2 F288.0 E23660.9
G1 X12.91 Y19.36 Z1.2 F288.0 E23667.414
G1 X14.6 Y17.03 Z1.2 F288.0 E23672.134
G1 X12.08 Y13.97 Z1.2 F288.0 E23678.652
G1 X12.18 Y13.85 Z1.2 F288.0 E23678.919
G1 X15.49 Y16.04 Z1.2 F288.0 E23685.431
G1 X17.63 Y14.12 Z1.2 F288.0 E23690.15
G1 X15.8 Y10.59 Z1.2 F288.0 E23696.669
G1 X15.93 Y10.5 Z1.2 F288.0 E23696.934
G1 X18.71 Y13.33 Z1.2 F288.0 E23703.447
G1 X21.2 Y11.89 Z1.2 F288.0 E23708.165
G1 X20.15 Y8.07 Z1.2 F288.0 E23714.684
G1 X20.29 Y8.0 Z1.2 F288.0 E23714.951
G1 X22.43 Y11.34 Z1.2 F288.0 E23721.465
G1 X25.16 Y10.46 Z1.2 F288.0 E23726.183
G1 X24.92 Y6.5 Z1.2 F288.0 E23732.703
G1 X25.08 Y6.46 Z1.2 F288.0 E23732.969
G1 X26.47 Y10.18 Z1.2 F288.0 E23739.484
G1 X29.33 Y9.88 Z1.2 F288.0 E23744.203
G1 X29.92 Y5.95 Z1.2 F288.0 E23750.725
G1 X30.08 Y5.95 Z1.2 F288.0 E23750.991
G1 X30.67 Y9.88 Z1.2 F288.0 E23757.507
G1 X33.53 Y10.18 Z1.2 F288.0 E23762.229
G1 X34.92 Y6.46 Z1.2 F288.0 E23768.749
G1 X35.08 Y6.5 Z1.2 F288.0 E23769.014
G1 X34.84 Y10.46 Z1.2 F288.0 E23775.53
G1 X37.57 Y11.35 Z1.2 F288.0 E23780.247
G1 X39.71 Y8.0 Z1.2 F288.0 E23786.768
G1 X39.85 Y8.07 Z1.2 F288.0 E23787.035
G1 X38.8 Y11.89 Z1.2 F288.0 E23793.549
G1 X41.29 Y13.33 Z1.2 F288.0 E23798.27
G1 X44.07 Y10.5 Z1.2 F288.0 E23804.789
G1 X44.2 Y10.59 Z1.2 F288.0 E23805.053
G1 X42.37 Y14.11 Z1.2 F288.0 E23811.567
G1 X44.5 Y16.04 Z1.2 F288.0 E23816.287
G1 X47.82 Y13.85 Z1.2 F288.0 E23822.807
G1 X47.93 Y13.97 Z1.2 F288.0 E23823.073
G1 X45.4 Y17.03 Z1.2 F288.0 E23829.586
G1 X47.09 Y19.36 Z1.2 F288.0 E23834.309
G1 X50.79 Y17.91 Z1.2 F288.0 E23840.827
G1 X50.87 Y18.05 Z1.2 F288.0 E23841.092
G1 X47.76 Y20.52 Z1.2 F288.0 E23847.606
G1 X48.93 Y23.15 Z1.2 F288.0 E23852.326
G1 X52.85 Y22.49 Z1.2 F288.0 E23858.845
G1 X52.9 Y22.65 Z1.2 F288.0 E23859.109
G1 X49.35 Y24.42 Z1.2 F288.0 E23865.622
G1 X49.94 Y27.23 Z1.2 F288.0 E23870.34
G1 X53.91 Y27.41 Z1.2 F288.0 E23876.863
G1 X53.92 Y27.57 Z1.2 F288.0 E23877.128
G1 X50.08 Y28.56 Z1.2 F288.0 E23883.643
G1 X50.08 Y31.44 Z1.2 F288.0 E23888.362
G1 X53.92 Y32.43 Z1.2 F288.0 E23894.882
G1 X53.91 Y32.59 Z1.2 F288.0 E23895.146
G1 X49.94 Y32.77 Z1.2 F288.0 E23901.663
G1 X49.78 Y33.55 Z1.2 F288.0 E23902.976
;M103
;M108 S5.629
;M108 S5.91
G1 X50.19 Y33.64 Z1.2 F3600.0
;M101
G1 X49.82 Y35.35 Z1.2 F243.0 E23905.53
G1 X53.41 Y37.14 Z1.2 F243.0 E23911.376
G1 X53.13 Y37.98 Z1.2 F243.0 E23912.665
G1 X49.18 Y37.32 Z1.2 F243.0 E23918.507
G1 X48.28 Y39.35 Z1.2 F243.0 E23921.756
G1 X51.41 Y41.85 Z1.2 F243.0 E23927.603
G1 X50.97 Y42.62 Z1.2 F243.0 E23928.891
G1 X47.24 Y41.15 Z1.2 F243.0 E23934.736
G1 X45.93 Y42.95 Z1.2 F243.0 E23937.984
G1 X48.48 Y46.04 Z1.2 F243.0 E23943.831
G1 X47.89 Y46.7 Z1.2 F243.0 E23945.122
G1 X44.55 Y44.49 Z1.2 F243.0 E23950.965
G1 X42.89 Y45.98 Z1.2 F243.0 E23954.214
G1 X44.74 Y49.54 Z1.2 F243.0 E23960.062
G1 X44.02 Y50.05 Z1.2 F243.0 E23961.349
G1 X41.22 Y47.2 Z1.2 F243.0 E23967.192
G1 X39.29 Y48.31 Z1.2 F243.0 E23970.441
G1 X40.35 Y52.17 Z1.2 F243.0 E23976.288
G1 X39.55 Y52.53 Z1.2 F243.0 E23977.577
G1 X37.39 Y49.15 Z1.2 F243.0 E23983.422
G1 X35.28 Y49.84 Z1.2 F243.0 E23986.67
G1 X35.52 Y53.84 Z1.2 F243.0 E23992.516
G1 X34.66 Y54.02 Z1.2 F243.0 E23993.805
G1 X33.25 Y50.27 Z1.2 F243.0 E23999.65
G1 X31.04 Y50.5 Z1.2 F243.0 E24002.899
G1 X30.44 Y54.47 Z1.2 F243.0 E24008.748
G1 X29.56 Y54.47 Z1.2 F243.0 E24010.038
G1 X28.97 Y50.51 Z1.2 F243.0 E24015.882
G1 X26.75 Y50.27 Z1.2 F243.0 E24019.131
G1 X25.35 Y54.02 Z1.2 F243.0 E24024.979
G1 X24.48 Y53.84 Z1.2 F243.0 E24026.269
G1 X24.72 Y49.84 Z1.2 F243.0 E24032.112
G1 X22.61 Y49.15 Z1.2 F243.0 E24035.36
G1 X20.45 Y52.53 Z1.2 F243.0 E24041.208
G1 X19.65 Y52.17 Z1.2 F243.0 E24042.498
G1 X20.71 Y48.31 Z1.2 F243.0 E24048.341
G1 X18.79 Y47.2 Z1.2 F243.0 E24051.59
G1 X15.98 Y50.05 Z1.2 F243.0 E24057.436
G1 X15.26 Y49.54 Z1.2 F243.0 E24058.724
G1 X17.11 Y45.98 Z1.2 F243.0 E24064.567
G1 X15.46 Y44.49 Z1.2 F243.0 E24067.816
G1 X12.11 Y46.7 Z1.2 F243.0 E24073.663
G1 X11.52 Y46.04 Z1.2 F243.0 E24074.954
G1 X14.07 Y42.95 Z1.2 F243.0 E24080.796
G1 X12.76 Y41.15 Z1.2 F243.0 E24084.045
G1 X9.03 Y42.62 Z1.2 F243.0 E24089.893
G1 X8.59 Y41.85 Z1.2 F243.0 E24091.181
G1 X11.72 Y39.36 Z1.2 F243.0 E24097.025
G1 X10.82 Y37.32 Z1.2 F243.0 E24100.273
G1 X6.87 Y37.98 Z1.2 F243.0 E24106.118
G1 X6.6 Y37.14 Z1.2 F243.0 E24107.407
G1 X10.18 Y35.35 Z1.2 F243.0 E24113.249
G1 X9.72 Y33.17 Z1.2 F243.0 E24116.498
G1 X5.71 Y33.0 Z1.2 F243.0 E24122.346
G1 X5.62 Y32.12 Z1.2 F243.0 E24123.635
G1 X9.5 Y31.11 Z1.2 F243.0 E24129.48
G1 X9.5 Y28.89 Z1.2 F243.0 E24132.728
G1 X5.62 Y27.88 Z1.2 F243.0 E24138.577
G1 X5.71 Y27.0 Z1.2 F243.0 E24139.865
G1 X9.72 Y26.83 Z1.2 F243.0 E24145.711
G1 X10.18 Y24.65 Z1.2 F243.0 E24148.959
G1 X6.6 Y22.86 Z1.2 F243.0 E24154.805
G1 X6.87 Y22.02 Z1.2 F243.0 E24156.094
G1 X10.82 Y22.68 Z1.2 F243.0 E24161.936
G1 X11.73 Y20.65 Z1.2 F243.0 E24165.187
G1 X8.59 Y18.15 Z1.2 F243.0 E24171.033
G1 X9.03 Y17.38 Z1.2 F243.0 E24172.322
G1 X12.76 Y18.85 Z1.2 F243.0 E24178.166
G1 X14.07 Y17.05 Z1.2 F243.0 E24181.415
G1 X11.52 Y13.96 Z1.2 F243.0 E24187.262
G1 X12.11 Y13.3 Z1.2 F243.0 E24188.552
G1 X15.45 Y15.51 Z1.2 F243.0 E24194.396
G1 X17.11 Y14.02 Z1.2 F243.0 E24197.645
G1 X15.26 Y10.47 Z1.2 F243.0 E24203.493
G1 X15.98 Y9.95 Z1.2 F243.0 E24204.78
G1 X18.78 Y12.8 Z1.2 F243.0 E24210.622
G1 X20.71 Y11.69 Z1.2 F243.0 E24213.872
G1 X19.65 Y7.83 Z1.2 F243.0 E24219.718
G1 X20.45 Y7.47 Z1.2 F243.0 E24221.008
G1 X22.61 Y10.85 Z1.2 F243.0 E24226.853
G1 X24.72 Y10.16 Z1.2 F243.0 E24230.1
G1 X24.48 Y6.16 Z1.2 F243.0 E24235.948
G1 X25.35 Y5.98 Z1.2 F243.0 E24237.237
G1 X26.75 Y9.73 Z1.2 F243.0 E24243.082
G1 X28.96 Y9.5 Z1.2 F243.0 E24246.33
G1 X29.56 Y5.53 Z1.2 F243.0 E24252.178
G1 X30.44 Y5.53 Z1.2 F243.0 E24253.468
G1 X31.04 Y9.49 Z1.2 F243.0 E24259.311
G1 X33.25 Y9.73 Z1.2 F243.0 E24262.56
G1 X34.66 Y5.98 Z1.2 F243.0 E24268.408
G1 X35.52 Y6.16 Z1.2 F243.0 E24269.697
G1 X35.28 Y10.16 Z1.2 F243.0 E24275.542
G1 X37.39 Y10.85 Z1.2 F243.0 E24278.79
G1 X39.55 Y7.47 Z1.2 F243.0 E24284.638
G1 X40.35 Y7.83 Z1.2 F243.0 E24285.928
G1 X39.29 Y11.69 Z1.2 F243.0 E24291.77
G1 X41.21 Y12.8 Z1.2 F243.0 E24295.019
G1 X44.02 Y9.95 Z1.2 F243.0 E24300.866
G1 X44.74 Y10.47 Z1.2 F243.0 E24302.153
G1 X42.89 Y14.02 Z1.2 F243.0 E24307.997
G1 X44.54 Y15.51 Z1.2 F243.0 E24311.246
G1 X47.89 Y13.3 Z1.2 F243.0 E24317.093
G1 X48.48 Y13.96 Z1.2 F243.0 E24318.383
G1 X45.93 Y17.05 Z1.2 F243.0 E24324.226
G1 X47.24 Y18.85 Z1.2 F243.0 E24327.475
G1 X50.97 Y17.38 Z1.2 F243.0 E24333.322
G1 X51.41 Y18.15 Z1.2 F243.0 E24334.611
G1 X48.28 Y20.64 Z1.2 F243.0 E24340.454
G1 X49.18 Y22.68 Z1.2 F243.0 E24343.704
G1 X53.13 Y22.02 Z1.2 F243.0 E24349.549
G1 X53.41 Y22.86 Z1.2 F243.0 E24350.838
G1 X49.82 Y24.65 Z1.2 F243.0 E24356.681
G1 X50.28 Y26.83 Z1.2 F243.0 E24359.929
G1 X54.29 Y27.0 Z1.2 F243.0 E24365.778
G1 X54.38 Y27.88 Z1.2 F243.0 E24367.066
G1 X50.5 Y28.89 Z1.2 F243.0 E24372.911
G1 X50.5 Y31.11 Z1.2 F243.0 E24376.159
G1 X54.38 Y32.12 Z1.2 F243.0 E24382.008
G1 X54.29 Y33.0 Z1.2 F243.0 E24383.296
G1 X50.29 Y33.17 Z1.2 F243.0 E24389.142
G1 X50.19 Y33.64 Z1.2 F243.0 E24389.836
;M103
G1 X46.49 Y33.05 Z1.2 F3600.0
;M101
G1 X46.8 Y30.36 Z1.2 F243.0 E24393.788
G1 X46.62 Y27.55 Z1.2 F243.0 E24397.892
G1 X45.98 Y24.81 Z1.2 F243.0 E24401.997
G1 X44.89 Y22.22 Z1.2 F243.0 E24406.102
G1 X43.38 Y19.84 Z1.2 F243.0 E24410.209
G1 X41.55 Y17.84 Z1.2 F243.0 E24414.16
G1 X41.15 Y17.86 Z1.2 F243.0 E24414.747
G1 X36.15 Y24.71 Z1.2 F243.0 E24427.125
G1 X37.32 Y26.56 Z1.2 F243.0 E24430.318
G1 X37.94 Y28.48 Z1.2 F243.0 E24433.264
G1 X38.08 Y30.67 Z1.2 F243.0 E24436.456
G1 X46.15 Y33.27 Z1.2 F243.0 E24448.832
G1 X46.49 Y33.05 Z1.2 F243.0 E24449.42
;M103
G1 X44.99 Y36.85 Z1.2 F3600.0
;M101
G1 X36.93 Y34.21 Z1.2 F243.0 E24461.797
G1 X35.53 Y35.9 Z1.2 F243.0 E24464.988
G1 X33.9 Y37.08 Z1.2 F243.0 E24467.935
G1 X31.87 Y37.89 Z1.2 F243.0 E24471.126
G1 X31.89 Y46.37 Z1.2 F243.0 E24483.503
G1 X32.2 Y46.62 Z1.2 F243.0 E24484.09
G1 X34.85 Y46.08 Z1.2 F243.0 E24488.042
G1 X37.47 Y45.05 Z1.2 F243.0 E24492.146
G1 X39.88 Y43.59 Z1.2 F243.0 E24496.253
G1 X42.0 Y41.75 Z1.2 F243.0 E24500.358
G1 X43.8 Y39.58 Z1.2 F243.0 E24504.463
G1 X45.13 Y37.23 Z1.2 F243.0 E24508.414
G1 X44.99 Y36.85 Z1.2 F243.0 E24509.002
;M103
G1 X34.1 Y31.48 Z1.2 F3600.0
;M101
G1 X34.34 Y30.4 Z1.2 F243.0 E24510.624
G1 X34.3 Y29.29 Z1.2 F243.0 E24512.247
G1 X33.98 Y28.22 Z1.2 F243.0 E24513.866
G1 X33.4 Y27.27 Z1.2 F243.0 E24515.489
G1 X32.6 Y26.5 Z1.2 F243.0 E24517.11
G1 X31.63 Y25.96 Z1.2 F243.0 E24518.732
G1 X30.56 Y25.68 Z1.2 F243.0 E24520.353
G1 X29.44 Y25.68 Z1.2 F243.0 E24521.975
G1 X28.37 Y25.96 Z1.2 F243.0 E24523.596
G1 X27.4 Y26.5 Z1.2 F243.0 E24525.218
G1 X26.6 Y27.27 Z1.2 F243.0 E24526.839
G1 X26.02 Y28.22 Z1.2 F243.0 E24528.462
G1 X25.7 Y29.29 Z1.2 F243.0 E24530.082
G1 X25.66 Y30.4 Z1.2 F243.0 E24531.704
G1 X25.9 Y31.48 Z1.2 F243.0 E24533.326
G1 X26.41 Y32.47 Z1.2 F243.0 E24534.948
G1 X27.15 Y33.3 Z1.2 F243.0 E24536.57
G1 X28.08 Y33.91 Z1.2 F243.0 E24538.192
G1 X28.96 Y34.21 Z1.2 F243.0 E24539.556
G1 X28.96 Y35.63 Z1.2 F243.0 E24541.63
G1 X31.04 Y35.63 Z1.2 F243.0 E24544.661
G1 X31.04 Y34.21 Z1.2 F243.0 E24546.734
G1 X31.92 Y33.91 Z1.2 F243.0 E24548.097
G1 X32.85 Y33.3 Z1.2 F243.0 E24549.72
G1 X33.59 Y32.47 Z1.2 F243.0 E24551.341
G1 X34.1 Y31.48 Z1.2 F243.0 E24552.964
;M103
G1 X33.66 Y32.52 Z1.2 F3600.0
G1 X32.9 Y33.36 Z1.2 F3600.0
G1 X32.47 Y33.65 Z1.2 F3600.0
G1 X31.12 Y34.99 Z1.2 F3600.0
G1 X30.98 Y35.57 Z1.2 F3600.0
G1 X30.43 Y35.72 Z1.2 F3600.0
G1 X28.14 Y37.89 Z1.2 F3600.0
;M101
G1 X26.1 Y37.08 Z1.2 F243.0 E24556.154
G1 X24.47 Y35.9 Z1.2 F243.0 E24559.101
G1 X23.07 Y34.21 Z1.2 F243.0 E24562.292
G1 X15.01 Y36.85 Z1.2 F243.0 E24574.669
G1 X14.87 Y37.23 Z1.2 F243.0 E24575.257
G1 X16.2 Y39.58 Z1.2 F243.0 E24579.208
G1 X18.0 Y41.75 Z1.2 F243.0 E24583.314
G1 X20.13 Y43.59 Z1.2 F243.0 E24587.419
G1 X22.53 Y45.05 Z1.2 F243.0 E24591.526
G1 X25.15 Y46.08 Z1.2 F243.0 E24595.63
G1 X27.8 Y46.62 Z1.2 F243.0 E24599.581
G1 X28.11 Y46.37 Z1.2 F243.0 E24600.168
G1 X28.14 Y37.89 Z1.2 F243.0 E24612.546
;M103
G1 X21.92 Y30.67 Z1.2 F3600.0
;M101
G1 X22.06 Y28.48 Z1.2 F243.0 E24615.738
G1 X22.68 Y26.56 Z1.2 F243.0 E24618.684
G1 X23.86 Y24.71 Z1.2 F243.0 E24621.876
G1 X18.85 Y17.86 Z1.2 F243.0 E24634.255
G1 X18.45 Y17.84 Z1.2 F243.0 E24634.842
G1 X16.62 Y19.84 Z1.2 F243.0 E24638.793
G1 X15.11 Y22.22 Z1.2 F243.0 E24642.899
G1 X14.02 Y24.81 Z1.2 F243.0 E24647.004
G1 X13.38 Y27.55 Z1.2 F243.0 E24651.11
G1 X13.21 Y30.36 Z1.2 F243.0 E24655.214
G1 X13.51 Y33.05 Z1.2 F243.0 E24659.166
G1 X13.85 Y33.27 Z1.2 F243.0 E24659.754
G1 X21.92 Y30.67 Z1.2 F243.0 E24672.13
;M103
G1 X26.87 Y22.52 Z1.2 F3600.0
;M101
G1 X28.99 Y21.98 Z1.2 F243.0 E24675.321
G1 X31.01 Y21.98 Z1.2 F243.0 E24678.269
G1 X33.13 Y22.52 Z1.2 F243.0 E24681.46
G1 X38.1 Y15.65 Z1.2 F243.0 E24693.837
G1 X37.99 Y15.26 Z1.2 F243.0 E24694.425
G1 X35.53 Y14.14 Z1.2 F243.0 E24698.377
G1 X32.8 Y13.44 Z1.2 F243.0 E24702.483
G1 X30.0 Y13.2 Z1.2 F243.0 E24706.587
G1 X27.2 Y13.44 Z1.2 F243.0 E24710.692
G1 X24.47 Y14.14 Z1.2 F243.0 E24714.797
G1 X22.01 Y15.26 Z1.2 F243.0 E24718.75
G1 X21.9 Y15.65 Z1.2 F243.0 E24719.338
G1 X26.87 Y22.52 Z1.2 F243.0 E24731.714
;M103
;M108 S7.506
G1 X28.1 Y23.44 Z1.5 F3600.0
;M101
G1 X23.44 Y28.1 Z1.5 F360.0 E24739.951
G1 X23.73 Y27.22 Z1.5 F360.0 E24741.105
G1 X27.3 Y23.65 Z1.5 F360.0 E24747.428
G1 X26.51 Y23.85 Z1.5 F360.0 E24748.455
G1 X24.63 Y25.73 Z1.5 F360.0 E24751.776
;M103
G1 X25.21 Y24.55 Z1.5 F3600.0
;M101
G1 X26.17 Y23.59 Z1.5 F360.0 E24753.47
G1 X25.92 Y23.25 Z1.5 F360.0 E24754.001
G1 X24.96 Y24.21 Z1.5 F360.0 E24755.697
G1 X24.71 Y23.86 Z1.5 F360.0 E24756.228
G1 X25.67 Y22.9 Z1.5 F360.0 E24757.928
G1 X25.42 Y22.56 Z1.5 F360.0 E24758.459
G1 X24.46 Y23.52 Z1.5 F360.0 E24760.159
G1 X24.21 Y23.18 Z1.5 F360.0 E24760.689
G1 X25.18 Y22.22 Z1.5 F360.0 E24762.391
G1 X24.93 Y21.87 Z1.5 F360.0 E24762.922
G1 X23.96 Y22.84 Z1.5 F360.0 E24764.626
G1 X23.71 Y22.49 Z1.5 F360.0 E24765.156
G1 X24.68 Y21.53 Z1.5 F360.0 E24766.863
G1 X24.43 Y21.19 Z1.5 F360.0 E24767.393
G1 X23.46 Y22.15 Z1.5 F360.0 E24769.102
G1 X23.21 Y21.81 Z1.5 F360.0 E24769.631
G1 X24.18 Y20.84 Z1.5 F360.0 E24771.341
G1 X23.93 Y20.5 Z1.5 F360.0 E24771.872
G1 X22.96 Y21.47 Z1.5 F360.0 E24773.584
G1 X22.71 Y21.12 Z1.5 F360.0 E24774.115
G1 X23.68 Y20.15 Z1.5 F360.0 E24775.828
G1 X23.43 Y19.81 Z1.5 F360.0 E24776.359
G1 X22.46 Y20.78 Z1.5 F360.0 E24778.075
G1 X22.21 Y20.44 Z1.5 F360.0 E24778.606
G1 X23.19 Y19.47 Z1.5 F360.0 E24780.323
G1 X22.94 Y19.12 Z1.5 F360.0 E24780.855
G1 X21.97 Y20.1 Z1.5 F360.0 E24782.573
G1 X21.72 Y19.75 Z1.5 F360.0 E24783.104
G1 X22.69 Y18.78 Z1.5 F360.0 E24784.826
G1 X22.44 Y18.44 Z1.5 F360.0 E24785.356
G1 X21.47 Y19.41 Z1.5 F360.0 E24787.078
G1 X21.22 Y19.07 Z1.5 F360.0 E24787.608
G1 X22.19 Y18.09 Z1.5 F360.0 E24789.333
G1 X21.94 Y17.75 Z1.5 F360.0 E24789.864
G1 X20.97 Y18.72 Z1.5 F360.0 E24791.591
G1 X20.72 Y18.38 Z1.5 F360.0 E24792.12
G1 X21.69 Y17.41 Z1.5 F360.0 E24793.849
G1 X21.44 Y17.06 Z1.5 F360.0 E24794.38
G1 X20.47 Y18.04 Z1.5 F360.0 E24796.11
G1 X20.22 Y17.7 Z1.5 F360.0 E24796.64
G1 X21.2 Y16.72 Z1.5 F360.0 E24798.373
G1 X20.95 Y16.37 Z1.5 F360.0 E24798.904
G1 X19.97 Y17.35 Z1.5 F360.0 E24800.637
G1 X19.72 Y17.01 Z1.5 F360.0 E24801.168
G1 X20.7 Y16.03 Z1.5 F360.0 E24802.905
G1 X20.73 Y15.4 Z1.5 F360.0 E24803.692
G1 X19.44 Y16.7 Z1.5 F360.0 E24805.983
;M103
G1 X19.15 Y14.03 Z1.5 F3600.0
;M101
G1 X14.16 Y19.02 Z1.5 F360.0 E24814.812
G1 X12.97 Y20.8 Z1.5 F360.0 E24817.485
;M103
G1 X14.02 Y20.93 Z1.5 F3600.0
;M101
G1 X12.08 Y22.87 Z1.5 F360.0 E24820.907
;M103
G1 X12.96 Y23.18 Z1.5 F3600.0
;M101
G1 X11.39 Y24.75 Z1.5 F360.0 E24823.695
G1 X11.64 Y23.9 Z1.5 F360.0 E24824.8
G1 X14.35 Y21.2 Z1.5 F360.0 E24829.589
G1 X15.38 Y19.58 Z1.5 F360.0 E24831.992
;M103
G1 X14.48 Y19.29 Z1.5 F3600.0
;M101
G1 X20.62 Y13.15 Z1.5 F360.0 E24842.845
;M103
G1 X22.26 Y12.7 Z1.5 F3600.0
;M101
G1 X18.31 Y16.64 Z1.5 F360.0 E24849.824
G1 X18.87 Y16.67 Z1.5 F360.0 E24850.531
G1 X23.81 Y11.73 Z1.5 F360.0 E24859.265
G1 X24.67 Y11.47 Z1.5 F360.0 E24860.387
G1 X22.35 Y13.79 Z1.5 F360.0 E24864.489
;M103
G1 X23.43 Y13.3 Z1.5 F3600.0
;M101
G1 X25.53 Y11.2 Z1.5 F360.0 E24868.194
G1 X26.35 Y10.97 Z1.5 F360.0 E24869.266
G1 X24.4 Y12.92 Z1.5 F360.0 E24872.721
G1 X25.19 Y12.72 Z1.5 F360.0 E24873.751
G1 X27.0 Y10.91 Z1.5 F360.0 E24876.947
G1 X27.65 Y10.85 Z1.5 F360.0 E24877.765
G1 X25.99 Y12.51 Z1.5 F360.0 E24880.703
G1 X26.79 Y12.31 Z1.5 F360.0 E24881.733
G1 X28.3 Y10.79 Z1.5 F360.0 E24884.413
G1 X28.96 Y10.74 Z1.5 F360.0 E24885.232
G1 X27.47 Y12.22 Z1.5 F360.0 E24887.851
G1 X28.12 Y12.16 Z1.5 F360.0 E24888.663
G1 X29.61 Y10.68 Z1.5 F360.0 E24891.291
G1 X30.26 Y10.62 Z1.5 F360.0 E24892.108
G1 X28.77 Y12.11 Z1.5 F360.0 E24894.742
G1 X29.42 Y12.05 Z1.5 F360.0 E24895.554
G1 X30.79 Y10.68 Z1.5 F360.0 E24897.988
G1 X31.32 Y10.74 Z1.5 F360.0 E24898.655
G1 X30.05 Y12.01 Z1.5 F360.0 E24900.898
G1 X30.6 Y12.05 Z1.5 F360.0 E24901.585
G1 X31.85 Y10.8 Z1.5 F360.0 E24903.796
G1 X32.38 Y10.87 Z1.5 F360.0 E24904.463
G1 X31.15 Y12.1 Z1.5 F360.0 E24906.644
G1 X31.69 Y12.15 Z1.5 F360.0 E24907.33
G1 X32.91 Y10.93 Z1.5 F360.0 E24909.479
G1 X33.44 Y10.99 Z1.5 F360.0 E24910.146
G1 X32.24 Y12.19 Z1.5 F360.0 E24912.264
G1 X32.78 Y12.24 Z1.5 F360.0 E24912.95
G1 X33.96 Y11.06 Z1.5 F360.0 E24915.037
G1 X34.46 Y11.15 Z1.5 F360.0 E24915.673
G1 X33.29 Y12.33 Z1.5 F360.0 E24917.755
G1 X33.76 Y12.45 Z1.5 F360.0 E24918.363
G1 X34.91 Y11.3 Z1.5 F360.0 E24920.394
G1 X35.35 Y11.45 Z1.5 F360.0 E24920.977
G1 X34.23 Y12.57 Z1.5 F360.0 E24922.955
G1 X34.7 Y12.69 Z1.5 F360.0 E24923.565
G1 X35.79 Y11.6 Z1.5 F360.0 E24925.49
G1 X36.23 Y11.75 Z1.5 F360.0 E24926.074
G1 X35.17 Y12.81 Z1.5 F360.0 E24927.947
G1 X35.64 Y12.93 Z1.5 F360.0 E24928.556
G1 X36.67 Y11.9 Z1.5 F360.0 E24930.376
G1 X37.11 Y12.06 Z1.5 F360.0 E24930.96
G1 X36.09 Y13.08 Z1.5 F360.0 E24932.773
G1 X36.5 Y13.26 Z1.5 F360.0 E24933.333
G1 X37.56 Y12.21 Z1.5 F360.0 E24935.206
G1 X38.0 Y12.36 Z1.5 F360.0 E24935.789
G1 X36.9 Y13.45 Z1.5 F360.0 E24937.721
G1 X37.31 Y13.63 Z1.5 F360.0 E24938.281
G1 X38.39 Y12.55 Z1.5 F360.0 E24940.19
G1 X38.76 Y12.78 Z1.5 F360.0 E24940.73
G1 X37.72 Y13.82 Z1.5 F360.0 E24942.574
G1 X38.13 Y14.0 Z1.5 F360.0 E24943.134
G1 X39.13 Y13.0 Z1.5 F360.0 E24944.912
G1 X39.5 Y13.22 Z1.5 F360.0 E24945.453
G1 X38.54 Y14.19 Z1.5 F360.0 E24947.165
G1 X38.94 Y14.37 Z1.5 F360.0 E24947.726
G1 X39.88 Y13.44 Z1.5 F360.0 E24949.373
G1 X40.25 Y13.66 Z1.5 F360.0 E24949.914
G1 X39.11 Y14.8 Z1.5 F360.0 E24951.929
G1 X39.23 Y15.27 Z1.5 F360.0 E24952.535
G1 X40.62 Y13.88 Z1.5 F360.0 E24954.987
G1 X40.99 Y14.1 Z1.5 F360.0 E24955.527
G1 X39.36 Y15.74 Z1.5 F360.0 E24958.416
;M103
G1 X38.38 Y17.3 Z1.5 F3600.0
;M101
G1 X41.36 Y14.33 Z1.5 F360.0 E24963.686
;M103
G1 X46.06 Y24.78 Z1.5 F3600.0
G1 X46.7 Y27.54 Z1.5 F3600.0
G1 X46.88 Y30.36 Z1.5 F3600.0
G1 X46.01 Y38.1 Z1.5 F3600.0
;M101
G1 X48.55 Y35.57 Z1.5 F360.0 E24968.178
G1 X48.7 Y34.83 Z1.5 F360.0 E24969.118
G1 X46.38 Y37.15 Z1.5 F360.0 E24973.219
G1 X46.21 Y36.72 Z1.5 F360.0 E24973.793
G1 X48.84 Y34.09 Z1.5 F360.0 E24978.443
G1 X48.99 Y33.35 Z1.5 F360.0 E24979.383
G1 X46.05 Y36.29 Z1.5 F360.0 E24984.582
G1 X45.87 Y35.88 Z1.5 F360.0 E24985.146
G1 X49.13 Y32.62 Z1.5 F360.0 E24990.917
G1 X49.28 Y31.88 Z1.5 F360.0 E24991.858
G1 X47.65 Y33.51 Z1.5 F360.0 E24994.744
G1 X47.72 Y32.84 Z1.5 F360.0 E24995.582
G1 X49.31 Y31.26 Z1.5 F360.0 E24998.386
G1 X49.31 Y30.67 Z1.5 F360.0 E24999.128
G1 X47.79 Y32.18 Z1.5 F360.0 E25001.803
G1 X47.87 Y31.51 Z1.5 F360.0 E25002.643
G1 X49.31 Y30.07 Z1.5 F360.0 E25005.188
G1 X49.31 Y29.48 Z1.5 F360.0 E25005.929
G1 X47.94 Y30.85 Z1.5 F360.0 E25008.344
G1 X47.98 Y30.21 Z1.5 F360.0 E25009.138
G1 X49.31 Y28.89 Z1.5 F360.0 E25011.483
G1 X49.31 Y28.29 Z1.5 F360.0 E25012.225
G1 X47.95 Y29.66 Z1.5 F360.0 E25014.633
G1 X47.91 Y29.1 Z1.5 F360.0 E25015.331
G1 X49.22 Y27.79 Z1.5 F360.0 E25017.64
G1 X49.12 Y27.3 Z1.5 F360.0 E25018.271
G1 X47.88 Y28.54 Z1.5 F360.0 E25020.469
G1 X47.84 Y27.98 Z1.5 F360.0 E25021.167
G1 X49.02 Y26.8 Z1.5 F360.0 E25023.255
G1 X48.93 Y26.31 Z1.5 F360.0 E25023.886
G1 X47.81 Y27.43 Z1.5 F360.0 E25025.863
G1 X47.7 Y26.94 Z1.5 F360.0 E25026.486
G1 X48.83 Y25.81 Z1.5 F360.0 E25028.477
G1 X48.73 Y25.32 Z1.5 F360.0 E25029.108
G1 X47.59 Y26.46 Z1.5 F360.0 E25031.125
G1 X47.48 Y25.98 Z1.5 F360.0 E25031.742
G1 X48.63 Y24.82 Z1.5 F360.0 E25033.786
G1 X48.54 Y24.33 Z1.5 F360.0 E25034.417
G1 X47.37 Y25.5 Z1.5 F360.0 E25036.489
G1 X47.25 Y25.02 Z1.5 F360.0 E25037.106
G1 X48.36 Y23.91 Z1.5 F360.0 E25039.068
G1 X48.18 Y23.5 Z1.5 F360.0 E25039.629
G1 X47.14 Y24.54 Z1.5 F360.0 E25041.465
G1 X46.98 Y24.11 Z1.5 F360.0 E25042.04
G1 X48.0 Y23.09 Z1.5 F360.0 E25043.84
G1 X47.81 Y22.68 Z1.5 F360.0 E25044.402
G1 X46.8 Y23.69 Z1.5 F360.0 E25046.189
G1 X46.63 Y23.28 Z1.5 F360.0 E25046.755
G1 X47.63 Y22.27 Z1.5 F360.0 E25048.53
G1 X47.45 Y21.86 Z1.5 F360.0 E25049.091
G1 X46.45 Y22.86 Z1.5 F360.0 E25050.853
G1 X46.28 Y22.44 Z1.5 F360.0 E25051.419
G1 X47.26 Y21.45 Z1.5 F360.0 E25053.167
G1 X47.08 Y21.04 Z1.5 F360.0 E25053.729
G1 X46.1 Y22.02 Z1.5 F360.0 E25055.464
G1 X45.92 Y21.61 Z1.5 F360.0 E25056.025
G1 X46.9 Y20.63 Z1.5 F360.0 E25057.759
G1 X46.72 Y20.22 Z1.5 F360.0 E25058.321
G1 X45.69 Y21.25 Z1.5 F360.0 E25060.138
G1 X45.46 Y20.89 Z1.5 F360.0 E25060.674
G1 X46.49 Y19.86 Z1.5 F360.0 E25062.504
G1 X46.24 Y19.51 Z1.5 F360.0 E25063.035
G1 X45.23 Y20.53 Z1.5 F360.0 E25064.831
G1 X45.0 Y20.16 Z1.5 F360.0 E25065.367
G1 X45.99 Y19.17 Z1.5 F360.0 E25067.129
G1 X45.75 Y18.82 Z1.5 F360.0 E25067.66
G1 X44.77 Y19.8 Z1.5 F360.0 E25069.39
G1 X44.54 Y19.44 Z1.5 F360.0 E25069.928
G1 X45.5 Y18.48 Z1.5 F360.0 E25071.623
G1 X45.25 Y18.14 Z1.5 F360.0 E25072.155
G1 X44.3 Y19.08 Z1.5 F360.0 E25073.826
G1 X44.02 Y18.77 Z1.5 F360.0 E25074.351
G1 X45.0 Y17.79 Z1.5 F360.0 E25076.081
G1 X44.75 Y17.45 Z1.5 F360.0 E25076.611
G1 X43.74 Y18.46 Z1.5 F360.0 E25078.401
G1 X43.46 Y18.15 Z1.5 F360.0 E25078.925
G1 X44.48 Y17.13 Z1.5 F360.0 E25080.733
G1 X44.17 Y16.85 Z1.5 F360.0 E25081.257
G1 X43.17 Y17.84 Z1.5 F360.0 E25083.021
G1 X42.89 Y17.53 Z1.5 F360.0 E25083.546
G1 X43.86 Y16.56 Z1.5 F360.0 E25085.267
G1 X43.56 Y16.27 Z1.5 F360.0 E25085.792
G1 X42.61 Y17.22 Z1.5 F360.0 E25087.467
G1 X42.33 Y16.91 Z1.5 F360.0 E25087.992
G1 X43.25 Y15.99 Z1.5 F360.0 E25089.625
G1 X42.94 Y15.7 Z1.5 F360.0 E25090.149
G1 X42.02 Y16.62 Z1.5 F360.0 E25091.777
G1 X41.4 Y16.66 Z1.5 F360.0 E25092.558
G1 X42.63 Y15.42 Z1.5 F360.0 E25094.746
G1 X42.33 Y15.13 Z1.5 F360.0 E25095.27
G1 X32.43 Y25.04 Z1.5 F360.0 E25112.787
G1 X32.81 Y25.25 Z1.5 F360.0 E25113.331
G1 X38.24 Y19.81 Z1.5 F360.0 E25122.947
;M103
G1 X36.83 Y19.45 Z1.5 F3600.0
;M101
G1 X41.71 Y14.56 Z1.5 F360.0 E25131.589
G1 X42.02 Y14.85 Z1.5 F360.0 E25132.114
G1 X35.28 Y21.59 Z1.5 F360.0 E25144.047
;M103
G1 X36.65 Y22.0 Z1.5 F3600.0
;M101
G1 X33.19 Y25.46 Z1.5 F360.0 E25150.171
G1 X33.51 Y25.73 Z1.5 F360.0 E25150.698
G1 X35.05 Y24.19 Z1.5 F360.0 E25153.418
;M103
G1 X34.88 Y24.95 Z1.5 F3600.0
;M101
G1 X33.82 Y26.02 Z1.5 F360.0 E25155.303
G1 X34.12 Y26.31 Z1.5 F360.0 E25155.827
G1 X35.11 Y25.31 Z1.5 F360.0 E25157.586
G1 X35.34 Y25.68 Z1.5 F360.0 E25158.124
G1 X34.4 Y26.62 Z1.5 F360.0 E25159.791
G1 X34.62 Y26.99 Z1.5 F360.0 E25160.331
G1 X35.57 Y26.04 Z1.5 F360.0 E25162.006
G1 X35.8 Y26.4 Z1.5 F360.0 E25162.543
G1 X34.85 Y27.35 Z1.5 F360.0 E25164.229
G1 X35.07 Y27.72 Z1.5 F360.0 E25164.768
G1 X36.03 Y26.76 Z1.5 F360.0 E25166.463
G1 X36.25 Y27.14 Z1.5 F360.0 E25167.005
G1 X35.21 Y28.17 Z1.5 F360.0 E25168.839
G1 X35.35 Y28.63 Z1.5 F360.0 E25169.434
G1 X36.39 Y27.59 Z1.5 F360.0 E25171.282
G1 X36.54 Y28.03 Z1.5 F360.0 E25171.869
G1 X35.49 Y29.08 Z1.5 F360.0 E25173.731
G1 X35.51 Y29.66 Z1.5 F360.0 E25174.445
G1 X36.68 Y28.48 Z1.5 F360.0 E25176.525
G1 X36.78 Y28.98 Z1.5 F360.0 E25177.162
G1 X35.53 Y30.23 Z1.5 F360.0 E25179.367
G1 X35.45 Y30.9 Z1.5 F360.0 E25180.209
G1 X36.81 Y29.54 Z1.5 F360.0 E25182.614
G1 X36.85 Y30.09 Z1.5 F360.0 E25183.312
G1 X35.28 Y31.66 Z1.5 F360.0 E25186.078
G1 X34.8 Y32.74 Z1.5 F360.0 E25187.557
;M103
G1 X35.63 Y31.9 Z1.5 F3600.0
;M101
G1 X36.88 Y30.65 Z1.5 F360.0 E25189.767
G1 X36.92 Y31.21 Z1.5 F360.0 E25190.465
G1 X32.23 Y35.89 Z1.5 F360.0 E25198.754
G1 X32.28 Y36.44 Z1.5 F360.0 E25199.443
G1 X37.11 Y31.61 Z1.5 F360.0 E25207.996
G1 X37.56 Y31.75 Z1.5 F360.0 E25208.584
G1 X33.26 Y36.05 Z1.5 F360.0 E25216.189
;M103
G1 X32.23 Y35.3 Z1.5 F3600.0
;M101
G1 X32.71 Y34.82 Z1.5 F360.0 E25217.03
;M103
G1 X31.3 Y36.83 Z1.5 F3600.0
;M101
G1 X30.7 Y36.83 Z1.5 F360.0 E25217.772
G1 X29.33 Y38.2 Z1.5 F360.0 E25220.204
G1 X29.33 Y38.8 Z1.5 F360.0 E25220.946
G1 X30.67 Y37.46 Z1.5 F360.0 E25223.319
G1 X30.67 Y38.05 Z1.5 F360.0 E25224.059
G1 X29.33 Y39.39 Z1.5 F360.0 E25226.436
G1 X29.33 Y39.98 Z1.5 F360.0 E25227.178
G1 X30.67 Y38.64 Z1.5 F360.0 E25229.56
G1 X30.67 Y39.23 Z1.5 F360.0 E25230.3
G1 X29.33 Y40.58 Z1.5 F360.0 E25232.684
G1 X29.32 Y41.17 Z1.5 F360.0 E25233.427
G1 X30.67 Y39.82 Z1.5 F360.0 E25235.816
G1 X30.68 Y40.41 Z1.5 F360.0 E25236.555
G1 X29.32 Y41.76 Z1.5 F360.0 E25238.947
G1 X29.32 Y42.36 Z1.5 F360.0 E25239.689
G1 X30.68 Y41.0 Z1.5 F360.0 E25242.083
G1 X30.68 Y41.59 Z1.5 F360.0 E25242.823
G1 X29.32 Y42.95 Z1.5 F360.0 E25245.222
G1 X29.32 Y43.54 Z1.5 F360.0 E25245.964
G1 X30.68 Y42.19 Z1.5 F360.0 E25248.365
G1 X30.68 Y42.78 Z1.5 F360.0 E25249.105
G1 X29.32 Y44.14 Z1.5 F360.0 E25251.511
G1 X29.32 Y44.73 Z1.5 F360.0 E25252.252
G1 X30.68 Y43.37 Z1.5 F360.0 E25254.662
G1 X30.68 Y43.96 Z1.5 F360.0 E25255.403
G1 X29.32 Y45.32 Z1.5 F360.0 E25257.815
G1 X29.32 Y45.92 Z1.5 F360.0 E25258.558
G1 X30.68 Y44.55 Z1.5 F360.0 E25260.975
G1 X30.68 Y45.14 Z1.5 F360.0 E25261.714
G1 X29.32 Y46.51 Z1.5 F360.0 E25264.134
;M103
G1 X35.32 Y47.61 Z1.5 F3600.0
;M101
G1 X34.0 Y48.94 Z1.5 F360.0 E25266.475
G1 X34.78 Y48.75 Z1.5 F360.0 E25267.482
G1 X37.02 Y46.51 Z1.5 F360.0 E25271.438
G1 X37.99 Y46.12 Z1.5 F360.0 E25272.756
;M103
G1 X38.3 Y47.0 Z1.5 F3600.0
;M101
G1 X41.78 Y43.52 Z1.5 F360.0 E25278.916
;M103
G1 X41.23 Y45.26 Z1.5 F3600.0
;M101
G1 X46.65 Y39.84 Z1.5 F360.0 E25288.512
G1 X47.28 Y38.61 Z1.5 F360.0 E25290.239
;M103
G1 X47.37 Y37.34 Z1.5 F3600.0
;M101
G1 X45.23 Y39.48 Z1.5 F360.0 E25294.032
;M103
G1 X46.31 Y39.59 Z1.5 F3600.0
;M101
G1 X38.55 Y47.35 Z1.5 F360.0 E25307.763
G1 X37.41 Y47.9 Z1.5 F360.0 E25309.342
;M103
G1 X37.25 Y46.87 Z1.5 F3600.0
;M101
G1 X35.66 Y48.46 Z1.5 F360.0 E25312.163
G1 X36.53 Y48.18 Z1.5 F360.0 E25313.316
G1 X39.49 Y45.22 Z1.5 F360.0 E25318.556
;M103
G1 X45.24 Y41.84 Z1.5 F3600.0
;M101
G1 X41.49 Y45.6 Z1.5 F360.0 E25325.201
G1 X40.02 Y46.47 Z1.5 F360.0 E25327.343
;M103
G1 X36.03 Y46.9 Z1.5 F3600.0
;M101
G1 X35.09 Y47.25 Z1.5 F360.0 E25328.608
G1 X33.32 Y49.02 Z1.5 F360.0 E25331.728
G1 X32.65 Y49.1 Z1.5 F360.0 E25332.576
G1 X34.34 Y47.41 Z1.5 F360.0 E25335.566
G1 X33.59 Y47.56 Z1.5 F360.0 E25336.52
G1 X31.98 Y49.18 Z1.5 F360.0 E25339.38
G1 X31.31 Y49.26 Z1.5 F360.0 E25340.228
G1 X32.85 Y47.72 Z1.5 F360.0 E25342.956
G1 X32.1 Y47.87 Z1.5 F360.0 E25343.909
G1 X30.63 Y49.34 Z1.5 F360.0 E25346.508
G1 X30.0 Y49.38 Z1.5 F360.0 E25347.305
G1 X31.66 Y47.72 Z1.5 F360.0 E25350.245
G1 X31.33 Y47.46 Z1.5 F360.0 E25350.772
G1 X29.44 Y49.35 Z1.5 F360.0 E25354.123
G1 X28.91 Y49.29 Z1.5 F360.0 E25354.789
G1 X31.0 Y47.19 Z1.5 F360.0 E25358.498
G1 X30.69 Y46.92 Z1.5 F360.0 E25359.023
G1 X28.38 Y49.23 Z1.5 F360.0 E25363.106
G1 X27.85 Y49.16 Z1.5 F360.0 E25363.773
G1 X30.69 Y46.33 Z1.5 F360.0 E25368.79
G1 X30.68 Y45.73 Z1.5 F360.0 E25369.529
G1 X27.32 Y49.1 Z1.5 F360.0 E25375.481
G1 X26.79 Y49.04 Z1.5 F360.0 E25376.147
G1 X27.95 Y47.88 Z1.5 F360.0 E25378.189
G1 X27.45 Y47.78 Z1.5 F360.0 E25378.816
G1 X26.26 Y48.97 Z1.5 F360.0 E25380.925
G1 X25.73 Y48.91 Z1.5 F360.0 E25381.592
G1 X26.96 Y47.68 Z1.5 F360.0 E25383.768
G1 X26.47 Y47.58 Z1.5 F360.0 E25384.395
G1 X25.28 Y48.76 Z1.5 F360.0 E25386.497
G1 X24.84 Y48.61 Z1.5 F360.0 E25387.081
G1 X25.98 Y47.48 Z1.5 F360.0 E25389.095
G1 X25.49 Y47.37 Z1.5 F360.0 E25389.723
G1 X24.4 Y48.46 Z1.5 F360.0 E25391.65
G1 X23.96 Y48.31 Z1.5 F360.0 E25392.235
G1 X25.0 Y47.27 Z1.5 F360.0 E25394.074
G1 X24.55 Y47.13 Z1.5 F360.0 E25394.665
G1 X23.52 Y48.16 Z1.5 F360.0 E25396.489
G1 X23.08 Y48.01 Z1.5 F360.0 E25397.073
G1 X24.12 Y46.96 Z1.5 F360.0 E25398.927
G1 X23.7 Y46.79 Z1.5 F360.0 E25399.498
G1 X22.63 Y47.86 Z1.5 F360.0 E25401.383
G1 X22.19 Y47.71 Z1.5 F360.0 E25401.966
G1 X23.28 Y46.63 Z1.5 F360.0 E25403.88
G1 X22.85 Y46.46 Z1.5 F360.0 E25404.451
G1 X21.77 Y47.54 Z1.5 F360.0 E25406.367
G1 X21.4 Y47.32 Z1.5 F360.0 E25406.907
G1 X22.43 Y46.29 Z1.5 F360.0 E25408.728
G1 X22.0 Y46.12 Z1.5 F360.0 E25409.299
G1 X21.03 Y47.1 Z1.5 F360.0 E25411.026
G1 X20.66 Y46.88 Z1.5 F360.0 E25411.566
G1 X21.63 Y45.9 Z1.5 F360.0 E25413.296
G1 X21.26 Y45.68 Z1.5 F360.0 E25413.835
G1 X20.28 Y46.66 Z1.5 F360.0 E25415.569
G1 X19.91 Y46.43 Z1.5 F360.0 E25416.11
G1 X20.9 Y45.45 Z1.5 F360.0 E25417.847
G1 X20.53 Y45.23 Z1.5 F360.0 E25418.387
G1 X19.54 Y46.21 Z1.5 F360.0 E25420.128
G1 X19.17 Y45.99 Z1.5 F360.0 E25420.668
G1 X20.16 Y45.01 Z1.5 F360.0 E25422.412
G1 X19.79 Y44.78 Z1.5 F360.0 E25422.952
G1 X18.8 Y45.77 Z1.5 F360.0 E25424.7
G1 X18.43 Y45.55 Z1.5 F360.0 E25425.241
G1 X19.42 Y44.56 Z1.5 F360.0 E25426.993
G1 X19.1 Y44.28 Z1.5 F360.0 E25427.518
G1 X18.11 Y45.27 Z1.5 F360.0 E25429.268
G1 X17.81 Y44.99 Z1.5 F360.0 E25429.792
G1 X18.78 Y44.01 Z1.5 F360.0 E25431.523
G1 X18.47 Y43.74 Z1.5 F360.0 E25432.048
G1 X17.5 Y44.7 Z1.5 F360.0 E25433.761
G1 X17.19 Y44.42 Z1.5 F360.0 E25434.285
G1 X18.15 Y43.46 Z1.5 F360.0 E25435.979
G1 X17.83 Y43.19 Z1.5 F360.0 E25436.503
G1 X16.88 Y44.13 Z1.5 F360.0 E25438.178
G1 X16.58 Y43.85 Z1.5 F360.0 E25438.702
G1 X17.51 Y42.91 Z1.5 F360.0 E25440.359
G1 X17.19 Y42.64 Z1.5 F360.0 E25440.884
G1 X16.27 Y43.56 Z1.5 F360.0 E25442.523
G1 X15.96 Y43.28 Z1.5 F360.0 E25443.047
G1 X16.92 Y42.32 Z1.5 F360.0 E25444.739
G1 X16.65 Y42.0 Z1.5 F360.0 E25445.265
G1 X15.65 Y42.99 Z1.5 F360.0 E25447.025
G1 X15.36 Y42.7 Z1.5 F360.0 E25447.549
G1 X16.38 Y41.67 Z1.5 F360.0 E25449.36
G1 X16.11 Y41.35 Z1.5 F360.0 E25449.887
G1 X15.11 Y42.35 Z1.5 F360.0 E25451.665
G1 X14.86 Y42.01 Z1.5 F360.0 E25452.196
G1 X15.85 Y41.02 Z1.5 F360.0 E25453.94
G1 X15.58 Y40.7 Z1.5 F360.0 E25454.466
G1 X14.61 Y41.67 Z1.5 F360.0 E25456.176
G1 X14.36 Y41.32 Z1.5 F360.0 E25456.706
G1 X15.31 Y40.38 Z1.5 F360.0 E25458.383
G1 X15.08 Y40.02 Z1.5 F360.0 E25458.92
G1 X14.11 Y40.98 Z1.5 F360.0 E25460.623
G1 X13.86 Y40.64 Z1.5 F360.0 E25461.154
G1 X14.86 Y39.64 Z1.5 F360.0 E25462.917
G1 X14.65 Y39.26 Z1.5 F360.0 E25463.461
G1 X13.61 Y40.29 Z1.5 F360.0 E25465.286
G1 X13.37 Y39.95 Z1.5 F360.0 E25465.818
G1 X14.43 Y38.88 Z1.5 F360.0 E25467.702
G1 X14.22 Y38.51 Z1.5 F360.0 E25468.245
G1 X13.18 Y39.54 Z1.5 F360.0 E25470.076
G1 X13.0 Y39.13 Z1.5 F360.0 E25470.637
G1 X14.0 Y38.13 Z1.5 F360.0 E25472.412
G1 X13.79 Y37.75 Z1.5 F360.0 E25472.955
G1 X12.82 Y38.72 Z1.5 F360.0 E25474.672
G1 X12.63 Y38.31 Z1.5 F360.0 E25475.234
G1 X13.57 Y37.38 Z1.5 F360.0 E25476.893
G1 X13.88 Y36.47 Z1.5 F360.0 E25478.089
G1 X12.45 Y37.9 Z1.5 F360.0 E25480.623
G1 X12.27 Y37.49 Z1.5 F360.0 E25481.185
G1 X15.89 Y33.87 Z1.5 F360.0 E25487.604
G1 X15.02 Y34.15 Z1.5 F360.0 E25488.754
G1 X12.08 Y37.09 Z1.5 F360.0 E25493.948
G1 X11.9 Y36.67 Z1.5 F360.0 E25494.51
G1 X14.14 Y34.43 Z1.5 F360.0 E25498.48
G1 X13.51 Y34.47 Z1.5 F360.0 E25499.271
G1 X11.72 Y36.27 Z1.5 F360.0 E25502.448
G1 X11.54 Y35.86 Z1.5 F360.0 E25503.009
G1 X13.15 Y34.24 Z1.5 F360.0 E25505.873
G1 X12.79 Y34.01 Z1.5 F360.0 E25506.408
G1 X11.41 Y35.39 Z1.5 F360.0 E25508.857
G1 X11.31 Y34.89 Z1.5 F360.0 E25509.488
G1 X12.43 Y33.77 Z1.5 F360.0 E25511.471
G1 X12.33 Y33.28 Z1.5 F360.0 E25512.095
G1 X11.21 Y34.4 Z1.5 F360.0 E25514.067
G1 X11.12 Y33.9 Z1.5 F360.0 E25514.698
G1 X12.27 Y32.75 Z1.5 F360.0 E25516.736
G1 X12.21 Y32.22 Z1.5 F360.0 E25517.407
G1 X11.02 Y33.41 Z1.5 F360.0 E25519.513
G1 X10.92 Y32.91 Z1.5 F360.0 E25520.144
G1 X12.15 Y31.69 Z1.5 F360.0 E25522.319
G1 X12.09 Y31.15 Z1.5 F360.0 E25522.99
G1 X10.83 Y32.42 Z1.5 F360.0 E25525.231
G1 X10.73 Y31.92 Z1.5 F360.0 E25525.862
G1 X12.03 Y30.62 Z1.5 F360.0 E25528.172
G1 X12.03 Y30.03 Z1.5 F360.0 E25528.909
G1 X10.69 Y31.37 Z1.5 F360.0 E25531.274
G1 X10.69 Y30.77 Z1.5 F360.0 E25532.016
G1 X12.07 Y29.4 Z1.5 F360.0 E25534.451
G1 X12.11 Y28.77 Z1.5 F360.0 E25535.243
G1 X10.69 Y30.18 Z1.5 F360.0 E25537.746
G1 X10.69 Y29.59 Z1.5 F360.0 E25538.488
G1 X12.15 Y28.13 Z1.5 F360.0 E25541.06
G1 X12.19 Y27.5 Z1.5 F360.0 E25541.853
G1 X10.69 Y29.0 Z1.5 F360.0 E25544.495
G1 X10.7 Y28.4 Z1.5 F360.0 E25545.237
G1 X12.34 Y26.76 Z1.5 F360.0 E25548.147
G1 X12.52 Y25.98 Z1.5 F360.0 E25549.142
G1 X10.81 Y27.7 Z1.5 F360.0 E25552.179
G1 X10.95 Y26.96 Z1.5 F360.0 E25553.119
G1 X12.7 Y25.21 Z1.5 F360.0 E25556.22
G1 X12.89 Y24.44 Z1.5 F360.0 E25557.216
G1 X11.1 Y26.23 Z1.5 F360.0 E25560.383
G1 X11.24 Y25.49 Z1.5 F360.0 E25561.323
G1 X13.32 Y23.41 Z1.5 F360.0 E25564.994
G1 X13.75 Y22.39 Z1.5 F360.0 E25566.382
;M103
G1 X12.53 Y21.83 Z1.5 F3600.0
;M101
G1 X22.02 Y12.33 Z1.5 F360.0 E25583.185
G1 X22.96 Y12.0 Z1.5 F360.0 E25584.424
;M103
G1 X21.87 Y15.66 Z1.5 F3600.0
G1 X26.88 Y22.51 Z1.5 F3600.0
G1 X33.12 Y23.75 Z1.5 F3600.0
;M101
G1 X32.04 Y24.83 Z1.5 F360.0 E25586.333
G1 X31.57 Y24.71 Z1.5 F360.0 E25586.939
G1 X32.65 Y23.63 Z1.5 F360.0 E25588.845
G1 X32.17 Y23.51 Z1.5 F360.0 E25589.454
G1 X31.1 Y24.59 Z1.5 F360.0 E25591.356
G1 X30.61 Y24.48 Z1.5 F360.0 E25591.983
G1 X31.7 Y23.39 Z1.5 F360.0 E25593.919
G1 X31.23 Y23.27 Z1.5 F360.0 E25594.528
G1 X30.02 Y24.48 Z1.5 F360.0 E25596.677
G1 X29.42 Y24.48 Z1.5 F360.0 E25597.419
G1 X30.73 Y23.17 Z1.5 F360.0 E25599.737
G1 X30.14 Y23.17 Z1.5 F360.0 E25600.478
G1 X28.67 Y24.65 Z1.5 F360.0 E25603.082
G1 X27.83 Y24.89 Z1.5 F360.0 E25604.173
G1 X29.55 Y23.17 Z1.5 F360.0 E25607.21
G1 X28.89 Y23.24 Z1.5 F360.0 E25608.034
G1 X23.23 Y28.9 Z1.5 F360.0 E25618.051
G1 X23.19 Y29.53 Z1.5 F360.0 E25618.845
G1 X24.89 Y27.83 Z1.5 F360.0 E25621.857
G1 X24.64 Y28.68 Z1.5 F360.0 E25622.965
G1 X23.15 Y30.17 Z1.5 F360.0 E25625.596
G1 X23.11 Y30.8 Z1.5 F360.0 E25626.39
G1 X24.5 Y29.41 Z1.5 F360.0 E25628.854
G1 X24.48 Y30.02 Z1.5 F360.0 E25629.625
G1 X20.8 Y33.7 Z1.5 F360.0 E25636.129
G1 X21.68 Y33.41 Z1.5 F360.0 E25637.287
G1 X24.48 Y30.61 Z1.5 F360.0 E25642.243
G1 X24.59 Y31.09 Z1.5 F360.0 E25642.863
G1 X22.56 Y33.12 Z1.5 F360.0 E25646.454
G1 X23.44 Y32.83 Z1.5 F360.0 E25647.612
G1 X24.7 Y31.58 Z1.5 F360.0 E25649.836
G1 X24.84 Y32.03 Z1.5 F360.0 E25650.426
G1 X23.73 Y33.14 Z1.5 F360.0 E25652.386
G1 X24.0 Y33.46 Z1.5 F360.0 E25652.913
G1 X25.04 Y32.42 Z1.5 F360.0 E25654.752
G1 X25.24 Y32.81 Z1.5 F360.0 E25655.302
G1 X24.27 Y33.78 Z1.5 F360.0 E25657.022
G1 X24.54 Y34.11 Z1.5 F360.0 E25657.549
G1 X25.45 Y33.19 Z1.5 F360.0 E25659.169
G1 X25.73 Y33.51 Z1.5 F360.0 E25659.693
G1 X24.81 Y34.43 Z1.5 F360.0 E25661.332
G1 X25.08 Y34.76 Z1.5 F360.0 E25661.858
G1 X26.01 Y33.82 Z1.5 F360.0 E25663.516
G1 X26.29 Y34.13 Z1.5 F360.0 E25664.041
G1 X25.36 Y35.07 Z1.5 F360.0 E25665.695
G1 X25.7 Y35.31 Z1.5 F360.0 E25666.225
G1 X26.63 Y34.39 Z1.5 F360.0 E25667.869
G1 X26.99 Y34.62 Z1.5 F360.0 E25668.403
G1 X26.04 Y35.56 Z1.5 F360.0 E25670.07
G1 X26.39 Y35.81 Z1.5 F360.0 E25670.601
G1 X27.34 Y34.86 Z1.5 F360.0 E25672.292
G1 X27.74 Y35.06 Z1.5 F360.0 E25672.844
G1 X26.74 Y36.05 Z1.5 F360.0 E25674.602
G1 X27.17 Y36.22 Z1.5 F360.0 E25675.173
G1 X27.77 Y35.62 Z1.5 F360.0 E25676.238
G1 X27.77 Y36.21 Z1.5 F360.0 E25676.98
G1 X27.59 Y36.39 Z1.5 F360.0 E25677.295
;M103
G1 X28.86 Y36.89 Z1.5 F3600.0
;M101
G1 X28.93 Y36.83 Z1.5 F360.0 E25677.409
G1 X29.29 Y37.06 Z1.5 F360.0 E25677.945
G1 X29.52 Y36.83 Z1.5 F360.0 E25678.357
G1 X30.11 Y36.83 Z1.5 F360.0 E25679.098
G1 X29.33 Y37.61 Z1.5 F360.0 E25680.48
;M103
G1 X36.94 Y32.96 Z1.5 F3600.0
;M101
G1 X38.01 Y31.9 Z1.5 F360.0 E25682.361
G1 X38.45 Y32.04 Z1.5 F360.0 E25682.95
G1 X37.39 Y33.1 Z1.5 F360.0 E25684.834
G1 X37.84 Y33.25 Z1.5 F360.0 E25685.422
G1 X38.9 Y32.19 Z1.5 F360.0 E25687.308
G1 X39.35 Y32.33 Z1.5 F360.0 E25687.896
G1 X38.28 Y33.4 Z1.5 F360.0 E25689.783
G1 X38.73 Y33.54 Z1.5 F360.0 E25690.372
G1 X39.8 Y32.48 Z1.5 F360.0 E25692.261
G1 X40.24 Y32.62 Z1.5 F360.0 E25692.85
G1 X39.17 Y33.69 Z1.5 F360.0 E25694.743
G1 X39.62 Y33.84 Z1.5 F360.0 E25695.331
G1 X40.69 Y32.76 Z1.5 F360.0 E25697.226
G1 X41.14 Y32.91 Z1.5 F360.0 E25697.815
G1 X40.07 Y33.98 Z1.5 F360.0 E25699.713
G1 X40.51 Y34.13 Z1.5 F360.0 E25700.3
G1 X41.59 Y33.05 Z1.5 F360.0 E25702.2
G1 X42.04 Y33.2 Z1.5 F360.0 E25702.789
G1 X40.96 Y34.27 Z1.5 F360.0 E25704.691
G1 X41.41 Y34.42 Z1.5 F360.0 E25705.278
G1 X42.48 Y33.34 Z1.5 F360.0 E25707.183
G1 X42.93 Y33.49 Z1.5 F360.0 E25707.773
G1 X41.85 Y34.57 Z1.5 F360.0 E25709.68
G1 X42.3 Y34.71 Z1.5 F360.0 E25710.267
G1 X43.38 Y33.63 Z1.5 F360.0 E25712.178
G1 X43.83 Y33.78 Z1.5 F360.0 E25712.765
G1 X42.75 Y34.86 Z1.5 F360.0 E25714.677
G1 X43.19 Y35.0 Z1.5 F360.0 E25715.264
G1 X44.27 Y33.92 Z1.5 F360.0 E25717.178
G1 X44.72 Y34.07 Z1.5 F360.0 E25717.767
G1 X43.64 Y35.15 Z1.5 F360.0 E25719.683
G1 X44.09 Y35.29 Z1.5 F360.0 E25720.27
G1 X45.17 Y34.21 Z1.5 F360.0 E25722.189
G1 X45.62 Y34.35 Z1.5 F360.0 E25722.778
G1 X44.53 Y35.44 Z1.5 F360.0 E25724.699
G1 X44.98 Y35.59 Z1.5 F360.0 E25725.286
G1 X46.07 Y34.5 Z1.5 F360.0 E25727.209
;M103
G1 X47.05 Y34.1 Z1.5 F3600.0
;M101
G1 X45.42 Y35.73 Z1.5 F360.0 E25730.087
;M103
G1 X43.56 Y41.74 Z1.5 F3600.0
;M101
G1 X47.73 Y37.58 Z1.5 F360.0 E25737.454
G1 X48.17 Y36.54 Z1.5 F360.0 E25738.866
;M103
G1 X36.93 Y34.22 Z1.5 F3600.0
G1 X36.7 Y34.35 Z1.5 F3600.0
G1 X32.1 Y33.9 Z1.5 F3600.0
G1 X31.96 Y33.98 Z1.5 F3600.0
G1 X31.02 Y34.2 Z1.5 F3600.0
G1 X30.98 Y35.57 Z1.5 F3600.0
G1 X29.02 Y35.57 Z1.5 F3600.0
G1 X28.98 Y34.2 Z1.5 F3600.0
G1 X22.02 Y31.89 Z1.5 F3600.0
;M101
G1 X19.92 Y33.98 Z1.5 F360.0 E25742.572
G1 X19.04 Y34.27 Z1.5 F360.0 E25743.732
G1 X21.14 Y32.17 Z1.5 F360.0 E25747.449
G1 X20.27 Y32.45 Z1.5 F360.0 E25748.599
G1 X18.16 Y34.56 Z1.5 F360.0 E25752.325
G1 X17.28 Y34.85 Z1.5 F360.0 E25753.483
G1 X19.39 Y32.74 Z1.5 F360.0 E25757.218
G1 X18.52 Y33.02 Z1.5 F360.0 E25758.369
G1 X16.4 Y35.14 Z1.5 F360.0 E25762.113
G1 X15.52 Y35.42 Z1.5 F360.0 E25763.272
G1 X17.64 Y33.3 Z1.5 F360.0 E25767.026
G1 X16.77 Y33.58 Z1.5 F360.0 E25768.176
G1 X14.64 Y35.71 Z1.5 F360.0 E25771.939
;M103
G1 X14.72 Y36.5 Z1.5 F3600.0
;M101
G1 X14.7 Y36.51 Z1.5 F360.0 E25771.967
G1 X14.4 Y37.27 Z1.5 F360.0 E25772.992
G1 X15.86 Y39.82 Z1.5 F360.0 E25776.665
G1 X17.7 Y42.05 Z1.5 F360.0 E25780.275
G1 X19.88 Y43.93 Z1.5 F360.0 E25783.883
G1 X22.35 Y45.43 Z1.5 F360.0 E25787.492
G1 X25.03 Y46.49 Z1.5 F360.0 E25791.1
G1 X27.9 Y47.08 Z1.5 F360.0 E25794.773
G1 X28.54 Y46.57 Z1.5 F360.0 E25795.798
G1 X28.56 Y37.6 Z1.5 F360.0 E25807.007
G1 X26.31 Y36.71 Z1.5 F360.0 E25810.035
G1 X24.76 Y35.59 Z1.5 F360.0 E25812.429
G1 X23.21 Y33.72 Z1.5 F360.0 E25815.456
G1 X14.72 Y36.5 Z1.5 F360.0 E25826.635
;M103
G1 X14.59 Y36.1 Z1.5 F3600.0
;M101
G1 X14.38 Y36.17 Z1.5 F360.0 E25826.912
G1 X13.94 Y37.31 Z1.5 F360.0 E25828.433
G1 X15.51 Y40.06 Z1.5 F360.0 E25832.401
G1 X17.4 Y42.34 Z1.5 F360.0 E25836.1
G1 X19.63 Y44.27 Z1.5 F360.0 E25839.796
G1 X22.16 Y45.8 Z1.5 F360.0 E25843.493
G1 X24.91 Y46.89 Z1.5 F360.0 E25847.191
G1 X28.01 Y47.53 Z1.5 F360.0 E25851.157
G1 X28.96 Y46.77 Z1.5 F360.0 E25852.679
G1 X28.98 Y37.32 Z1.5 F360.0 E25864.495
G1 X26.51 Y36.34 Z1.5 F360.0 E25867.813
G1 X25.05 Y35.28 Z1.5 F360.0 E25870.075
G1 X23.36 Y33.24 Z1.5 F360.0 E25873.392
G1 X14.59 Y36.1 Z1.5 F360.0 E25884.928
;M103
G1 X13.8 Y33.73 Z1.5 F3600.0
;M101
G1 X22.32 Y30.98 Z1.5 F360.0 E25896.135
G1 X22.48 Y28.56 Z1.5 F360.0 E25899.164
G1 X23.07 Y26.74 Z1.5 F360.0 E25901.558
G1 X24.36 Y24.7 Z1.5 F360.0 E25904.586
G1 X19.08 Y17.45 Z1.5 F360.0 E25915.798
G1 X18.26 Y17.42 Z1.5 F360.0 E25916.822
G1 X16.29 Y19.58 Z1.5 F360.0 E25920.492
G1 X14.74 Y22.02 Z1.5 F360.0 E25924.103
G1 X13.62 Y24.68 Z1.5 F360.0 E25927.711
G1 X12.97 Y27.49 Z1.5 F360.0 E25931.319
G1 X12.78 Y30.37 Z1.5 F360.0 E25934.927
G1 X13.11 Y33.29 Z1.5 F360.0 E25938.603
G1 X13.8 Y33.73 Z1.5 F360.0 E25939.627
;M103
G1 X13.74 Y34.19 Z1.5 F3600.0
;M101
G1 X22.72 Y31.29 Z1.5 F360.0 E25951.44
G1 X22.89 Y28.64 Z1.5 F360.0 E25954.759
G1 X23.45 Y26.92 Z1.5 F360.0 E25957.02
G1 X24.87 Y24.68 Z1.5 F360.0 E25960.338
G1 X19.3 Y17.05 Z1.5 F360.0 E25972.157
G1 X18.09 Y16.99 Z1.5 F360.0 E25973.678
G1 X15.95 Y19.33 Z1.5 F360.0 E25977.642
G1 X14.37 Y21.83 Z1.5 F360.0 E25981.342
G1 X13.22 Y24.55 Z1.5 F360.0 E25985.038
G1 X12.55 Y27.43 Z1.5 F360.0 E25988.735
G1 X12.36 Y30.38 Z1.5 F360.0 E25992.432
G1 X12.71 Y33.53 Z1.5 F360.0 E25996.402
G1 X13.74 Y34.19 Z1.5 F360.0 E25997.922
;M103
G1 X21.91 Y30.66 Z1.5 F3600.0
G1 X26.7 Y23.0 Z1.5 F3600.0
;M101
G1 X29.04 Y22.4 Z1.5 F360.0 E26000.949
G1 X30.96 Y22.4 Z1.5 F360.0 E26003.344
G1 X33.3 Y23.0 Z1.5 F360.0 E26006.371
G1 X38.56 Y15.74 Z1.5 F360.0 E26017.58
G1 X38.35 Y14.95 Z1.5 F360.0 E26018.603
G1 X35.67 Y13.74 Z1.5 F360.0 E26022.279
G1 X32.87 Y13.02 Z1.5 F360.0 E26025.889
G1 X30.0 Y12.78 Z1.5 F360.0 E26029.496
G1 X27.13 Y13.02 Z1.5 F360.0 E26033.102
G1 X24.33 Y13.74 Z1.5 F360.0 E26036.712
G1 X21.66 Y14.95 Z1.5 F360.0 E26040.388
G1 X21.45 Y15.74 Z1.5 F360.0 E26041.411
G1 X26.7 Y23.0 Z1.5 F360.0 E26052.62
;M103
G1 X26.8 Y23.4 Z1.5 F3600.0
;M101
G1 X29.1 Y22.82 Z1.5 F360.0 E26055.581
G1 X30.9 Y22.82 Z1.5 F360.0 E26057.843
G1 X33.47 Y23.48 Z1.5 F360.0 E26061.161
G1 X39.01 Y15.83 Z1.5 F360.0 E26072.975
G1 X38.7 Y14.65 Z1.5 F360.0 E26074.497
G1 X35.81 Y13.34 Z1.5 F360.0 E26078.464
G1 X32.94 Y12.61 Z1.5 F360.0 E26082.165
G1 X30.0 Y12.36 Z1.5 F360.0 E26085.859
G1 X27.06 Y12.61 Z1.5 F360.0 E26089.554
G1 X24.19 Y13.34 Z1.5 F360.0 E26093.254
G1 X21.3 Y14.65 Z1.5 F360.0 E26097.222
G1 X20.99 Y15.83 Z1.5 F360.0 E26098.743
G1 X26.36 Y23.24 Z1.5 F360.0 E26110.201
G1 X26.53 Y23.48 Z1.5 F360.0 E26110.557
G1 X26.8 Y23.4 Z1.5 F360.0 E26110.915
;M103
G1 X28.21 Y25.57 Z1.5 F3600.0
;M101
G1 X27.8 Y25.8 Z1.5 F360.0 E26111.512
G1 X27.15 Y26.16 Z1.5 F360.0 E26112.441
G1 X26.27 Y27.01 Z1.5 F360.0 E26113.964
G1 X25.64 Y28.05 Z1.5 F360.0 E26115.489
G1 X25.28 Y29.22 Z1.5 F360.0 E26117.014
G1 X25.24 Y30.44 Z1.5 F360.0 E26118.54
G1 X25.5 Y31.62 Z1.5 F360.0 E26120.064
G1 X26.06 Y32.71 Z1.5 F360.0 E26121.589
G1 X26.87 Y33.62 Z1.5 F360.0 E26123.114
G1 X27.89 Y34.29 Z1.5 F360.0 E26124.64
G1 X28.54 Y34.51 Z1.5 F360.0 E26125.502
G1 X28.54 Y36.05 Z1.5 F360.0 E26127.429
G1 X31.46 Y36.05 Z1.5 F360.0 E26131.074
G1 X31.46 Y34.51 Z1.5 F360.0 E26133.0
G1 X32.11 Y34.29 Z1.5 F360.0 E26133.862
G1 X33.13 Y33.62 Z1.5 F360.0 E26135.388
G1 X33.94 Y32.71 Z1.5 F360.0 E26136.913
G1 X34.5 Y31.62 Z1.5 F360.0 E26138.439
G1 X34.76 Y30.44 Z1.5 F360.0 E26139.963
G1 X34.72 Y29.22 Z1.5 F360.0 E26141.489
G1 X34.36 Y28.05 Z1.5 F360.0 E26143.014
G1 X33.73 Y27.01 Z1.5 F360.0 E26144.538
G1 X32.85 Y26.16 Z1.5 F360.0 E26146.062
G1 X31.79 Y25.57 Z1.5 F360.0 E26147.587
G1 X30.61 Y25.26 Z1.5 F360.0 E26149.112
G1 X29.39 Y25.26 Z1.5 F360.0 E26150.638
G1 X28.21 Y25.57 Z1.5 F360.0 E26152.162
;M103
G1 X28.05 Y25.18 Z1.5 F3600.0
;M101
G1 X27.59 Y25.44 Z1.5 F360.0 E26152.826
G1 X26.9 Y25.83 Z1.5 F360.0 E26153.822
G1 X25.94 Y26.74 Z1.5 F360.0 E26155.48
G1 X25.25 Y27.88 Z1.5 F360.0 E26157.14
G1 X24.87 Y29.15 Z1.5 F360.0 E26158.8
G1 X24.82 Y30.47 Z1.5 F360.0 E26160.46
G1 X25.11 Y31.77 Z1.5 F360.0 E26162.12
G1 X25.71 Y32.95 Z1.5 F360.0 E26163.779
G1 X26.6 Y33.94 Z1.5 F360.0 E26165.438
G1 X27.7 Y34.67 Z1.5 F360.0 E26167.099
G1 X28.12 Y34.81 Z1.5 F360.0 E26167.654
G1 X28.12 Y36.47 Z1.5 F360.0 E26169.73
G1 X31.88 Y36.47 Z1.5 F360.0 E26174.424
G1 X31.88 Y34.81 Z1.5 F360.0 E26176.499
G1 X32.3 Y34.67 Z1.5 F360.0 E26177.054
G1 X33.4 Y33.94 Z1.5 F360.0 E26178.715
G1 X34.29 Y32.95 Z1.5 F360.0 E26180.374
G1 X34.89 Y31.77 Z1.5 F360.0 E26182.034
G1 X35.18 Y30.47 Z1.5 F360.0 E26183.694
G1 X35.13 Y29.15 Z1.5 F360.0 E26185.354
G1 X34.75 Y27.88 Z1.5 F360.0 E26187.013
G1 X34.06 Y26.74 Z1.5 F360.0 E26188.673
G1 X33.1 Y25.83 Z1.5 F360.0 E26190.331
G1 X31.95 Y25.18 Z1.5 F360.0 E26191.992
G1 X30.66 Y24.84 Z1.5 F360.0 E26193.652
G1 X29.34 Y24.84 Z1.5 F360.0 E26195.31
G1 X28.05 Y25.18 Z1.5 F360.0 E26196.97
;M103
G1 X35.64 Y24.7 Z1.5 F3600.0
;M101
G1 X36.93 Y26.74 Z1.5 F360.0 E26199.998
G1 X37.53 Y28.56 Z1.5 F360.0 E26202.392
G1 X37.68 Y30.98 Z1.5 F360.0 E26205.421
G1 X46.2 Y33.73 Z1.5 F360.0 E26216.628
G1 X46.89 Y33.29 Z1.5 F360.0 E26217.652
G1 X47.22 Y30.37 Z1.5 F360.0 E26221.327
G1 X47.04 Y27.49 Z1.5 F360.0 E26224.936
G1 X46.38 Y24.68 Z1.5 F360.0 E26228.544
G1 X45.26 Y22.02 Z1.5 F360.0 E26232.151
G1 X43.71 Y19.58 Z1.5 F360.0 E26235.762
G1 X41.74 Y17.42 Z1.5 F360.0 E26239.433
G1 X40.92 Y17.45 Z1.5 F360.0 E26240.456
G1 X35.64 Y24.7 Z1.5 F360.0 E26251.669
;M103
G1 X35.3 Y24.45 Z1.5 F3600.0
;M101
G1 X35.13 Y24.68 Z1.5 F360.0 E26252.025
G1 X35.28 Y24.92 Z1.5 F360.0 E26252.381
G1 X36.55 Y26.92 Z1.5 F360.0 E26255.343
G1 X37.11 Y28.64 Z1.5 F360.0 E26257.604
G1 X37.28 Y31.29 Z1.5 F360.0 E26260.924
G1 X46.27 Y34.19 Z1.5 F360.0 E26272.736
G1 X47.29 Y33.53 Z1.5 F360.0 E26274.257
G1 X47.64 Y30.38 Z1.5 F360.0 E26278.226
G1 X47.45 Y27.43 Z1.5 F360.0 E26281.924
G1 X46.78 Y24.55 Z1.5 F360.0 E26285.621
G1 X45.63 Y21.83 Z1.5 F360.0 E26289.317
G1 X44.05 Y19.33 Z1.5 F360.0 E26293.017
G1 X41.91 Y16.99 Z1.5 F360.0 E26296.981
G1 X40.7 Y17.05 Z1.5 F360.0 E26298.502
G1 X35.3 Y24.45 Z1.5 F360.0 E26309.965
;M103
G1 X36.79 Y33.72 Z1.5 F3600.0
;M101
G1 X35.24 Y35.59 Z1.5 F360.0 E26312.991
G1 X33.69 Y36.71 Z1.5 F360.0 E26315.385
G1 X31.45 Y37.6 Z1.5 F360.0 E26318.413
G1 X31.46 Y46.57 Z1.5 F360.0 E26329.622
G1 X32.1 Y47.08 Z1.5 F360.0 E26330.647
G1 X34.97 Y46.49 Z1.5 F360.0 E26334.32
G1 X37.65 Y45.43 Z1.5 F360.0 E26337.928
G1 X40.12 Y43.93 Z1.5 F360.0 E26341.537
G1 X42.31 Y42.05 Z1.5 F360.0 E26345.145
G1 X44.14 Y39.82 Z1.5 F360.0 E26348.755
G1 X45.6 Y37.27 Z1.5 F360.0 E26352.428
G1 X45.3 Y36.51 Z1.5 F360.0 E26353.453
G1 X36.79 Y33.72 Z1.5 F360.0 E26364.661
;M103
G1 X36.92 Y33.33 Z1.5 F3600.0
;M101
G1 X36.65 Y33.24 Z1.5 F360.0 E26365.017
G1 X34.95 Y35.28 Z1.5 F360.0 E26368.335
G1 X33.49 Y36.34 Z1.5 F360.0 E26370.597
G1 X31.03 Y37.32 Z1.5 F360.0 E26373.915
G1 X31.04 Y46.77 Z1.5 F360.0 E26385.731
G1 X31.99 Y47.53 Z1.5 F360.0 E26387.253
G1 X35.09 Y46.89 Z1.5 F360.0 E26391.219
G1 X37.84 Y45.8 Z1.5 F360.0 E26394.917
G1 X40.37 Y44.27 Z1.5 F360.0 E26398.614
G1 X42.61 Y42.34 Z1.5 F360.0 E26402.31
G1 X44.49 Y40.06 Z1.5 F360.0 E26406.009
G1 X46.06 Y37.31 Z1.5 F360.0 E26409.977
G1 X45.62 Y36.17 Z1.5 F360.0 E26411.498
G1 X36.92 Y33.33 Z1.5 F360.0 E26422.954
;M103
G1 X47.86 Y38.22 Z1.5 F3600.0
;M101
G1 X47.25 Y39.61 Z1.5 F360.0 E26424.853
G1 X48.04 Y40.24 Z1.5 F360.0 E26426.129
G1 X47.89 Y40.51 Z1.5 F360.0 E26426.51
G1 X46.95 Y40.13 Z1.5 F360.0 E26427.782
G1 X44.87 Y42.98 Z1.5 F360.0 E26432.19
G1 X45.52 Y43.77 Z1.5 F360.0 E26433.466
G1 X45.32 Y44.0 Z1.5 F360.0 E26433.849
G1 X44.47 Y43.44 Z1.5 F360.0 E26435.122
G1 X41.85 Y45.79 Z1.5 F360.0 E26439.528
G1 X42.32 Y46.7 Z1.5 F360.0 E26440.804
G1 X42.07 Y46.88 Z1.5 F360.0 E26441.184
G1 X41.36 Y46.15 Z1.5 F360.0 E26442.458
G1 X38.31 Y47.91 Z1.5 F360.0 E26446.865
G1 X38.58 Y48.89 Z1.5 F360.0 E26448.143
G1 X38.3 Y49.02 Z1.5 F360.0 E26448.524
G1 X37.75 Y48.16 Z1.5 F360.0 E26449.797
G1 X34.4 Y49.24 Z1.5 F360.0 E26454.204
G1 X34.46 Y50.26 Z1.5 F360.0 E26455.479
G1 X34.17 Y50.33 Z1.5 F360.0 E26455.861
G1 X33.81 Y49.37 Z1.5 F360.0 E26457.135
G1 X30.3 Y49.74 Z1.5 F360.0 E26461.542
G1 X30.15 Y50.75 Z1.5 F360.0 E26462.819
G1 X29.85 Y50.75 Z1.5 F360.0 E26463.198
G1 X29.7 Y49.74 Z1.5 F360.0 E26464.47
G1 X26.19 Y49.37 Z1.5 F360.0 E26468.878
G1 X25.84 Y50.33 Z1.5 F360.0 E26470.155
G1 X25.54 Y50.26 Z1.5 F360.0 E26470.537
G1 X25.6 Y49.25 Z1.5 F360.0 E26471.81
G1 X22.25 Y48.15 Z1.5 F360.0 E26476.215
G1 X21.7 Y49.02 Z1.5 F360.0 E26477.492
G1 X21.42 Y48.89 Z1.5 F360.0 E26477.875
G1 X21.69 Y47.91 Z1.5 F360.0 E26479.148
G1 X18.64 Y46.15 Z1.5 F360.0 E26483.556
G1 X17.93 Y46.87 Z1.5 F360.0 E26484.833
G1 X17.68 Y46.7 Z1.5 F360.0 E26485.214
G1 X18.15 Y45.79 Z1.5 F360.0 E26486.485
G1 X15.54 Y43.43 Z1.5 F360.0 E26490.893
G1 X14.68 Y44.0 Z1.5 F360.0 E26492.169
G1 X14.48 Y43.77 Z1.5 F360.0 E26492.551
G1 X15.13 Y42.99 Z1.5 F360.0 E26493.824
G1 X13.06 Y40.13 Z1.5 F360.0 E26498.233
G1 X12.11 Y40.51 Z1.5 F360.0 E26499.51
G1 X11.96 Y40.24 Z1.5 F360.0 E26499.89
G1 X12.75 Y39.61 Z1.5 F360.0 E26501.163
G1 X11.32 Y36.39 Z1.5 F360.0 E26505.57
G1 X10.32 Y36.56 Z1.5 F360.0 E26506.847
G1 X10.22 Y36.27 Z1.5 F360.0 E26507.227
G1 X11.13 Y35.81 Z1.5 F360.0 E26508.499
G1 X10.4 Y32.37 Z1.5 F360.0 E26512.906
G1 X9.38 Y32.32 Z1.5 F360.0 E26514.182
G1 X9.35 Y32.02 Z1.5 F360.0 E26514.564
G1 X10.34 Y31.76 Z1.5 F360.0 E26515.835
G1 X10.34 Y28.24 Z1.5 F360.0 E26520.243
G1 X9.35 Y27.98 Z1.5 F360.0 E26521.518
G1 X9.38 Y27.68 Z1.5 F360.0 E26521.901
G1 X10.4 Y27.63 Z1.5 F360.0 E26523.174
G1 X11.13 Y24.19 Z1.5 F360.0 E26527.58
G1 X10.22 Y23.73 Z1.5 F360.0 E26528.855
G1 X10.31 Y23.44 Z1.5 F360.0 E26529.236
G1 X11.32 Y23.61 Z1.5 F360.0 E26530.509
G1 X12.76 Y20.39 Z1.5 F360.0 E26534.917
G1 X11.96 Y19.76 Z1.5 F360.0 E26536.193
G1 X12.11 Y19.5 Z1.5 F360.0 E26536.573
G1 X13.06 Y19.87 Z1.5 F360.0 E26537.846
G1 X15.13 Y17.02 Z1.5 F360.0 E26542.254
G1 X14.48 Y16.23 Z1.5 F360.0 E26543.53
G1 X14.68 Y16.0 Z1.5 F360.0 E26543.913
G1 X15.53 Y16.56 Z1.5 F360.0 E26545.186
G1 X18.15 Y14.21 Z1.5 F360.0 E26549.592
G1 X17.68 Y13.31 Z1.5 F360.0 E26550.868
G1 X17.93 Y13.13 Z1.5 F360.0 E26551.248
G1 X18.64 Y13.85 Z1.5 F360.0 E26552.522
G1 X21.69 Y12.09 Z1.5 F360.0 E26556.929
G1 X21.42 Y11.11 Z1.5 F360.0 E26558.206
G1 X21.7 Y10.98 Z1.5 F360.0 E26558.589
G1 X22.25 Y11.84 Z1.5 F360.0 E26559.862
G1 X25.6 Y10.76 Z1.5 F360.0 E26564.267
G1 X25.54 Y9.74 Z1.5 F360.0 E26565.544
G1 X25.84 Y9.68 Z1.5 F360.0 E26565.925
G1 X26.19 Y10.63 Z1.5 F360.0 E26567.198
G1 X29.7 Y10.26 Z1.5 F360.0 E26571.605
G1 X29.85 Y9.25 Z1.5 F360.0 E26572.882
G1 X30.15 Y9.25 Z1.5 F360.0 E26573.261
G1 X30.3 Y10.26 Z1.5 F360.0 E26574.533
G1 X33.81 Y10.63 Z1.5 F360.0 E26578.942
G1 X34.16 Y9.68 Z1.5 F360.0 E26580.218
G1 X34.46 Y9.74 Z1.5 F360.0 E26580.6
G1 X34.4 Y10.75 Z1.5 F360.0 E26581.873
G1 X37.75 Y11.85 Z1.5 F360.0 E26586.278
G1 X38.3 Y10.99 Z1.5 F360.0 E26587.554
G1 X38.58 Y11.11 Z1.5 F360.0 E26587.936
G1 X38.31 Y12.09 Z1.5 F360.0 E26589.209
G1 X41.36 Y13.85 Z1.5 F360.0 E26593.618
G1 X42.07 Y13.13 Z1.5 F360.0 E26594.894
G1 X42.32 Y13.3 Z1.5 F360.0 E26595.275
G1 X41.85 Y14.21 Z1.5 F360.0 E26596.547
G1 X44.47 Y16.57 Z1.5 F360.0 E26600.954
G1 X45.32 Y16.0 Z1.5 F360.0 E26602.231
G1 X45.52 Y16.23 Z1.5 F360.0 E26602.613
G1 X44.87 Y17.02 Z1.5 F360.0 E26603.885
G1 X46.94 Y19.87 Z1.5 F360.0 E26608.294
G1 X47.89 Y19.5 Z1.5 F360.0 E26609.572
G1 X48.04 Y19.76 Z1.5 F360.0 E26609.952
G1 X47.25 Y20.39 Z1.5 F360.0 E26611.225
G1 X48.68 Y23.61 Z1.5 F360.0 E26615.633
G1 X49.69 Y23.45 Z1.5 F360.0 E26616.911
G1 X49.78 Y23.73 Z1.5 F360.0 E26617.29
G1 X48.87 Y24.19 Z1.5 F360.0 E26618.562
G1 X49.6 Y27.63 Z1.5 F360.0 E26622.969
G1 X50.62 Y27.68 Z1.5 F360.0 E26624.245
G1 X50.65 Y27.98 Z1.5 F360.0 E26624.627
G1 X49.67 Y28.24 Z1.5 F360.0 E26625.898
G1 X49.66 Y31.76 Z1.5 F360.0 E26630.306
G1 X50.65 Y32.02 Z1.5 F360.0 E26631.581
G1 X50.62 Y32.32 Z1.5 F360.0 E26631.963
G1 X49.6 Y32.37 Z1.5 F360.0 E26633.237
G1 X48.87 Y35.81 Z1.5 F360.0 E26637.643
G1 X49.78 Y36.27 Z1.5 F360.0 E26638.919
G1 X49.69 Y36.56 Z1.5 F360.0 E26639.3
G1 X48.68 Y36.39 Z1.5 F360.0 E26640.573
G1 X47.86 Y38.22 Z1.5 F360.0 E26643.081
;M103
G1 X48.25 Y38.39 Z1.5 F3600.0
;M101
G1 X47.76 Y39.48 Z1.5 F360.0 E26644.573
G1 X50.87 Y41.95 Z1.5 F360.0 E26649.542
G1 X50.79 Y42.09 Z1.5 F360.0 E26649.744
G1 X47.09 Y40.64 Z1.5 F360.0 E26654.708
G1 X45.4 Y42.97 Z1.5 F360.0 E26658.304
G1 X47.93 Y46.03 Z1.5 F360.0 E26663.271
G1 X47.82 Y46.15 Z1.5 F360.0 E26663.473
G1 X44.51 Y43.96 Z1.5 F360.0 E26668.435
G1 X42.37 Y45.89 Z1.5 F360.0 E26672.031
G1 X44.2 Y49.41 Z1.5 F360.0 E26676.998
