G21 (This is GCode, generated with Skeinforge version 35 from ReplicatorG)
G21 (Ultimaker profile - Quality print - alterations/start-centered.gcode)
G21 (Metric: The unit is a millimeter)
G90 (Absolute Positioning)
G92 X0 Y0 Z0 E0 (set origin to current position)
G21 (end of start .gcode file)
G90
G21
;M103
M105
M106
M113 S1.0
;M108 S75.06
M104 S245.0
;M108 S78.81
G1 X2.62 Y2.53 Z0.3 F2430.0
;M101
G1 X2.62 Y57.47 Z0.3 F2430.0 E106.896
G1 X57.38 Y57.47 Z0.3 F2430.0 E213.451
G1 X57.38 Y2.53 Z0.3 F2430.0 E320.346
G1 X2.62 Y2.53 Z0.3 F2430.0 E426.901
;M103
G1 X22.38 Y17.64 Z0.3 F2880.0
;M101
G1 X17.14 Y12.4 Z0.3 F2880.0 E439.068
;M103
G1 X17.78 Y13.64 Z0.3 F2880.0
;M101
G1 X23.94 Y19.79 Z0.3 F2880.0 E453.353
;M103
G1 X22.22 Y20.44 Z0.3 F2880.0
;M101
G1 X27.39 Y25.62 Z0.3 F2880.0 E465.38
;M103
G1 X32.88 Y25.77 Z0.3 F2880.0
;M101
G1 X29.86 Y22.76 Z0.3 F2880.0 E472.38
G1 X29.27 Y22.76 Z0.3 F2880.0 E473.352
G1 X31.69 Y25.17 Z0.3 F2880.0 E478.963
G1 X30.89 Y24.96 Z0.3 F2880.0 E480.322
G1 X28.76 Y22.84 Z0.3 F2880.0 E485.255
G1 X28.29 Y22.96 Z0.3 F2880.0 E486.053
G1 X30.23 Y24.9 Z0.3 F2880.0 E490.566
G1 X29.64 Y24.9 Z0.3 F2880.0 E491.538
G1 X27.82 Y23.08 Z0.3 F2880.0 E495.771
G1 X27.35 Y23.2 Z0.3 F2880.0 E496.571
G1 X29.11 Y24.96 Z0.3 F2880.0 E500.666
G1 X28.64 Y25.09 Z0.3 F2880.0 E501.461
G1 X26.88 Y23.32 Z0.3 F2880.0 E505.561
;M103
G1 X25.49 Y21.93 Z0.3 F2880.0
;M101
G1 X17.9 Y14.35 Z0.3 F2880.0 E523.173
G1 X17.59 Y14.63 Z0.3 F2880.0 E523.861
G1 X28.17 Y25.21 Z0.3 F2880.0 E548.427
G1 X27.77 Y25.4 Z0.3 F2880.0 E549.155
G1 X17.28 Y14.91 Z0.3 F2880.0 E573.522
G1 X16.97 Y15.19 Z0.3 F2880.0 E574.21
G1 X18.86 Y17.09 Z0.3 F2880.0 E578.617
G1 X18.24 Y17.06 Z0.3 F2880.0 E579.641
G1 X16.66 Y15.47 Z0.3 F2880.0 E583.326
G1 X16.34 Y15.75 Z0.3 F2880.0 E584.016
G1 X17.89 Y17.3 Z0.3 F2880.0 E587.605
G1 X17.61 Y17.61 Z0.3 F2880.0 E588.293
G1 X16.03 Y16.03 Z0.3 F2880.0 E591.953
G1 X15.72 Y16.31 Z0.3 F2880.0 E592.641
G1 X17.33 Y17.92 Z0.3 F2880.0 E596.37
G1 X17.04 Y18.23 Z0.3 F2880.0 E597.059
G1 X14.86 Y16.05 Z0.3 F2880.0 E602.126
G1 X14.14 Y15.92 Z0.3 F2880.0 E603.327
G1 X16.76 Y18.54 Z0.3 F2880.0 E609.41
G1 X16.48 Y18.85 Z0.3 F2880.0 E610.098
G1 X14.88 Y17.25 Z0.3 F2880.0 E613.805
G1 X14.63 Y17.59 Z0.3 F2880.0 E614.501
G1 X16.2 Y19.16 Z0.3 F2880.0 E618.13
G1 X15.93 Y19.48 Z0.3 F2880.0 E618.821
G1 X14.38 Y17.94 Z0.3 F2880.0 E622.415
G1 X14.13 Y18.28 Z0.3 F2880.0 E623.109
G1 X15.7 Y19.85 Z0.3 F2880.0 E626.748
G1 X15.47 Y20.21 Z0.3 F2880.0 E627.453
G1 X13.88 Y18.62 Z0.3 F2880.0 E631.138
G1 X13.63 Y18.97 Z0.3 F2880.0 E631.834
G1 X15.24 Y20.57 Z0.3 F2880.0 E635.563
G1 X15.01 Y20.93 Z0.3 F2880.0 E636.267
G1 X13.38 Y19.31 Z0.3 F2880.0 E640.042
G1 X13.14 Y19.65 Z0.3 F2880.0 E640.738
G1 X14.78 Y21.3 Z0.3 F2880.0 E644.557
G1 X14.55 Y21.66 Z0.3 F2880.0 E645.261
G1 X12.46 Y19.56 Z0.3 F2880.0 E650.126
G1 X11.48 Y19.18 Z0.3 F2880.0 E651.85
;M103
G1 X12.22 Y19.92 Z0.3 F2880.0
;M101
G1 X14.34 Y22.05 Z0.3 F2880.0 E656.781
G1 X14.17 Y22.46 Z0.3 F2880.0 E657.525
G1 X12.51 Y20.8 Z0.3 F2880.0 E661.388
G1 X12.32 Y21.21 Z0.3 F2880.0 E662.124
G1 X13.99 Y22.88 Z0.3 F2880.0 E666.005
G1 X13.82 Y23.3 Z0.3 F2880.0 E666.748
G1 X12.14 Y21.62 Z0.3 F2880.0 E670.645
G1 X11.96 Y22.03 Z0.3 F2880.0 E671.381
G1 X13.64 Y23.71 Z0.3 F2880.0 E675.297
G1 X13.47 Y24.13 Z0.3 F2880.0 E676.04
G1 X11.77 Y22.44 Z0.3 F2880.0 E679.973
G1 X11.59 Y22.85 Z0.3 F2880.0 E680.709
G1 X13.29 Y24.55 Z0.3 F2880.0 E684.659
G1 X13.18 Y25.02 Z0.3 F2880.0 E685.464
G1 X11.41 Y23.26 Z0.3 F2880.0 E689.57
G1 X11.07 Y23.51 Z0.3 F2880.0 E690.266
G1 X13.06 Y25.5 Z0.3 F2880.0 E694.907
G1 X12.95 Y25.98 Z0.3 F2880.0 E695.717
G1 X10.35 Y23.39 Z0.3 F2880.0 E701.748
G1 X10.14 Y23.76 Z0.3 F2880.0 E702.459
G1 X9.64 Y23.27 Z0.3 F2880.0 E703.606
;M103
G1 X10.98 Y24.61 Z0.3 F2880.0
;M101
G1 X12.84 Y26.46 Z0.3 F2880.0 E707.923
G1 X12.73 Y26.94 Z0.3 F2880.0 E708.732
G1 X10.88 Y25.09 Z0.3 F2880.0 E713.029
G1 X10.77 Y25.58 Z0.3 F2880.0 E713.848
G1 X12.61 Y27.42 Z0.3 F2880.0 E718.125
G1 X12.58 Y27.98 Z0.3 F2880.0 E719.039
G1 X10.67 Y26.07 Z0.3 F2880.0 E723.471
G1 X10.56 Y26.56 Z0.3 F2880.0 E724.292
G1 X12.54 Y28.54 Z0.3 F2880.0 E728.885
G1 X12.51 Y29.09 Z0.3 F2880.0 E729.801
G1 X10.46 Y27.05 Z0.3 F2880.0 E734.554
G1 X10.36 Y27.54 Z0.3 F2880.0 E735.375
G1 X12.47 Y29.65 Z0.3 F2880.0 E740.288
G1 X12.44 Y30.21 Z0.3 F2880.0 E741.205
G1 X9.82 Y27.6 Z0.3 F2880.0 E747.27
G1 X9.8 Y28.16 Z0.3 F2880.0 E748.201
G1 X9.26 Y27.62 Z0.3 F2880.0 E749.46
G1 X9.0 Y27.96 Z0.3 F2880.0 E750.154
G1 X8.69 Y27.65 Z0.3 F2880.0 E750.873
G1 X8.2 Y27.75 Z0.3 F2880.0 E751.695
G1 X8.13 Y27.68 Z0.3 F2880.0 E751.859
;M103
G1 X10.28 Y28.64 Z0.3 F2880.0
;M101
G1 X12.48 Y30.84 Z0.3 F2880.0 E756.975
G1 X12.55 Y31.51 Z0.3 F2880.0 E758.075
G1 X10.28 Y29.23 Z0.3 F2880.0 E763.363
G1 X10.28 Y29.82 Z0.3 F2880.0 E764.334
G1 X12.63 Y32.18 Z0.3 F2880.0 E769.796
G1 X12.7 Y32.84 Z0.3 F2880.0 E770.896
G1 X10.27 Y30.42 Z0.3 F2880.0 E776.532
G1 X10.27 Y31.01 Z0.3 F2880.0 E777.504
G1 X15.23 Y35.96 Z0.3 F2880.0 E789.005
G1 X15.67 Y35.81 Z0.3 F2880.0 E789.776
G1 X13.92 Y34.06 Z0.3 F2880.0 E793.842
G1 X14.37 Y33.92 Z0.3 F2880.0 E794.615
G1 X16.12 Y35.67 Z0.3 F2880.0 E798.678
G1 X16.57 Y35.52 Z0.3 F2880.0 E799.449
G1 X14.82 Y33.77 Z0.3 F2880.0 E803.509
G1 X15.27 Y33.63 Z0.3 F2880.0 E804.282
G1 X17.01 Y35.38 Z0.3 F2880.0 E808.338
G1 X17.46 Y35.23 Z0.3 F2880.0 E809.11
G1 X15.71 Y33.49 Z0.3 F2880.0 E813.163
G1 X16.16 Y33.34 Z0.3 F2880.0 E813.937
G1 X17.91 Y35.08 Z0.3 F2880.0 E817.986
G1 X18.35 Y34.94 Z0.3 F2880.0 E818.758
G1 X16.61 Y33.2 Z0.3 F2880.0 E822.806
G1 X17.06 Y33.05 Z0.3 F2880.0 E823.577
G1 X18.8 Y34.79 Z0.3 F2880.0 E827.622
G1 X19.25 Y34.65 Z0.3 F2880.0 E828.394
G1 X17.5 Y32.91 Z0.3 F2880.0 E832.436
G1 X17.95 Y32.76 Z0.3 F2880.0 E833.209
G1 X19.69 Y34.5 Z0.3 F2880.0 E837.247
G1 X20.14 Y34.35 Z0.3 F2880.0 E838.019
G1 X18.4 Y32.62 Z0.3 F2880.0 E842.055
G1 X18.85 Y32.47 Z0.3 F2880.0 E842.828
G1 X20.58 Y34.21 Z0.3 F2880.0 E846.86
G1 X21.03 Y34.06 Z0.3 F2880.0 E847.632
G1 X19.3 Y32.33 Z0.3 F2880.0 E851.662
G1 X19.74 Y32.18 Z0.3 F2880.0 E852.435
G1 X21.48 Y33.92 Z0.3 F2880.0 E856.461
G1 X21.92 Y33.77 Z0.3 F2880.0 E857.232
G1 X20.19 Y32.04 Z0.3 F2880.0 E861.253
G1 X20.64 Y31.89 Z0.3 F2880.0 E862.026
G1 X22.37 Y33.63 Z0.3 F2880.0 E866.046
G1 X22.82 Y33.48 Z0.3 F2880.0 E866.816
G1 X21.09 Y31.75 Z0.3 F2880.0 E870.832
G1 X21.53 Y31.61 Z0.3 F2880.0 E871.603
G1 X25.92 Y35.99 Z0.3 F2880.0 E881.792
G1 X27.21 Y36.69 Z0.3 F2880.0 E884.193
;M103
G1 X31.79 Y42.12 Z0.3 F3600.0
G1 X31.85 Y46.38 Z0.3 F3600.0
G1 X32.2 Y46.66 Z0.3 F3600.0
G1 X37.61 Y48.27 Z0.3 F2880.0
;M101
G1 X35.86 Y46.52 Z0.3 F2880.0 E888.261
G1 X35.43 Y46.69 Z0.3 F2880.0 E889.009
G1 X37.16 Y48.42 Z0.3 F2880.0 E893.024
G1 X36.71 Y48.56 Z0.3 F2880.0 E893.797
G1 X35.0 Y46.85 Z0.3 F2880.0 E897.782
G1 X34.51 Y46.95 Z0.3 F2880.0 E898.605
G1 X36.27 Y48.71 Z0.3 F2880.0 E902.691
G1 X35.82 Y48.85 Z0.3 F2880.0 E903.465
G1 X34.02 Y47.05 Z0.3 F2880.0 E907.651
G1 X33.52 Y47.15 Z0.3 F2880.0 E908.474
G1 X35.37 Y49.0 Z0.3 F2880.0 E912.763
G1 X34.92 Y49.14 Z0.3 F2880.0 E913.536
G1 X33.03 Y47.25 Z0.3 F2880.0 E917.924
G1 X32.54 Y47.35 Z0.3 F2880.0 E918.746
G1 X34.48 Y49.29 Z0.3 F2880.0 E923.235
G1 X34.51 Y49.91 Z0.3 F2880.0 E924.256
G1 X28.9 Y44.3 Z0.3 F2880.0 E937.271
G1 X28.9 Y43.71 Z0.3 F2880.0 E938.243
G1 X31.1 Y45.91 Z0.3 F2880.0 E943.357
G1 X31.1 Y45.32 Z0.3 F2880.0 E944.332
G1 X28.9 Y43.12 Z0.3 F2880.0 E949.44
G1 X28.9 Y42.53 Z0.3 F2880.0 E950.411
G1 X31.1 Y44.73 Z0.3 F2880.0 E955.514
G1 X31.1 Y44.13 Z0.3 F2880.0 E956.49
G1 X28.9 Y41.94 Z0.3 F2880.0 E961.589
G1 X28.91 Y41.35 Z0.3 F2880.0 E962.559
G1 X31.1 Y43.54 Z0.3 F2880.0 E967.653
G1 X31.1 Y42.95 Z0.3 F2880.0 E968.627
G1 X28.91 Y40.75 Z0.3 F2880.0 E973.717
G1 X28.91 Y40.16 Z0.3 F2880.0 E974.689
G1 X31.1 Y42.35 Z0.3 F2880.0 E979.774
G1 X31.1 Y41.76 Z0.3 F2880.0 E980.748
G1 X28.91 Y39.57 Z0.3 F2880.0 E985.828
G1 X28.91 Y38.98 Z0.3 F2880.0 E986.8
G1 X31.1 Y41.17 Z0.3 F2880.0 E991.876
G1 X31.09 Y40.57 Z0.3 F2880.0 E992.849
G1 X28.91 Y38.39 Z0.3 F2880.0 E997.921
G1 X28.91 Y37.8 Z0.3 F2880.0 E998.891
G1 X31.09 Y39.98 Z0.3 F2880.0 E1003.957
G1 X31.09 Y39.39 Z0.3 F2880.0 E1004.933
G1 X22.68 Y30.97 Z0.3 F2880.0 E1024.47
G1 X22.43 Y31.32 Z0.3 F2880.0 E1025.167
G1 X28.19 Y37.08 Z0.3 F2880.0 E1038.544
;M103
G1 X28.71 Y36.41 Z0.3 F2880.0
;M101
G1 X31.09 Y38.79 Z0.3 F2880.0 E1044.077
G1 X31.09 Y38.2 Z0.3 F2880.0 E1045.053
G1 X29.3 Y36.41 Z0.3 F2880.0 E1049.207
G1 X29.89 Y36.41 Z0.3 F2880.0 E1050.179
G1 X31.09 Y37.6 Z0.3 F2880.0 E1052.956
G1 X31.34 Y37.26 Z0.3 F2880.0 E1053.651
G1 X30.49 Y36.41 Z0.3 F2880.0 E1055.633
G1 X31.08 Y36.41 Z0.3 F2880.0 E1056.605
G1 X31.76 Y37.1 Z0.3 F2880.0 E1058.198
G1 X32.19 Y36.93 Z0.3 F2880.0 E1058.947
G1 X31.67 Y36.41 Z0.3 F2880.0 E1060.149
G1 X31.81 Y35.96 Z0.3 F2880.0 E1060.923
G1 X32.61 Y36.76 Z0.3 F2880.0 E1062.777
G1 X33.04 Y36.59 Z0.3 F2880.0 E1063.526
G1 X31.81 Y35.37 Z0.3 F2880.0 E1066.365
G1 X31.81 Y34.78 Z0.3 F2880.0 E1067.338
G1 X33.46 Y36.42 Z0.3 F2880.0 E1071.163
G1 X33.82 Y36.18 Z0.3 F2880.0 E1071.864
G1 X32.25 Y34.62 Z0.3 F2880.0 E1075.498
G1 X32.61 Y34.39 Z0.3 F2880.0 E1076.2
G1 X34.16 Y35.94 Z0.3 F2880.0 E1079.796
G1 X34.5 Y35.69 Z0.3 F2880.0 E1080.492
G1 X32.97 Y34.15 Z0.3 F2880.0 E1084.055
G1 X33.32 Y33.92 Z0.3 F2880.0 E1084.757
G1 X34.84 Y35.44 Z0.3 F2880.0 E1088.29
G1 X35.15 Y35.15 Z0.3 F2880.0 E1088.977
G1 X33.61 Y33.61 Z0.3 F2880.0 E1092.541
G1 X33.89 Y33.3 Z0.3 F2880.0 E1093.23
G1 X35.41 Y34.82 Z0.3 F2880.0 E1096.767
G1 X35.68 Y34.5 Z0.3 F2880.0 E1097.457
G1 X34.17 Y32.99 Z0.3 F2880.0 E1100.968
G1 X34.39 Y32.61 Z0.3 F2880.0 E1101.678
G1 X35.95 Y34.17 Z0.3 F2880.0 E1105.305
G1 X36.22 Y33.85 Z0.3 F2880.0 E1105.996
G1 X34.59 Y32.22 Z0.3 F2880.0 E1109.778
G1 X34.79 Y31.83 Z0.3 F2880.0 E1110.501
G1 X36.49 Y33.53 Z0.3 F2880.0 E1114.442
G1 X36.96 Y33.41 Z0.3 F2880.0 E1115.243
G1 X34.92 Y31.36 Z0.3 F2880.0 E1119.984
G1 X35.03 Y30.88 Z0.3 F2880.0 E1120.799
G1 X37.84 Y33.69 Z0.3 F2880.0 E1127.333
G1 X38.72 Y33.98 Z0.3 F2880.0 E1128.853
G1 X35.12 Y30.38 Z0.3 F2880.0 E1137.226
G1 X35.09 Y29.76 Z0.3 F2880.0 E1138.236
G1 X39.6 Y34.27 Z0.3 F2880.0 E1148.705
G1 X40.48 Y34.56 Z0.3 F2880.0 E1150.225
G1 X35.07 Y29.14 Z0.3 F2880.0 E1162.8
G1 X34.81 Y28.29 Z0.3 F2880.0 E1164.254
G1 X37.31 Y30.79 Z0.3 F2880.0 E1170.06
G1 X37.27 Y30.16 Z0.3 F2880.0 E1171.1
G1 X34.19 Y27.08 Z0.3 F2880.0 E1178.247
;M103
G1 X30.46 Y22.76 Z0.3 F2880.0
;M101
G1 X37.23 Y29.53 Z0.3 F2880.0 E1193.976
G1 X37.19 Y28.9 Z0.3 F2880.0 E1195.017
G1 X31.1 Y22.8 Z0.3 F2880.0 E1209.166
G1 X31.89 Y23.01 Z0.3 F2880.0 E1210.515
G1 X37.01 Y28.12 Z0.3 F2880.0 E1222.394
G1 X36.72 Y27.25 Z0.3 F2880.0 E1223.908
G1 X32.69 Y23.21 Z0.3 F2880.0 E1233.28
G1 X33.46 Y23.39 Z0.3 F2880.0 E1234.581
G1 X35.99 Y25.92 Z0.3 F2880.0 E1240.467
;M103
G1 X35.27 Y24.6 Z0.3 F2880.0
;M101
G1 X33.71 Y23.05 Z0.3 F2880.0 E1244.085
G1 X33.96 Y22.7 Z0.3 F2880.0 E1244.781
G1 X35.52 Y24.26 Z0.3 F2880.0 E1248.403
G1 X35.77 Y23.92 Z0.3 F2880.0 E1249.1
G1 X34.21 Y22.36 Z0.3 F2880.0 E1252.725
G1 X34.45 Y22.01 Z0.3 F2880.0 E1253.421
G1 X36.02 Y23.58 Z0.3 F2880.0 E1257.047
G1 X36.27 Y23.23 Z0.3 F2880.0 E1257.743
G1 X34.7 Y21.67 Z0.3 F2880.0 E1261.371
G1 X34.95 Y21.33 Z0.3 F2880.0 E1262.066
G1 X36.52 Y22.89 Z0.3 F2880.0 E1265.697
G1 X36.77 Y22.55 Z0.3 F2880.0 E1266.392
G1 X35.2 Y20.98 Z0.3 F2880.0 E1270.026
G1 X35.45 Y20.64 Z0.3 F2880.0 E1270.723
G1 X37.02 Y22.21 Z0.3 F2880.0 E1274.36
G1 X37.27 Y21.86 Z0.3 F2880.0 E1275.055
G1 X35.7 Y20.3 Z0.3 F2880.0 E1278.694
G1 X35.95 Y19.95 Z0.3 F2880.0 E1279.39
G1 X37.51 Y21.52 Z0.3 F2880.0 E1283.031
G1 X37.76 Y21.18 Z0.3 F2880.0 E1283.728
G1 X36.2 Y19.61 Z0.3 F2880.0 E1287.371
G1 X36.44 Y19.27 Z0.3 F2880.0 E1288.067
G1 X38.01 Y20.84 Z0.3 F2880.0 E1291.712
G1 X38.26 Y20.49 Z0.3 F2880.0 E1292.409
G1 X36.69 Y18.92 Z0.3 F2880.0 E1296.057
G1 X36.94 Y18.58 Z0.3 F2880.0 E1296.753
G1 X38.51 Y20.15 Z0.3 F2880.0 E1300.406
G1 X38.76 Y19.81 Z0.3 F2880.0 E1301.102
G1 X37.19 Y18.23 Z0.3 F2880.0 E1304.754
G1 X37.44 Y17.89 Z0.3 F2880.0 E1305.451
G1 X39.01 Y19.47 Z0.3 F2880.0 E1309.107
G1 X39.26 Y19.12 Z0.3 F2880.0 E1309.804
G1 X37.69 Y17.55 Z0.3 F2880.0 E1313.462
G1 X37.94 Y17.2 Z0.3 F2880.0 E1314.157
G1 X39.51 Y18.78 Z0.3 F2880.0 E1317.818
G1 X39.76 Y18.44 Z0.3 F2880.0 E1318.513
G1 X38.19 Y16.86 Z0.3 F2880.0 E1322.177
G1 X38.43 Y16.52 Z0.3 F2880.0 E1322.873
G1 X40.01 Y18.09 Z0.3 F2880.0 E1326.537
G1 X40.26 Y17.75 Z0.3 F2880.0 E1327.233
G1 X38.68 Y16.17 Z0.3 F2880.0 E1330.901
G1 X38.93 Y15.83 Z0.3 F2880.0 E1331.597
G1 X40.51 Y17.41 Z0.3 F2880.0 E1335.268
G1 X40.8 Y17.11 Z0.3 F2880.0 E1335.955
G1 X38.74 Y15.04 Z0.3 F2880.0 E1340.746
;M103
G1 X38.18 Y14.49 Z0.3 F2880.0
;M101
G1 X33.9 Y10.2 Z0.3 F2880.0 E1350.687
G1 X33.66 Y10.55 Z0.3 F2880.0 E1351.385
G1 X37.1 Y14.0 Z0.3 F2880.0 E1359.382
;M103
G1 X36.02 Y13.51 Z0.3 F2880.0
;M101
G1 X32.99 Y10.48 Z0.3 F2880.0 E1366.407
G1 X32.33 Y10.41 Z0.3 F2880.0 E1367.502
G1 X35.16 Y13.24 Z0.3 F2880.0 E1374.075
G1 X34.36 Y13.04 Z0.3 F2880.0 E1375.426
G1 X31.67 Y10.34 Z0.3 F2880.0 E1381.686
G1 X31.0 Y10.27 Z0.3 F2880.0 E1382.781
G1 X33.57 Y12.83 Z0.3 F2880.0 E1388.73
G1 X32.8 Y12.66 Z0.3 F2880.0 E1390.019
G1 X29.73 Y9.59 Z0.3 F2880.0 E1397.141
G1 X29.81 Y9.08 Z0.3 F2880.0 E1397.996
G1 X30.26 Y9.52 Z0.3 F2880.0 E1399.028
G1 X30.15 Y8.82 Z0.3 F2880.0 E1400.185
G1 X29.89 Y8.56 Z0.3 F2880.0 E1400.796
G1 X30.05 Y8.13 Z0.3 F2880.0 E1401.555
G1 X29.97 Y8.05 Z0.3 F2880.0 E1401.744
;M103
G1 X29.66 Y10.11 Z0.3 F2880.0
;M101
G1 X32.15 Y12.6 Z0.3 F2880.0 E1407.542
G1 X31.51 Y12.55 Z0.3 F2880.0 E1408.608
G1 X29.21 Y10.25 Z0.3 F2880.0 E1413.947
G1 X28.67 Y10.31 Z0.3 F2880.0 E1414.834
G1 X30.86 Y12.5 Z0.3 F2880.0 E1419.916
G1 X30.21 Y12.44 Z0.3 F2880.0 E1420.982
G1 X28.13 Y10.36 Z0.3 F2880.0 E1425.809
G1 X27.6 Y10.42 Z0.3 F2880.0 E1426.695
G1 X29.63 Y12.45 Z0.3 F2880.0 E1431.423
G1 X29.09 Y12.5 Z0.3 F2880.0 E1432.322
G1 X27.06 Y10.47 Z0.3 F2880.0 E1437.027
G1 X26.52 Y10.53 Z0.3 F2880.0 E1437.913
G1 X28.54 Y12.55 Z0.3 F2880.0 E1442.594
G1 X27.99 Y12.59 Z0.3 F2880.0 E1443.494
G1 X25.5 Y10.09 Z0.3 F2880.0 E1449.296
G1 X26.04 Y10.05 Z0.3 F2880.0 E1450.197
G1 X25.46 Y9.46 Z0.3 F2880.0 E1451.556
G1 X25.69 Y9.1 Z0.3 F2880.0 E1452.26
G1 X25.42 Y8.83 Z0.3 F2880.0 E1452.883
;M103
G1 X25.53 Y10.72 Z0.3 F2880.0
;M101
G1 X27.45 Y12.64 Z0.3 F2880.0 E1457.349
G1 X26.92 Y12.71 Z0.3 F2880.0 E1458.216
G1 X25.08 Y10.86 Z0.3 F2880.0 E1462.505
G1 X24.63 Y11.01 Z0.3 F2880.0 E1463.277
G1 X26.45 Y12.83 Z0.3 F2880.0 E1467.509
G1 X25.98 Y12.95 Z0.3 F2880.0 E1468.309
G1 X24.18 Y11.15 Z0.3 F2880.0 E1472.487
G1 X23.74 Y11.3 Z0.3 F2880.0 E1473.258
G1 X25.51 Y13.07 Z0.3 F2880.0 E1477.38
G1 X25.04 Y13.19 Z0.3 F2880.0 E1478.178
G1 X23.29 Y11.44 Z0.3 F2880.0 E1482.246
G1 X22.84 Y11.58 Z0.3 F2880.0 E1483.018
G1 X24.57 Y13.31 Z0.3 F2880.0 E1487.029
G1 X24.11 Y13.45 Z0.3 F2880.0 E1487.809
G1 X21.2 Y10.54 Z0.3 F2880.0 E1494.575
G1 X21.42 Y11.35 Z0.3 F2880.0 E1495.97
G1 X23.7 Y13.63 Z0.3 F2880.0 E1501.263
G1 X23.3 Y13.82 Z0.3 F2880.0 E1501.999
G1 X21.57 Y12.09 Z0.3 F2880.0 E1506.007
G1 X21.19 Y12.31 Z0.3 F2880.0 E1506.718
G1 X22.89 Y14.0 Z0.3 F2880.0 E1510.652
G1 X22.48 Y14.19 Z0.3 F2880.0 E1511.387
G1 X20.82 Y12.53 Z0.3 F2880.0 E1515.246
G1 X20.44 Y12.74 Z0.3 F2880.0 E1515.958
G1 X22.07 Y14.37 Z0.3 F2880.0 E1519.743
G1 X21.66 Y14.56 Z0.3 F2880.0 E1520.479
G1 X20.07 Y12.96 Z0.3 F2880.0 E1524.19
G1 X19.69 Y13.17 Z0.3 F2880.0 E1524.903
G1 X21.33 Y14.81 Z0.3 F2880.0 E1528.7
G1 X21.2 Y15.28 Z0.3 F2880.0 E1529.493
G1 X19.31 Y13.39 Z0.3 F2880.0 E1533.873
G1 X18.94 Y13.61 Z0.3 F2880.0 E1534.585
G1 X21.08 Y15.74 Z0.3 F2880.0 E1539.549
;M103
G1 X23.49 Y22.9 Z0.3 F2880.0
;M101
G1 X26.7 Y26.1 Z0.3 F2880.0 E1546.993
G1 X27.02 Y25.83 Z0.3 F2880.0 E1547.683
G1 X21.9 Y20.71 Z0.3 F2880.0 E1559.571
G1 X20.3 Y18.52 Z0.3 F2880.0 E1564.016
;M103
G1 X23.84 Y24.71 Z0.3 F3600.0
G1 X25.72 Y32.83 Z0.3 F2880.0
;M101
G1 X22.75 Y29.86 Z0.3 F2880.0 E1570.924
G1 X22.79 Y29.3 Z0.3 F2880.0 E1571.84
G1 X25.15 Y31.67 Z0.3 F2880.0 E1577.328
G1 X24.98 Y30.9 Z0.3 F2880.0 E1578.612
G1 X22.82 Y28.74 Z0.3 F2880.0 E1583.623
G1 X22.94 Y28.27 Z0.3 F2880.0 E1584.42
G1 X24.89 Y30.22 Z0.3 F2880.0 E1588.943
G1 X24.91 Y29.65 Z0.3 F2880.0 E1589.882
G1 X23.09 Y27.83 Z0.3 F2880.0 E1594.117
G1 X23.23 Y27.38 Z0.3 F2880.0 E1594.888
G1 X24.95 Y29.1 Z0.3 F2880.0 E1598.872
G1 X25.09 Y28.64 Z0.3 F2880.0 E1599.652
G1 X23.38 Y26.93 Z0.3 F2880.0 E1603.617
G1 X23.6 Y26.56 Z0.3 F2880.0 E1604.326
G1 X25.22 Y28.19 Z0.3 F2880.0 E1608.092
G1 X25.39 Y27.76 Z0.3 F2880.0 E1608.839
G1 X23.83 Y26.2 Z0.3 F2880.0 E1612.467
G1 X24.06 Y25.84 Z0.3 F2880.0 E1613.171
G1 X25.62 Y27.4 Z0.3 F2880.0 E1616.787
G1 X25.84 Y27.03 Z0.3 F2880.0 E1617.494
G1 X24.29 Y25.48 Z0.3 F2880.0 E1621.098
G1 X24.52 Y25.11 Z0.3 F2880.0 E1621.803
G1 X26.09 Y26.69 Z0.3 F2880.0 E1625.456
G1 X26.4 Y26.4 Z0.3 F2880.0 E1626.143
G1 X24.75 Y24.75 Z0.3 F2880.0 E1629.963
;M103
G1 X22.71 Y30.42 Z0.3 F2880.0
;M101
G1 X28.19 Y35.89 Z0.3 F2880.0 E1642.671
G1 X28.19 Y35.3 Z0.3 F2880.0 E1643.645
G1 X27.06 Y34.17 Z0.3 F2880.0 E1646.266
;M103
G1 X26.18 Y35.65 Z0.3 F2880.0
;M101
G1 X21.98 Y31.46 Z0.3 F2880.0 E1656.002
;M103
G1 X15.0 Y36.82 Z0.3 F3600.0
G1 X14.55 Y38.24 Z0.3 F2880.0
;M101
G1 X10.79 Y34.48 Z0.3 F2880.0 E1664.737
G1 X10.63 Y33.73 Z0.3 F2880.0 E1665.996
G1 X14.06 Y37.17 Z0.3 F2880.0 E1673.972
G1 X14.23 Y36.74 Z0.3 F2880.0 E1674.723
G1 X10.47 Y32.98 Z0.3 F2880.0 E1683.452
G1 X9.89 Y31.81 Z0.3 F2880.0 E1685.589
;M103
G1 X10.81 Y32.73 Z0.3 F2880.0
;M101
G1 X14.39 Y36.31 Z0.3 F2880.0 E1693.899
G1 X14.78 Y36.11 Z0.3 F2880.0 E1694.618
G1 X10.27 Y31.6 Z0.3 F2880.0 E1705.083
G1 X9.42 Y31.93 Z0.3 F2880.0 E1706.583
G1 X9.9 Y32.41 Z0.3 F2880.0 E1707.68
G1 X9.28 Y32.38 Z0.3 F2880.0 E1708.697
G1 X8.95 Y32.06 Z0.3 F2880.0 E1709.45
G1 X8.66 Y32.35 Z0.3 F2880.0 E1710.137
G1 X8.48 Y32.18 Z0.3 F2880.0 E1710.541
;M103
G1 X9.7 Y33.2 Z0.3 F3600.0
G1 X10.94 Y35.23 Z0.3 F2880.0
;M101
G1 X15.33 Y39.62 Z0.3 F2880.0 E1720.731
;M103
G1 X20.68 Y48.32 Z0.3 F3600.0
G1 X21.07 Y50.1 Z0.3 F2880.0
;M101
G1 X21.03 Y50.06 Z0.3 F2880.0 E1720.824
G1 X21.31 Y49.75 Z0.3 F2880.0 E1721.514
G1 X21.16 Y49.6 Z0.3 F2880.0 E1721.86
G1 X21.29 Y49.13 Z0.3 F2880.0 E1722.65
G1 X21.54 Y49.38 Z0.3 F2880.0 E1723.233
G1 X21.77 Y49.02 Z0.3 F2880.0 E1723.936
G1 X21.42 Y48.67 Z0.3 F2880.0 E1724.757
G1 X21.55 Y48.2 Z0.3 F2880.0 E1725.547
G1 X22.0 Y48.66 Z0.3 F2880.0 E1726.606
G1 X22.23 Y48.3 Z0.3 F2880.0 E1727.31
G1 X20.82 Y47.48 Z0.3 F2880.0 E1729.988
G1 X12.47 Y39.13 Z0.3 F2880.0 E1749.384
;M103
G1 X12.35 Y37.82 Z0.3 F2880.0
;M101
G1 X22.99 Y48.46 Z0.3 F2880.0 E1774.094
G1 X23.87 Y48.75 Z0.3 F2880.0 E1775.614
G1 X10.95 Y35.83 Z0.3 F2880.0 E1805.609
G1 X10.56 Y36.03 Z0.3 F2880.0 E1806.334
G1 X11.03 Y36.5 Z0.3 F2880.0 E1807.431
G1 X10.52 Y36.59 Z0.3 F2880.0 E1808.277
G1 X10.16 Y36.23 Z0.3 F2880.0 E1809.113
G1 X9.77 Y36.42 Z0.3 F2880.0 E1809.838
G1 X10.01 Y36.67 Z0.3 F2880.0 E1810.411
G1 X9.51 Y36.76 Z0.3 F2880.0 E1811.257
G1 X9.37 Y36.62 Z0.3 F2880.0 E1811.568
;M103
G1 X10.8 Y37.35 Z0.3 F3600.0
G1 X21.08 Y47.15 Z0.3 F2880.0
;M101
G1 X12.0 Y38.06 Z0.3 F2880.0 E1832.661
G1 X11.52 Y36.99 Z0.3 F2880.0 E1834.575
;M103
G1 X19.42 Y46.67 Z0.3 F2880.0
;M101
G1 X12.49 Y39.74 Z0.3 F2880.0 E1850.662
G1 X12.16 Y40.0 Z0.3 F2880.0 E1851.354
G1 X12.56 Y40.4 Z0.3 F2880.0 E1852.276
G1 X12.13 Y40.56 Z0.3 F2880.0 E1853.025
G1 X11.83 Y40.26 Z0.3 F2880.0 E1853.725
G1 X11.5 Y40.53 Z0.3 F2880.0 E1854.416
G1 X11.7 Y40.73 Z0.3 F2880.0 E1854.893
G1 X11.28 Y40.9 Z0.3 F2880.0 E1855.644
G1 X11.17 Y40.79 Z0.3 F2880.0 E1855.9
;M103
G1 X12.75 Y41.18 Z0.3 F3600.0
G1 X14.8 Y42.64 Z0.3 F2880.0
;M101
G1 X16.98 Y44.82 Z0.3 F2880.0 E1860.955
;M103
G1 X18.04 Y45.88 Z0.3 F2880.0
;M101
G1 X18.52 Y46.36 Z0.3 F2880.0 E1862.078
G1 X18.23 Y46.66 Z0.3 F2880.0 E1862.764
G1 X17.83 Y46.27 Z0.3 F2880.0 E1863.675
G1 X17.63 Y46.66 Z0.3 F2880.0 E1864.396
G1 X17.93 Y46.96 Z0.3 F2880.0 E1865.095
G1 X17.64 Y47.26 Z0.3 F2880.0 E1865.784
G1 X17.43 Y47.05 Z0.3 F2880.0 E1866.273
G1 X17.23 Y47.44 Z0.3 F2880.0 E1866.994
G1 X17.35 Y47.56 Z0.3 F2880.0 E1867.27
;M103
G1 X18.79 Y47.23 Z0.3 F3600.0
G1 X24.75 Y49.04 Z0.3 F2880.0
;M101
G1 X20.34 Y44.63 Z0.3 F2880.0 E1877.51
;M103
G1 X24.67 Y47.18 Z0.3 F2880.0
;M101
G1 X27.01 Y49.52 Z0.3 F2880.0 E1882.948
G1 X26.35 Y49.45 Z0.3 F2880.0 E1884.042
G1 X22.94 Y46.04 Z0.3 F2880.0 E1891.949
G1 X21.84 Y45.53 Z0.3 F2880.0 E1893.94
;M103
G1 X22.7 Y46.39 Z0.3 F2880.0
;M101
G1 X26.1 Y49.8 Z0.3 F2880.0 E1901.844
G1 X25.94 Y50.23 Z0.3 F2880.0 E1902.6
G1 X25.5 Y49.79 Z0.3 F2880.0 E1903.615
G1 X25.47 Y50.35 Z0.3 F2880.0 E1904.534
G1 X25.78 Y50.66 Z0.3 F2880.0 E1905.252
G1 X25.44 Y50.91 Z0.3 F2880.0 E1905.948
G1 X25.62 Y51.09 Z0.3 F2880.0 E1906.37
G1 X25.4 Y51.47 Z0.3 F2880.0 E1907.084
G1 X25.45 Y51.52 Z0.3 F2880.0 E1907.204
;M103
G1 X26.77 Y50.3 Z0.3 F3600.0
G1 X29.0 Y49.73 Z0.3 F2880.0
;M101
G1 X26.4 Y47.13 Z0.3 F2880.0 E1913.232
G1 X25.65 Y46.98 Z0.3 F2880.0 E1914.485
G1 X28.33 Y49.66 Z0.3 F2880.0 E1920.708
G1 X27.67 Y49.59 Z0.3 F2880.0 E1921.801
G1 X24.9 Y46.82 Z0.3 F2880.0 E1928.234
G1 X23.92 Y46.43 Z0.3 F2880.0 E1929.964
;M103
G1 X33.48 Y49.47 Z0.3 F2880.0
;M101
G1 X28.9 Y44.89 Z0.3 F2880.0 E1940.592
G1 X28.9 Y45.49 Z0.3 F2880.0 E1941.564
G1 X32.94 Y49.53 Z0.3 F2880.0 E1950.947
G1 X32.4 Y49.58 Z0.3 F2880.0 E1951.832
G1 X28.9 Y46.08 Z0.3 F2880.0 E1959.973
G1 X28.9 Y46.67 Z0.3 F2880.0 E1960.943
G1 X31.87 Y49.64 Z0.3 F2880.0 E1967.84
G1 X31.33 Y49.69 Z0.3 F2880.0 E1968.725
G1 X28.61 Y46.97 Z0.3 F2880.0 E1975.05
G1 X28.28 Y47.24 Z0.3 F2880.0 E1975.741
G1 X30.79 Y49.75 Z0.3 F2880.0 E1981.58
G1 X30.34 Y49.89 Z0.3 F2880.0 E1982.353
G1 X27.89 Y47.44 Z0.3 F2880.0 E1988.043
G1 X27.15 Y47.29 Z0.3 F2880.0 E1989.296
G1 X30.27 Y50.41 Z0.3 F2880.0 E1996.54
G1 X30.19 Y50.92 Z0.3 F2880.0 E1997.395
G1 X29.75 Y50.48 Z0.3 F2880.0 E1998.428
G1 X29.85 Y51.18 Z0.3 F2880.0 E1999.585
G1 X30.11 Y51.44 Z0.3 F2880.0 E2000.195
G1 X29.95 Y51.87 Z0.3 F2880.0 E2000.954
G1 X30.04 Y51.95 Z0.3 F2880.0 E2001.143
;M103
G1 X31.06 Y50.53 Z0.3 F3600.0
G1 X33.96 Y49.95 Z0.3 F2880.0
;M101
G1 X34.54 Y50.54 Z0.3 F2880.0 E2002.502
G1 X34.31 Y50.9 Z0.3 F2880.0 E2003.206
G1 X34.58 Y51.17 Z0.3 F2880.0 E2003.829
;M103
G1 X35.3 Y49.86 Z0.3 F3600.0
G1 X41.87 Y46.61 Z0.3 F2880.0
;M101
G1 X39.8 Y44.54 Z0.3 F2880.0 E2008.64
G1 X39.43 Y44.76 Z0.3 F2880.0 E2009.348
G1 X41.06 Y46.39 Z0.3 F2880.0 E2013.131
G1 X40.69 Y46.61 Z0.3 F2880.0 E2013.844
G1 X39.06 Y44.99 Z0.3 F2880.0 E2017.61
G1 X38.7 Y45.21 Z0.3 F2880.0 E2018.318
G1 X40.31 Y46.83 Z0.3 F2880.0 E2022.068
G1 X39.93 Y47.04 Z0.3 F2880.0 E2022.78
G1 X38.33 Y45.44 Z0.3 F2880.0 E2026.514
G1 X37.96 Y45.66 Z0.3 F2880.0 E2027.222
G1 X39.56 Y47.26 Z0.3 F2880.0 E2030.94
G1 X39.18 Y47.48 Z0.3 F2880.0 E2031.652
G1 X37.55 Y45.85 Z0.3 F2880.0 E2035.432
G1 X37.13 Y46.02 Z0.3 F2880.0 E2036.18
G1 X38.81 Y47.69 Z0.3 F2880.0 E2040.073
G1 X38.43 Y47.91 Z0.3 F2880.0 E2040.785
G1 X36.71 Y46.18 Z0.3 F2880.0 E2044.791
G1 X36.28 Y46.35 Z0.3 F2880.0 E2045.539
G1 X38.58 Y48.65 Z0.3 F2880.0 E2050.868
G1 X38.0 Y48.66 Z0.3 F2880.0 E2051.814
G1 X38.8 Y49.47 Z0.3 F2880.0 E2053.677
;M103
G1 X39.32 Y48.32 Z0.3 F3600.0
G1 X47.55 Y40.44 Z0.3 F2880.0
;M101
G1 X45.42 Y38.31 Z0.3 F2880.0 E2058.621
G1 X45.2 Y38.69 Z0.3 F2880.0 E2059.335
G1 X46.87 Y40.35 Z0.3 F2880.0 E2063.199
G1 X46.62 Y40.69 Z0.3 F2880.0 E2063.895
G1 X44.99 Y39.06 Z0.3 F2880.0 E2067.68
G1 X44.77 Y39.44 Z0.3 F2880.0 E2068.394
G1 X46.37 Y41.04 Z0.3 F2880.0 E2072.097
G1 X46.12 Y41.38 Z0.3 F2880.0 E2072.793
G1 X44.56 Y39.82 Z0.3 F2880.0 E2076.418
G1 X44.32 Y40.17 Z0.3 F2880.0 E2077.119
G1 X45.87 Y41.72 Z0.3 F2880.0 E2080.718
G1 X45.62 Y42.06 Z0.3 F2880.0 E2081.413
G1 X44.05 Y40.49 Z0.3 F2880.0 E2085.055
G1 X43.78 Y40.82 Z0.3 F2880.0 E2085.745
G1 X45.37 Y42.41 Z0.3 F2880.0 E2089.43
G1 X45.12 Y42.75 Z0.3 F2880.0 E2090.126
G1 X43.51 Y41.14 Z0.3 F2880.0 E2093.855
G1 X43.25 Y41.47 Z0.3 F2880.0 E2094.547
G1 X45.86 Y44.08 Z0.3 F2880.0 E2100.619
G1 X45.14 Y43.96 Z0.3 F2880.0 E2101.819
G1 X42.98 Y41.79 Z0.3 F2880.0 E2106.842
G1 X42.71 Y42.12 Z0.3 F2880.0 E2107.532
G1 X44.28 Y43.69 Z0.3 F2880.0 E2111.183
G1 X43.97 Y43.97 Z0.3 F2880.0 E2111.872
G1 X42.42 Y42.42 Z0.3 F2880.0 E2115.473
G1 X42.1 Y42.69 Z0.3 F2880.0 E2116.162
G1 X43.66 Y44.25 Z0.3 F2880.0 E2119.775
G1 X43.35 Y44.53 Z0.3 F2880.0 E2120.464
G1 X41.78 Y42.97 Z0.3 F2880.0 E2124.092
G1 X41.47 Y43.24 Z0.3 F2880.0 E2124.783
G1 X43.03 Y44.81 Z0.3 F2880.0 E2128.424
G1 X42.72 Y45.09 Z0.3 F2880.0 E2129.112
G1 X41.15 Y43.52 Z0.3 F2880.0 E2132.767
G1 X40.83 Y43.79 Z0.3 F2880.0 E2133.457
G1 X42.41 Y45.37 Z0.3 F2880.0 E2137.126
G1 X42.1 Y45.65 Z0.3 F2880.0 E2137.814
G1 X40.51 Y44.07 Z0.3 F2880.0 E2141.496
G1 X40.17 Y44.32 Z0.3 F2880.0 E2142.192
G1 X42.22 Y46.36 Z0.3 F2880.0 E2146.941
G1 X42.86 Y47.6 Z0.3 F2880.0 E2149.222
;M103
G1 X42.92 Y45.99 Z0.3 F3600.0
G1 X45.63 Y37.93 Z0.3 F2880.0
;M101
G1 X48.52 Y40.82 Z0.3 F2880.0 E2155.935
;M103
G1 X48.31 Y39.35 Z0.3 F3600.0
G1 X48.94 Y36.5 Z0.3 F2880.0
;M101
G1 X46.44 Y34.0 Z0.3 F2880.0 E2161.728
G1 X45.83 Y33.98 Z0.3 F2880.0 E2162.73
G1 X48.59 Y36.74 Z0.3 F2880.0 E2169.143
G1 X48.41 Y37.15 Z0.3 F2880.0 E2169.878
G1 X44.96 Y33.7 Z0.3 F2880.0 E2177.896
G1 X44.08 Y33.42 Z0.3 F2880.0 E2179.406
G1 X48.23 Y37.56 Z0.3 F2880.0 E2189.03
G1 X48.04 Y37.97 Z0.3 F2880.0 E2189.768
G1 X43.21 Y33.14 Z0.3 F2880.0 E2200.999
G1 X42.33 Y32.85 Z0.3 F2880.0 E2202.509
G1 X47.86 Y38.38 Z0.3 F2880.0 E2215.347
G1 X47.68 Y38.79 Z0.3 F2880.0 E2216.084
G1 X45.87 Y36.98 Z0.3 F2880.0 E2220.289
G1 X45.85 Y37.55 Z0.3 F2880.0 E2221.229
G1 X47.49 Y39.2 Z0.3 F2880.0 E2225.056
;M103
G1 X49.19 Y27.27 Z0.3 F2880.0
;M101
G1 X46.79 Y24.87 Z0.3 F2880.0 E2230.626
G1 X46.97 Y25.64 Z0.3 F2880.0 E2231.929
G1 X49.73 Y28.4 Z0.3 F2880.0 E2238.336
G1 X49.73 Y28.99 Z0.3 F2880.0 E2239.308
G1 X47.15 Y26.42 Z0.3 F2880.0 E2245.291
G1 X47.33 Y27.19 Z0.3 F2880.0 E2246.596
G1 X49.73 Y29.59 Z0.3 F2880.0 E2252.158
G1 X49.73 Y30.18 Z0.3 F2880.0 E2253.13
G1 X47.42 Y27.87 Z0.3 F2880.0 E2258.493
G1 X47.46 Y28.5 Z0.3 F2880.0 E2259.533
G1 X49.73 Y30.77 Z0.3 F2880.0 E2264.803
G1 X49.72 Y31.36 Z0.3 F2880.0 E2265.775
G1 X47.5 Y29.13 Z0.3 F2880.0 E2270.95
G1 X47.54 Y29.76 Z0.3 F2880.0 E2271.99
G1 X50.18 Y32.4 Z0.3 F2880.0 E2278.12
G1 X49.64 Y32.46 Z0.3 F2880.0 E2278.998
G1 X47.57 Y30.39 Z0.3 F2880.0 E2283.81
G1 X47.51 Y30.93 Z0.3 F2880.0 E2284.69
G1 X49.54 Y32.95 Z0.3 F2880.0 E2289.399
G1 X49.44 Y33.44 Z0.3 F2880.0 E2290.219
G1 X47.45 Y31.46 Z0.3 F2880.0 E2294.823
G1 X47.39 Y31.99 Z0.3 F2880.0 E2295.705
G1 X49.33 Y33.93 Z0.3 F2880.0 E2300.205
G1 X49.23 Y34.42 Z0.3 F2880.0 E2301.024
G1 X47.33 Y32.53 Z0.3 F2880.0 E2305.421
G1 X47.28 Y33.06 Z0.3 F2880.0 E2306.301
G1 X49.12 Y34.91 Z0.3 F2880.0 E2310.594
G1 X49.02 Y35.4 Z0.3 F2880.0 E2311.414
G1 X47.16 Y33.54 Z0.3 F2880.0 E2315.731
G1 X46.8 Y33.77 Z0.3 F2880.0 E2316.434
G1 X49.65 Y36.61 Z0.3 F2880.0 E2323.042
G1 X49.86 Y36.24 Z0.3 F2880.0 E2323.754
G1 X50.36 Y36.73 Z0.3 F2880.0 E2324.904
;M103
G1 X49.85 Y35.34 Z0.3 F3600.0
G1 X50.2 Y31.84 Z0.3 F2880.0
;M101
G1 X50.74 Y32.38 Z0.3 F2880.0 E2326.162
G1 X51.0 Y32.04 Z0.3 F2880.0 E2326.856
G1 X51.31 Y32.35 Z0.3 F2880.0 E2327.575
G1 X51.8 Y32.25 Z0.3 F2880.0 E2328.397
G1 X51.87 Y32.32 Z0.3 F2880.0 E2328.562
;M103
G1 X50.53 Y31.09 Z0.3 F3600.0
G1 X46.45 Y23.94 Z0.3 F2880.0
;M101
G1 X49.53 Y27.02 Z0.3 F2880.0 E2335.71
G1 X50.11 Y28.19 Z0.3 F2880.0 E2337.847
G1 X50.11 Y27.59 Z0.3 F2880.0 E2338.824
G1 X50.58 Y28.07 Z0.3 F2880.0 E2339.921
G1 X50.72 Y27.62 Z0.3 F2880.0 E2340.692
G1 X51.05 Y27.95 Z0.3 F2880.0 E2341.445
G1 X51.34 Y27.65 Z0.3 F2880.0 E2342.132
G1 X51.52 Y27.82 Z0.3 F2880.0 E2342.536
;M103
G1 X50.3 Y26.8 Z0.3 F3600.0
G1 X49.06 Y24.77 Z0.3 F2880.0
;M101
G1 X44.59 Y20.3 Z0.3 F2880.0 E2352.909
;M103
G1 X45.59 Y21.9 Z0.3 F2880.0
;M101
G1 X49.22 Y25.52 Z0.3 F2880.0 E2361.318
G1 X49.37 Y26.27 Z0.3 F2880.0 E2362.577
G1 X46.02 Y22.92 Z0.3 F2880.0 E2370.355
;M103
G1 X47.65 Y22.18 Z0.3 F2880.0
;M101
G1 X37.01 Y11.54 Z0.3 F2880.0 E2395.065
G1 X36.13 Y11.25 Z0.3 F2880.0 E2396.582
G1 X49.05 Y24.17 Z0.3 F2880.0 E2426.575
G1 X49.44 Y23.97 Z0.3 F2880.0 E2427.301
G1 X48.97 Y23.5 Z0.3 F2880.0 E2428.395
G1 X49.48 Y23.42 Z0.3 F2880.0 E2429.241
G1 X49.84 Y23.77 Z0.3 F2880.0 E2430.075
G1 X50.23 Y23.58 Z0.3 F2880.0 E2430.799
G1 X49.99 Y23.33 Z0.3 F2880.0 E2431.372
G1 X50.5 Y23.25 Z0.3 F2880.0 E2432.215
G1 X50.63 Y23.38 Z0.3 F2880.0 E2432.525
;M103
G1 X49.2 Y22.65 Z0.3 F3600.0
G1 X38.92 Y12.86 Z0.3 F2880.0
;M101
G1 X48.0 Y21.94 Z0.3 F2880.0 E2453.618
G1 X48.48 Y23.0 Z0.3 F2880.0 E2455.531
;M103
G1 X47.53 Y20.87 Z0.3 F2880.0
;M101
G1 X39.18 Y12.52 Z0.3 F2880.0 E2474.927
G1 X37.77 Y11.7 Z0.3 F2880.0 E2477.605
;M103
G1 X38.45 Y11.8 Z0.3 F2880.0
;M101
G1 X38.0 Y11.34 Z0.3 F2880.0 E2478.663
G1 X38.23 Y10.98 Z0.3 F2880.0 E2479.369
G1 X38.58 Y11.33 Z0.3 F2880.0 E2480.189
G1 X38.71 Y10.87 Z0.3 F2880.0 E2480.98
G1 X38.46 Y10.62 Z0.3 F2880.0 E2481.563
G1 X38.69 Y10.26 Z0.3 F2880.0 E2482.267
G1 X38.84 Y10.4 Z0.3 F2880.0 E2482.613
G1 X38.97 Y9.94 Z0.3 F2880.0 E2483.404
G1 X38.93 Y9.9 Z0.3 F2880.0 E2483.497
;M103
G1 X39.32 Y11.68 Z0.3 F3600.0
G1 X40.58 Y13.33 Z0.3 F2880.0
;M101
G1 X47.51 Y20.26 Z0.3 F2880.0 E2499.583
G1 X47.84 Y20.0 Z0.3 F2880.0 E2500.275
G1 X47.45 Y19.6 Z0.3 F2880.0 E2501.197
G1 X47.87 Y19.44 Z0.3 F2880.0 E2501.947
G1 X48.17 Y19.74 Z0.3 F2880.0 E2502.647
G1 X48.5 Y19.48 Z0.3 F2880.0 E2503.337
G1 X48.3 Y19.27 Z0.3 F2880.0 E2503.814
G1 X48.72 Y19.1 Z0.3 F2880.0 E2504.565
G1 X48.83 Y19.21 Z0.3 F2880.0 E2504.821
;M103
G1 X47.25 Y18.82 Z0.3 F3600.0
G1 X45.97 Y17.05 Z0.3 F3600.0
G1 X46.17 Y15.37 Z0.3 F2880.0
;M101
G1 X46.25 Y15.45 Z0.3 F2880.0 E2505.007
G1 X45.98 Y15.77 Z0.3 F2880.0 E2505.697
G1 X45.81 Y15.6 Z0.3 F2880.0 E2506.089
G1 X45.46 Y15.84 Z0.3 F2880.0 E2506.79
G1 X45.71 Y16.09 Z0.3 F2880.0 E2507.388
G1 X45.45 Y16.42 Z0.3 F2880.0 E2508.079
G1 X45.1 Y16.07 Z0.3 F2880.0 E2508.885
G1 X44.74 Y16.31 Z0.3 F2880.0 E2509.586
G1 X45.18 Y16.74 Z0.3 F2880.0 E2510.599
G1 X45.2 Y17.36 Z0.3 F2880.0 E2511.608
G1 X41.48 Y13.64 Z0.3 F2880.0 E2520.244
G1 X41.77 Y13.34 Z0.3 F2880.0 E2520.93
G1 X42.17 Y13.73 Z0.3 F2880.0 E2521.842
G1 X42.37 Y13.34 Z0.3 F2880.0 E2522.563
G1 X42.07 Y13.04 Z0.3 F2880.0 E2523.262
G1 X42.36 Y12.74 Z0.3 F2880.0 E2523.95
G1 X42.57 Y12.95 Z0.3 F2880.0 E2524.439
G1 X42.77 Y12.56 Z0.3 F2880.0 E2525.16
G1 X42.66 Y12.44 Z0.3 F2880.0 E2525.436
;M103
G1 X41.21 Y12.77 Z0.3 F3600.0
G1 X35.25 Y10.97 Z0.3 F2880.0
;M101
G1 X41.36 Y17.08 Z0.3 F2880.0 E2539.627
;M103
G1 X34.06 Y9.77 Z0.3 F2880.0
;M101
G1 X34.5 Y10.21 Z0.3 F2880.0 E2540.642
G1 X34.53 Y9.65 Z0.3 F2880.0 E2541.561
G1 X34.22 Y9.34 Z0.3 F2880.0 E2542.279
G1 X34.57 Y9.09 Z0.3 F2880.0 E2542.975
G1 X34.38 Y8.91 Z0.3 F2880.0 E2543.397
G1 X34.6 Y8.53 Z0.3 F2880.0 E2544.11
G1 X34.55 Y8.48 Z0.3 F2880.0 E2544.231
;M103
G1 X37.13 Y14.77 Z0.3 F3600.0
G1 X38.02 Y15.23 Z0.3 F3600.0
G1 X38.13 Y15.66 Z0.3 F3600.0
G1 X37.68 Y16.37 Z0.3 F3600.0
G1 X38.97 Y20.7 Z0.3 F3600.0
G1 X36.16 Y24.71 Z0.3 F3600.0
G1 X37.24 Y26.6 Z0.3 F3600.0
G1 X37.86 Y28.5 Z0.3 F3600.0
G1 X38.09 Y30.66 Z0.3 F3600.0
G1 X44.88 Y35.99 Z0.3 F2880.0
;M101
G1 X41.46 Y32.57 Z0.3 F2880.0 E2552.183
G1 X40.58 Y32.29 Z0.3 F2880.0 E2553.693
G1 X44.0 Y35.71 Z0.3 F2880.0 E2561.634
G1 X43.12 Y35.42 Z0.3 F2880.0 E2563.154
G1 X39.71 Y32.01 Z0.3 F2880.0 E2571.084
G1 X38.83 Y31.72 Z0.3 F2880.0 E2572.591
G1 X42.24 Y35.13 Z0.3 F2880.0 E2580.507
G1 X41.36 Y34.85 Z0.3 F2880.0 E2582.027
G1 X37.96 Y31.44 Z0.3 F2880.0 E2589.932
;M103
G1 X31.12 Y35.29 Z0.3 F3600.0
G1 X30.98 Y35.57 Z0.3 F3600.0
G1 X30.57 Y35.72 Z0.3 F3600.0
G1 X26.78 Y37.26 Z0.3 F3600.0
G1 X26.14 Y37.01 Z0.3 F3600.0
G1 X24.52 Y35.84 Z0.3 F3600.0
G1 X23.07 Y34.22 Z0.3 F3600.0
G1 X15.0 Y36.82 Z0.3 F3600.0
G1 X14.83 Y37.24 Z0.3 F3600.0
G1 X15.26 Y43.69 Z0.3 F2880.0
;M101
G1 X14.82 Y43.26 Z0.3 F2880.0 E2590.944
G1 X14.55 Y43.58 Z0.3 F2880.0 E2591.635
G1 X14.9 Y43.93 Z0.3 F2880.0 E2592.441
G1 X14.54 Y44.16 Z0.3 F2880.0 E2593.142
G1 X14.29 Y43.91 Z0.3 F2880.0 E2593.74
G1 X14.02 Y44.23 Z0.3 F2880.0 E2594.431
G1 X14.19 Y44.4 Z0.3 F2880.0 E2594.822
G1 X13.83 Y44.64 Z0.3 F2880.0 E2595.525
G1 X13.75 Y44.56 Z0.3 F2880.0 E2595.71
;M103
G1 X16.14 Y39.63 Z0.3 F3600.0
G1 X14.83 Y37.24 Z0.3 F3600.0
G1 X15.0 Y36.82 Z0.3 F3600.0
G1 X18.99 Y35.46 Z0.3 F3600.0
G1 X26.8 Y22.97 Z0.3 F3600.0
;M101
G1 X29.04 Y22.4 Z0.3 F2880.0 E2599.52
G1 X30.96 Y22.4 Z0.3 F2880.0 E2602.663
G1 X33.3 Y23.0 Z0.3 F2880.0 E2606.635
G1 X38.56 Y15.74 Z0.3 F2880.0 E2621.347
G1 X38.35 Y14.95 Z0.3 F2880.0 E2622.69
G1 X35.67 Y13.74 Z0.3 F2880.0 E2627.514
G1 X32.87 Y13.02 Z0.3 F2880.0 E2632.252
G1 X30.0 Y12.78 Z0.3 F2880.0 E2636.986
G1 X27.13 Y13.02 Z0.3 F2880.0 E2641.72
G1 X24.33 Y13.74 Z0.3 F2880.0 E2646.458
G1 X21.66 Y14.95 Z0.3 F2880.0 E2651.281
G1 X21.45 Y15.74 Z0.3 F2880.0 E2652.625
G1 X26.7 Y23.0 Z0.3 F2880.0 E2667.336
G1 X26.8 Y22.97 Z0.3 F2880.0 E2667.499
;M103
G1 X24.36 Y24.7 Z0.3 F3600.0
;M101
G1 X19.08 Y17.45 Z0.3 F2880.0 E2682.215
G1 X18.26 Y17.42 Z0.3 F2880.0 E2683.558
G1 X16.29 Y19.58 Z0.3 F2880.0 E2688.376
G1 X14.74 Y22.02 Z0.3 F2880.0 E2693.115
G1 X13.62 Y24.68 Z0.3 F2880.0 E2697.849
G1 X12.97 Y27.49 Z0.3 F2880.0 E2702.585
G1 X12.78 Y30.37 Z0.3 F2880.0 E2707.321
G1 X13.11 Y33.29 Z0.3 F2880.0 E2712.145
G1 X13.8 Y33.73 Z0.3 F2880.0 E2713.489
G1 X22.32 Y30.98 Z0.3 F2880.0 E2728.198
G1 X22.48 Y28.56 Z0.3 F2880.0 E2732.173
G1 X23.07 Y26.74 Z0.3 F2880.0 E2735.314
G1 X24.36 Y24.7 Z0.3 F2880.0 E2739.288
;M103
G1 X26.44 Y26.85 Z0.3 F3600.0
;M101
G1 X26.27 Y27.01 Z0.3 F2880.0 E2739.663
G1 X25.64 Y28.05 Z0.3 F2880.0 E2741.664
G1 X25.28 Y29.22 Z0.3 F2880.0 E2743.665
G1 X25.24 Y30.44 Z0.3 F2880.0 E2745.668
G1 X25.5 Y31.62 Z0.3 F2880.0 E2747.668
G1 X26.06 Y32.71 Z0.3 F2880.0 E2749.671
G1 X26.87 Y33.62 Z0.3 F2880.0 E2751.672
G1 X27.89 Y34.29 Z0.3 F2880.0 E2753.675
G1 X28.54 Y34.51 Z0.3 F2880.0 E2754.806
G1 X28.54 Y36.05 Z0.3 F2880.0 E2757.334
G1 X31.46 Y36.05 Z0.3 F2880.0 E2762.119
G1 X31.46 Y34.51 Z0.3 F2880.0 E2764.647
G1 X32.11 Y34.29 Z0.3 F2880.0 E2765.778
G1 X33.13 Y33.62 Z0.3 F2880.0 E2767.781
G1 X33.94 Y32.71 Z0.3 F2880.0 E2769.782
G1 X34.5 Y31.62 Z0.3 F2880.0 E2771.785
G1 X34.76 Y30.44 Z0.3 F2880.0 E2773.785
G1 X34.72 Y29.22 Z0.3 F2880.0 E2775.788
G1 X34.36 Y28.05 Z0.3 F2880.0 E2777.789
G1 X33.73 Y27.01 Z0.3 F2880.0 E2779.79
G1 X32.85 Y26.16 Z0.3 F2880.0 E2781.789
G1 X31.79 Y25.57 Z0.3 F2880.0 E2783.792
G1 X30.61 Y25.26 Z0.3 F2880.0 E2785.792
G1 X29.39 Y25.26 Z0.3 F2880.0 E2787.795
G1 X28.21 Y25.57 Z0.3 F2880.0 E2789.795
G1 X27.15 Y26.16 Z0.3 F2880.0 E2791.798
G1 X26.44 Y26.85 Z0.3 F2880.0 E2793.422
;M103
G1 X23.21 Y33.72 Z0.3 F3600.0
;M101
G1 X14.7 Y36.51 Z0.3 F2880.0 E2808.132
G1 X14.4 Y37.27 Z0.3 F2880.0 E2809.477
G1 X15.86 Y39.82 Z0.3 F2880.0 E2814.298
G1 X17.7 Y42.05 Z0.3 F2880.0 E2819.035
G1 X19.88 Y43.93 Z0.3 F2880.0 E2823.771
G1 X22.35 Y45.43 Z0.3 F2880.0 E2828.507
G1 X25.03 Y46.49 Z0.3 F2880.0 E2833.243
G1 X27.9 Y47.08 Z0.3 F2880.0 E2838.063
G1 X28.54 Y46.57 Z0.3 F2880.0 E2839.409
G1 X28.56 Y37.6 Z0.3 F2880.0 E2854.121
G1 X26.31 Y36.71 Z0.3 F2880.0 E2858.094
G1 X24.76 Y35.59 Z0.3 F2880.0 E2861.236
G1 X23.21 Y33.72 Z0.3 F2880.0 E2865.208
;M103
G1 X31.45 Y37.6 Z0.3 F3600.0
;M101
G1 X31.46 Y46.57 Z0.3 F2880.0 E2879.92
G1 X32.1 Y47.08 Z0.3 F2880.0 E2881.265
G1 X34.97 Y46.49 Z0.3 F2880.0 E2886.086
G1 X37.65 Y45.43 Z0.3 F2880.0 E2890.821
G1 X40.12 Y43.93 Z0.3 F2880.0 E2895.558
G1 X42.31 Y42.05 Z0.3 F2880.0 E2900.294
G1 X44.14 Y39.82 Z0.3 F2880.0 E2905.031
G1 X45.6 Y37.27 Z0.3 F2880.0 E2909.852
G1 X45.3 Y36.51 Z0.3 F2880.0 E2911.197
G1 X36.79 Y33.72 Z0.3 F2880.0 E2925.906
G1 X35.24 Y35.59 Z0.3 F2880.0 E2929.879
G1 X33.69 Y36.71 Z0.3 F2880.0 E2933.021
G1 X31.45 Y37.6 Z0.3 F2880.0 E2936.994
;M103
G1 X37.68 Y30.98 Z0.3 F3600.0
;M101
G1 X46.2 Y33.73 Z0.3 F2880.0 E2951.703
G1 X46.89 Y33.29 Z0.3 F2880.0 E2953.047
G1 X47.22 Y30.37 Z0.3 F2880.0 E2957.871
G1 X47.04 Y27.49 Z0.3 F2880.0 E2962.607
G1 X46.38 Y24.68 Z0.3 F2880.0 E2967.343
G1 X45.26 Y22.02 Z0.3 F2880.0 E2972.077
G1 X43.71 Y19.58 Z0.3 F2880.0 E2976.816
G1 X41.74 Y17.42 Z0.3 F2880.0 E2981.634
G1 X40.92 Y17.45 Z0.3 F2880.0 E2982.977
G1 X35.64 Y24.7 Z0.3 F2880.0 E2997.693
G1 X36.93 Y26.74 Z0.3 F2880.0 E3001.667
G1 X37.53 Y28.56 Z0.3 F2880.0 E3004.809
G1 X37.68 Y30.98 Z0.3 F2880.0 E3008.783
;M103
G1 X46.15 Y33.3 Z0.3 F3600.0
G1 X49.78 Y33.55 Z0.3 F3600.0
;M101
G1 X49.34 Y35.58 Z0.3 F2880.0 E3012.189
G1 X52.9 Y37.35 Z0.3 F2880.0 E3018.707
G1 X52.85 Y37.51 Z0.3 F2880.0 E3018.971
G1 X48.93 Y36.86 Z0.3 F2880.0 E3025.484
G1 X47.76 Y39.48 Z0.3 F2880.0 E3030.203
G1 X50.87 Y41.95 Z0.3 F2880.0 E3036.724
G1 X50.79 Y42.09 Z0.3 F2880.0 E3036.99
G1 X47.09 Y40.64 Z0.3 F2880.0 E3043.504
G1 X45.4 Y42.97 Z0.3 F2880.0 E3048.225
G1 X47.93 Y46.03 Z0.3 F2880.0 E3054.743
G1 X47.82 Y46.15 Z0.3 F2880.0 E3055.009
G1 X44.51 Y43.96 Z0.3 F2880.0 E3061.521
G1 X42.37 Y45.89 Z0.3 F2880.0 E3066.24
G1 X44.2 Y49.41 Z0.3 F2880.0 E3072.759
G1 X44.07 Y49.5 Z0.3 F2880.0 E3073.024
G1 X41.29 Y46.67 Z0.3 F2880.0 E3079.537
G1 X38.8 Y48.11 Z0.3 F2880.0 E3084.255
G1 X39.85 Y51.94 Z0.3 F2880.0 E3090.774
G1 X39.71 Y52.0 Z0.3 F2880.0 E3091.04
G1 X37.57 Y48.66 Z0.3 F2880.0 E3097.554
G1 X34.84 Y49.54 Z0.3 F2880.0 E3102.274
G1 X35.08 Y53.51 Z0.3 F2880.0 E3108.793
G1 X34.92 Y53.54 Z0.3 F2880.0 E3109.058
G1 X33.53 Y49.82 Z0.3 F2880.0 E3115.573
G1 X30.67 Y50.12 Z0.3 F2880.0 E3120.293
G1 X30.08 Y54.05 Z0.3 F2880.0 E3126.814
G1 X29.92 Y54.05 Z0.3 F2880.0 E3127.08
G1 X29.33 Y50.12 Z0.3 F2880.0 E3133.596
G1 X26.47 Y49.82 Z0.3 F2880.0 E3138.318
G1 X25.08 Y53.54 Z0.3 F2880.0 E3144.839
G1 X24.92 Y53.51 Z0.3 F2880.0 E3145.104
G1 X25.16 Y49.55 Z0.3 F2880.0 E3151.618
G1 X22.43 Y48.65 Z0.3 F2880.0 E3156.336
G1 X20.29 Y52.0 Z0.3 F2880.0 E3162.858
G1 X20.15 Y51.94 Z0.3 F2880.0 E3163.125
G1 X21.2 Y48.11 Z0.3 F2880.0 E3169.639
G1 X18.71 Y46.67 Z0.3 F2880.0 E3174.361
G1 X15.93 Y49.5 Z0.3 F2880.0 E3180.88
G1 X15.8 Y49.41 Z0.3 F2880.0 E3181.143
G1 X17.63 Y45.89 Z0.3 F2880.0 E3187.657
G1 X15.5 Y43.96 Z0.3 F2880.0 E3192.378
G1 X12.18 Y46.15 Z0.3 F2880.0 E3198.897
G1 X12.08 Y46.03 Z0.3 F2880.0 E3199.163
G1 X14.6 Y42.97 Z0.3 F2880.0 E3205.676
G1 X12.91 Y40.64 Z0.3 F2880.0 E3210.399
G1 X9.22 Y42.09 Z0.3 F2880.0 E3216.917
G1 X9.13 Y41.95 Z0.3 F2880.0 E3217.183
G1 X12.24 Y39.48 Z0.3 F2880.0 E3223.698
G1 X11.07 Y36.85 Z0.3 F2880.0 E3228.417
G1 X7.16 Y37.51 Z0.3 F2880.0 E3234.936
G1 X7.11 Y37.35 Z0.3 F2880.0 E3235.2
G1 X10.65 Y35.58 Z0.3 F2880.0 E3241.712
G1 X10.06 Y32.77 Z0.3 F2880.0 E3246.43
G1 X6.09 Y32.59 Z0.3 F2880.0 E3252.953
G1 X6.08 Y32.43 Z0.3 F2880.0 E3253.219
G1 X9.92 Y31.44 Z0.3 F2880.0 E3259.734
G1 X9.92 Y28.56 Z0.3 F2880.0 E3264.453
G1 X6.08 Y27.57 Z0.3 F2880.0 E3270.973
G1 X6.09 Y27.41 Z0.3 F2880.0 E3271.237
G1 X10.06 Y27.23 Z0.3 F2880.0 E3277.753
G1 X10.66 Y24.42 Z0.3 F2880.0 E3282.472
G1 X7.11 Y22.65 Z0.3 F2880.0 E3288.99
G1 X7.16 Y22.49 Z0.3 F2880.0 E3289.254
G1 X11.07 Y23.15 Z0.3 F2880.0 E3295.767
G1 X12.24 Y20.52 Z0.3 F2880.0 E3300.487
G1 X9.13 Y18.05 Z0.3 F2880.0 E3307.007
G1 X9.22 Y17.91 Z0.3 F2880.0 E3307.273
G1 X12.91 Y19.36 Z0.3 F2880.0 E3313.787
G1 X14.6 Y17.03 Z0.3 F2880.0 E3318.507
G1 X12.08 Y13.97 Z0.3 F2880.0 E3325.025
G1 X12.18 Y13.85 Z0.3 F2880.0 E3325.291
G1 X15.49 Y16.04 Z0.3 F2880.0 E3331.804
G1 X17.63 Y14.12 Z0.3 F2880.0 E3336.523
G1 X15.8 Y10.59 Z0.3 F2880.0 E3343.042
G1 X15.93 Y10.5 Z0.3 F2880.0 E3343.307
G1 X18.71 Y13.33 Z0.3 F2880.0 E3349.82
G1 X21.2 Y11.89 Z0.3 F2880.0 E3354.538
G1 X20.15 Y8.07 Z0.3 F2880.0 E3361.057
G1 X20.29 Y8.0 Z0.3 F2880.0 E3361.324
G1 X22.43 Y11.34 Z0.3 F2880.0 E3367.838
G1 X25.16 Y10.46 Z0.3 F2880.0 E3372.556
G1 X24.92 Y6.5 Z0.3 F2880.0 E3379.076
G1 X25.08 Y6.46 Z0.3 F2880.0 E3379.342
G1 X26.47 Y10.18 Z0.3 F2880.0 E3385.857
G1 X29.33 Y9.88 Z0.3 F2880.0 E3390.576
G1 X29.92 Y5.95 Z0.3 F2880.0 E3397.097
G1 X30.08 Y5.95 Z0.3 F2880.0 E3397.363
G1 X30.67 Y9.88 Z0.3 F2880.0 E3403.88
G1 X33.53 Y10.18 Z0.3 F2880.0 E3408.602
G1 X34.92 Y6.46 Z0.3 F2880.0 E3415.122
G1 X35.08 Y6.5 Z0.3 F2880.0 E3415.387
G1 X34.84 Y10.46 Z0.3 F2880.0 E3421.903
G1 X37.57 Y11.35 Z0.3 F2880.0 E3426.62
G1 X39.71 Y8.0 Z0.3 F2880.0 E3433.141
G1 X39.85 Y8.07 Z0.3 F2880.0 E3433.408
G1 X38.8 Y11.89 Z0.3 F2880.0 E3439.922
G1 X41.29 Y13.33 Z0.3 F2880.0 E3444.643
G1 X44.07 Y10.5 Z0.3 F2880.0 E3451.162
G1 X44.2 Y10.59 Z0.3 F2880.0 E3451.426
G1 X42.37 Y14.11 Z0.3 F2880.0 E3457.94
G1 X44.5 Y16.04 Z0.3 F2880.0 E3462.66
G1 X47.82 Y13.85 Z0.3 F2880.0 E3469.18
G1 X47.93 Y13.97 Z0.3 F2880.0 E3469.446
G1 X45.4 Y17.03 Z0.3 F2880.0 E3475.959
G1 X47.09 Y19.36 Z0.3 F2880.0 E3480.682
G1 X50.79 Y17.91 Z0.3 F2880.0 E3487.2
G1 X50.87 Y18.05 Z0.3 F2880.0 E3487.465
G1 X47.76 Y20.52 Z0.3 F2880.0 E3493.979
G1 X48.93 Y23.15 Z0.3 F2880.0 E3498.699
G1 X52.85 Y22.49 Z0.3 F2880.0 E3505.218
G1 X52.9 Y22.65 Z0.3 F2880.0 E3505.482
G1 X49.35 Y24.42 Z0.3 F2880.0 E3511.995
G1 X49.94 Y27.23 Z0.3 F2880.0 E3516.713
G1 X53.91 Y27.41 Z0.3 F2880.0 E3523.236
G1 X53.92 Y27.57 Z0.3 F2880.0 E3523.501
G1 X50.08 Y28.56 Z0.3 F2880.0 E3530.016
G1 X50.08 Y31.44 Z0.3 F2880.0 E3534.735
G1 X53.92 Y32.43 Z0.3 F2880.0 E3541.255
G1 X53.91 Y32.59 Z0.3 F2880.0 E3541.519
G1 X49.94 Y32.77 Z0.3 F2880.0 E3548.036
G1 X49.78 Y33.55 Z0.3 F2880.0 E3549.349
;M103
;M108 S56.29
;M108 S59.1
G1 X50.19 Y33.64 Z0.3 F3600.0
;M101
G1 X49.82 Y35.35 Z0.3 F2430.0 E3551.903
G1 X53.41 Y37.14 Z0.3 F2430.0 E3557.749
G1 X53.13 Y37.98 Z0.3 F2430.0 E3559.038
G1 X49.18 Y37.32 Z0.3 F2430.0 E3564.88
G1 X48.28 Y39.35 Z0.3 F2430.0 E3568.129
G1 X51.41 Y41.85 Z0.3 F2430.0 E3573.976
G1 X50.97 Y42.62 Z0.3 F2430.0 E3575.264
G1 X47.24 Y41.15 Z0.3 F2430.0 E3581.109
G1 X45.93 Y42.95 Z0.3 F2430.0 E3584.357
G1 X48.48 Y46.04 Z0.3 F2430.0 E3590.204
G1 X47.89 Y46.7 Z0.3 F2430.0 E3591.495
G1 X44.55 Y44.49 Z0.3 F2430.0 E3597.338
G1 X42.89 Y45.98 Z0.3 F2430.0 E3600.587
G1 X44.74 Y49.54 Z0.3 F2430.0 E3606.435
G1 X44.02 Y50.05 Z0.3 F2430.0 E3607.722
G1 X41.22 Y47.2 Z0.3 F2430.0 E3613.565
G1 X39.29 Y48.31 Z0.3 F2430.0 E3616.814
G1 X40.35 Y52.17 Z0.3 F2430.0 E3622.661
G1 X39.55 Y52.53 Z0.3 F2430.0 E3623.95
G1 X37.39 Y49.15 Z0.3 F2430.0 E3629.795
G1 X35.28 Y49.84 Z0.3 F2430.0 E3633.043
G1 X35.52 Y53.84 Z0.3 F2430.0 E3638.889
G1 X34.66 Y54.02 Z0.3 F2430.0 E3640.178
G1 X33.25 Y50.27 Z0.3 F2430.0 E3646.023
G1 X31.04 Y50.5 Z0.3 F2430.0 E3649.272
G1 X30.44 Y54.47 Z0.3 F2430.0 E3655.121
G1 X29.56 Y54.47 Z0.3 F2430.0 E3656.411
G1 X28.97 Y50.51 Z0.3 F2430.0 E3662.255
G1 X26.75 Y50.27 Z0.3 F2430.0 E3665.504
G1 X25.35 Y54.02 Z0.3 F2430.0 E3671.352
G1 X24.48 Y53.84 Z0.3 F2430.0 E3672.641
G1 X24.72 Y49.84 Z0.3 F2430.0 E3678.485
G1 X22.61 Y49.15 Z0.3 F2430.0 E3681.733
G1 X20.45 Y52.53 Z0.3 F2430.0 E3687.581
G1 X19.65 Y52.17 Z0.3 F2430.0 E3688.871
G1 X20.71 Y48.31 Z0.3 F2430.0 E3694.714
G1 X18.79 Y47.2 Z0.3 F2430.0 E3697.963
G1 X15.98 Y50.05 Z0.3 F2430.0 E3703.809
G1 X15.26 Y49.54 Z0.3 F2430.0 E3705.096
G1 X17.11 Y45.98 Z0.3 F2430.0 E3710.94
G1 X15.46 Y44.49 Z0.3 F2430.0 E3714.189
G1 X12.11 Y46.7 Z0.3 F2430.0 E3720.036
G1 X11.52 Y46.04 Z0.3 F2430.0 E3721.327
G1 X14.07 Y42.95 Z0.3 F2430.0 E3727.169
G1 X12.76 Y41.15 Z0.3 F2430.0 E3730.418
G1 X9.03 Y42.62 Z0.3 F2430.0 E3736.266
G1 X8.59 Y41.85 Z0.3 F2430.0 E3737.554
G1 X11.72 Y39.36 Z0.3 F2430.0 E3743.397
G1 X10.82 Y37.32 Z0.3 F2430.0 E3746.646
G1 X6.87 Y37.98 Z0.3 F2430.0 E3752.491
G1 X6.6 Y37.14 Z0.3 F2430.0 E3753.78
G1 X10.18 Y35.35 Z0.3 F2430.0 E3759.622
G1 X9.72 Y33.17 Z0.3 F2430.0 E3762.871
G1 X5.71 Y33.0 Z0.3 F2430.0 E3768.719
G1 X5.62 Y32.12 Z0.3 F2430.0 E3770.008
G1 X9.5 Y31.11 Z0.3 F2430.0 E3775.852
G1 X9.5 Y28.89 Z0.3 F2430.0 E3779.101
G1 X5.62 Y27.88 Z0.3 F2430.0 E3784.95
G1 X5.71 Y27.0 Z0.3 F2430.0 E3786.238
G1 X9.72 Y26.83 Z0.3 F2430.0 E3792.084
G1 X10.18 Y24.65 Z0.3 F2430.0 E3795.332
G1 X6.6 Y22.86 Z0.3 F2430.0 E3801.178
G1 X6.87 Y22.02 Z0.3 F2430.0 E3802.467
G1 X10.82 Y22.68 Z0.3 F2430.0 E3808.309
G1 X11.73 Y20.65 Z0.3 F2430.0 E3811.56
G1 X8.59 Y18.15 Z0.3 F2430.0 E3817.406
G1 X9.03 Y17.38 Z0.3 F2430.0 E3818.695
G1 X12.76 Y18.85 Z0.3 F2430.0 E3824.539
G1 X14.07 Y17.05 Z0.3 F2430.0 E3827.788
G1 X11.52 Y13.96 Z0.3 F2430.0 E3833.635
G1 X12.11 Y13.3 Z0.3 F2430.0 E3834.925
G1 X15.45 Y15.51 Z0.3 F2430.0 E3840.769
G1 X17.11 Y14.02 Z0.3 F2430.0 E3844.017
G1 X15.26 Y10.47 Z0.3 F2430.0 E3849.865
G1 X15.98 Y9.95 Z0.3 F2430.0 E3851.153
G1 X18.78 Y12.8 Z0.3 F2430.0 E3856.995
G1 X20.71 Y11.69 Z0.3 F2430.0 E3860.245
G1 X19.65 Y7.83 Z0.3 F2430.0 E3866.091
G1 X20.45 Y7.47 Z0.3 F2430.0 E3867.381
G1 X22.61 Y10.85 Z0.3 F2430.0 E3873.226
G1 X24.72 Y10.16 Z0.3 F2430.0 E3876.473
G1 X24.48 Y6.16 Z0.3 F2430.0 E3882.321
G1 X25.35 Y5.98 Z0.3 F2430.0 E3883.61
G1 X26.75 Y9.73 Z0.3 F2430.0 E3889.455
G1 X28.96 Y9.5 Z0.3 F2430.0 E3892.703
G1 X29.56 Y5.53 Z0.3 F2430.0 E3898.551
G1 X30.44 Y5.53 Z0.3 F2430.0 E3899.841
G1 X31.04 Y9.49 Z0.3 F2430.0 E3905.684
G1 X33.25 Y9.73 Z0.3 F2430.0 E3908.933
G1 X34.66 Y5.98 Z0.3 F2430.0 E3914.781
G1 X35.52 Y6.16 Z0.3 F2430.0 E3916.07
G1 X35.28 Y10.16 Z0.3 F2430.0 E3921.915
G1 X37.39 Y10.85 Z0.3 F2430.0 E3925.163
G1 X39.55 Y7.47 Z0.3 F2430.0 E3931.011
G1 X40.35 Y7.83 Z0.3 F2430.0 E3932.3
G1 X39.29 Y11.69 Z0.3 F2430.0 E3938.143
G1 X41.21 Y12.8 Z0.3 F2430.0 E3941.392
G1 X44.02 Y9.95 Z0.3 F2430.0 E3947.239
G1 X44.74 Y10.47 Z0.3 F2430.0 E3948.526
G1 X42.89 Y14.02 Z0.3 F2430.0 E3954.37
G1 X44.54 Y15.51 Z0.3 F2430.0 E3957.619
G1 X47.89 Y13.3 Z0.3 F2430.0 E3963.466
G1 X48.48 Y13.96 Z0.3 F2430.0 E3964.756
G1 X45.93 Y17.05 Z0.3 F2430.0 E3970.599
G1 X47.24 Y18.85 Z0.3 F2430.0 E3973.848
G1 X50.97 Y17.38 Z0.3 F2430.0 E3979.695
G1 X51.41 Y18.15 Z0.3 F2430.0 E3980.984
G1 X48.28 Y20.64 Z0.3 F2430.0 E3986.827
G1 X49.18 Y22.68 Z0.3 F2430.0 E3990.077
G1 X53.13 Y22.02 Z0.3 F2430.0 E3995.922
G1 X53.41 Y22.86 Z0.3 F2430.0 E3997.211
G1 X49.82 Y24.65 Z0.3 F2430.0 E4003.054
G1 X50.28 Y26.83 Z0.3 F2430.0 E4006.302
G1 X54.29 Y27.0 Z0.3 F2430.0 E4012.151
G1 X54.38 Y27.88 Z0.3 F2430.0 E4013.439
G1 X50.5 Y28.89 Z0.3 F2430.0 E4019.284
G1 X50.5 Y31.11 Z0.3 F2430.0 E4022.532
G1 X54.38 Y32.12 Z0.3 F2430.0 E4028.381
G1 X54.29 Y33.0 Z0.3 F2430.0 E4029.669
G1 X50.29 Y33.17 Z0.3 F2430.0 E4035.515
G1 X50.19 Y33.64 Z0.3 F2430.0 E4036.209
;M103
G1 X46.49 Y33.05 Z0.3 F3600.0
;M101
G1 X46.8 Y30.36 Z0.3 F2430.0 E4040.161
G1 X46.62 Y27.55 Z0.3 F2430.0 E4044.265
G1 X45.98 Y24.81 Z0.3 F2430.0 E4048.37
G1 X44.89 Y22.22 Z0.3 F2430.0 E4052.475
G1 X43.38 Y19.84 Z0.3 F2430.0 E4056.582
G1 X41.55 Y17.84 Z0.3 F2430.0 E4060.533
G1 X41.15 Y17.86 Z0.3 F2430.0 E4061.12
G1 X36.15 Y24.71 Z0.3 F2430.0 E4073.498
G1 X37.32 Y26.56 Z0.3 F2430.0 E4076.691
G1 X37.94 Y28.48 Z0.3 F2430.0 E4079.637
G1 X38.08 Y30.67 Z0.3 F2430.0 E4082.829
G1 X46.15 Y33.27 Z0.3 F2430.0 E4095.205
G1 X46.49 Y33.05 Z0.3 F2430.0 E4095.793
;M103
G1 X44.99 Y36.85 Z0.3 F3600.0
;M101
G1 X36.93 Y34.21 Z0.3 F2430.0 E4108.17
G1 X35.53 Y35.9 Z0.3 F2430.0 E4111.361
G1 X33.9 Y37.08 Z0.3 F2430.0 E4114.308
G1 X31.87 Y37.89 Z0.3 F2430.0 E4117.499
G1 X31.89 Y46.37 Z0.3 F2430.0 E4129.876
G1 X32.2 Y46.62 Z0.3 F2430.0 E4130.463
G1 X34.85 Y46.08 Z0.3 F2430.0 E4134.415
G1 X37.47 Y45.05 Z0.3 F2430.0 E4138.518
G1 X39.88 Y43.59 Z0.3 F2430.0 E4142.626
G1 X42.0 Y41.75 Z0.3 F2430.0 E4146.731
G1 X43.8 Y39.58 Z0.3 F2430.0 E4150.836
G1 X45.13 Y37.23 Z0.3 F2430.0 E4154.787
G1 X44.99 Y36.85 Z0.3 F2430.0 E4155.375
;M103
G1 X34.1 Y31.48 Z0.3 F3600.0
;M101
G1 X34.34 Y30.4 Z0.3 F2430.0 E4156.997
G1 X34.3 Y29.29 Z0.3 F2430.0 E4158.619
G1 X33.98 Y28.22 Z0.3 F2430.0 E4160.239
G1 X33.4 Y27.27 Z0.3 F2430.0 E4161.862
G1 X32.6 Y26.5 Z0.3 F2430.0 E4163.483
G1 X31.63 Y25.96 Z0.3 F2430.0 E4165.105
G1 X30.56 Y25.68 Z0.3 F2430.0 E4166.726
G1 X29.44 Y25.68 Z0.3 F2430.0 E4168.348
G1 X28.37 Y25.96 Z0.3 F2430.0 E4169.969
G1 X27.4 Y26.5 Z0.3 F2430.0 E4171.591
G1 X26.6 Y27.27 Z0.3 F2430.0 E4173.212
G1 X26.02 Y28.22 Z0.3 F2430.0 E4174.835
G1 X25.7 Y29.29 Z0.3 F2430.0 E4176.454
G1 X25.66 Y30.4 Z0.3 F2430.0 E4178.077
G1 X25.9 Y31.48 Z0.3 F2430.0 E4179.699
G1 X26.41 Y32.47 Z0.3 F2430.0 E4181.321
G1 X27.15 Y33.3 Z0.3 F2430.0 E4182.943
G1 X28.08 Y33.91 Z0.3 F2430.0 E4184.565
G1 X28.96 Y34.21 Z0.3 F2430.0 E4185.929
G1 X28.96 Y35.63 Z0.3 F2430.0 E4188.003
G1 X31.04 Y35.63 Z0.3 F2430.0 E4191.034
G1 X31.04 Y34.21 Z0.3 F2430.0 E4193.107
G1 X31.92 Y33.91 Z0.3 F2430.0 E4194.47
G1 X32.85 Y33.3 Z0.3 F2430.0 E4196.093
G1 X33.59 Y32.47 Z0.3 F2430.0 E4197.714
G1 X34.1 Y31.48 Z0.3 F2430.0 E4199.337
;M103
G1 X33.66 Y32.52 Z0.3 F3600.0
G1 X32.9 Y33.36 Z0.3 F3600.0
G1 X32.47 Y33.65 Z0.3 F3600.0
G1 X31.12 Y34.99 Z0.3 F3600.0
G1 X30.98 Y35.57 Z0.3 F3600.0
G1 X30.43 Y35.72 Z0.3 F3600.0
G1 X28.14 Y37.89 Z0.3 F3600.0
;M101
G1 X26.1 Y37.08 Z0.3 F2430.0 E4202.527
G1 X24.47 Y35.9 Z0.3 F2430.0 E4205.474
G1 X23.07 Y34.21 Z0.3 F2430.0 E4208.665
G1 X15.01 Y36.85 Z0.3 F2430.0 E4221.042
G1 X14.87 Y37.23 Z0.3 F2430.0 E4221.63
G1 X16.2 Y39.58 Z0.3 F2430.0 E4225.581
G1 X18.0 Y41.75 Z0.3 F2430.0 E4229.687
G1 X20.13 Y43.59 Z0.3 F2430.0 E4233.792
G1 X22.53 Y45.05 Z0.3 F2430.0 E4237.899
G1 X25.15 Y46.08 Z0.3 F2430.0 E4242.003
G1 X27.8 Y46.62 Z0.3 F2430.0 E4245.954
G1 X28.11 Y46.37 Z0.3 F2430.0 E4246.541
G1 X28.14 Y37.89 Z0.3 F2430.0 E4258.919
;M103
G1 X21.92 Y30.67 Z0.3 F3600.0
;M101
G1 X22.06 Y28.48 Z0.3 F2430.0 E4262.111
G1 X22.68 Y26.56 Z0.3 F2430.0 E4265.057
G1 X23.86 Y24.71 Z0.3 F2430.0 E4268.249
G1 X18.85 Y17.86 Z0.3 F2430.0 E4280.628
G1 X18.45 Y17.84 Z0.3 F2430.0 E4281.215
G1 X16.62 Y19.84 Z0.3 F2430.0 E4285.166
G1 X15.11 Y22.22 Z0.3 F2430.0 E4289.272
G1 X14.02 Y24.81 Z0.3 F2430.0 E4293.377
G1 X13.38 Y27.55 Z0.3 F2430.0 E4297.483
G1 X13.21 Y30.36 Z0.3 F2430.0 E4301.587
G1 X13.51 Y33.05 Z0.3 F2430.0 E4305.539
G1 X13.85 Y33.27 Z0.3 F2430.0 E4306.126
G1 X21.92 Y30.67 Z0.3 F2430.0 E4318.503
;M103
G1 X26.87 Y22.52 Z0.3 F3600.0
;M101
G1 X28.99 Y21.98 Z0.3 F2430.0 E4321.694
G1 X31.01 Y21.98 Z0.3 F2430.0 E4324.642
G1 X33.13 Y22.52 Z0.3 F2430.0 E4327.833
G1 X38.1 Y15.65 Z0.3 F2430.0 E4340.21
G1 X37.99 Y15.26 Z0.3 F2430.0 E4340.797
G1 X35.53 Y14.14 Z0.3 F2430.0 E4344.75
G1 X32.8 Y13.44 Z0.3 F2430.0 E4348.855
G1 X30.0 Y13.2 Z0.3 F2430.0 E4352.96
G1 X27.2 Y13.44 Z0.3 F2430.0 E4357.065
G1 X24.47 Y14.14 Z0.3 F2430.0 E4361.17
G1 X22.01 Y15.26 Z0.3 F2430.0 E4365.123
G1 X21.9 Y15.65 Z0.3 F2430.0 E4365.711
G1 X26.87 Y22.52 Z0.3 F2430.0 E4378.087
;M103
;M108 S75.06
G1 X28.1 Y23.44 Z0.6 F3600.0
;M101
G1 X23.44 Y28.1 Z0.6 F3600.0 E4386.323
G1 X23.73 Y27.22 Z0.6 F3600.0 E4387.478
G1 X27.3 Y23.65 Z0.6 F3600.0 E4393.801
G1 X26.51 Y23.85 Z0.6 F3600.0 E4394.828
G1 X24.63 Y25.73 Z0.6 F3600.0 E4398.149
;M103
G1 X25.21 Y24.55 Z0.6 F3600.0
;M101
G1 X26.17 Y23.59 Z0.6 F3600.0 E4399.843
G1 X25.92 Y23.25 Z0.6 F3600.0 E4400.374
G1 X24.96 Y24.21 Z0.6 F3600.0 E4402.07
G1 X24.71 Y23.86 Z0.6 F3600.0 E4402.601
G1 X25.67 Y22.9 Z0.6 F3600.0 E4404.301
G1 X25.42 Y22.56 Z0.6 F3600.0 E4404.832
G1 X24.46 Y23.52 Z0.6 F3600.0 E4406.532
G1 X24.21 Y23.18 Z0.6 F3600.0 E4407.062
G1 X25.18 Y22.22 Z0.6 F3600.0 E4408.764
G1 X24.93 Y21.87 Z0.6 F3600.0 E4409.295
G1 X23.96 Y22.84 Z0.6 F3600.0 E4410.999
G1 X23.71 Y22.49 Z0.6 F3600.0 E4411.529
G1 X24.68 Y21.53 Z0.6 F3600.0 E4413.236
G1 X24.43 Y21.19 Z0.6 F3600.0 E4413.766
G1 X23.46 Y22.15 Z0.6 F3600.0 E4415.474
G1 X23.21 Y21.81 Z0.6 F3600.0 E4416.004
G1 X24.18 Y20.84 Z0.6 F3600.0 E4417.714
G1 X23.93 Y20.5 Z0.6 F3600.0 E4418.245
G1 X22.96 Y21.47 Z0.6 F3600.0 E4419.957
G1 X22.71 Y21.12 Z0.6 F3600.0 E4420.488
G1 X23.68 Y20.15 Z0.6 F3600.0 E4422.201
G1 X23.43 Y19.81 Z0.6 F3600.0 E4422.732
G1 X22.46 Y20.78 Z0.6 F3600.0 E4424.448
G1 X22.21 Y20.44 Z0.6 F3600.0 E4424.979
G1 X23.19 Y19.47 Z0.6 F3600.0 E4426.696
G1 X22.94 Y19.12 Z0.6 F3600.0 E4427.228
G1 X21.97 Y20.1 Z0.6 F3600.0 E4428.946
G1 X21.72 Y19.75 Z0.6 F3600.0 E4429.477
G1 X22.69 Y18.78 Z0.6 F3600.0 E4431.199
G1 X22.44 Y18.44 Z0.6 F3600.0 E4431.729
G1 X21.47 Y19.41 Z0.6 F3600.0 E4433.451
G1 X21.22 Y19.07 Z0.6 F3600.0 E4433.981
G1 X22.19 Y18.09 Z0.6 F3600.0 E4435.706
G1 X21.94 Y17.75 Z0.6 F3600.0 E4436.237
G1 X20.97 Y18.72 Z0.6 F3600.0 E4437.964
G1 X20.72 Y18.38 Z0.6 F3600.0 E4438.493
G1 X21.69 Y17.41 Z0.6 F3600.0 E4440.222
G1 X21.44 Y17.06 Z0.6 F3600.0 E4440.753
G1 X20.47 Y18.04 Z0.6 F3600.0 E4442.483
G1 X20.22 Y17.7 Z0.6 F3600.0 E4443.013
G1 X21.2 Y16.72 Z0.6 F3600.0 E4444.746
G1 X20.95 Y16.37 Z0.6 F3600.0 E4445.276
G1 X19.97 Y17.35 Z0.6 F3600.0 E4447.01
G1 X19.72 Y17.01 Z0.6 F3600.0 E4447.541
G1 X20.7 Y16.03 Z0.6 F3600.0 E4449.278
G1 X20.73 Y15.4 Z0.6 F3600.0 E4450.065
G1 X19.44 Y16.7 Z0.6 F3600.0 E4452.356
;M103
G1 X19.15 Y14.03 Z0.6 F3600.0
;M101
G1 X14.16 Y19.02 Z0.6 F3600.0 E4461.185
G1 X12.97 Y20.8 Z0.6 F3600.0 E4463.858
;M103
G1 X14.02 Y20.93 Z0.6 F3600.0
;M101
G1 X12.08 Y22.87 Z0.6 F3600.0 E4467.28
;M103
G1 X12.96 Y23.18 Z0.6 F3600.0
;M101
G1 X11.39 Y24.75 Z0.6 F3600.0 E4470.068
G1 X11.64 Y23.9 Z0.6 F3600.0 E4471.173
G1 X14.35 Y21.2 Z0.6 F3600.0 E4475.962
G1 X15.38 Y19.58 Z0.6 F3600.0 E4478.365
;M103
G1 X14.48 Y19.29 Z0.6 F3600.0
;M101
G1 X20.62 Y13.15 Z0.6 F3600.0 E4489.218
;M103
G1 X22.26 Y12.7 Z0.6 F3600.0
;M101
G1 X18.31 Y16.64 Z0.6 F3600.0 E4496.197
G1 X18.87 Y16.67 Z0.6 F3600.0 E4496.903
G1 X23.81 Y11.73 Z0.6 F3600.0 E4505.638
G1 X24.67 Y11.47 Z0.6 F3600.0 E4506.76
G1 X22.35 Y13.79 Z0.6 F3600.0 E4510.862
;M103
G1 X23.43 Y13.3 Z0.6 F3600.0
;M101
G1 X25.53 Y11.2 Z0.6 F3600.0 E4514.567
G1 X26.35 Y10.97 Z0.6 F3600.0 E4515.639
G1 X24.4 Y12.92 Z0.6 F3600.0 E4519.094
G1 X25.19 Y12.72 Z0.6 F3600.0 E4520.124
G1 X27.0 Y10.91 Z0.6 F3600.0 E4523.32
G1 X27.65 Y10.85 Z0.6 F3600.0 E4524.138
G1 X25.99 Y12.51 Z0.6 F3600.0 E4527.076
G1 X26.79 Y12.31 Z0.6 F3600.0 E4528.106
G1 X28.3 Y10.79 Z0.6 F3600.0 E4530.786
G1 X28.96 Y10.74 Z0.6 F3600.0 E4531.605
G1 X27.47 Y12.22 Z0.6 F3600.0 E4534.224
G1 X28.12 Y12.16 Z0.6 F3600.0 E4535.036
G1 X29.61 Y10.68 Z0.6 F3600.0 E4537.664
G1 X30.26 Y10.62 Z0.6 F3600.0 E4538.481
G1 X28.77 Y12.11 Z0.6 F3600.0 E4541.115
G1 X29.42 Y12.05 Z0.6 F3600.0 E4541.927
G1 X30.79 Y10.68 Z0.6 F3600.0 E4544.361
G1 X31.32 Y10.74 Z0.6 F3600.0 E4545.028
G1 X30.05 Y12.01 Z0.6 F3600.0 E4547.271
G1 X30.6 Y12.05 Z0.6 F3600.0 E4547.958
G1 X31.85 Y10.8 Z0.6 F3600.0 E4550.169
G1 X32.38 Y10.87 Z0.6 F3600.0 E4550.836
G1 X31.15 Y12.1 Z0.6 F3600.0 E4553.017
G1 X31.69 Y12.15 Z0.6 F3600.0 E4553.703
G1 X32.91 Y10.93 Z0.6 F3600.0 E4555.852
G1 X33.44 Y10.99 Z0.6 F3600.0 E4556.519
G1 X32.24 Y12.19 Z0.6 F3600.0 E4558.637
G1 X32.78 Y12.24 Z0.6 F3600.0 E4559.323
G1 X33.96 Y11.06 Z0.6 F3600.0 E4561.41
G1 X34.46 Y11.15 Z0.6 F3600.0 E4562.046
G1 X33.29 Y12.33 Z0.6 F3600.0 E4564.128
G1 X33.76 Y12.45 Z0.6 F3600.0 E4564.736
G1 X34.91 Y11.3 Z0.6 F3600.0 E4566.767
G1 X35.35 Y11.45 Z0.6 F3600.0 E4567.35
G1 X34.23 Y12.57 Z0.6 F3600.0 E4569.328
G1 X34.7 Y12.69 Z0.6 F3600.0 E4569.938
G1 X35.79 Y11.6 Z0.6 F3600.0 E4571.863
G1 X36.23 Y11.75 Z0.6 F3600.0 E4572.447
G1 X35.17 Y12.81 Z0.6 F3600.0 E4574.32
G1 X35.64 Y12.93 Z0.6 F3600.0 E4574.929
G1 X36.67 Y11.9 Z0.6 F3600.0 E4576.749
G1 X37.11 Y12.06 Z0.6 F3600.0 E4577.333
G1 X36.09 Y13.08 Z0.6 F3600.0 E4579.146
G1 X36.5 Y13.26 Z0.6 F3600.0 E4579.706
G1 X37.56 Y12.21 Z0.6 F3600.0 E4581.579
G1 X38.0 Y12.36 Z0.6 F3600.0 E4582.162
G1 X36.9 Y13.45 Z0.6 F3600.0 E4584.094
G1 X37.31 Y13.63 Z0.6 F3600.0 E4584.654
G1 X38.39 Y12.55 Z0.6 F3600.0 E4586.563
G1 X38.76 Y12.78 Z0.6 F3600.0 E4587.103
G1 X37.72 Y13.82 Z0.6 F3600.0 E4588.947
G1 X38.13 Y14.0 Z0.6 F3600.0 E4589.507
G1 X39.13 Y13.0 Z0.6 F3600.0 E4591.285
G1 X39.5 Y13.22 Z0.6 F3600.0 E4591.825
G1 X38.54 Y14.19 Z0.6 F3600.0 E4593.538
G1 X38.94 Y14.37 Z0.6 F3600.0 E4594.098
G1 X39.88 Y13.44 Z0.6 F3600.0 E4595.746
G1 X40.25 Y13.66 Z0.6 F3600.0 E4596.287
G1 X39.11 Y14.8 Z0.6 F3600.0 E4598.302
G1 X39.23 Y15.27 Z0.6 F3600.0 E4598.908
G1 X40.62 Y13.88 Z0.6 F3600.0 E4601.36
G1 X40.99 Y14.1 Z0.6 F3600.0 E4601.9
G1 X39.36 Y15.74 Z0.6 F3600.0 E4604.789
;M103
G1 X38.38 Y17.3 Z0.6 F3600.0
;M101
G1 X41.36 Y14.33 Z0.6 F3600.0 E4610.059
;M103
G1 X46.06 Y24.78 Z0.6 F3600.0
G1 X46.7 Y27.54 Z0.6 F3600.0
G1 X46.88 Y30.36 Z0.6 F3600.0
G1 X46.01 Y38.1 Z0.6 F3600.0
;M101
G1 X48.55 Y35.57 Z0.6 F3600.0 E4614.551
G1 X48.7 Y34.83 Z0.6 F3600.0 E4615.491
G1 X46.38 Y37.15 Z0.6 F3600.0 E4619.592
G1 X46.21 Y36.72 Z0.6 F3600.0 E4620.166
G1 X48.84 Y34.09 Z0.6 F3600.0 E4624.816
G1 X48.99 Y33.35 Z0.6 F3600.0 E4625.756
G1 X46.05 Y36.29 Z0.6 F3600.0 E4630.955
G1 X45.87 Y35.88 Z0.6 F3600.0 E4631.519
G1 X49.13 Y32.62 Z0.6 F3600.0 E4637.29
G1 X49.28 Y31.88 Z0.6 F3600.0 E4638.23
G1 X47.65 Y33.51 Z0.6 F3600.0 E4641.117
G1 X47.72 Y32.84 Z0.6 F3600.0 E4641.955
G1 X49.31 Y31.26 Z0.6 F3600.0 E4644.759
G1 X49.31 Y30.67 Z0.6 F3600.0 E4645.501
G1 X47.79 Y32.18 Z0.6 F3600.0 E4648.176
G1 X47.87 Y31.51 Z0.6 F3600.0 E4649.016
G1 X49.31 Y30.07 Z0.6 F3600.0 E4651.561
G1 X49.31 Y29.48 Z0.6 F3600.0 E4652.302
G1 X47.94 Y30.85 Z0.6 F3600.0 E4654.717
G1 X47.98 Y30.21 Z0.6 F3600.0 E4655.511
G1 X49.31 Y28.89 Z0.6 F3600.0 E4657.856
G1 X49.31 Y28.29 Z0.6 F3600.0 E4658.598
G1 X47.95 Y29.66 Z0.6 F3600.0 E4661.006
G1 X47.91 Y29.1 Z0.6 F3600.0 E4661.704
G1 X49.22 Y27.79 Z0.6 F3600.0 E4664.012
G1 X49.12 Y27.3 Z0.6 F3600.0 E4664.644
G1 X47.88 Y28.54 Z0.6 F3600.0 E4666.842
G1 X47.84 Y27.98 Z0.6 F3600.0 E4667.54
G1 X49.02 Y26.8 Z0.6 F3600.0 E4669.628
G1 X48.93 Y26.31 Z0.6 F3600.0 E4670.259
G1 X47.81 Y27.43 Z0.6 F3600.0 E4672.236
G1 X47.7 Y26.94 Z0.6 F3600.0 E4672.859
G1 X48.83 Y25.81 Z0.6 F3600.0 E4674.85
G1 X48.73 Y25.32 Z0.6 F3600.0 E4675.481
G1 X47.59 Y26.46 Z0.6 F3600.0 E4677.498
G1 X47.48 Y25.98 Z0.6 F3600.0 E4678.115
G1 X48.63 Y24.82 Z0.6 F3600.0 E4680.159
G1 X48.54 Y24.33 Z0.6 F3600.0 E4680.79
G1 X47.37 Y25.5 Z0.6 F3600.0 E4682.862
G1 X47.25 Y25.02 Z0.6 F3600.0 E4683.479
G1 X48.36 Y23.91 Z0.6 F3600.0 E4685.441
G1 X48.18 Y23.5 Z0.6 F3600.0 E4686.002
G1 X47.14 Y24.54 Z0.6 F3600.0 E4687.838
G1 X46.98 Y24.11 Z0.6 F3600.0 E4688.413
G1 X48.0 Y23.09 Z0.6 F3600.0 E4690.213
G1 X47.81 Y22.68 Z0.6 F3600.0 E4690.775
G1 X46.8 Y23.69 Z0.6 F3600.0 E4692.562
G1 X46.63 Y23.28 Z0.6 F3600.0 E4693.128
G1 X47.63 Y22.27 Z0.6 F3600.0 E4694.903
G1 X47.45 Y21.86 Z0.6 F3600.0 E4695.464
G1 X46.45 Y22.86 Z0.6 F3600.0 E4697.226
G1 X46.28 Y22.44 Z0.6 F3600.0 E4697.792
G1 X47.26 Y21.45 Z0.6 F3600.0 E4699.54
G1 X47.08 Y21.04 Z0.6 F3600.0 E4700.102
G1 X46.1 Y22.02 Z0.6 F3600.0 E4701.836
G1 X45.92 Y21.61 Z0.6 F3600.0 E4702.398
G1 X46.9 Y20.63 Z0.6 F3600.0 E4704.132
G1 X46.72 Y20.22 Z0.6 F3600.0 E4704.694
G1 X45.69 Y21.25 Z0.6 F3600.0 E4706.511
G1 X45.46 Y20.89 Z0.6 F3600.0 E4707.047
G1 X46.49 Y19.86 Z0.6 F3600.0 E4708.876
G1 X46.24 Y19.51 Z0.6 F3600.0 E4709.408
G1 X45.23 Y20.53 Z0.6 F3600.0 E4711.203
G1 X45.0 Y20.16 Z0.6 F3600.0 E4711.74
G1 X45.99 Y19.17 Z0.6 F3600.0 E4713.502
G1 X45.75 Y18.82 Z0.6 F3600.0 E4714.033
G1 X44.77 Y19.8 Z0.6 F3600.0 E4715.763
G1 X44.54 Y19.44 Z0.6 F3600.0 E4716.3
G1 X45.5 Y18.48 Z0.6 F3600.0 E4717.996
G1 X45.25 Y18.14 Z0.6 F3600.0 E4718.527
G1 X44.3 Y19.08 Z0.6 F3600.0 E4720.199
G1 X44.02 Y18.77 Z0.6 F3600.0 E4720.724
G1 X45.0 Y17.79 Z0.6 F3600.0 E4722.454
G1 X44.75 Y17.45 Z0.6 F3600.0 E4722.984
G1 X43.74 Y18.46 Z0.6 F3600.0 E4724.774
G1 X43.46 Y18.15 Z0.6 F3600.0 E4725.298
G1 X44.48 Y17.13 Z0.6 F3600.0 E4727.106
G1 X44.17 Y16.85 Z0.6 F3600.0 E4727.63
G1 X43.17 Y17.84 Z0.6 F3600.0 E4729.394
G1 X42.89 Y17.53 Z0.6 F3600.0 E4729.919
G1 X43.86 Y16.56 Z0.6 F3600.0 E4731.64
G1 X43.56 Y16.27 Z0.6 F3600.0 E4732.165
G1 X42.61 Y17.22 Z0.6 F3600.0 E4733.84
G1 X42.33 Y16.91 Z0.6 F3600.0 E4734.365
G1 X43.25 Y15.99 Z0.6 F3600.0 E4735.998
G1 X42.94 Y15.7 Z0.6 F3600.0 E4736.522
G1 X42.02 Y16.62 Z0.6 F3600.0 E4738.15
G1 X41.4 Y16.66 Z0.6 F3600.0 E4738.931
G1 X42.63 Y15.42 Z0.6 F3600.0 E4741.119
G1 X42.33 Y15.13 Z0.6 F3600.0 E4741.643
G1 X32.43 Y25.04 Z0.6 F3600.0 E4759.16
G1 X32.81 Y25.25 Z0.6 F3600.0 E4759.703
G1 X38.24 Y19.81 Z0.6 F3600.0 E4769.32
;M103
G1 X36.83 Y19.45 Z0.6 F3600.0
;M101
G1 X41.71 Y14.56 Z0.6 F3600.0 E4777.962
G1 X42.02 Y14.85 Z0.6 F3600.0 E4778.487
G1 X35.28 Y21.59 Z0.6 F3600.0 E4790.42
;M103
G1 X36.65 Y22.0 Z0.6 F3600.0
;M101
G1 X33.19 Y25.46 Z0.6 F3600.0 E4796.544
G1 X33.51 Y25.73 Z0.6 F3600.0 E4797.071
G1 X35.05 Y24.19 Z0.6 F3600.0 E4799.791
;M103
G1 X34.88 Y24.95 Z0.6 F3600.0
;M101
G1 X33.82 Y26.02 Z0.6 F3600.0 E4801.676
G1 X34.12 Y26.31 Z0.6 F3600.0 E4802.2
G1 X35.11 Y25.31 Z0.6 F3600.0 E4803.959
G1 X35.34 Y25.68 Z0.6 F3600.0 E4804.496
G1 X34.4 Y26.62 Z0.6 F3600.0 E4806.164
G1 X34.62 Y26.99 Z0.6 F3600.0 E4806.704
G1 X35.57 Y26.04 Z0.6 F3600.0 E4808.379
G1 X35.8 Y26.4 Z0.6 F3600.0 E4808.915
G1 X34.85 Y27.35 Z0.6 F3600.0 E4810.601
G1 X35.07 Y27.72 Z0.6 F3600.0 E4811.141
G1 X36.03 Y26.76 Z0.6 F3600.0 E4812.836
G1 X36.25 Y27.14 Z0.6 F3600.0 E4813.378
G1 X35.21 Y28.17 Z0.6 F3600.0 E4815.212
G1 X35.35 Y28.63 Z0.6 F3600.0 E4815.807
G1 X36.39 Y27.59 Z0.6 F3600.0 E4817.655
G1 X36.54 Y28.03 Z0.6 F3600.0 E4818.242
G1 X35.49 Y29.08 Z0.6 F3600.0 E4820.104
G1 X35.51 Y29.66 Z0.6 F3600.0 E4820.818
G1 X36.68 Y28.48 Z0.6 F3600.0 E4822.898
G1 X36.78 Y28.98 Z0.6 F3600.0 E4823.535
G1 X35.53 Y30.23 Z0.6 F3600.0 E4825.74
G1 X35.45 Y30.9 Z0.6 F3600.0 E4826.582
G1 X36.81 Y29.54 Z0.6 F3600.0 E4828.986
G1 X36.85 Y30.09 Z0.6 F3600.0 E4829.685
G1 X35.28 Y31.66 Z0.6 F3600.0 E4832.451
G1 X34.8 Y32.74 Z0.6 F3600.0 E4833.93
;M103
G1 X35.63 Y31.9 Z0.6 F3600.0
;M101
G1 X36.88 Y30.65 Z0.6 F3600.0 E4836.14
G1 X36.92 Y31.21 Z0.6 F3600.0 E4836.838
G1 X32.23 Y35.89 Z0.6 F3600.0 E4845.127
G1 X32.28 Y36.44 Z0.6 F3600.0 E4845.815
G1 X37.11 Y31.61 Z0.6 F3600.0 E4854.369
G1 X37.56 Y31.75 Z0.6 F3600.0 E4854.956
G1 X33.26 Y36.05 Z0.6 F3600.0 E4862.562
;M103
G1 X32.23 Y35.3 Z0.6 F3600.0
;M101
G1 X32.71 Y34.82 Z0.6 F3600.0 E4863.403
;M103
G1 X31.3 Y36.83 Z0.6 F3600.0
;M101
G1 X30.7 Y36.83 Z0.6 F3600.0 E4864.145
G1 X29.33 Y38.2 Z0.6 F3600.0 E4866.577
G1 X29.33 Y38.8 Z0.6 F3600.0 E4867.319
G1 X30.67 Y37.46 Z0.6 F3600.0 E4869.692
G1 X30.67 Y38.05 Z0.6 F3600.0 E4870.432
G1 X29.33 Y39.39 Z0.6 F3600.0 E4872.809
G1 X29.33 Y39.98 Z0.6 F3600.0 E4873.551
G1 X30.67 Y38.64 Z0.6 F3600.0 E4875.932
G1 X30.67 Y39.23 Z0.6 F3600.0 E4876.673
G1 X29.33 Y40.58 Z0.6 F3600.0 E4879.057
G1 X29.32 Y41.17 Z0.6 F3600.0 E4879.8
G1 X30.67 Y39.82 Z0.6 F3600.0 E4882.189
G1 X30.68 Y40.41 Z0.6 F3600.0 E4882.928
G1 X29.32 Y41.76 Z0.6 F3600.0 E4885.32
G1 X29.32 Y42.36 Z0.6 F3600.0 E4886.062
G1 X30.68 Y41.0 Z0.6 F3600.0 E4888.456
G1 X30.68 Y41.59 Z0.6 F3600.0 E4889.196
G1 X29.32 Y42.95 Z0.6 F3600.0 E4891.595
G1 X29.32 Y43.54 Z0.6 F3600.0 E4892.336
G1 X30.68 Y42.19 Z0.6 F3600.0 E4894.738
G1 X30.68 Y42.78 Z0.6 F3600.0 E4895.477
G1 X29.32 Y44.14 Z0.6 F3600.0 E4897.884
G1 X29.32 Y44.73 Z0.6 F3600.0 E4898.625
G1 X30.68 Y43.37 Z0.6 F3600.0 E4901.035
G1 X30.68 Y43.96 Z0.6 F3600.0 E4901.776
G1 X29.32 Y45.32 Z0.6 F3600.0 E4904.188
G1 X29.32 Y45.92 Z0.6 F3600.0 E4904.931
G1 X30.68 Y44.55 Z0.6 F3600.0 E4907.348
G1 X30.68 Y45.14 Z0.6 F3600.0 E4908.087
G1 X29.32 Y46.51 Z0.6 F3600.0 E4910.507
;M103
G1 X35.32 Y47.61 Z0.6 F3600.0
;M101
G1 X34.0 Y48.94 Z0.6 F3600.0 E4912.848
G1 X34.78 Y48.75 Z0.6 F3600.0 E4913.855
G1 X37.02 Y46.51 Z0.6 F3600.0 E4917.811
G1 X37.99 Y46.12 Z0.6 F3600.0 E4919.129
;M103
G1 X38.3 Y47.0 Z0.6 F3600.0
;M101
G1 X41.78 Y43.52 Z0.6 F3600.0 E4925.289
;M103
G1 X41.23 Y45.26 Z0.6 F3600.0
;M101
G1 X46.65 Y39.84 Z0.6 F3600.0 E4934.885
G1 X47.28 Y38.61 Z0.6 F3600.0 E4936.612
;M103
G1 X47.37 Y37.34 Z0.6 F3600.0
;M101
G1 X45.23 Y39.48 Z0.6 F3600.0 E4940.405
;M103
G1 X46.31 Y39.59 Z0.6 F3600.0
;M101
G1 X38.55 Y47.35 Z0.6 F3600.0 E4954.136
G1 X37.41 Y47.9 Z0.6 F3600.0 E4955.715
;M103
G1 X37.25 Y46.87 Z0.6 F3600.0
;M101
G1 X35.66 Y48.46 Z0.6 F3600.0 E4958.536
G1 X36.53 Y48.18 Z0.6 F3600.0 E4959.689
G1 X39.49 Y45.22 Z0.6 F3600.0 E4964.929
;M103
G1 X45.24 Y41.84 Z0.6 F3600.0
;M101
G1 X41.49 Y45.6 Z0.6 F3600.0 E4971.574
G1 X40.02 Y46.47 Z0.6 F3600.0 E4973.716
;M103
G1 X36.03 Y46.9 Z0.6 F3600.0
;M101
G1 X35.09 Y47.25 Z0.6 F3600.0 E4974.981
G1 X33.32 Y49.02 Z0.6 F3600.0 E4978.101
G1 X32.65 Y49.1 Z0.6 F3600.0 E4978.949
G1 X34.34 Y47.41 Z0.6 F3600.0 E4981.939
G1 X33.59 Y47.56 Z0.6 F3600.0 E4982.893
G1 X31.98 Y49.18 Z0.6 F3600.0 E4985.753
G1 X31.31 Y49.26 Z0.6 F3600.0 E4986.601
G1 X32.85 Y47.72 Z0.6 F3600.0 E4989.329
G1 X32.1 Y47.87 Z0.6 F3600.0 E4990.282
G1 X30.63 Y49.34 Z0.6 F3600.0 E4992.881
G1 X30.0 Y49.38 Z0.6 F3600.0 E4993.678
G1 X31.66 Y47.72 Z0.6 F3600.0 E4996.618
G1 X31.33 Y47.46 Z0.6 F3600.0 E4997.145
G1 X29.44 Y49.35 Z0.6 F3600.0 E5000.496
G1 X28.91 Y49.29 Z0.6 F3600.0 E5001.162
G1 X31.0 Y47.19 Z0.6 F3600.0 E5004.871
G1 X30.69 Y46.92 Z0.6 F3600.0 E5005.396
G1 X28.38 Y49.23 Z0.6 F3600.0 E5009.479
G1 X27.85 Y49.16 Z0.6 F3600.0 E5010.145
G1 X30.69 Y46.33 Z0.6 F3600.0 E5015.163
G1 X30.68 Y45.73 Z0.6 F3600.0 E5015.902
G1 X27.32 Y49.1 Z0.6 F3600.0 E5021.854
G1 X26.79 Y49.04 Z0.6 F3600.0 E5022.52
G1 X27.95 Y47.88 Z0.6 F3600.0 E5024.562
G1 X27.45 Y47.78 Z0.6 F3600.0 E5025.189
G1 X26.26 Y48.97 Z0.6 F3600.0 E5027.298
G1 X25.73 Y48.91 Z0.6 F3600.0 E5027.964
G1 X26.96 Y47.68 Z0.6 F3600.0 E5030.141
G1 X26.47 Y47.58 Z0.6 F3600.0 E5030.768
G1 X25.28 Y48.76 Z0.6 F3600.0 E5032.87
G1 X24.84 Y48.61 Z0.6 F3600.0 E5033.454
G1 X25.98 Y47.48 Z0.6 F3600.0 E5035.468
G1 X25.49 Y47.37 Z0.6 F3600.0 E5036.096
G1 X24.4 Y48.46 Z0.6 F3600.0 E5038.023
G1 X23.96 Y48.31 Z0.6 F3600.0 E5038.607
G1 X25.0 Y47.27 Z0.6 F3600.0 E5040.447
G1 X24.55 Y47.13 Z0.6 F3600.0 E5041.038
G1 X23.52 Y48.16 Z0.6 F3600.0 E5042.862
G1 X23.08 Y48.01 Z0.6 F3600.0 E5043.446
G1 X24.12 Y46.96 Z0.6 F3600.0 E5045.3
G1 X23.7 Y46.79 Z0.6 F3600.0 E5045.871
G1 X22.63 Y47.86 Z0.6 F3600.0 E5047.756
G1 X22.19 Y47.71 Z0.6 F3600.0 E5048.339
G1 X23.28 Y46.63 Z0.6 F3600.0 E5050.253
G1 X22.85 Y46.46 Z0.6 F3600.0 E5050.824
G1 X21.77 Y47.54 Z0.6 F3600.0 E5052.74
G1 X21.4 Y47.32 Z0.6 F3600.0 E5053.28
G1 X22.43 Y46.29 Z0.6 F3600.0 E5055.101
G1 X22.0 Y46.12 Z0.6 F3600.0 E5055.672
G1 X21.03 Y47.1 Z0.6 F3600.0 E5057.399
G1 X20.66 Y46.88 Z0.6 F3600.0 E5057.939
G1 X21.63 Y45.9 Z0.6 F3600.0 E5059.669
G1 X21.26 Y45.68 Z0.6 F3600.0 E5060.208
G1 X20.28 Y46.66 Z0.6 F3600.0 E5061.942
G1 X19.91 Y46.43 Z0.6 F3600.0 E5062.483
G1 X20.9 Y45.45 Z0.6 F3600.0 E5064.22
G1 X20.53 Y45.23 Z0.6 F3600.0 E5064.76
G1 X19.54 Y46.21 Z0.6 F3600.0 E5066.501
G1 X19.17 Y45.99 Z0.6 F3600.0 E5067.041
G1 X20.16 Y45.01 Z0.6 F3600.0 E5068.785
G1 X19.79 Y44.78 Z0.6 F3600.0 E5069.325
G1 X18.8 Y45.77 Z0.6 F3600.0 E5071.073
G1 X18.43 Y45.55 Z0.6 F3600.0 E5071.614
G1 X19.42 Y44.56 Z0.6 F3600.0 E5073.366
G1 X19.1 Y44.28 Z0.6 F3600.0 E5073.891
G1 X18.11 Y45.27 Z0.6 F3600.0 E5075.641
G1 X17.81 Y44.99 Z0.6 F3600.0 E5076.165
G1 X18.78 Y44.01 Z0.6 F3600.0 E5077.896
G1 X18.47 Y43.74 Z0.6 F3600.0 E5078.421
G1 X17.5 Y44.7 Z0.6 F3600.0 E5080.134
G1 X17.19 Y44.42 Z0.6 F3600.0 E5080.658
G1 X18.15 Y43.46 Z0.6 F3600.0 E5082.352
G1 X17.83 Y43.19 Z0.6 F3600.0 E5082.876
G1 X16.88 Y44.13 Z0.6 F3600.0 E5084.551
G1 X16.58 Y43.85 Z0.6 F3600.0 E5085.075
G1 X17.51 Y42.91 Z0.6 F3600.0 E5086.732
G1 X17.19 Y42.64 Z0.6 F3600.0 E5087.257
G1 X16.27 Y43.56 Z0.6 F3600.0 E5088.895
G1 X15.96 Y43.28 Z0.6 F3600.0 E5089.42
G1 X16.92 Y42.32 Z0.6 F3600.0 E5091.112
G1 X16.65 Y42.0 Z0.6 F3600.0 E5091.638
G1 X15.65 Y42.99 Z0.6 F3600.0 E5093.398
G1 X15.36 Y42.7 Z0.6 F3600.0 E5093.922
G1 X16.38 Y41.67 Z0.6 F3600.0 E5095.733
G1 X16.11 Y41.35 Z0.6 F3600.0 E5096.26
G1 X15.11 Y42.35 Z0.6 F3600.0 E5098.038
G1 X14.86 Y42.01 Z0.6 F3600.0 E5098.569
G1 X15.85 Y41.02 Z0.6 F3600.0 E5100.313
G1 X15.58 Y40.7 Z0.6 F3600.0 E5100.839
G1 X14.61 Y41.67 Z0.6 F3600.0 E5102.549
G1 X14.36 Y41.32 Z0.6 F3600.0 E5103.079
G1 X15.31 Y40.38 Z0.6 F3600.0 E5104.756
G1 X15.08 Y40.02 Z0.6 F3600.0 E5105.293
G1 X14.11 Y40.98 Z0.6 F3600.0 E5106.996
G1 X13.86 Y40.64 Z0.6 F3600.0 E5107.526
G1 X14.86 Y39.64 Z0.6 F3600.0 E5109.29
G1 X14.65 Y39.26 Z0.6 F3600.0 E5109.834
G1 X13.61 Y40.29 Z0.6 F3600.0 E5111.659
G1 X13.37 Y39.95 Z0.6 F3600.0 E5112.191
G1 X14.43 Y38.88 Z0.6 F3600.0 E5114.075
G1 X14.22 Y38.51 Z0.6 F3600.0 E5114.618
G1 X13.18 Y39.54 Z0.6 F3600.0 E5116.449
G1 X13.0 Y39.13 Z0.6 F3600.0 E5117.01
G1 X14.0 Y38.13 Z0.6 F3600.0 E5118.785
G1 X13.79 Y37.75 Z0.6 F3600.0 E5119.328
G1 X12.82 Y38.72 Z0.6 F3600.0 E5121.045
G1 X12.63 Y38.31 Z0.6 F3600.0 E5121.607
G1 X13.57 Y37.38 Z0.6 F3600.0 E5123.266
G1 X13.88 Y36.47 Z0.6 F3600.0 E5124.462
G1 X12.45 Y37.9 Z0.6 F3600.0 E5126.996
G1 X12.27 Y37.49 Z0.6 F3600.0 E5127.558
G1 X15.89 Y33.87 Z0.6 F3600.0 E5133.977
G1 X15.02 Y34.15 Z0.6 F3600.0 E5135.127
G1 X12.08 Y37.09 Z0.6 F3600.0 E5140.321
G1 X11.9 Y36.67 Z0.6 F3600.0 E5140.883
G1 X14.14 Y34.43 Z0.6 F3600.0 E5144.853
G1 X13.51 Y34.47 Z0.6 F3600.0 E5145.644
G1 X11.72 Y36.27 Z0.6 F3600.0 E5148.821
G1 X11.54 Y35.86 Z0.6 F3600.0 E5149.382
G1 X13.15 Y34.24 Z0.6 F3600.0 E5152.246
G1 X12.79 Y34.01 Z0.6 F3600.0 E5152.781
G1 X11.41 Y35.39 Z0.6 F3600.0 E5155.23
G1 X11.31 Y34.89 Z0.6 F3600.0 E5155.861
G1 X12.43 Y33.77 Z0.6 F3600.0 E5157.844
G1 X12.33 Y33.28 Z0.6 F3600.0 E5158.468
G1 X11.21 Y34.4 Z0.6 F3600.0 E5160.44
G1 X11.12 Y33.9 Z0.6 F3600.0 E5161.071
G1 X12.27 Y32.75 Z0.6 F3600.0 E5163.109
G1 X12.21 Y32.22 Z0.6 F3600.0 E5163.78
G1 X11.02 Y33.41 Z0.6 F3600.0 E5165.886
G1 X10.92 Y32.91 Z0.6 F3600.0 E5166.517
G1 X12.15 Y31.69 Z0.6 F3600.0 E5168.692
G1 X12.09 Y31.15 Z0.6 F3600.0 E5169.363
G1 X10.83 Y32.42 Z0.6 F3600.0 E5171.604
G1 X10.73 Y31.92 Z0.6 F3600.0 E5172.235
G1 X12.03 Y30.62 Z0.6 F3600.0 E5174.545
G1 X12.03 Y30.03 Z0.6 F3600.0 E5175.282
G1 X10.69 Y31.37 Z0.6 F3600.0 E5177.647
G1 X10.69 Y30.77 Z0.6 F3600.0 E5178.389
G1 X12.07 Y29.4 Z0.6 F3600.0 E5180.824
G1 X12.11 Y28.77 Z0.6 F3600.0 E5181.616
G1 X10.69 Y30.18 Z0.6 F3600.0 E5184.119
G1 X10.69 Y29.59 Z0.6 F3600.0 E5184.861
G1 X12.15 Y28.13 Z0.6 F3600.0 E5187.433
G1 X12.19 Y27.5 Z0.6 F3600.0 E5188.226
G1 X10.69 Y29.0 Z0.6 F3600.0 E5190.868
G1 X10.7 Y28.4 Z0.6 F3600.0 E5191.61
G1 X12.34 Y26.76 Z0.6 F3600.0 E5194.52
G1 X12.52 Y25.98 Z0.6 F3600.0 E5195.515
G1 X10.81 Y27.7 Z0.6 F3600.0 E5198.552
G1 X10.95 Y26.96 Z0.6 F3600.0 E5199.492
G1 X12.7 Y25.21 Z0.6 F3600.0 E5202.593
G1 X12.89 Y24.44 Z0.6 F3600.0 E5203.589
G1 X11.1 Y26.23 Z0.6 F3600.0 E5206.756
G1 X11.24 Y25.49 Z0.6 F3600.0 E5207.696
G1 X13.32 Y23.41 Z0.6 F3600.0 E5211.367
G1 X13.75 Y22.39 Z0.6 F3600.0 E5212.755
;M103
G1 X12.53 Y21.83 Z0.6 F3600.0
;M101
G1 X22.02 Y12.33 Z0.6 F3600.0 E5229.558
G1 X22.96 Y12.0 Z0.6 F3600.0 E5230.797
;M103
G1 X21.87 Y15.66 Z0.6 F3600.0
G1 X26.88 Y22.51 Z0.6 F3600.0
G1 X33.12 Y23.75 Z0.6 F3600.0
;M101
G1 X32.04 Y24.83 Z0.6 F3600.0 E5232.706
G1 X31.57 Y24.71 Z0.6 F3600.0 E5233.312
G1 X32.65 Y23.63 Z0.6 F3600.0 E5235.218
G1 X32.17 Y23.51 Z0.6 F3600.0 E5235.827
G1 X31.1 Y24.59 Z0.6 F3600.0 E5237.729
G1 X30.61 Y24.48 Z0.6 F3600.0 E5238.356
G1 X31.7 Y23.39 Z0.6 F3600.0 E5240.292
G1 X31.23 Y23.27 Z0.6 F3600.0 E5240.901
G1 X30.02 Y24.48 Z0.6 F3600.0 E5243.05
G1 X29.42 Y24.48 Z0.6 F3600.0 E5243.792
G1 X30.73 Y23.17 Z0.6 F3600.0 E5246.11
G1 X30.14 Y23.17 Z0.6 F3600.0 E5246.851
G1 X28.67 Y24.65 Z0.6 F3600.0 E5249.455
G1 X27.83 Y24.89 Z0.6 F3600.0 E5250.546
G1 X29.55 Y23.17 Z0.6 F3600.0 E5253.583
G1 X28.89 Y23.24 Z0.6 F3600.0 E5254.407
G1 X23.23 Y28.9 Z0.6 F3600.0 E5264.424
G1 X23.19 Y29.53 Z0.6 F3600.0 E5265.218
G1 X24.89 Y27.83 Z0.6 F3600.0 E5268.23
G1 X24.64 Y28.68 Z0.6 F3600.0 E5269.337
G1 X23.15 Y30.17 Z0.6 F3600.0 E5271.969
G1 X23.11 Y30.8 Z0.6 F3600.0 E5272.763
G1 X24.5 Y29.41 Z0.6 F3600.0 E5275.227
G1 X24.48 Y30.02 Z0.6 F3600.0 E5275.998
G1 X20.8 Y33.7 Z0.6 F3600.0 E5282.502
G1 X21.68 Y33.41 Z0.6 F3600.0 E5283.66
G1 X24.48 Y30.61 Z0.6 F3600.0 E5288.616
G1 X24.59 Y31.09 Z0.6 F3600.0 E5289.236
G1 X22.56 Y33.12 Z0.6 F3600.0 E5292.826
G1 X23.44 Y32.83 Z0.6 F3600.0 E5293.985
G1 X24.7 Y31.58 Z0.6 F3600.0 E5296.209
G1 X24.84 Y32.03 Z0.6 F3600.0 E5296.799
G1 X23.73 Y33.14 Z0.6 F3600.0 E5298.759
G1 X24.0 Y33.46 Z0.6 F3600.0 E5299.286
G1 X25.04 Y32.42 Z0.6 F3600.0 E5301.125
G1 X25.24 Y32.81 Z0.6 F3600.0 E5301.675
G1 X24.27 Y33.78 Z0.6 F3600.0 E5303.395
G1 X24.54 Y34.11 Z0.6 F3600.0 E5303.922
G1 X25.45 Y33.19 Z0.6 F3600.0 E5305.542
G1 X25.73 Y33.51 Z0.6 F3600.0 E5306.066
G1 X24.81 Y34.43 Z0.6 F3600.0 E5307.704
G1 X25.08 Y34.76 Z0.6 F3600.0 E5308.23
G1 X26.01 Y33.82 Z0.6 F3600.0 E5309.889
G1 X26.29 Y34.13 Z0.6 F3600.0 E5310.414
G1 X25.36 Y35.07 Z0.6 F3600.0 E5312.068
G1 X25.7 Y35.31 Z0.6 F3600.0 E5312.598
G1 X26.63 Y34.39 Z0.6 F3600.0 E5314.242
G1 X26.99 Y34.62 Z0.6 F3600.0 E5314.776
G1 X26.04 Y35.56 Z0.6 F3600.0 E5316.443
G1 X26.39 Y35.81 Z0.6 F3600.0 E5316.974
G1 X27.34 Y34.86 Z0.6 F3600.0 E5318.665
G1 X27.74 Y35.06 Z0.6 F3600.0 E5319.217
G1 X26.74 Y36.05 Z0.6 F3600.0 E5320.975
G1 X27.17 Y36.22 Z0.6 F3600.0 E5321.546
G1 X27.77 Y35.62 Z0.6 F3600.0 E5322.611
G1 X27.77 Y36.21 Z0.6 F3600.0 E5323.353
G1 X27.59 Y36.39 Z0.6 F3600.0 E5323.667
;M103
G1 X28.86 Y36.89 Z0.6 F3600.0
;M101
G1 X28.93 Y36.83 Z0.6 F3600.0 E5323.782
G1 X29.29 Y37.06 Z0.6 F3600.0 E5324.318
G1 X29.52 Y36.83 Z0.6 F3600.0 E5324.73
G1 X30.11 Y36.83 Z0.6 F3600.0 E5325.471
G1 X29.33 Y37.61 Z0.6 F3600.0 E5326.853
;M103
G1 X36.94 Y32.96 Z0.6 F3600.0
;M101
G1 X38.01 Y31.9 Z0.6 F3600.0 E5328.734
G1 X38.45 Y32.04 Z0.6 F3600.0 E5329.323
G1 X37.39 Y33.1 Z0.6 F3600.0 E5331.206
G1 X37.84 Y33.25 Z0.6 F3600.0 E5331.795
G1 X38.9 Y32.19 Z0.6 F3600.0 E5333.681
G1 X39.35 Y32.33 Z0.6 F3600.0 E5334.269
G1 X38.28 Y33.4 Z0.6 F3600.0 E5336.156
G1 X38.73 Y33.54 Z0.6 F3600.0 E5336.745
G1 X39.8 Y32.48 Z0.6 F3600.0 E5338.634
G1 X40.24 Y32.62 Z0.6 F3600.0 E5339.223
G1 X39.17 Y33.69 Z0.6 F3600.0 E5341.116
G1 X39.62 Y33.84 Z0.6 F3600.0 E5341.704
G1 X40.69 Y32.76 Z0.6 F3600.0 E5343.599
G1 X41.14 Y32.91 Z0.6 F3600.0 E5344.187
G1 X40.07 Y33.98 Z0.6 F3600.0 E5346.086
G1 X40.51 Y34.13 Z0.6 F3600.0 E5346.673
G1 X41.59 Y33.05 Z0.6 F3600.0 E5348.573
G1 X42.04 Y33.2 Z0.6 F3600.0 E5349.162
G1 X40.96 Y34.27 Z0.6 F3600.0 E5351.064
G1 X41.41 Y34.42 Z0.6 F3600.0 E5351.651
G1 X42.48 Y33.34 Z0.6 F3600.0 E5353.556
G1 X42.93 Y33.49 Z0.6 F3600.0 E5354.146
G1 X41.85 Y34.57 Z0.6 F3600.0 E5356.053
G1 X42.3 Y34.71 Z0.6 F3600.0 E5356.64
G1 X43.38 Y33.63 Z0.6 F3600.0 E5358.55
G1 X43.83 Y33.78 Z0.6 F3600.0 E5359.138
G1 X42.75 Y34.86 Z0.6 F3600.0 E5361.05
G1 X43.19 Y35.0 Z0.6 F3600.0 E5361.637
G1 X44.27 Y33.92 Z0.6 F3600.0 E5363.551
G1 X44.72 Y34.07 Z0.6 F3600.0 E5364.14
G1 X43.64 Y35.15 Z0.6 F3600.0 E5366.056
G1 X44.09 Y35.29 Z0.6 F3600.0 E5366.643
G1 X45.17 Y34.21 Z0.6 F3600.0 E5368.562
G1 X45.62 Y34.35 Z0.6 F3600.0 E5369.15
G1 X44.53 Y35.44 Z0.6 F3600.0 E5371.072
G1 X44.98 Y35.59 Z0.6 F3600.0 E5371.659
G1 X46.07 Y34.5 Z0.6 F3600.0 E5373.582
;M103
G1 X47.05 Y34.1 Z0.6 F3600.0
;M101
G1 X45.42 Y35.73 Z0.6 F3600.0 E5376.46
;M103
G1 X43.56 Y41.74 Z0.6 F3600.0
;M101
G1 X47.73 Y37.58 Z0.6 F3600.0 E5383.827
G1 X48.17 Y36.54 Z0.6 F3600.0 E5385.238
;M103
G1 X36.93 Y34.22 Z0.6 F3600.0
G1 X36.7 Y34.35 Z0.6 F3600.0
G1 X32.1 Y33.9 Z0.6 F3600.0
G1 X31.96 Y33.98 Z0.6 F3600.0
G1 X31.02 Y34.2 Z0.6 F3600.0
G1 X30.98 Y35.57 Z0.6 F3600.0
G1 X29.02 Y35.57 Z0.6 F3600.0
G1 X28.98 Y34.2 Z0.6 F3600.0
G1 X22.02 Y31.89 Z0.6 F3600.0
;M101
G1 X19.92 Y33.98 Z0.6 F3600.0 E5388.945
G1 X19.04 Y34.27 Z0.6 F3600.0 E5390.104
G1 X21.14 Y32.17 Z0.6 F3600.0 E5393.821
G1 X20.27 Y32.45 Z0.6 F3600.0 E5394.972
G1 X18.16 Y34.56 Z0.6 F3600.0 E5398.698
G1 X17.28 Y34.85 Z0.6 F3600.0 E5399.856
G1 X19.39 Y32.74 Z0.6 F3600.0 E5403.591
G1 X18.52 Y33.02 Z0.6 F3600.0 E5404.742
G1 X16.4 Y35.14 Z0.6 F3600.0 E5408.486
G1 X15.52 Y35.42 Z0.6 F3600.0 E5409.645
G1 X17.64 Y33.3 Z0.6 F3600.0 E5413.399
G1 X16.77 Y33.58 Z0.6 F3600.0 E5414.549
G1 X14.64 Y35.71 Z0.6 F3600.0 E5418.311
;M103
G1 X14.91 Y36.44 Z0.6 F3600.0
;M101
G1 X14.7 Y36.51 Z0.6 F3600.0 E5418.588
G1 X14.4 Y37.27 Z0.6 F3600.0 E5419.613
G1 X15.86 Y39.82 Z0.6 F3600.0 E5423.286
G1 X17.7 Y42.05 Z0.6 F3600.0 E5426.895
G1 X19.88 Y43.93 Z0.6 F3600.0 E5430.503
G1 X22.35 Y45.43 Z0.6 F3600.0 E5434.112
G1 X25.03 Y46.49 Z0.6 F3600.0 E5437.721
G1 X27.9 Y47.08 Z0.6 F3600.0 E5441.394
G1 X28.54 Y46.57 Z0.6 F3600.0 E5442.419
G1 X28.56 Y37.6 Z0.6 F3600.0 E5453.628
G1 X26.31 Y36.71 Z0.6 F3600.0 E5456.655
G1 X24.76 Y35.59 Z0.6 F3600.0 E5459.049
G1 X23.21 Y33.72 Z0.6 F3600.0 E5462.076
G1 X14.91 Y36.44 Z0.6 F3600.0 E5473.008
;M103
G1 X14.78 Y36.04 Z0.6 F3600.0
;M101
G1 X14.38 Y36.17 Z0.6 F3600.0 E5473.533
G1 X13.94 Y37.31 Z0.6 F3600.0 E5475.053
G1 X15.51 Y40.06 Z0.6 F3600.0 E5479.021
G1 X17.4 Y42.34 Z0.6 F3600.0 E5482.72
G1 X19.63 Y44.27 Z0.6 F3600.0 E5486.416
G1 X22.16 Y45.8 Z0.6 F3600.0 E5490.113
G1 X24.91 Y46.89 Z0.6 F3600.0 E5493.811
G1 X28.01 Y47.53 Z0.6 F3600.0 E5497.777
G1 X28.96 Y46.77 Z0.6 F3600.0 E5499.3
G1 X28.98 Y37.32 Z0.6 F3600.0 E5511.115
G1 X26.51 Y36.34 Z0.6 F3600.0 E5514.433
G1 X25.05 Y35.28 Z0.6 F3600.0 E5516.695
G1 X23.36 Y33.24 Z0.6 F3600.0 E5520.013
G1 X14.78 Y36.04 Z0.6 F3600.0 E5531.301
;M103
G1 X14.01 Y33.66 Z0.6 F3600.0
;M101
G1 X22.32 Y30.98 Z0.6 F3600.0 E5542.227
G1 X22.48 Y28.56 Z0.6 F3600.0 E5545.256
G1 X23.07 Y26.74 Z0.6 F3600.0 E5547.65
G1 X24.36 Y24.7 Z0.6 F3600.0 E5550.677
G1 X19.08 Y17.45 Z0.6 F3600.0 E5561.89
G1 X18.26 Y17.42 Z0.6 F3600.0 E5562.913
G1 X16.29 Y19.58 Z0.6 F3600.0 E5566.584
G1 X14.74 Y22.02 Z0.6 F3600.0 E5570.195
G1 X13.62 Y24.68 Z0.6 F3600.0 E5573.802
G1 X12.97 Y27.49 Z0.6 F3600.0 E5577.41
G1 X12.78 Y30.37 Z0.6 F3600.0 E5581.019
G1 X13.11 Y33.29 Z0.6 F3600.0 E5584.694
G1 X13.8 Y33.73 Z0.6 F3600.0 E5585.719
G1 X14.01 Y33.66 Z0.6 F3600.0 E5586.0
;M103
G1 X14.14 Y34.06 Z0.6 F3600.0
;M101
G1 X22.72 Y31.29 Z0.6 F3600.0 E5597.283
G1 X22.89 Y28.64 Z0.6 F3600.0 E5600.602
G1 X23.45 Y26.92 Z0.6 F3600.0 E5602.863
G1 X24.87 Y24.68 Z0.6 F3600.0 E5606.181
G1 X19.3 Y17.05 Z0.6 F3600.0 E5618.0
G1 X18.09 Y16.99 Z0.6 F3600.0 E5619.521
G1 X15.95 Y19.33 Z0.6 F3600.0 E5623.485
G1 X14.37 Y21.83 Z0.6 F3600.0 E5627.185
G1 X13.22 Y24.55 Z0.6 F3600.0 E5630.881
G1 X12.55 Y27.43 Z0.6 F3600.0 E5634.578
G1 X12.36 Y30.38 Z0.6 F3600.0 E5638.276
G1 X12.71 Y33.53 Z0.6 F3600.0 E5642.245
G1 X13.74 Y34.19 Z0.6 F3600.0 E5643.766
G1 X14.14 Y34.06 Z0.6 F3600.0 E5644.295
;M103
G1 X21.91 Y30.66 Z0.6 F3600.0
G1 X26.7 Y23.0 Z0.6 F3600.0
;M101
G1 X29.04 Y22.4 Z0.6 F3600.0 E5647.322
G1 X30.96 Y22.4 Z0.6 F3600.0 E5649.717
G1 X33.3 Y23.0 Z0.6 F3600.0 E5652.744
G1 X38.56 Y15.74 Z0.6 F3600.0 E5663.953
G1 X38.35 Y14.95 Z0.6 F3600.0 E5664.976
G1 X35.67 Y13.74 Z0.6 F3600.0 E5668.652
G1 X32.87 Y13.02 Z0.6 F3600.0 E5672.262
G1 X30.0 Y12.78 Z0.6 F3600.0 E5675.868
G1 X27.13 Y13.02 Z0.6 F3600.0 E5679.475
G1 X24.33 Y13.74 Z0.6 F3600.0 E5683.085
G1 X21.66 Y14.95 Z0.6 F3600.0 E5686.761
G1 X21.45 Y15.74 Z0.6 F3600.0 E5687.784
G1 X26.7 Y23.0 Z0.6 F3600.0 E5698.993
;M103
G1 X26.8 Y23.4 Z0.6 F3600.0
;M101
G1 X29.1 Y22.82 Z0.6 F3600.0 E5701.954
G1 X30.9 Y22.82 Z0.6 F3600.0 E5704.216
G1 X33.47 Y23.48 Z0.6 F3600.0 E5707.534
G1 X39.01 Y15.83 Z0.6 F3600.0 E5719.348
G1 X38.7 Y14.65 Z0.6 F3600.0 E5720.869
G1 X35.81 Y13.34 Z0.6 F3600.0 E5724.837
G1 X32.94 Y12.61 Z0.6 F3600.0 E5728.538
G1 X30.0 Y12.36 Z0.6 F3600.0 E5732.232
G1 X27.06 Y12.61 Z0.6 F3600.0 E5735.927
G1 X24.19 Y13.34 Z0.6 F3600.0 E5739.627
G1 X21.3 Y14.65 Z0.6 F3600.0 E5743.595
G1 X20.99 Y15.83 Z0.6 F3600.0 E5745.116
G1 X26.36 Y23.24 Z0.6 F3600.0 E5756.574
G1 X26.53 Y23.48 Z0.6 F3600.0 E5756.93
G1 X26.8 Y23.4 Z0.6 F3600.0 E5757.288
;M103
G1 X28.21 Y25.57 Z0.6 F3600.0
;M101
G1 X27.8 Y25.8 Z0.6 F3600.0 E5757.885
G1 X27.15 Y26.16 Z0.6 F3600.0 E5758.814
G1 X26.27 Y27.01 Z0.6 F3600.0 E5760.337
G1 X25.64 Y28.05 Z0.6 F3600.0 E5761.862
G1 X25.28 Y29.22 Z0.6 F3600.0 E5763.387
G1 X25.24 Y30.44 Z0.6 F3600.0 E5764.913
G1 X25.5 Y31.62 Z0.6 F3600.0 E5766.437
G1 X26.06 Y32.71 Z0.6 F3600.0 E5767.962
G1 X26.87 Y33.62 Z0.6 F3600.0 E5769.487
G1 X27.89 Y34.29 Z0.6 F3600.0 E5771.013
G1 X28.54 Y34.51 Z0.6 F3600.0 E5771.875
G1 X28.54 Y36.05 Z0.6 F3600.0 E5773.801
G1 X31.46 Y36.05 Z0.6 F3600.0 E5777.447
G1 X31.46 Y34.51 Z0.6 F3600.0 E5779.373
G1 X32.11 Y34.29 Z0.6 F3600.0 E5780.235
G1 X33.13 Y33.62 Z0.6 F3600.0 E5781.761
G1 X33.94 Y32.71 Z0.6 F3600.0 E5783.286
G1 X34.5 Y31.62 Z0.6 F3600.0 E5784.812
G1 X34.76 Y30.44 Z0.6 F3600.0 E5786.336
G1 X34.72 Y29.22 Z0.6 F3600.0 E5787.862
G1 X34.36 Y28.05 Z0.6 F3600.0 E5789.387
G1 X33.73 Y27.01 Z0.6 F3600.0 E5790.911
G1 X32.85 Y26.16 Z0.6 F3600.0 E5792.435
G1 X31.79 Y25.57 Z0.6 F3600.0 E5793.96
G1 X30.61 Y25.26 Z0.6 F3600.0 E5795.484
G1 X29.39 Y25.26 Z0.6 F3600.0 E5797.011
G1 X28.21 Y25.57 Z0.6 F3600.0 E5798.535
;M103
G1 X28.05 Y25.18 Z0.6 F3600.0
;M101
G1 X27.59 Y25.44 Z0.6 F3600.0 E5799.199
G1 X26.9 Y25.83 Z0.6 F3600.0 E5800.195
G1 X25.94 Y26.74 Z0.6 F3600.0 E5801.853
G1 X25.25 Y27.88 Z0.6 F3600.0 E5803.513
G1 X24.87 Y29.15 Z0.6 F3600.0 E5805.173
G1 X24.82 Y30.47 Z0.6 F3600.0 E5806.833
G1 X25.11 Y31.77 Z0.6 F3600.0 E5808.492
G1 X25.71 Y32.95 Z0.6 F3600.0 E5810.152
G1 X26.6 Y33.94 Z0.6 F3600.0 E5811.811
G1 X27.7 Y34.67 Z0.6 F3600.0 E5813.472
G1 X28.12 Y34.81 Z0.6 F3600.0 E5814.027
G1 X28.12 Y36.47 Z0.6 F3600.0 E5816.103
G1 X31.88 Y36.47 Z0.6 F3600.0 E5820.797
G1 X31.88 Y34.81 Z0.6 F3600.0 E5822.872
G1 X32.3 Y34.67 Z0.6 F3600.0 E5823.427
G1 X33.4 Y33.94 Z0.6 F3600.0 E5825.088
G1 X34.29 Y32.95 Z0.6 F3600.0 E5826.747
G1 X34.89 Y31.77 Z0.6 F3600.0 E5828.407
G1 X35.18 Y30.47 Z0.6 F3600.0 E5830.067
G1 X35.13 Y29.15 Z0.6 F3600.0 E5831.727
G1 X34.75 Y27.88 Z0.6 F3600.0 E5833.386
G1 X34.06 Y26.74 Z0.6 F3600.0 E5835.046
G1 X33.1 Y25.83 Z0.6 F3600.0 E5836.704
G1 X31.95 Y25.18 Z0.6 F3600.0 E5838.365
G1 X30.66 Y24.84 Z0.6 F3600.0 E5840.025
G1 X29.34 Y24.84 Z0.6 F3600.0 E5841.683
G1 X28.05 Y25.18 Z0.6 F3600.0 E5843.343
;M103
G1 X35.64 Y24.7 Z0.6 F3600.0
;M101
G1 X36.93 Y26.74 Z0.6 F3600.0 E5846.371
G1 X37.53 Y28.56 Z0.6 F3600.0 E5848.765
G1 X37.68 Y30.98 Z0.6 F3600.0 E5851.794
G1 X46.2 Y33.73 Z0.6 F3600.0 E5863.001
G1 X46.89 Y33.29 Z0.6 F3600.0 E5864.025
G1 X47.22 Y30.37 Z0.6 F3600.0 E5867.7
G1 X47.04 Y27.49 Z0.6 F3600.0 E5871.309
G1 X46.38 Y24.68 Z0.6 F3600.0 E5874.917
G1 X45.26 Y22.02 Z0.6 F3600.0 E5878.524
G1 X43.71 Y19.58 Z0.6 F3600.0 E5882.135
G1 X41.74 Y17.42 Z0.6 F3600.0 E5885.806
G1 X40.92 Y17.45 Z0.6 F3600.0 E5886.829
G1 X35.64 Y24.7 Z0.6 F3600.0 E5898.042
;M103
G1 X35.3 Y24.45 Z0.6 F3600.0
;M101
G1 X35.13 Y24.68 Z0.6 F3600.0 E5898.398
G1 X35.28 Y24.92 Z0.6 F3600.0 E5898.754
G1 X36.55 Y26.92 Z0.6 F3600.0 E5901.716
G1 X37.11 Y28.64 Z0.6 F3600.0 E5903.977
G1 X37.28 Y31.29 Z0.6 F3600.0 E5907.297
G1 X46.27 Y34.19 Z0.6 F3600.0 E5919.109
G1 X47.29 Y33.53 Z0.6 F3600.0 E5920.63
G1 X47.64 Y30.38 Z0.6 F3600.0 E5924.599
G1 X47.45 Y27.43 Z0.6 F3600.0 E5928.297
G1 X46.78 Y24.55 Z0.6 F3600.0 E5931.994
G1 X45.63 Y21.83 Z0.6 F3600.0 E5935.69
G1 X44.05 Y19.33 Z0.6 F3600.0 E5939.389
G1 X41.91 Y16.99 Z0.6 F3600.0 E5943.354
G1 X40.7 Y17.05 Z0.6 F3600.0 E5944.875
G1 X35.3 Y24.45 Z0.6 F3600.0 E5956.337
;M103
G1 X36.79 Y33.72 Z0.6 F3600.0
;M101
G1 X35.24 Y35.59 Z0.6 F3600.0 E5959.364
G1 X33.69 Y36.71 Z0.6 F3600.0 E5961.758
G1 X31.45 Y37.6 Z0.6 F3600.0 E5964.786
G1 X31.46 Y46.57 Z0.6 F3600.0 E5975.995
G1 X32.1 Y47.08 Z0.6 F3600.0 E5977.02
G1 X34.97 Y46.49 Z0.6 F3600.0 E5980.693
G1 X37.65 Y45.43 Z0.6 F3600.0 E5984.301
G1 X40.12 Y43.93 Z0.6 F3600.0 E5987.91
G1 X42.31 Y42.05 Z0.6 F3600.0 E5991.518
G1 X44.14 Y39.82 Z0.6 F3600.0 E5995.128
G1 X45.6 Y37.27 Z0.6 F3600.0 E5998.801
G1 X45.3 Y36.51 Z0.6 F3600.0 E5999.826
G1 X36.79 Y33.72 Z0.6 F3600.0 E6011.034
;M103
G1 X36.92 Y33.33 Z0.6 F3600.0
;M101
G1 X36.65 Y33.24 Z0.6 F3600.0 E6011.39
G1 X34.95 Y35.28 Z0.6 F3600.0 E6014.708
G1 X33.49 Y36.34 Z0.6 F3600.0 E6016.97
G1 X31.03 Y37.32 Z0.6 F3600.0 E6020.288
G1 X31.04 Y46.77 Z0.6 F3600.0 E6032.103
G1 X31.99 Y47.53 Z0.6 F3600.0 E6033.626
G1 X35.09 Y46.89 Z0.6 F3600.0 E6037.592
G1 X37.84 Y45.8 Z0.6 F3600.0 E6041.29
G1 X40.37 Y44.27 Z0.6 F3600.0 E6044.987
G1 X42.61 Y42.34 Z0.6 F3600.0 E6048.683
G1 X44.49 Y40.06 Z0.6 F3600.0 E6052.382
G1 X46.06 Y37.31 Z0.6 F3600.0 E6056.35
G1 X45.62 Y36.17 Z0.6 F3600.0 E6057.87
G1 X36.92 Y33.33 Z0.6 F3600.0 E6069.327
;M103
G1 X47.86 Y38.22 Z0.6 F3600.0
;M101
G1 X47.25 Y39.61 Z0.6 F3600.0 E6071.226
G1 X48.04 Y40.24 Z0.6 F3600.0 E6072.502
G1 X47.89 Y40.51 Z0.6 F3600.0 E6072.882
G1 X46.95 Y40.13 Z0.6 F3600.0 E6074.155
G1 X44.87 Y42.98 Z0.6 F3600.0 E6078.563
G1 X45.52 Y43.77 Z0.6 F3600.0 E6079.839
G1 X45.32 Y44.0 Z0.6 F3600.0 E6080.222
G1 X44.47 Y43.44 Z0.6 F3600.0 E6081.495
G1 X41.85 Y45.79 Z0.6 F3600.0 E6085.901
G1 X42.32 Y46.7 Z0.6 F3600.0 E6087.177
G1 X42.07 Y46.88 Z0.6 F3600.0 E6087.557
G1 X41.36 Y46.15 Z0.6 F3600.0 E6088.831
G1 X38.31 Y47.91 Z0.6 F3600.0 E6093.238
G1 X38.58 Y48.89 Z0.6 F3600.0 E6094.515
G1 X38.3 Y49.02 Z0.6 F3600.0 E6094.897
G1 X37.75 Y48.16 Z0.6 F3600.0 E6096.17
G1 X34.4 Y49.24 Z0.6 F3600.0 E6100.576
G1 X34.46 Y50.26 Z0.6 F3600.0 E6101.852
G1 X34.17 Y50.33 Z0.6 F3600.0 E6102.234
G1 X33.81 Y49.37 Z0.6 F3600.0 E6103.508
G1 X30.3 Y49.74 Z0.6 F3600.0 E6107.915
G1 X30.15 Y50.75 Z0.6 F3600.0 E6109.192
G1 X29.85 Y50.75 Z0.6 F3600.0 E6109.571
G1 X29.7 Y49.74 Z0.6 F3600.0 E6110.843
G1 X26.19 Y49.37 Z0.6 F3600.0 E6115.251
G1 X25.84 Y50.33 Z0.6 F3600.0 E6116.528
G1 X25.54 Y50.26 Z0.6 F3600.0 E6116.91
G1 X25.6 Y49.25 Z0.6 F3600.0 E6118.182
G1 X22.25 Y48.15 Z0.6 F3600.0 E6122.588
G1 X21.7 Y49.02 Z0.6 F3600.0 E6123.865
G1 X21.42 Y48.89 Z0.6 F3600.0 E6124.248
G1 X21.69 Y47.91 Z0.6 F3600.0 E6125.521
G1 X18.64 Y46.15 Z0.6 F3600.0 E6129.929
G1 X17.93 Y46.87 Z0.6 F3600.0 E6131.206
G1 X17.68 Y46.7 Z0.6 F3600.0 E6131.587
G1 X18.15 Y45.79 Z0.6 F3600.0 E6132.858
G1 X15.54 Y43.43 Z0.6 F3600.0 E6137.266
G1 X14.68 Y44.0 Z0.6 F3600.0 E6138.542
G1 X14.48 Y43.77 Z0.6 F3600.0 E6138.924
G1 X15.13 Y42.99 Z0.6 F3600.0 E6140.197
G1 X13.06 Y40.13 Z0.6 F3600.0 E6144.606
G1 X12.11 Y40.51 Z0.6 F3600.0 E6145.883
G1 X11.96 Y40.24 Z0.6 F3600.0 E6146.263
G1 X12.75 Y39.61 Z0.6 F3600.0 E6147.536
G1 X11.32 Y36.39 Z0.6 F3600.0 E6151.943
G1 X10.32 Y36.56 Z0.6 F3600.0 E6153.219
G1 X10.22 Y36.27 Z0.6 F3600.0 E6153.6
G1 X11.13 Y35.81 Z0.6 F3600.0 E6154.872
G1 X10.4 Y32.37 Z0.6 F3600.0 E6159.279
G1 X9.38 Y32.32 Z0.6 F3600.0 E6160.555
G1 X9.35 Y32.02 Z0.6 F3600.0 E6160.937
G1 X10.34 Y31.76 Z0.6 F3600.0 E6162.208
G1 X10.34 Y28.24 Z0.6 F3600.0 E6166.616
G1 X9.35 Y27.98 Z0.6 F3600.0 E6167.891
G1 X9.38 Y27.68 Z0.6 F3600.0 E6168.273
G1 X10.4 Y27.63 Z0.6 F3600.0 E6169.547
G1 X11.13 Y24.19 Z0.6 F3600.0 E6173.953
G1 X10.22 Y23.73 Z0.6 F3600.0 E6175.228
G1 X10.31 Y23.44 Z0.6 F3600.0 E6175.609
G1 X11.32 Y23.61 Z0.6 F3600.0 E6176.882
G1 X12.76 Y20.39 Z0.6 F3600.0 E6181.29
G1 X11.96 Y19.76 Z0.6 F3600.0 E6182.566
G1 X12.11 Y19.5 Z0.6 F3600.0 E6182.946
G1 X13.06 Y19.87 Z0.6 F3600.0 E6184.219
G1 X15.13 Y17.02 Z0.6 F3600.0 E6188.627
G1 X14.48 Y16.23 Z0.6 F3600.0 E6189.903
G1 X14.68 Y16.0 Z0.6 F3600.0 E6190.286
G1 X15.53 Y16.56 Z0.6 F3600.0 E6191.559
G1 X18.15 Y14.21 Z0.6 F3600.0 E6195.965
G1 X17.68 Y13.31 Z0.6 F3600.0 E6197.241
G1 X17.93 Y13.13 Z0.6 F3600.0 E6197.621
G1 X18.64 Y13.85 Z0.6 F3600.0 E6198.895
G1 X21.69 Y12.09 Z0.6 F3600.0 E6203.302
G1 X21.42 Y11.11 Z0.6 F3600.0 E6204.579
G1 X21.7 Y10.98 Z0.6 F3600.0 E6204.962
G1 X22.25 Y11.84 Z0.6 F3600.0 E6206.235
G1 X25.6 Y10.76 Z0.6 F3600.0 E6210.64
G1 X25.54 Y9.74 Z0.6 F3600.0 E6211.917
G1 X25.84 Y9.68 Z0.6 F3600.0 E6212.298
G1 X26.19 Y10.63 Z0.6 F3600.0 E6213.571
G1 X29.7 Y10.26 Z0.6 F3600.0 E6217.978
G1 X29.85 Y9.25 Z0.6 F3600.0 E6219.255
G1 X30.15 Y9.25 Z0.6 F3600.0 E6219.634
G1 X30.3 Y10.26 Z0.6 F3600.0 E6220.906
G1 X33.81 Y10.63 Z0.6 F3600.0 E6225.315
G1 X34.16 Y9.68 Z0.6 F3600.0 E6226.59
G1 X34.46 Y9.74 Z0.6 F3600.0 E6226.972
G1 X34.4 Y10.75 Z0.6 F3600.0 E6228.246
G1 X37.75 Y11.85 Z0.6 F3600.0 E6232.651
G1 X38.3 Y10.99 Z0.6 F3600.0 E6233.927
G1 X38.58 Y11.11 Z0.6 F3600.0 E6234.309
G1 X38.31 Y12.09 Z0.6 F3600.0 E6235.582
G1 X41.36 Y13.85 Z0.6 F3600.0 E6239.991
G1 X42.07 Y13.13 Z0.6 F3600.0 E6241.267
G1 X42.32 Y13.3 Z0.6 F3600.0 E6241.648
G1 X41.85 Y14.21 Z0.6 F3600.0 E6242.92
G1 X44.47 Y16.57 Z0.6 F3600.0 E6247.327
G1 X45.32 Y16.0 Z0.6 F3600.0 E6248.604
G1 X45.52 Y16.23 Z0.6 F3600.0 E6248.986
G1 X44.87 Y17.02 Z0.6 F3600.0 E6250.258
G1 X46.94 Y19.87 Z0.6 F3600.0 E6254.667
G1 X47.89 Y19.5 Z0.6 F3600.0 E6255.945
G1 X48.04 Y19.76 Z0.6 F3600.0 E6256.325
G1 X47.25 Y20.39 Z0.6 F3600.0 E6257.598
G1 X48.68 Y23.61 Z0.6 F3600.0 E6262.006
G1 X49.69 Y23.45 Z0.6 F3600.0 E6263.284
G1 X49.78 Y23.73 Z0.6 F3600.0 E6263.663
G1 X48.87 Y24.19 Z0.6 F3600.0 E6264.935
G1 X49.6 Y27.63 Z0.6 F3600.0 E6269.342
G1 X50.62 Y27.68 Z0.6 F3600.0 E6270.618
G1 X50.65 Y27.98 Z0.6 F3600.0 E6271.0
G1 X49.67 Y28.24 Z0.6 F3600.0 E6272.271
G1 X49.66 Y31.76 Z0.6 F3600.0 E6276.678
G1 X50.65 Y32.02 Z0.6 F3600.0 E6277.954
G1 X50.62 Y32.32 Z0.6 F3600.0 E6278.336
G1 X49.6 Y32.37 Z0.6 F3600.0 E6279.61
G1 X48.87 Y35.81 Z0.6 F3600.0 E6284.016
G1 X49.78 Y36.27 Z0.6 F3600.0 E6285.292
G1 X49.69 Y36.56 Z0.6 F3600.0 E6285.673
G1 X48.68 Y36.39 Z0.6 F3600.0 E6286.946
G1 X47.86 Y38.22 Z0.6 F3600.0 E6289.454
;M103
G1 X48.25 Y38.39 Z0.6 F3600.0
;M101
G1 X47.76 Y39.48 Z0.6 F3600.0 E6290.946
G1 X50.87 Y41.95 Z0.6 F3600.0 E6295.915
G1 X50.79 Y42.09 Z0.6 F3600.0 E6296.117
G1 X47.09 Y40.64 Z0.6 F3600.0 E6301.081
G1 X45.4 Y42.97 Z0.6 F3600.0 E6304.677
G1 X47.93 Y46.03 Z0.6 F3600.0 E6309.644
G1 X47.82 Y46.15 Z0.6 F3600.0 E6309.846
G1 X44.51 Y43.96 Z0.6 F3600.0 E6314.808
G1 X42.37 Y45.89 Z0.6 F3600.0 E6318.404
G1 X44.2 Y49.41 Z0.6 F3600.0 E6323.371
G1 X44.07 Y49.5 Z0.6 F3600.0 E6323.573
G1 X41.29 Y46.67 Z0.6 F3600.0 E6328.535
G1 X38.8 Y48.11 Z0.6 F3600.0 E6332.13
G1 X39.85 Y51.94 Z0.6 F3600.0 E6337.097
G1 X39.71 Y52.0 Z0.6 F3600.0 E6337.3
G1 X37.57 Y48.66 Z0.6 F3600.0 E6342.263
G1 X34.84 Y49.54 Z0.6 F3600.0 E6345.859
G1 X35.08 Y53.51 Z0.6 F3600.0 E6350.826
G1 X34.92 Y53.54 Z0.6 F3600.0 E6351.028
G1 X33.53 Y49.82 Z0.6 F3600.0 E6355.993
G1 X30.67 Y50.12 Z0.6 F3600.0 E6359.588
G1 X30.08 Y54.05 Z0.6 F3600.0 E6364.557
G1 X29.92 Y54.05 Z0.6 F3600.0 E6364.76
G1 X29.33 Y50.12 Z0.6 F3600.0 E6369.725
G1 X26.47 Y49.82 Z0.6 F3600.0 E6373.323
G1 X25.08 Y53.54 Z0.6 F3600.0 E6378.291
G1 X24.92 Y53.51 Z0.6 F3600.0 E6378.493
G1 X25.16 Y49.55 Z0.6 F3600.0 E6383.456
G1 X22.43 Y48.65 Z0.6 F3600.0 E6387.051
G1 X20.29 Y52.0 Z0.6 F3600.0 E6392.021
G1 X20.15 Y51.94 Z0.6 F3600.0 E6392.224
G1 X21.2 Y48.11 Z0.6 F3600.0 E6397.187
G1 X18.71 Y46.67 Z0.6 F3600.0 E6400.785
G1 X15.93 Y49.5 Z0.6 F3600.0 E6405.752
G1 X15.8 Y49.41 Z0.6 F3600.0 E6405.952
G1 X17.63 Y45.89 Z0.6 F3600.0 E6410.916
G1 X15.5 Y43.96 Z0.6 F3600.0 E6414.513
G1 X12.18 Y46.15 Z0.6 F3600.0 E6419.48
G1 X12.08 Y46.03 Z0.6 F3600.0 E6419.682
G1 X14.6 Y42.97 Z0.6 F3600.0 E6424.645
G1 X12.91 Y40.64 Z0.6 F3600.0 E6428.243
G1 X9.22 Y42.09 Z0.6 F3600.0 E6433.21
G1 X9.13 Y41.95 Z0.6 F3600.0 E6433.412
G1 X12.24 Y39.48 Z0.6 F3600.0 E6438.376
G1 X11.07 Y36.85 Z0.6 F3600.0 E6441.972
G1 X7.16 Y37.51 Z0.6 F3600.0 E6446.939
G1 X7.11 Y37.35 Z0.6 F3600.0 E6447.14
G1 X10.65 Y35.58 Z0.6 F3600.0 E6452.102
G1 X10.06 Y32.77 Z0.6 F3600.0 E6455.697
G1 X6.09 Y32.59 Z0.6 F3600.0 E6460.667
G1 X6.08 Y32.43 Z0.6 F3600.0 E6460.869
G1 X9.92 Y31.44 Z0.6 F3600.0 E6465.833
G1 X9.92 Y28.56 Z0.6 F3600.0 E6469.429
G1 X6.08 Y27.57 Z0.6 F3600.0 E6474.397
G1 X6.09 Y27.41 Z0.6 F3600.0 E6474.598
G1 X10.06 Y27.23 Z0.6 F3600.0 E6479.563
G1 X10.66 Y24.42 Z0.6 F3600.0 E6483.159
G1 X7.11 Y22.65 Z0.6 F3600.0 E6488.124
G1 X7.16 Y22.49 Z0.6 F3600.0 E6488.326
G1 X11.07 Y23.15 Z0.6 F3600.0 E6493.289
G1 X12.24 Y20.52 Z0.6 F3600.0 E6496.885
G1 X9.13 Y18.05 Z0.6 F3600.0 E6501.852
G1 X9.22 Y17.91 Z0.6 F3600.0 E6502.055
G1 X12.91 Y19.36 Z0.6 F3600.0 E6507.018
G1 X14.6 Y17.03 Z0.6 F3600.0 E6510.615
G1 X12.08 Y13.97 Z0.6 F3600.0 E6515.581
G1 X12.18 Y13.85 Z0.6 F3600.0 E6515.784
G1 X15.49 Y16.04 Z0.6 F3600.0 E6520.746
G1 X17.63 Y14.12 Z0.6 F3600.0 E6524.342
G1 X15.8 Y10.59 Z0.6 F3600.0 E6529.309
G1 X15.93 Y10.5 Z0.6 F3600.0 E6529.51
G1 X18.71 Y13.33 Z0.6 F3600.0 E6534.473
G1 X21.2 Y11.89 Z0.6 F3600.0 E6538.068
G1 X20.15 Y8.07 Z0.6 F3600.0 E6543.035
G1 X20.29 Y8.0 Z0.6 F3600.0 E6543.238
G1 X22.43 Y11.34 Z0.6 F3600.0 E6548.202
G1 X25.16 Y10.46 Z0.6 F3600.0 E6551.796
G1 X24.92 Y6.5 Z0.6 F3600.0 E6556.764
G1 X25.08 Y6.46 Z0.6 F3600.0 E6556.966
G1 X26.47 Y10.18 Z0.6 F3600.0 E6561.931
G1 X29.33 Y9.88 Z0.6 F3600.0 E6565.526
G1 X29.92 Y5.95 Z0.6 F3600.0 E6570.495
G1 X30.08 Y5.95 Z0.6 F3600.0 E6570.698
G1 X30.67 Y9.88 Z0.6 F3600.0 E6575.663
G1 X33.53 Y10.18 Z0.6 F3600.0 E6579.261
G1 X34.92 Y6.46 Z0.6 F3600.0 E6584.229
G1 X35.08 Y6.5 Z0.6 F3600.0 E6584.431
G1 X34.84 Y10.46 Z0.6 F3600.0 E6589.395
G1 X37.57 Y11.35 Z0.6 F3600.0 E6592.99
G1 X39.71 Y8.0 Z0.6 F3600.0 E6597.958
G1 X39.85 Y8.07 Z0.6 F3600.0 E6598.161
G1 X38.8 Y11.89 Z0.6 F3600.0 E6603.125
G1 X41.29 Y13.33 Z0.6 F3600.0 E6606.722
G1 X44.07 Y10.5 Z0.6 F3600.0 E6611.689
G1 X44.2 Y10.59 Z0.6 F3600.0 E6611.89
G1 X42.37 Y14.11 Z0.6 F3600.0 E6616.853
G1 X44.5 Y16.04 Z0.6 F3600.0 E6620.45
G1 X47.82 Y13.85 Z0.6 F3600.0 E6625.417
G1 X47.93 Y13.97 Z0.6 F3600.0 E6625.62
G1 X45.4 Y17.03 Z0.6 F3600.0 E6630.583
G1 X47.09 Y19.36 Z0.6 F3600.0 E6634.181
G1 X50.79 Y17.91 Z0.6 F3600.0 E6639.147
G1 X50.87 Y18.05 Z0.6 F3600.0 E6639.35
G1 X47.76 Y20.52 Z0.6 F3600.0 E6644.313
G1 X48.93 Y23.15 Z0.6 F3600.0 E6647.909
G1 X52.85 Y22.49 Z0.6 F3600.0 E6652.876
G1 X52.9 Y22.65 Z0.6 F3600.0 E6653.077
G1 X49.35 Y24.42 Z0.6 F3600.0 E6658.039
G1 X49.94 Y27.23 Z0.6 F3600.0 E6661.634
G1 X53.91 Y27.41 Z0.6 F3600.0 E6666.604
G1 X53.92 Y27.57 Z0.6 F3600.0 E6666.807
G1 X50.08 Y28.56 Z0.6 F3600.0 E6671.771
G1 X50.08 Y31.44 Z0.6 F3600.0 E6675.366
G1 X53.92 Y32.43 Z0.6 F3600.0 E6680.334
G1 X53.91 Y32.59 Z0.6 F3600.0 E6680.535
G1 X49.94 Y32.77 Z0.6 F3600.0 E6685.5
G1 X49.34 Y35.58 Z0.6 F3600.0 E6689.096
G1 X52.9 Y37.35 Z0.6 F3600.0 E6694.062
G1 X52.85 Y37.51 Z0.6 F3600.0 E6694.263
G1 X48.93 Y36.86 Z0.6 F3600.0 E6699.226
G1 X48.25 Y38.39 Z0.6 F3600.0 E6701.328
;M103
;M108 S56.29
G1 X48.63 Y38.56 Z0.6 F3600.0
;M101
G1 X48.28 Y39.35 Z0.6 F2700.0 E6702.416
G1 X51.41 Y41.85 Z0.6 F2700.0 E6707.428
G1 X50.97 Y42.62 Z0.6 F2700.0 E6708.532
G1 X47.24 Y41.15 Z0.6 F2700.0 E6713.542
G1 X45.93 Y42.95 Z0.6 F2700.0 E6716.327
G1 X48.48 Y46.04 Z0.6 F2700.0 E6721.339
G1 X47.89 Y46.7 Z0.6 F2700.0 E6722.445
G1 X44.55 Y44.49 Z0.6 F2700.0 E6727.454
G1 X42.89 Y45.98 Z0.6 F2700.0 E6730.239
G1 X44.74 Y49.54 Z0.6 F2700.0 E6735.252
G1 X44.02 Y50.05 Z0.6 F2700.0 E6736.355
G1 X41.22 Y47.2 Z0.6 F2700.0 E6741.363
G1 X39.29 Y48.31 Z0.6 F2700.0 E6744.149
G1 X40.35 Y52.17 Z0.6 F2700.0 E6749.161
G1 X39.55 Y52.53 Z0.6 F2700.0 E6750.266
G1 X37.39 Y49.15 Z0.6 F2700.0 E6755.276
G1 X35.28 Y49.84 Z0.6 F2700.0 E6758.06
G1 X35.52 Y53.84 Z0.6 F2700.0 E6763.072
G1 X34.66 Y54.02 Z0.6 F2700.0 E6764.177
G1 X33.25 Y50.27 Z0.6 F2700.0 E6769.187
G1 X31.04 Y50.5 Z0.6 F2700.0 E6771.972
G1 X30.44 Y54.47 Z0.6 F2700.0 E6776.986
G1 X29.56 Y54.47 Z0.6 F2700.0 E6778.091
G1 X28.97 Y50.51 Z0.6 F2700.0 E6783.101
G1 X26.75 Y50.27 Z0.6 F2700.0 E6785.886
G1 X25.35 Y54.02 Z0.6 F2700.0 E6790.9
G1 X24.48 Y53.84 Z0.6 F2700.0 E6792.005
G1 X24.72 Y49.84 Z0.6 F2700.0 E6797.013
G1 X22.61 Y49.15 Z0.6 F2700.0 E6799.798
G1 X20.45 Y52.53 Z0.6 F2700.0 E6804.811
G1 X19.65 Y52.17 Z0.6 F2700.0 E6805.916
G1 X20.71 Y48.31 Z0.6 F2700.0 E6810.925
G1 X18.79 Y47.2 Z0.6 F2700.0 E6813.71
G1 X15.98 Y50.05 Z0.6 F2700.0 E6818.722
G1 X15.26 Y49.54 Z0.6 F2700.0 E6819.825
G1 X17.11 Y45.98 Z0.6 F2700.0 E6824.834
G1 X15.46 Y44.49 Z0.6 F2700.0 E6827.62
G1 X12.11 Y46.7 Z0.6 F2700.0 E6832.632
G1 X11.52 Y46.04 Z0.6 F2700.0 E6833.738
G1 X14.07 Y42.95 Z0.6 F2700.0 E6838.746
G1 X12.76 Y41.15 Z0.6 F2700.0 E6841.531
G1 X9.03 Y42.62 Z0.6 F2700.0 E6846.544
G1 X8.59 Y41.85 Z0.6 F2700.0 E6847.648
G1 X11.72 Y39.36 Z0.6 F2700.0 E6852.657
G1 X10.82 Y37.32 Z0.6 F2700.0 E6855.441
G1 X6.87 Y37.98 Z0.6 F2700.0 E6860.452
G1 X6.6 Y37.14 Z0.6 F2700.0 E6861.557
G1 X10.18 Y35.35 Z0.6 F2700.0 E6866.565
G1 X9.72 Y33.17 Z0.6 F2700.0 E6869.35
G1 X5.71 Y33.0 Z0.6 F2700.0 E6874.363
G1 X5.62 Y32.12 Z0.6 F2700.0 E6875.468
G1 X9.5 Y31.11 Z0.6 F2700.0 E6880.478
G1 X9.5 Y28.89 Z0.6 F2700.0 E6883.262
G1 X5.62 Y27.88 Z0.6 F2700.0 E6888.276
G1 X5.71 Y27.0 Z0.6 F2700.0 E6889.381
G1 X9.72 Y26.83 Z0.6 F2700.0 E6894.392
G1 X10.18 Y24.65 Z0.6 F2700.0 E6897.176
G1 X6.6 Y22.86 Z0.6 F2700.0 E6902.187
G1 X6.87 Y22.02 Z0.6 F2700.0 E6903.292
G1 X10.82 Y22.68 Z0.6 F2700.0 E6908.3
G1 X11.73 Y20.65 Z0.6 F2700.0 E6911.087
G1 X8.59 Y18.15 Z0.6 F2700.0 E6916.098
G1 X9.03 Y17.38 Z0.6 F2700.0 E6917.203
G1 X12.76 Y18.85 Z0.6 F2700.0 E6922.213
G1 X14.07 Y17.05 Z0.6 F2700.0 E6924.997
G1 X11.52 Y13.96 Z0.6 F2700.0 E6930.009
G1 X12.11 Y13.3 Z0.6 F2700.0 E6931.115
G1 X15.45 Y15.51 Z0.6 F2700.0 E6936.125
G1 X17.11 Y14.02 Z0.6 F2700.0 E6938.909
G1 X15.26 Y10.47 Z0.6 F2700.0 E6943.922
G1 X15.98 Y9.95 Z0.6 F2700.0 E6945.026
G1 X18.78 Y12.8 Z0.6 F2700.0 E6950.034
G1 X20.71 Y11.69 Z0.6 F2700.0 E6952.82
G1 X19.65 Y7.83 Z0.6 F2700.0 E6957.831
G1 X20.45 Y7.47 Z0.6 F2700.0 E6958.936
G1 X22.61 Y10.85 Z0.6 F2700.0 E6963.947
G1 X24.72 Y10.16 Z0.6 F2700.0 E6966.731
G1 X24.48 Y6.16 Z0.6 F2700.0 E6971.743
G1 X25.35 Y5.98 Z0.6 F2700.0 E6972.848
G1 X26.75 Y9.73 Z0.6 F2700.0 E6977.859
G1 X28.96 Y9.5 Z0.6 F2700.0 E6980.643
G1 X29.56 Y5.53 Z0.6 F2700.0 E6985.656
G1 X30.44 Y5.53 Z0.6 F2700.0 E6986.762
G1 X31.04 Y9.49 Z0.6 F2700.0 E6991.77
G1 X33.25 Y9.73 Z0.6 F2700.0 E6994.555
G1 X34.66 Y5.98 Z0.6 F2700.0 E6999.569
G1 X35.52 Y6.16 Z0.6 F2700.0 E7000.674
G1 X35.28 Y10.16 Z0.6 F2700.0 E7005.684
G1 X37.39 Y10.85 Z0.6 F2700.0 E7008.468
G1 X39.55 Y7.47 Z0.6 F2700.0 E7013.481
G1 X40.35 Y7.83 Z0.6 F2700.0 E7014.586
G1 X39.29 Y11.69 Z0.6 F2700.0 E7019.595
G1 X41.21 Y12.8 Z0.6 F2700.0 E7022.38
G1 X44.02 Y9.95 Z0.6 F2700.0 E7027.392
G1 X44.74 Y10.47 Z0.6 F2700.0 E7028.495
G1 X42.89 Y14.02 Z0.6 F2700.0 E7033.504
G1 X44.54 Y15.51 Z0.6 F2700.0 E7036.29
G1 X47.89 Y13.3 Z0.6 F2700.0 E7041.301
G1 X48.48 Y13.96 Z0.6 F2700.0 E7042.408
G1 X45.93 Y17.05 Z0.6 F2700.0 E7047.416
G1 X47.24 Y18.85 Z0.6 F2700.0 E7050.201
G1 X50.97 Y17.38 Z0.6 F2700.0 E7055.214
G1 X51.41 Y18.15 Z0.6 F2700.0 E7056.318
G1 X48.28 Y20.64 Z0.6 F2700.0 E7061.327
G1 X49.18 Y22.68 Z0.6 F2700.0 E7064.112
G1 X53.13 Y22.02 Z0.6 F2700.0 E7069.123
G1 X53.41 Y22.86 Z0.6 F2700.0 E7070.228
G1 X49.82 Y24.65 Z0.6 F2700.0 E7075.236
G1 X50.28 Y26.83 Z0.6 F2700.0 E7078.021
G1 X54.29 Y27.0 Z0.6 F2700.0 E7083.034
G1 X54.38 Y27.88 Z0.6 F2700.0 E7084.139
G1 X50.5 Y28.89 Z0.6 F2700.0 E7089.149
G1 X50.5 Y31.11 Z0.6 F2700.0 E7091.934
G1 X54.38 Y32.12 Z0.6 F2700.0 E7096.947
G1 X54.29 Y33.0 Z0.6 F2700.0 E7098.052
G1 X50.29 Y33.17 Z0.6 F2700.0 E7103.063
G1 X49.82 Y35.35 Z0.6 F2700.0 E7105.847
G1 X53.41 Y37.14 Z0.6 F2700.0 E7110.858
G1 X53.13 Y37.98 Z0.6 F2700.0 E7111.963
G1 X49.18 Y37.32 Z0.6 F2700.0 E7116.971
G1 X48.63 Y38.56 Z0.6 F2700.0 E7118.669
;M103
G1 X45.13 Y37.23 Z0.6 F3600.0
;M101
G1 X44.99 Y36.85 Z0.6 F2700.0 E7119.173
G1 X36.93 Y34.21 Z0.6 F2700.0 E7129.783
G1 X35.53 Y35.9 Z0.6 F2700.0 E7132.518
G1 X33.9 Y37.08 Z0.6 F2700.0 E7135.044
G1 X31.87 Y37.89 Z0.6 F2700.0 E7137.779
G1 X31.89 Y46.37 Z0.6 F2700.0 E7148.389
G1 X32.2 Y46.62 Z0.6 F2700.0 E7148.893
G1 X34.85 Y46.08 Z0.6 F2700.0 E7152.28
G1 X37.47 Y45.05 Z0.6 F2700.0 E7155.798
G1 X39.88 Y43.59 Z0.6 F2700.0 E7159.318
G1 X42.0 Y41.75 Z0.6 F2700.0 E7162.837
G1 X43.8 Y39.58 Z0.6 F2700.0 E7166.357
G1 X45.13 Y37.23 Z0.6 F2700.0 E7169.743
;M103
G1 X46.15 Y33.27 Z0.6 F3600.0
;M101
G1 X46.49 Y33.05 Z0.6 F2700.0 E7170.247
G1 X46.8 Y30.36 Z0.6 F2700.0 E7173.635
G1 X46.62 Y27.55 Z0.6 F2700.0 E7177.153
G1 X45.98 Y24.81 Z0.6 F2700.0 E7180.672
G1 X44.89 Y22.22 Z0.6 F2700.0 E7184.191
G1 X43.38 Y19.84 Z0.6 F2700.0 E7187.711
G1 X41.55 Y17.84 Z0.6 F2700.0 E7191.098
G1 X41.15 Y17.86 Z0.6 F2700.0 E7191.601
G1 X36.15 Y24.71 Z0.6 F2700.0 E7202.212
G1 X37.32 Y26.56 Z0.6 F2700.0 E7204.949
G1 X37.94 Y28.48 Z0.6 F2700.0 E7207.474
G1 X38.08 Y30.67 Z0.6 F2700.0 E7210.21
G1 X46.15 Y33.27 Z0.6 F2700.0 E7220.819
;M103
G1 X34.29 Y30.63 Z0.6 F3600.0
;M101
G1 X34.34 Y30.4 Z0.6 F2700.0 E7221.119
G1 X34.3 Y29.29 Z0.6 F2700.0 E7222.51
G1 X33.98 Y28.22 Z0.6 F2700.0 E7223.899
G1 X33.4 Y27.27 Z0.6 F2700.0 E7225.289
G1 X32.6 Y26.5 Z0.6 F2700.0 E7226.679
G1 X31.63 Y25.96 Z0.6 F2700.0 E7228.069
G1 X30.56 Y25.68 Z0.6 F2700.0 E7229.459
G1 X29.44 Y25.68 Z0.6 F2700.0 E7230.85
G1 X28.37 Y25.96 Z0.6 F2700.0 E7232.239
G1 X27.4 Y26.5 Z0.6 F2700.0 E7233.629
G1 X26.6 Y27.27 Z0.6 F2700.0 E7235.019
G1 X26.02 Y28.22 Z0.6 F2700.0 E7236.41
G1 X25.7 Y29.29 Z0.6 F2700.0 E7237.798
G1 X25.66 Y30.4 Z0.6 F2700.0 E7239.189
G1 X25.9 Y31.48 Z0.6 F2700.0 E7240.579
G1 X26.41 Y32.47 Z0.6 F2700.0 E7241.97
G1 X27.15 Y33.3 Z0.6 F2700.0 E7243.36
G1 X28.08 Y33.91 Z0.6 F2700.0 E7244.751
G1 X28.96 Y34.21 Z0.6 F2700.0 E7245.92
G1 X28.96 Y35.63 Z0.6 F2700.0 E7247.698
G1 X31.04 Y35.63 Z0.6 F2700.0 E7250.296
G1 X31.04 Y34.21 Z0.6 F2700.0 E7252.073
G1 X31.92 Y33.91 Z0.6 F2700.0 E7253.241
G1 X32.85 Y33.3 Z0.6 F2700.0 E7254.632
G1 X33.59 Y32.47 Z0.6 F2700.0 E7256.022
G1 X34.1 Y31.48 Z0.6 F2700.0 E7257.413
G1 X34.29 Y30.63 Z0.6 F2700.0 E7258.503
;M103
G1 X33.13 Y22.52 Z0.6 F3600.0
;M101
G1 X38.1 Y15.65 Z0.6 F2700.0 E7269.113
G1 X37.99 Y15.26 Z0.6 F2700.0 E7269.616
G1 X35.53 Y14.14 Z0.6 F2700.0 E7273.005
G1 X32.8 Y13.44 Z0.6 F2700.0 E7276.524
G1 X30.0 Y13.2 Z0.6 F2700.0 E7280.042
G1 X27.2 Y13.44 Z0.6 F2700.0 E7283.561
G1 X24.47 Y14.14 Z0.6 F2700.0 E7287.08
G1 X22.01 Y15.26 Z0.6 F2700.0 E7290.468
G1 X21.9 Y15.65 Z0.6 F2700.0 E7290.972
G1 X26.87 Y22.52 Z0.6 F2700.0 E7301.581
G1 X28.99 Y21.98 Z0.6 F2700.0 E7304.317
G1 X31.01 Y21.98 Z0.6 F2700.0 E7306.844
G1 X33.13 Y22.52 Z0.6 F2700.0 E7309.579
;M103
G1 X23.86 Y24.71 Z0.6 F3600.0
;M101
G1 X18.85 Y17.86 Z0.6 F2700.0 E7320.19
G1 X18.45 Y17.84 Z0.6 F2700.0 E7320.693
G1 X16.62 Y19.84 Z0.6 F2700.0 E7324.08
G1 X15.11 Y22.22 Z0.6 F2700.0 E7327.6
G1 X14.02 Y24.81 Z0.6 F2700.0 E7331.119
G1 X13.38 Y27.55 Z0.6 F2700.0 E7334.638
G1 X13.21 Y30.36 Z0.6 F2700.0 E7338.156
G1 X13.51 Y33.05 Z0.6 F2700.0 E7341.544
