G21 (This is GCode, generated with Skeinforge version 35 from ReplicatorG)
G21 (Ultimaker profile - Quality print from alterations/start.gcode)
G21 (Metric: The unit is a millimeter)
M18 (Disable motors for now, to allow manual moving of the head)
G90 (Absolute positioning)
G92 X0 Y0 Z0 E0 (set origin to current position)
G21 (end of start.txt)
G90
G21
;M103
M105
M106
M113 S1.0
;M108 S7.506
M104 S245.0
G1 X-38.62 Y-36.56 Z0.53 F54.0
;M101
G1 X-38.62 Y36.56 Z0.53 F54.0 E609.854
G1 X38.62 Y36.56 Z0.53 F54.0 E1253.952
G1 X38.62 Y-36.56 Z0.53 F54.0 E1863.807
G1 X-38.62 Y-36.56 Z0.53 F54.0 E2507.905
;M103
G1 X-35.62 Y-2.37 Z0.53 F54.0
;M101
G1 X-35.62 Y-1.36 Z0.53 F54.0 E2516.37
;M103
G1 X-33.52 Y-11.22 Z0.53 F54.0
;M101
G1 X-33.52 Y11.68 Z0.53 F54.0 E2707.322
G1 X-31.43 Y15.87 Z0.53 F54.0 E2746.392
G1 X-31.43 Y-16.34 Z0.53 F54.0 E3014.998
G1 X-29.33 Y-19.13 Z0.53 F54.0 E3044.123
G1 X-29.33 Y19.13 Z0.53 F54.0 E3363.211
G1 X-27.24 Y21.92 Z0.53 F54.0 E3392.33
G1 X-27.24 Y-21.92 Z0.53 F54.0 E3758.005
G1 X-25.14 Y-24.25 Z0.53 F54.0 E3784.125
G1 X-25.14 Y24.25 Z0.53 F54.0 E4188.632
G1 X-23.05 Y26.11 Z0.53 F54.0 E4212.008
G1 X-23.05 Y-26.11 Z0.53 F54.0 E4647.573
G1 X-20.95 Y-27.51 Z0.53 F54.0 E4668.573
G1 X-20.95 Y27.51 Z0.53 F54.0 E5127.44
G1 X-18.86 Y28.91 Z0.53 F54.0 E5148.436
G1 X-18.86 Y-28.91 Z0.53 F54.0 E5630.588
G1 X-16.76 Y-30.3 Z0.53 F54.0 E5651.589
G1 X-16.76 Y29.84 Z0.53 F54.0 E6153.156
G1 X-14.67 Y31.23 Z0.53 F54.0 E6174.157
G1 X-14.67 Y-30.77 Z0.53 F54.0 E6691.262
G1 X-12.57 Y-31.7 Z0.53 F54.0 E6710.382
G1 X-12.57 Y31.7 Z0.53 F54.0 E7239.138
G1 X-10.48 Y32.17 Z0.53 F54.0 E7257.035
G1 X-10.48 Y-32.17 Z0.53 F54.0 E7793.548
G1 X-8.38 Y-32.63 Z0.53 F54.0 E7811.447
G1 X-8.38 Y32.63 Z0.53 F54.0 E8355.732
G1 X-6.29 Y33.1 Z0.53 F54.0 E8373.629
G1 X-6.29 Y-33.1 Z0.53 F54.0 E8925.671
G1 X-4.19 Y-33.1 Z0.53 F54.0 E8943.143
G1 X-4.19 Y33.1 Z0.53 F54.0 E9495.184
G1 X-2.1 Y33.56 Z0.53 F54.0 E9513.084
G1 X-2.1 Y-33.56 Z0.53 F54.0 E10072.898
G1 X0.0 Y-33.56 Z0.53 F54.0 E10090.37
G1 X0.0 Y33.56 Z0.53 F54.0 E10650.184
G1 X2.1 Y33.56 Z0.53 F54.0 E10667.657
G1 X2.1 Y-33.56 Z0.53 F54.0 E11227.471
G1 X4.19 Y-33.1 Z0.53 F54.0 E11245.37
G1 X4.19 Y33.1 Z0.53 F54.0 E11797.411
G1 X6.29 Y33.1 Z0.53 F54.0 E11814.884
G1 X6.29 Y-33.1 Z0.53 F54.0 E12366.925
G1 X8.38 Y-32.63 Z0.53 F54.0 E12384.822
G1 X8.38 Y32.63 Z0.53 F54.0 E12929.108
G1 X10.48 Y32.17 Z0.53 F54.0 E12947.007
G1 X10.48 Y-32.17 Z0.53 F54.0 E13483.519
G1 X12.57 Y-31.7 Z0.53 F54.0 E13501.417
G1 X12.57 Y31.7 Z0.53 F54.0 E14030.173
G1 X14.67 Y30.77 Z0.53 F54.0 E14049.292
G1 X14.67 Y-31.23 Z0.53 F54.0 E14566.397
G1 X16.76 Y-29.84 Z0.53 F54.0 E14587.398
G1 X16.76 Y30.3 Z0.53 F54.0 E15088.966
G1 X18.86 Y28.91 Z0.53 F54.0 E15109.966
G1 X18.86 Y-28.91 Z0.53 F54.0 E15592.118
G1 X20.95 Y-27.51 Z0.53 F54.0 E15613.114
G1 X20.95 Y27.51 Z0.53 F54.0 E16071.981
G1 X23.05 Y26.11 Z0.53 F54.0 E16092.982
G1 X23.05 Y-26.11 Z0.53 F54.0 E16528.547
G1 X25.14 Y-24.25 Z0.53 F54.0 E16551.923
G1 X25.14 Y24.25 Z0.53 F54.0 E16956.429
G1 X27.24 Y21.92 Z0.53 F54.0 E16982.549
G1 X27.24 Y-21.92 Z0.53 F54.0 E17348.225
G1 X29.33 Y-19.13 Z0.53 F54.0 E17377.343
G1 X29.33 Y19.13 Z0.53 F54.0 E17696.431
G1 X31.43 Y16.34 Z0.53 F54.0 E17725.556
G1 X31.43 Y-15.87 Z0.53 F54.0 E17994.163
G1 X33.52 Y-11.68 Z0.53 F54.0 E18033.232
G1 X33.52 Y11.22 Z0.53 F54.0 E18224.185
;M103
G1 X35.62 Y2.37 Z0.53 F54.0
;M101
G1 X35.62 Y1.36 Z0.53 F54.0 E18232.65
;M103
G1 X-33.54 Y0.0 Z0.89 F360.0
;M101
G1 X33.54 Y0.0 Z0.89 F360.0 E18316.569
G1 X33.54 Y0.47 Z0.89 F360.0 E18317.152
G1 X-33.54 Y0.47 Z0.89 F360.0 E18401.072
G1 X-33.54 Y0.93 Z0.89 F360.0 E18401.654
G1 X33.54 Y0.93 Z0.89 F360.0 E18485.573
;M103
G1 X-33.54 Y-2.79 Z0.89 F360.0
;M101
G1 X33.54 Y-2.79 Z0.89 F360.0 E18569.493
G1 X33.54 Y-3.26 Z0.89 F360.0 E18570.076
G1 X-33.54 Y-3.26 Z0.89 F360.0 E18653.995
G1 X-33.54 Y-3.72 Z0.89 F360.0 E18654.577
G1 X33.54 Y-3.72 Z0.89 F360.0 E18738.497
G1 X33.54 Y-4.19 Z0.89 F360.0 E18739.08
G1 X-33.54 Y-4.19 Z0.89 F360.0 E18822.999
G1 X-33.54 Y-4.66 Z0.89 F360.0 E18823.582
G1 X33.54 Y-4.66 Z0.89 F360.0 E18907.502
G1 X33.54 Y-5.12 Z0.89 F360.0 E18908.083
G1 X-33.54 Y-5.12 Z0.89 F360.0 E18992.003
G1 X-33.54 Y-5.59 Z0.89 F360.0 E18992.586
G1 X33.54 Y-5.59 Z0.89 F360.0 E19076.505
G1 X33.54 Y-6.05 Z0.89 F360.0 E19077.087
G1 X-33.54 Y-6.05 Z0.89 F360.0 E19161.007
G1 X-33.54 Y-6.52 Z0.89 F360.0 E19161.59
G1 X33.54 Y-6.52 Z0.89 F360.0 E19245.509
G1 X33.54 Y-6.98 Z0.89 F360.0 E19246.091
G1 X-33.54 Y-6.98 Z0.89 F360.0 E19330.011
G1 X-33.54 Y-7.45 Z0.89 F360.0 E19330.594
G1 X33.54 Y-7.45 Z0.89 F360.0 E19414.513
G1 X33.54 Y-7.91 Z0.89 F360.0 E19415.095
G1 X-33.54 Y-7.91 Z0.89 F360.0 E19499.014
G1 X-33.54 Y-8.38 Z0.89 F360.0 E19499.597
G1 X33.54 Y-8.38 Z0.89 F360.0 E19583.517
G1 X33.54 Y-8.85 Z0.89 F360.0 E19584.1
G1 X-33.54 Y-8.85 Z0.89 F360.0 E19668.02
G1 X-33.54 Y-9.31 Z0.89 F360.0 E19668.601
G1 X33.54 Y-9.31 Z0.89 F360.0 E19752.521
G1 X33.54 Y-9.78 Z0.89 F360.0 E19753.104
G1 X-33.54 Y-9.78 Z0.89 F360.0 E19837.023
G1 X-33.54 Y-10.24 Z0.89 F360.0 E19837.605
G1 X33.54 Y-10.24 Z0.89 F360.0 E19921.525
G1 X33.54 Y-10.71 Z0.89 F360.0 E19922.108
G1 X-33.54 Y-10.71 Z0.89 F360.0 E20006.027
G1 X-33.54 Y-11.17 Z0.89 F360.0 E20006.609
G1 X33.54 Y-11.17 Z0.89 F360.0 E20090.529
G1 X33.54 Y-11.64 Z0.89 F360.0 E20091.112
G1 X-31.45 Y-11.64 Z0.89 F360.0 E20172.41
G1 X-31.45 Y-12.1 Z0.89 F360.0 E20172.992
G1 X31.45 Y-12.1 Z0.89 F360.0 E20251.67
G1 X31.45 Y-12.57 Z0.89 F360.0 E20252.253
G1 X-31.45 Y-12.57 Z0.89 F360.0 E20330.931
G1 X-31.45 Y-13.04 Z0.89 F360.0 E20331.514
G1 X31.45 Y-13.04 Z0.89 F360.0 E20410.192
G1 X31.45 Y-13.5 Z0.89 F360.0 E20410.773
G1 X-31.45 Y-13.5 Z0.89 F360.0 E20489.451
G1 X-31.45 Y-13.97 Z0.89 F360.0 E20490.034
G1 X31.45 Y-13.97 Z0.89 F360.0 E20568.712
G1 X31.45 Y-14.43 Z0.89 F360.0 E20569.294
G1 X-31.45 Y-14.43 Z0.89 F360.0 E20647.972
G1 X-31.45 Y-14.9 Z0.89 F360.0 E20648.555
G1 X31.45 Y-14.9 Z0.89 F360.0 E20727.233
G1 X31.45 Y-15.36 Z0.89 F360.0 E20727.814
G1 X-31.45 Y-15.36 Z0.89 F360.0 E20806.492
G1 X-31.45 Y-15.83 Z0.89 F360.0 E20807.075
G1 X31.45 Y-15.83 Z0.89 F360.0 E20885.753
G1 X29.35 Y-17.23 Z0.89 F360.0 E20888.903
G1 X-29.35 Y-17.23 Z0.89 F360.0 E20962.339
G1 X-29.35 Y-16.76 Z0.89 F360.0 E20962.922
G1 X29.35 Y-16.76 Z0.89 F360.0 E21036.358
G1 X29.35 Y-16.29 Z0.89 F360.0 E21036.941
G1 X-31.45 Y-16.29 Z0.89 F360.0 E21112.998
G1 X-29.35 Y-17.69 Z0.89 F360.0 E21116.149
G1 X29.35 Y-17.69 Z0.89 F360.0 E21189.585
G1 X29.35 Y-18.16 Z0.89 F360.0 E21190.168
G1 X-29.35 Y-18.16 Z0.89 F360.0 E21263.604
G1 X-29.35 Y-18.62 Z0.89 F360.0 E21264.186
G1 X29.35 Y-18.62 Z0.89 F360.0 E21337.622
G1 X29.35 Y-19.09 Z0.89 F360.0 E21338.205
G1 X-29.35 Y-19.09 Z0.89 F360.0 E21411.641
;M103
G1 X-27.26 Y-19.55 Z0.89 F360.0
;M101
G1 X27.26 Y-19.55 Z0.89 F360.0 E21479.836
G1 X27.26 Y-20.02 Z0.89 F360.0 E21480.418
G1 X-27.26 Y-20.02 Z0.89 F360.0 E21548.613
G1 X-27.26 Y-20.48 Z0.89 F360.0 E21549.195
G1 X27.26 Y-20.48 Z0.89 F360.0 E21617.389
G1 X27.26 Y-20.95 Z0.89 F360.0 E21617.972
G1 X-27.26 Y-20.95 Z0.89 F360.0 E21686.167
G1 X-27.26 Y-21.42 Z0.89 F360.0 E21686.75
G1 X27.26 Y-21.42 Z0.89 F360.0 E21754.944
G1 X27.26 Y-21.88 Z0.89 F360.0 E21755.526
G1 X-27.26 Y-21.88 Z0.89 F360.0 E21823.72
G1 X-25.16 Y-23.28 Z0.89 F360.0 E21826.871
G1 X25.16 Y-23.28 Z0.89 F360.0 E21889.823
G1 X25.16 Y-23.74 Z0.89 F360.0 E21890.405
G1 X-25.16 Y-23.74 Z0.89 F360.0 E21953.358
G1 X-25.16 Y-24.21 Z0.89 F360.0 E21953.941
G1 X25.16 Y-24.21 Z0.89 F360.0 E22016.894
;M103
G1 X25.16 Y-22.81 Z0.89 F360.0
;M101
G1 X-25.16 Y-22.81 Z0.89 F360.0 E22079.846
G1 X-25.16 Y-22.35 Z0.89 F360.0 E22080.428
G1 X25.16 Y-22.35 Z0.89 F360.0 E22143.381
;M103
G1 X23.07 Y-24.67 Z0.89 F360.0
;M101
G1 X-23.07 Y-24.67 Z0.89 F360.0 E22201.092
G1 X-23.07 Y-25.14 Z0.89 F360.0 E22201.675
G1 X23.07 Y-25.14 Z0.89 F360.0 E22259.386
G1 X23.07 Y-25.61 Z0.89 F360.0 E22259.969
G1 X-23.07 Y-25.61 Z0.89 F360.0 E22317.68
G1 X-23.07 Y-26.07 Z0.89 F360.0 E22318.262
G1 X23.07 Y-26.07 Z0.89 F360.0 E22375.973
G1 X20.97 Y-27.47 Z0.89 F360.0 E22379.123
G1 X-20.97 Y-27.47 Z0.89 F360.0 E22431.593
G1 X-20.97 Y-27.0 Z0.89 F360.0 E22432.176
G1 X20.97 Y-27.0 Z0.89 F360.0 E22484.645
G1 X20.97 Y-26.54 Z0.89 F360.0 E22485.227
G1 X-20.97 Y-26.54 Z0.89 F360.0 E22537.696
;M103
G1 X-18.88 Y-27.93 Z0.89 F360.0
;M101
G1 X18.88 Y-27.93 Z0.89 F360.0 E22584.924
G1 X18.88 Y-28.4 Z0.89 F360.0 E22585.507
G1 X-18.88 Y-28.4 Z0.89 F360.0 E22632.735
G1 X-18.88 Y-28.86 Z0.89 F360.0 E22633.316
G1 X18.88 Y-28.86 Z0.89 F360.0 E22680.544
;M103
G1 X16.78 Y-29.33 Z0.89 F360.0
;M101
G1 X-16.78 Y-29.33 Z0.89 F360.0 E22722.53
G1 X-16.78 Y-29.8 Z0.89 F360.0 E22723.113
G1 X16.78 Y-29.8 Z0.89 F360.0 E22765.099
G1 X14.69 Y-31.19 Z0.89 F360.0 E22768.249
G1 X-12.59 Y-31.19 Z0.89 F360.0 E22802.372
G1 X-12.59 Y-31.66 Z0.89 F360.0 E22802.955
G1 X12.59 Y-31.66 Z0.89 F360.0 E22834.458
;M103
G1 X10.5 Y-32.12 Z0.89 F360.0
;M101
G1 X-10.5 Y-32.12 Z0.89 F360.0 E22860.719
;M103
G1 X-8.4 Y-32.59 Z0.89 F360.0
;M101
G1 X8.4 Y-32.59 Z0.89 F360.0 E22881.738
;M103
G1 X6.31 Y-33.05 Z0.89 F360.0
;M101
G1 X-6.31 Y-33.05 Z0.89 F360.0 E22897.516
;M103
G1 X-2.12 Y-33.52 Z0.89 F360.0
;M101
G1 X2.12 Y-33.52 Z0.89 F360.0 E22902.81
;M103
G1 X-16.78 Y-30.26 Z0.89 F360.0
;M101
G1 X-14.69 Y-30.73 Z0.89 F360.0 E22905.495
G1 X14.69 Y-30.73 Z0.89 F360.0 E22942.239
G1 X14.69 Y-30.26 Z0.89 F360.0 E22942.822
G1 X-15.4 Y-30.26 Z0.89 F360.0 E22980.457
;M103
G1 X-35.64 Y-2.33 Z0.89 F360.0
;M101
G1 X33.54 Y-2.33 Z0.89 F360.0 E23066.998
G1 X33.54 Y-1.86 Z0.89 F360.0 E23067.581
G1 X-35.64 Y-1.86 Z0.89 F360.0 E23154.121
G1 X-35.64 Y-1.4 Z0.89 F360.0 E23154.703
G1 X33.54 Y-1.4 Z0.89 F360.0 E23241.243
G1 X33.54 Y-0.93 Z0.89 F360.0 E23241.826
G1 X-33.54 Y-0.93 Z0.89 F360.0 E23325.746
G1 X-33.54 Y-0.47 Z0.89 F360.0 E23326.328
G1 X33.54 Y-0.47 Z0.89 F360.0 E23410.247
G1 X35.64 Y1.4 Z0.89 F360.0 E23413.754
G1 X-33.54 Y1.4 Z0.89 F360.0 E23500.295
G1 X-33.54 Y1.86 Z0.89 F360.0 E23500.877
G1 X35.64 Y1.86 Z0.89 F360.0 E23587.417
G1 X35.64 Y2.33 Z0.89 F360.0 E23588.0
G1 X-33.54 Y2.33 Z0.89 F360.0 E23674.54
G1 X-33.54 Y2.79 Z0.89 F360.0 E23675.122
G1 X33.54 Y2.79 Z0.89 F360.0 E23759.042
G1 X33.54 Y3.26 Z0.89 F360.0 E23759.625
G1 X-33.54 Y3.26 Z0.89 F360.0 E23843.544
G1 X-33.54 Y3.72 Z0.89 F360.0 E23844.126
G1 X33.54 Y3.72 Z0.89 F360.0 E23928.045
G1 X33.54 Y4.19 Z0.89 F360.0 E23928.628
G1 X-33.54 Y4.19 Z0.89 F360.0 E24012.548
G1 X-33.54 Y4.66 Z0.89 F360.0 E24013.131
G1 X33.54 Y4.66 Z0.89 F360.0 E24097.051
G1 X33.54 Y5.12 Z0.89 F360.0 E24097.632
G1 X-33.54 Y5.12 Z0.89 F360.0 E24181.552
G1 X-33.54 Y5.59 Z0.89 F360.0 E24182.135
G1 X33.54 Y5.59 Z0.89 F360.0 E24266.054
G1 X33.54 Y6.05 Z0.89 F360.0 E24266.636
G1 X-33.54 Y6.05 Z0.89 F360.0 E24350.556
G1 X-33.54 Y6.52 Z0.89 F360.0 E24351.139
G1 X33.54 Y6.52 Z0.89 F360.0 E24435.058
G1 X33.54 Y6.98 Z0.89 F360.0 E24435.64
G1 X-33.54 Y6.98 Z0.89 F360.0 E24519.56
G1 X-33.54 Y7.45 Z0.89 F360.0 E24520.143
G1 X33.54 Y7.45 Z0.89 F360.0 E24604.062
G1 X33.54 Y7.91 Z0.89 F360.0 E24604.644
G1 X-33.54 Y7.91 Z0.89 F360.0 E24688.563
G1 X-33.54 Y8.38 Z0.89 F360.0 E24689.146
G1 X33.54 Y8.38 Z0.89 F360.0 E24773.066
G1 X33.54 Y8.85 Z0.89 F360.0 E24773.649
G1 X-33.54 Y8.85 Z0.89 F360.0 E24857.569
G1 X-33.54 Y9.31 Z0.89 F360.0 E24858.15
G1 X33.54 Y9.31 Z0.89 F360.0 E24942.07
G1 X33.54 Y9.78 Z0.89 F360.0 E24942.653
G1 X-33.54 Y9.78 Z0.89 F360.0 E25026.572
G1 X-33.54 Y10.24 Z0.89 F360.0 E25027.154
G1 X33.54 Y10.24 Z0.89 F360.0 E25111.074
G1 X33.54 Y10.71 Z0.89 F360.0 E25111.657
G1 X-33.54 Y10.71 Z0.89 F360.0 E25195.576
G1 X-33.54 Y11.17 Z0.89 F360.0 E25196.158
G1 X33.54 Y11.17 Z0.89 F360.0 E25280.077
G1 X31.45 Y12.57 Z0.89 F360.0 E25283.228
G1 X-31.45 Y12.57 Z0.89 F360.0 E25361.905
G1 X-31.45 Y12.1 Z0.89 F360.0 E25362.488
G1 X31.45 Y12.1 Z0.89 F360.0 E25441.166
G1 X31.45 Y11.64 Z0.89 F360.0 E25441.748
G1 X-33.54 Y11.64 Z0.89 F360.0 E25523.047
G1 X-31.45 Y13.04 Z0.89 F360.0 E25526.197
G1 X31.45 Y13.04 Z0.89 F360.0 E25604.875
G1 X31.45 Y13.5 Z0.89 F360.0 E25605.456
G1 X-31.45 Y13.5 Z0.89 F360.0 E25684.134
G1 X-31.45 Y13.97 Z0.89 F360.0 E25684.717
G1 X31.45 Y13.97 Z0.89 F360.0 E25763.395
G1 X31.45 Y14.43 Z0.89 F360.0 E25763.977
G1 X-31.45 Y14.43 Z0.89 F360.0 E25842.655
G1 X-31.45 Y14.9 Z0.89 F360.0 E25843.238
G1 X31.45 Y14.9 Z0.89 F360.0 E25921.916
G1 X31.45 Y15.36 Z0.89 F360.0 E25922.497
G1 X-31.45 Y15.36 Z0.89 F360.0 E26001.175
G1 X-31.45 Y15.83 Z0.89 F360.0 E26001.758
G1 X31.45 Y15.83 Z0.89 F360.0 E26080.436
G1 X31.45 Y16.29 Z0.89 F360.0 E26081.018
G1 X-29.35 Y16.29 Z0.89 F360.0 E26157.075
G1 X-29.35 Y16.76 Z0.89 F360.0 E26157.658
G1 X29.35 Y16.76 Z0.89 F360.0 E26231.094
G1 X29.35 Y17.23 Z0.89 F360.0 E26231.677
G1 X-29.35 Y17.23 Z0.89 F360.0 E26305.113
G1 X-29.35 Y17.69 Z0.89 F360.0 E26305.695
G1 X29.35 Y17.69 Z0.89 F360.0 E26379.131
G1 X29.35 Y18.16 Z0.89 F360.0 E26379.714
G1 X-29.35 Y18.16 Z0.89 F360.0 E26453.15
G1 X-29.35 Y18.62 Z0.89 F360.0 E26453.732
G1 X29.35 Y18.62 Z0.89 F360.0 E26527.168
G1 X29.35 Y19.09 Z0.89 F360.0 E26527.751
G1 X-29.35 Y19.09 Z0.89 F360.0 E26601.187
;M103
G1 X-27.26 Y19.55 Z0.89 F360.0
;M101
G1 X27.26 Y19.55 Z0.89 F360.0 E26669.382
G1 X27.26 Y20.02 Z0.89 F360.0 E26669.965
G1 X-27.26 Y20.02 Z0.89 F360.0 E26738.159
G1 X-27.26 Y20.48 Z0.89 F360.0 E26738.741
G1 X27.26 Y20.48 Z0.89 F360.0 E26806.936
G1 X27.26 Y20.95 Z0.89 F360.0 E26807.519
G1 X-27.26 Y20.95 Z0.89 F360.0 E26875.713
G1 X-27.26 Y21.42 Z0.89 F360.0 E26876.296
G1 X27.26 Y21.42 Z0.89 F360.0 E26944.491
G1 X27.26 Y21.88 Z0.89 F360.0 E26945.072
G1 X-27.26 Y21.88 Z0.89 F360.0 E27013.267
G1 X-25.16 Y23.28 Z0.89 F360.0 E27016.417
G1 X25.16 Y23.28 Z0.89 F360.0 E27079.37
G1 X25.16 Y22.81 Z0.89 F360.0 E27079.953
G1 X-25.16 Y22.81 Z0.89 F360.0 E27142.906
G1 X-25.16 Y22.35 Z0.89 F360.0 E27143.487
G1 X25.16 Y22.35 Z0.89 F360.0 E27206.44
;M103
G1 X25.16 Y23.74 Z0.89 F360.0
;M101
G1 X-25.16 Y23.74 Z0.89 F360.0 E27269.393
G1 X-25.16 Y24.21 Z0.89 F360.0 E27269.976
G1 X25.16 Y24.21 Z0.89 F360.0 E27332.929
;M103
G1 X23.07 Y24.67 Z0.89 F360.0
;M101
G1 X-23.07 Y24.67 Z0.89 F360.0 E27390.64
G1 X-23.07 Y25.14 Z0.89 F360.0 E27391.223
G1 X23.07 Y25.14 Z0.89 F360.0 E27448.934
G1 X23.07 Y25.61 Z0.89 F360.0 E27449.517
G1 X-23.07 Y25.61 Z0.89 F360.0 E27507.228
G1 X-23.07 Y26.07 Z0.89 F360.0 E27507.81
G1 X23.07 Y26.07 Z0.89 F360.0 E27565.521
G1 X20.97 Y27.47 Z0.89 F360.0 E27568.671
G1 X-20.97 Y27.47 Z0.89 F360.0 E27621.14
G1 X-20.97 Y27.0 Z0.89 F360.0 E27621.723
G1 X20.97 Y27.0 Z0.89 F360.0 E27674.193
G1 X20.97 Y26.54 Z0.89 F360.0 E27674.775
G1 X-20.97 Y26.54 Z0.89 F360.0 E27727.244
;M103
G1 X-18.88 Y27.93 Z0.89 F360.0
;M101
G1 X18.88 Y27.93 Z0.89 F360.0 E27774.472
G1 X18.88 Y28.4 Z0.89 F360.0 E27775.055
G1 X-18.88 Y28.4 Z0.89 F360.0 E27822.282
G1 X-18.88 Y28.86 Z0.89 F360.0 E27822.864
G1 X18.88 Y28.86 Z0.89 F360.0 E27870.092
;M103
G1 X16.78 Y29.33 Z0.89 F360.0
;M101
G1 X-16.78 Y29.33 Z0.89 F360.0 E27912.078
G1 X-16.78 Y29.8 Z0.89 F360.0 E27912.661
G1 X16.78 Y29.8 Z0.89 F360.0 E27954.647
G1 X16.78 Y30.26 Z0.89 F360.0 E27955.229
G1 X-14.69 Y30.26 Z0.89 F360.0 E27994.594
G1 X-14.69 Y30.73 Z0.89 F360.0 E27995.177
G1 X14.69 Y30.73 Z0.89 F360.0 E28031.921
;M103
G1 X-14.69 Y31.19 Z0.89 F360.0
;M101
G1 X12.59 Y31.19 Z0.89 F360.0 E28066.045
G1 X12.59 Y31.66 Z0.89 F360.0 E28066.628
G1 X-12.59 Y31.66 Z0.89 F360.0 E28098.13
;M103
G1 X10.5 Y32.12 Z0.89 F360.0
;M101
G1 X-10.5 Y32.12 Z0.89 F360.0 E28124.391
;M103
G1 X-8.4 Y32.59 Z0.89 F360.0
;M101
G1 X8.4 Y32.59 Z0.89 F360.0 E28145.411
;M103
G1 X6.31 Y33.05 Z0.89 F360.0
;M101
G1 X-6.31 Y33.05 Z0.89 F360.0 E28161.188
;M103
G1 X-2.12 Y33.52 Z0.89 F360.0
;M101
G1 X2.12 Y33.52 Z0.89 F360.0 E28166.483
;M103
;M108 S7.881
G1 X-1.58 Y-5.73 Z1.2 F2880.0
;M101
G1 X-4.04 Y-8.19 Z1.2 F288.0 E28172.197
G1 X-3.57 Y-8.31 Z1.2 F288.0 E28172.997
G1 X-1.11 Y-5.85 Z1.2 F288.0 E28178.708
G1 X-0.61 Y-5.94 Z1.2 F288.0 E28179.544
G1 X-3.1 Y-8.43 Z1.2 F288.0 E28185.323
G1 X-2.63 Y-8.55 Z1.2 F288.0 E28186.123
G1 X-0.02 Y-5.94 Z1.2 F288.0 E28192.182
G1 X0.57 Y-5.94 Z1.2 F288.0 E28193.156
G1 X-2.16 Y-8.67 Z1.2 F288.0 E28199.495
G1 X-1.69 Y-8.79 Z1.2 F288.0 E28200.293
G1 X1.31 Y-5.8 Z1.2 F288.0 E28207.242
G1 X2.11 Y-5.59 Z1.2 F288.0 E28208.603
G1 X-1.21 Y-8.91 Z1.2 F288.0 E28216.319
;M103
G1 X-3.75 Y-9.07 Z1.2 F3600.0
G1 X-14.92 Y-19.66 Z1.2 F2880.0
;M101
G1 X-5.73 Y-10.47 Z1.2 F288.0 E28237.674
G1 X-4.17 Y-8.32 Z1.2 F288.0 E28242.029
;M103
G1 X-6.05 Y-10.19 Z1.2 F2880.0
;M101
G1 X-14.8 Y-18.95 Z1.2 F288.0 E28262.357
G1 X-15.11 Y-18.67 Z1.2 F288.0 E28263.044
G1 X-2.05 Y-5.61 Z1.2 F288.0 E28293.367
G1 X-2.47 Y-5.43 Z1.2 F288.0 E28294.109
G1 X-15.42 Y-18.39 Z1.2 F288.0 E28324.19
G1 X-15.74 Y-18.11 Z1.2 F288.0 E28324.879
G1 X-2.85 Y-5.22 Z1.2 F288.0 E28354.804
;M103
G1 X-6.71 Y-6.11 Z1.2 F2880.0
;M101
G1 X-4.51 Y-3.91 Z1.2 F288.0 E28359.915
G1 X-4.77 Y-3.59 Z1.2 F288.0 E28360.606
G1 X-6.94 Y-5.75 Z1.2 F288.0 E28365.628
G1 X-7.17 Y-5.39 Z1.2 F288.0 E28366.334
G1 X-5.0 Y-3.22 Z1.2 F288.0 E28371.368
G1 X-5.22 Y-2.85 Z1.2 F288.0 E28372.075
G1 X-7.4 Y-5.03 Z1.2 F288.0 E28377.122
G1 X-7.63 Y-4.66 Z1.2 F288.0 E28377.825
G1 X-5.45 Y-2.49 Z1.2 F288.0 E28382.884
G1 X-5.59 Y-2.04 Z1.2 F288.0 E28383.654
G1 X-7.86 Y-4.3 Z1.2 F288.0 E28388.906
G1 X-8.09 Y-3.94 Z1.2 F288.0 E28389.612
G1 X-5.73 Y-1.58 Z1.2 F288.0 E28395.079
G1 X-5.87 Y-1.13 Z1.2 F288.0 E28395.861
G1 X-8.26 Y-3.52 Z1.2 F288.0 E28401.406
G1 X-8.4 Y-3.07 Z1.2 F288.0 E28402.177
G1 X-5.93 Y-0.59 Z1.2 F288.0 E28407.924
G1 X-5.95 Y-0.02 Z1.2 F288.0 E28408.862
G1 X-8.55 Y-2.62 Z1.2 F288.0 E28414.895
G1 X-8.69 Y-2.17 Z1.2 F288.0 E28415.667
G1 X-5.97 Y0.55 Z1.2 F288.0 E28421.992
G1 X-5.8 Y1.31 Z1.2 F288.0 E28423.274
G1 X-8.84 Y-1.73 Z1.2 F288.0 E28430.33
G1 X-8.88 Y-1.18 Z1.2 F288.0 E28431.233
G1 X-5.61 Y2.1 Z1.2 F288.0 E28438.837
G1 X-4.98 Y3.31 Z1.2 F288.0 E28441.083
;M103
G1 X-5.95 Y2.35 Z1.2 F2880.0
;M101
G1 X-8.92 Y-0.62 Z1.2 F288.0 E28447.976
G1 X-8.95 Y-0.07 Z1.2 F288.0 E28448.892
G1 X-1.98 Y6.9 Z1.2 F288.0 E28465.068
G1 X-1.98 Y7.49 Z1.2 F288.0 E28466.042
G1 X-8.99 Y0.49 Z1.2 F288.0 E28482.303
;M103
G1 X-9.7 Y1.56 Z1.2 F2880.0
;M101
G1 X-2.72 Y8.54 Z1.2 F288.0 E28498.507
;M103
G1 X-3.7 Y8.15 Z1.2 F2880.0
;M101
G1 X-10.15 Y1.7 Z1.2 F288.0 E28513.469
G1 X-10.59 Y1.85 Z1.2 F288.0 E28514.241
G1 X-8.19 Y4.25 Z1.2 F288.0 E28519.827
G1 X-8.63 Y4.4 Z1.2 F288.0 E28520.6
G1 X-11.04 Y1.99 Z1.2 F288.0 E28526.19
G1 X-11.49 Y2.14 Z1.2 F288.0 E28526.963
G1 X-9.08 Y4.55 Z1.2 F288.0 E28532.556
G1 X-9.53 Y4.69 Z1.2 F288.0 E28533.328
G1 X-11.94 Y2.28 Z1.2 F288.0 E28538.923
G1 X-12.38 Y2.43 Z1.2 F288.0 E28539.696
G1 X-9.97 Y4.84 Z1.2 F288.0 E28545.293
G1 X-10.42 Y4.98 Z1.2 F288.0 E28546.066
G1 X-12.83 Y2.57 Z1.2 F288.0 E28551.666
G1 X-13.28 Y2.72 Z1.2 F288.0 E28552.438
G1 X-10.87 Y5.13 Z1.2 F288.0 E28558.041
G1 X-11.31 Y5.27 Z1.2 F288.0 E28558.813
G1 X-13.73 Y2.86 Z1.2 F288.0 E28564.418
G1 X-14.18 Y3.01 Z1.2 F288.0 E28565.191
G1 X-11.76 Y5.42 Z1.2 F288.0 E28570.8
G1 X-12.21 Y5.57 Z1.2 F288.0 E28571.572
G1 X-14.62 Y3.15 Z1.2 F288.0 E28577.183
G1 X-15.07 Y3.29 Z1.2 F288.0 E28577.956
G1 X-12.65 Y5.71 Z1.2 F288.0 E28583.568
G1 X-13.1 Y5.86 Z1.2 F288.0 E28584.339
G1 X-15.52 Y3.44 Z1.2 F288.0 E28589.954
G1 X-15.97 Y3.58 Z1.2 F288.0 E28590.725
G1 X-13.55 Y6.0 Z1.2 F288.0 E28596.343
G1 X-13.99 Y6.15 Z1.2 F288.0 E28597.114
G1 X-16.41 Y3.73 Z1.2 F288.0 E28602.735
G1 X-16.86 Y3.87 Z1.2 F288.0 E28603.508
G1 X-14.44 Y6.3 Z1.2 F288.0 E28609.132
G1 X-14.89 Y6.44 Z1.2 F288.0 E28609.903
G1 X-17.31 Y4.02 Z1.2 F288.0 E28615.529
G1 X-17.76 Y4.16 Z1.2 F288.0 E28616.301
G1 X-15.33 Y6.59 Z1.2 F288.0 E28621.93
G1 X-15.78 Y6.73 Z1.2 F288.0 E28622.7
G1 X-18.2 Y4.31 Z1.2 F288.0 E28628.331
G1 X-18.65 Y4.45 Z1.2 F288.0 E28629.104
G1 X-16.23 Y6.88 Z1.2 F288.0 E28634.737
G1 X-16.67 Y7.02 Z1.2 F288.0 E28635.508
G1 X-19.1 Y4.6 Z1.2 F288.0 E28641.144
G1 X-19.55 Y4.74 Z1.2 F288.0 E28641.916
G1 X-17.12 Y7.17 Z1.2 F288.0 E28647.554
;M103
G1 X-18.09 Y8.27 Z1.2 F3600.0
G1 X-18.25 Y8.69 Z1.2 F3600.0
G1 X-18.27 Y10.16 Z1.2 F2880.0
;M101
G1 X-23.46 Y4.97 Z1.2 F288.0 E28659.607
G1 X-23.62 Y4.22 Z1.2 F288.0 E28660.871
G1 X-19.06 Y8.78 Z1.2 F288.0 E28671.468
G1 X-18.92 Y8.33 Z1.2 F288.0 E28672.241
G1 X-23.78 Y3.47 Z1.2 F288.0 E28683.547
G1 X-24.59 Y2.07 Z1.2 F288.0 E28686.199
;M103
G1 X-24.14 Y3.11 Z1.2 F2880.0
;M101
G1 X-25.06 Y2.19 Z1.2 F288.0 E28688.335
G1 X-25.53 Y2.31 Z1.2 F288.0 E28689.132
G1 X-24.76 Y3.08 Z1.2 F288.0 E28690.922
G1 X-25.38 Y3.05 Z1.2 F288.0 E28691.94
G1 X-26.0 Y2.43 Z1.2 F288.0 E28693.385
G1 X-26.47 Y2.55 Z1.2 F288.0 E28694.182
G1 X-26.0 Y3.03 Z1.2 F288.0 E28695.282
G1 X-26.62 Y3.0 Z1.2 F288.0 E28696.301
G1 X-26.94 Y2.68 Z1.2 F288.0 E28697.055
G1 X-27.24 Y2.97 Z1.2 F288.0 E28697.743
G1 X-27.41 Y2.8 Z1.2 F288.0 E28698.151
G1 X-27.86 Y2.95 Z1.2 F288.0 E28698.919
G1 X-27.88 Y2.92 Z1.2 F288.0 E28698.981
;M103
G1 X-23.45 Y3.21 Z1.2 F2880.0
;M101
G1 X-18.75 Y7.91 Z1.2 F288.0 E28709.892
G1 X-18.46 Y7.61 Z1.2 F288.0 E28710.58
G1 X-24.12 Y1.94 Z1.2 F288.0 E28723.729
G1 X-23.99 Y1.49 Z1.2 F288.0 E28724.51
G1 X-18.01 Y7.46 Z1.2 F288.0 E28738.38
G1 X-17.57 Y7.32 Z1.2 F288.0 E28739.15
G1 X-23.99 Y0.9 Z1.2 F288.0 E28754.057
G1 X-23.99 Y0.3 Z1.2 F288.0 E28755.031
G1 X-20.63 Y3.66 Z1.2 F288.0 E28762.821
G1 X-20.7 Y2.99 Z1.2 F288.0 E28763.921
G1 X-23.99 Y-0.29 Z1.2 F288.0 E28771.541
G1 X-23.99 Y-0.88 Z1.2 F288.0 E28772.514
G1 X-20.78 Y2.33 Z1.2 F288.0 E28779.963
G1 X-20.85 Y1.66 Z1.2 F288.0 E28781.062
G1 X-23.99 Y-1.47 Z1.2 F288.0 E28788.341
;M103
G1 X-24.57 Y-2.06 Z1.2 F2880.0
;M101
G1 X-25.56 Y-3.05 Z1.2 F288.0 E28790.628
G1 X-26.12 Y-3.02 Z1.2 F288.0 E28791.56
G1 X-25.37 Y-2.27 Z1.2 F288.0 E28793.309
G1 X-26.17 Y-2.47 Z1.2 F288.0 E28794.662
G1 X-26.69 Y-3.0 Z1.2 F288.0 E28795.874
G1 X-26.97 Y-2.68 Z1.2 F288.0 E28796.564
G1 X-27.26 Y-2.97 Z1.2 F288.0 E28797.239
G1 X-27.77 Y-2.89 Z1.2 F288.0 E28798.083
G1 X-27.83 Y-2.95 Z1.2 F288.0 E28798.223
;M103
G1 X-24.99 Y-3.07 Z1.2 F2880.0
;M101
G1 X-20.92 Y1.0 Z1.2 F288.0 E28807.662
G1 X-20.98 Y0.35 Z1.2 F288.0 E28808.728
G1 X-24.42 Y-3.1 Z1.2 F288.0 E28816.722
G1 X-23.86 Y-3.12 Z1.2 F288.0 E28817.649
G1 X-20.94 Y-0.21 Z1.2 F288.0 E28824.417
G1 X-20.91 Y-0.77 Z1.2 F288.0 E28825.335
G1 X-23.75 Y-3.61 Z1.2 F288.0 E28831.941
G1 X-23.65 Y-4.1 Z1.2 F288.0 E28832.76
G1 X-20.87 Y-1.32 Z1.2 F288.0 E28839.206
G1 X-20.84 Y-1.88 Z1.2 F288.0 E28840.122
G1 X-23.55 Y-4.59 Z1.2 F288.0 E28846.409
G1 X-23.44 Y-5.08 Z1.2 F288.0 E28847.228
G1 X-20.8 Y-2.44 Z1.2 F288.0 E28853.353
G1 X-20.77 Y-3.0 Z1.2 F288.0 E28854.27
G1 X-23.34 Y-5.57 Z1.2 F288.0 E28860.235
G1 X-23.23 Y-6.05 Z1.2 F288.0 E28861.056
G1 X-20.66 Y-3.49 Z1.2 F288.0 E28867.021
G1 X-20.55 Y-3.97 Z1.2 F288.0 E28867.83
G1 X-23.13 Y-6.54 Z1.2 F288.0 E28873.814
;M103
G1 X-23.82 Y-7.23 Z1.2 F2880.0
;M101
G1 X-24.98 Y-8.4 Z1.2 F288.0 E28876.523
G1 X-25.0 Y-7.82 Z1.2 F288.0 E28877.471
G1 X-25.7 Y-8.52 Z1.2 F288.0 E28879.088
G1 X-26.18 Y-8.41 Z1.2 F288.0 E28879.905
G1 X-26.41 Y-8.64 Z1.2 F288.0 E28880.429
;M103
G1 X-24.27 Y-8.28 Z1.2 F2880.0
;M101
G1 X-20.44 Y-4.45 Z1.2 F288.0 E28889.329
G1 X-20.33 Y-4.93 Z1.2 F288.0 E28890.138
G1 X-23.56 Y-8.16 Z1.2 F288.0 E28897.645
G1 X-22.85 Y-8.04 Z1.2 F288.0 E28898.83
G1 X-20.21 Y-5.41 Z1.2 F288.0 E28904.946
G1 X-20.1 Y-5.88 Z1.2 F288.0 E28905.754
G1 X-22.55 Y-8.33 Z1.2 F288.0 E28911.428
G1 X-22.36 Y-8.74 Z1.2 F288.0 E28912.164
G1 X-19.99 Y-6.36 Z1.2 F288.0 E28917.676
G1 X-19.83 Y-6.8 Z1.2 F288.0 E28918.434
G1 X-22.18 Y-9.15 Z1.2 F288.0 E28923.893
G1 X-22.0 Y-9.56 Z1.2 F288.0 E28924.63
G1 X-19.65 Y-7.21 Z1.2 F288.0 E28930.073
G1 X-19.48 Y-7.63 Z1.2 F288.0 E28930.815
G1 X-21.82 Y-9.97 Z1.2 F288.0 E28936.241
G1 X-21.63 Y-10.38 Z1.2 F288.0 E28936.979
G1 X-19.3 Y-8.05 Z1.2 F288.0 E28942.388
G1 X-19.13 Y-8.47 Z1.2 F288.0 E28943.131
G1 X-21.45 Y-10.79 Z1.2 F288.0 E28948.525
G1 X-21.27 Y-11.2 Z1.2 F288.0 E28949.261
G1 X-18.95 Y-8.88 Z1.2 F288.0 E28954.639
G1 X-18.78 Y-9.3 Z1.2 F288.0 E28955.383
G1 X-23.01 Y-13.53 Z1.2 F288.0 E28965.214
G1 X-23.27 Y-13.2 Z1.2 F288.0 E28965.908
G1 X-23.99 Y-13.92 Z1.2 F288.0 E28967.587
;M103
G1 X-22.04 Y-13.15 Z1.2 F2880.0
;M101
G1 X-18.6 Y-9.72 Z1.2 F288.0 E28975.557
G1 X-18.37 Y-10.08 Z1.2 F288.0 E28976.261
G1 X-21.06 Y-12.76 Z1.2 F288.0 E28982.491
G1 X-20.41 Y-12.71 Z1.2 F288.0 E28983.553
G1 X-18.14 Y-10.44 Z1.2 F288.0 E28988.819
G1 X-17.91 Y-10.81 Z1.2 F288.0 E28989.523
G1 X-20.16 Y-13.05 Z1.2 F288.0 E28994.744
G1 X-19.91 Y-13.4 Z1.2 F288.0 E28995.44
G1 X-17.68 Y-11.17 Z1.2 F288.0 E29000.617
G1 X-17.45 Y-11.53 Z1.2 F288.0 E29001.323
G1 X-19.66 Y-13.74 Z1.2 F288.0 E29006.454
G1 X-19.41 Y-14.08 Z1.2 F288.0 E29007.151
G1 X-17.22 Y-11.89 Z1.2 F288.0 E29012.237
G1 X-16.99 Y-12.25 Z1.2 F288.0 E29012.942
G1 X-19.17 Y-14.43 Z1.2 F288.0 E29017.986
G1 X-18.92 Y-14.77 Z1.2 F288.0 E29018.682
G1 X-16.76 Y-12.62 Z1.2 F288.0 E29023.68
G1 X-16.49 Y-12.94 Z1.2 F288.0 E29024.368
G1 X-18.67 Y-15.11 Z1.2 F288.0 E29029.415
G1 X-18.42 Y-15.46 Z1.2 F288.0 E29030.111
G1 X-16.21 Y-13.25 Z1.2 F288.0 E29035.234
G1 X-15.93 Y-13.56 Z1.2 F288.0 E29035.922
G1 X-19.54 Y-17.17 Z1.2 F288.0 E29044.317
G1 X-20.01 Y-18.23 Z1.2 F288.0 E29046.206
;M103
G1 X-19.19 Y-17.41 Z1.2 F2880.0
;M101
G1 X-15.65 Y-13.87 Z1.2 F288.0 E29054.439
G1 X-15.36 Y-14.18 Z1.2 F288.0 E29055.127
G1 X-18.25 Y-17.07 Z1.2 F288.0 E29061.828
;M103
G1 X-17.3 Y-16.7 Z1.2 F2880.0
;M101
G1 X-15.08 Y-14.49 Z1.2 F288.0 E29066.967
G1 X-14.8 Y-14.8 Z1.2 F288.0 E29067.656
G1 X-16.98 Y-16.98 Z1.2 F288.0 E29072.725
G1 X-16.67 Y-17.26 Z1.2 F288.0 E29073.414
G1 X-14.52 Y-15.11 Z1.2 F288.0 E29078.416
G1 X-14.24 Y-15.42 Z1.2 F288.0 E29079.104
G1 X-16.36 Y-17.54 Z1.2 F288.0 E29084.036
G1 X-16.05 Y-17.83 Z1.2 F288.0 E29084.724
G1 X-13.63 Y-15.41 Z1.2 F288.0 E29090.338
;M103
G1 X-11.62 Y-13.4 Z1.2 F2880.0
;M101
G1 X-3.23 Y-5.01 Z1.2 F288.0 E29109.833
G1 X-3.6 Y-4.79 Z1.2 F288.0 E29110.543
G1 X-10.03 Y-11.22 Z1.2 F288.0 E29125.48
;M103
G1 X-8.44 Y-9.03 Z1.2 F2880.0
;M101
G1 X-3.9 Y-4.49 Z1.2 F288.0 E29136.021
G1 X-4.2 Y-4.2 Z1.2 F288.0 E29136.708
G1 X-6.85 Y-6.85 Z1.2 F288.0 E29142.852
;M103
G1 X-7.28 Y-12.61 Z1.2 F2880.0
;M101
G1 X-15.56 Y-20.9 Z1.2 F288.0 E29162.083
G1 X-16.2 Y-22.13 Z1.2 F288.0 E29164.364
;M103
G1 X-15.22 Y-21.15 Z1.2 F2880.0
;M101
G1 X-8.84 Y-14.76 Z1.2 F288.0 E29179.188
;M103
G1 X-9.78 Y-17.33 Z1.2 F3600.0
G1 X-9.66 Y-17.76 Z1.2 F3600.0
G1 X-5.67 Y-24.63 Z1.2 F2880.0
;M101
G1 X-1.87 Y-20.83 Z1.2 F288.0 E29188.005
G1 X-2.42 Y-20.79 Z1.2 F288.0 E29188.907
G1 X-5.63 Y-24.0 Z1.2 F288.0 E29196.365
G1 X-5.62 Y-23.39 Z1.2 F288.0 E29197.358
G1 X-2.97 Y-20.74 Z1.2 F288.0 E29203.52
G1 X-3.51 Y-20.69 Z1.2 F288.0 E29204.418
G1 X-6.07 Y-23.25 Z1.2 F288.0 E29210.351
G1 X-6.52 Y-23.1 Z1.2 F288.0 E29211.123
G1 X-3.98 Y-20.57 Z1.2 F288.0 E29217.001
G1 X-4.46 Y-20.45 Z1.2 F288.0 E29217.8
G1 X-6.96 Y-22.96 Z1.2 F288.0 E29223.622
G1 X-7.41 Y-22.81 Z1.2 F288.0 E29224.394
G1 X-4.93 Y-20.33 Z1.2 F288.0 E29230.159
G1 X-5.4 Y-20.21 Z1.2 F288.0 E29230.958
G1 X-7.86 Y-22.67 Z1.2 F288.0 E29236.669
G1 X-8.3 Y-22.52 Z1.2 F288.0 E29237.44
G1 X-5.87 Y-20.09 Z1.2 F288.0 E29243.094
G1 X-6.34 Y-19.97 Z1.2 F288.0 E29243.893
G1 X-8.75 Y-22.38 Z1.2 F288.0 E29249.491
G1 X-9.2 Y-22.23 Z1.2 F288.0 E29250.262
G1 X-6.81 Y-19.84 Z1.2 F288.0 E29255.805
G1 X-7.23 Y-19.67 Z1.2 F288.0 E29256.553
G1 X-10.74 Y-23.18 Z1.2 F288.0 E29264.705
G1 X-10.52 Y-22.37 Z1.2 F288.0 E29266.1
G1 X-7.64 Y-19.49 Z1.2 F288.0 E29272.779
G1 X-8.05 Y-19.3 Z1.2 F288.0 E29273.514
G1 X-10.42 Y-21.68 Z1.2 F288.0 E29279.027
G1 X-10.8 Y-21.46 Z1.2 F288.0 E29279.738
G1 X-8.46 Y-19.12 Z1.2 F288.0 E29285.174
G1 X-8.87 Y-18.94 Z1.2 F288.0 E29285.91
G1 X-11.17 Y-21.24 Z1.2 F288.0 E29291.268
G1 X-11.55 Y-21.03 Z1.2 F288.0 E29291.981
G1 X-9.27 Y-18.75 Z1.2 F288.0 E29297.263
G1 X-9.68 Y-18.57 Z1.2 F288.0 E29297.998
G1 X-11.92 Y-20.81 Z1.2 F288.0 E29303.204
G1 X-12.3 Y-20.59 Z1.2 F288.0 E29303.917
G1 X-10.09 Y-18.38 Z1.2 F288.0 E29309.047
G1 X-10.35 Y-18.05 Z1.2 F288.0 E29309.74
G1 X-12.68 Y-20.38 Z1.2 F288.0 E29315.132
G1 X-13.05 Y-20.16 Z1.2 F288.0 E29315.844
G1 X-10.48 Y-17.59 Z1.2 F288.0 E29321.819
G1 X-10.39 Y-16.91 Z1.2 F288.0 E29322.937
G1 X-13.43 Y-19.94 Z1.2 F288.0 E29329.977
;M103
G1 X-9.29 Y-22.32 Z1.2 F2880.0
;M101
G1 X-10.97 Y-24.0 Z1.2 F288.0 E29333.875
G1 X-10.33 Y-23.96 Z1.2 F288.0 E29334.927
G1 X-11.2 Y-24.82 Z1.2 F288.0 E29336.938
G1 X-11.37 Y-25.59 Z1.2 F288.0 E29338.225
G1 X-11.42 Y-25.64 Z1.2 F288.0 E29338.351
;M103
G1 X-8.88 Y-23.18 Z1.2 F3600.0
G1 X-6.43 Y-23.97 Z1.2 F3600.0
G1 X-5.29 Y-26.02 Z1.2 F2880.0
;M101
G1 X-5.79 Y-26.52 Z1.2 F288.0 E29339.501
G1 X-5.64 Y-26.97 Z1.2 F288.0 E29340.276
G1 X-5.82 Y-27.15 Z1.2 F288.0 E29340.695
;M103
G1 X-3.87 Y-24.52 Z1.2 F3600.0
G1 X-0.58 Y-24.27 Z1.2 F2880.0
;M101
G1 X2.96 Y-20.74 Z1.2 F288.0 E29348.896
G1 X2.31 Y-20.79 Z1.2 F288.0 E29349.961
G1 X-0.92 Y-24.02 Z1.2 F288.0 E29357.451
G1 X-1.45 Y-23.96 Z1.2 F288.0 E29358.336
G1 X1.66 Y-20.85 Z1.2 F288.0 E29365.569
G1 X1.01 Y-20.9 Z1.2 F288.0 E29366.635
G1 X-1.99 Y-23.91 Z1.2 F288.0 E29373.61
G1 X-2.53 Y-23.85 Z1.2 F288.0 E29374.495
G1 X0.37 Y-20.96 Z1.2 F288.0 E29381.215
G1 X-0.24 Y-20.97 Z1.2 F288.0 E29382.207
G1 X-3.06 Y-23.8 Z1.2 F288.0 E29388.77
G1 X-3.6 Y-23.74 Z1.2 F288.0 E29389.655
G1 X-0.78 Y-20.92 Z1.2 F288.0 E29396.193
G1 X-1.33 Y-20.88 Z1.2 F288.0 E29397.094
G1 X-5.71 Y-25.26 Z1.2 F288.0 E29407.268
G1 X-5.75 Y-25.89 Z1.2 F288.0 E29408.306
G1 X-4.94 Y-25.08 Z1.2 F288.0 E29410.189
;M103
G1 X6.82 Y-19.84 Z1.2 F2880.0
;M101
G1 X2.84 Y-23.82 Z1.2 F288.0 E29419.42
G1 X2.18 Y-23.89 Z1.2 F288.0 E29420.513
G1 X6.02 Y-20.05 Z1.2 F288.0 E29429.429
G1 X5.22 Y-20.25 Z1.2 F288.0 E29430.781
G1 X1.52 Y-23.96 Z1.2 F288.0 E29439.382
G1 X0.85 Y-24.03 Z1.2 F288.0 E29440.475
G1 X4.42 Y-20.46 Z1.2 F288.0 E29448.762
G1 X3.63 Y-20.66 Z1.2 F288.0 E29450.114
G1 X-0.5 Y-24.79 Z1.2 F288.0 E29459.689
G1 X-0.42 Y-25.3 Z1.2 F288.0 E29460.544
G1 X0.57 Y-24.31 Z1.2 F288.0 E29462.85
G1 X0.47 Y-25.01 Z1.2 F288.0 E29464.005
G1 X-0.35 Y-25.82 Z1.2 F288.0 E29465.891
G1 X-0.27 Y-26.33 Z1.2 F288.0 E29466.746
G1 X0.36 Y-25.7 Z1.2 F288.0 E29468.209
G1 X0.26 Y-26.4 Z1.2 F288.0 E29469.364
G1 X-0.19 Y-26.85 Z1.2 F288.0 E29470.408
G1 X0.16 Y-27.09 Z1.2 F288.0 E29471.106
G1 X-0.11 Y-27.36 Z1.2 F288.0 E29471.729
G1 X0.05 Y-27.79 Z1.2 F288.0 E29472.482
G1 X-0.04 Y-27.88 Z1.2 F288.0 E29472.686
;M103
G1 X1.31 Y-24.78 Z1.2 F3600.0
G1 X3.42 Y-24.45 Z1.2 F3600.0
G1 X23.26 Y-6.95 Z1.2 F2880.0
;M101
G1 X7.4 Y-22.82 Z1.2 F288.0 E29509.521
G1 X6.52 Y-23.1 Z1.2 F288.0 E29511.037
G1 X14.19 Y-15.44 Z1.2 F288.0 E29528.838
G1 X13.62 Y-15.41 Z1.2 F288.0 E29529.767
G1 X4.67 Y-24.36 Z1.2 F288.0 E29550.551
G1 X4.83 Y-24.79 Z1.2 F288.0 E29551.306
G1 X5.63 Y-23.99 Z1.2 F288.0 E29553.171
G1 X5.67 Y-24.54 Z1.2 F288.0 E29554.089
G1 X4.99 Y-25.22 Z1.2 F288.0 E29555.657
G1 X5.15 Y-25.65 Z1.2 F288.0 E29556.412
G1 X5.7 Y-25.1 Z1.2 F288.0 E29557.687
G1 X5.74 Y-25.66 Z1.2 F288.0 E29558.605
G1 X5.31 Y-26.08 Z1.2 F288.0 E29559.585
G1 X5.48 Y-26.51 Z1.2 F288.0 E29560.341
G1 X5.77 Y-26.22 Z1.2 F288.0 E29561.024
G1 X5.8 Y-26.78 Z1.2 F288.0 E29561.941
G1 X5.64 Y-26.94 Z1.2 F288.0 E29562.329
G1 X5.84 Y-27.34 Z1.2 F288.0 E29563.052
G1 X5.8 Y-27.38 Z1.2 F288.0 E29563.145
;M103
G1 X4.51 Y-23.93 Z1.2 F2880.0
;M101
G1 X10.02 Y-18.42 Z1.2 F288.0 E29575.941
;M103
G1 X10.34 Y-18.09 Z1.2 F2880.0
;M101
G1 X13.06 Y-15.37 Z1.2 F288.0 E29582.252
G1 X12.81 Y-15.03 Z1.2 F288.0 E29582.947
G1 X10.56 Y-17.28 Z1.2 F288.0 E29588.179
G1 X10.37 Y-16.88 Z1.2 F288.0 E29588.912
G1 X12.56 Y-14.69 Z1.2 F288.0 E29593.999
G1 X12.31 Y-14.35 Z1.2 F288.0 E29594.696
G1 X10.12 Y-16.54 Z1.2 F288.0 E29599.781
G1 X9.87 Y-16.19 Z1.2 F288.0 E29600.478
G1 X12.06 Y-14.0 Z1.2 F288.0 E29605.56
G1 X11.81 Y-13.66 Z1.2 F288.0 E29606.256
G1 X9.63 Y-15.85 Z1.2 F288.0 E29611.336
G1 X9.38 Y-15.5 Z1.2 F288.0 E29612.034
G1 X11.56 Y-13.32 Z1.2 F288.0 E29617.112
G1 X11.31 Y-12.98 Z1.2 F288.0 E29617.807
G1 X9.13 Y-15.16 Z1.2 F288.0 E29622.883
G1 X8.88 Y-14.82 Z1.2 F288.0 E29623.58
G1 X11.06 Y-12.63 Z1.2 F288.0 E29628.654
G1 X10.81 Y-12.29 Z1.2 F288.0 E29629.35
G1 X8.63 Y-14.47 Z1.2 F288.0 E29634.423
G1 X8.38 Y-14.13 Z1.2 F288.0 E29635.119
G1 X10.56 Y-11.95 Z1.2 F288.0 E29640.188
G1 X10.31 Y-11.6 Z1.2 F288.0 E29640.885
G1 X8.13 Y-13.79 Z1.2 F288.0 E29645.953
G1 X7.88 Y-13.44 Z1.2 F288.0 E29646.65
G1 X10.07 Y-11.26 Z1.2 F288.0 E29651.717
G1 X9.82 Y-10.92 Z1.2 F288.0 E29652.412
G1 X7.63 Y-13.1 Z1.2 F288.0 E29657.475
G1 X7.39 Y-12.76 Z1.2 F288.0 E29658.171
G1 X9.57 Y-10.58 Z1.2 F288.0 E29663.233
G1 X9.32 Y-10.23 Z1.2 F288.0 E29663.93
G1 X7.14 Y-12.41 Z1.2 F288.0 E29668.989
G1 X6.89 Y-12.07 Z1.2 F288.0 E29669.684
G1 X9.07 Y-9.89 Z1.2 F288.0 E29674.742
G1 X8.82 Y-9.55 Z1.2 F288.0 E29675.438
G1 X6.64 Y-11.73 Z1.2 F288.0 E29680.493
G1 X6.39 Y-11.38 Z1.2 F288.0 E29681.189
G1 X8.57 Y-9.21 Z1.2 F288.0 E29686.243
G1 X8.32 Y-8.86 Z1.2 F288.0 E29686.938
G1 X6.14 Y-11.04 Z1.2 F288.0 E29691.989
G1 X5.89 Y-10.69 Z1.2 F288.0 E29692.686
G1 X8.07 Y-8.52 Z1.2 F288.0 E29697.735
G1 X7.82 Y-8.18 Z1.2 F288.0 E29698.432
G1 X5.64 Y-10.35 Z1.2 F288.0 E29703.48
G1 X5.4 Y-10.01 Z1.2 F288.0 E29704.176
G1 X7.57 Y-7.84 Z1.2 F288.0 E29709.22
G1 X7.32 Y-7.49 Z1.2 F288.0 E29709.916
G1 X5.15 Y-9.66 Z1.2 F288.0 E29714.959
G1 X4.9 Y-9.32 Z1.2 F288.0 E29715.656
G1 X7.07 Y-7.15 Z1.2 F288.0 E29720.697
G1 X6.82 Y-6.81 Z1.2 F288.0 E29721.393
G1 X4.65 Y-8.98 Z1.2 F288.0 E29726.431
G1 X4.4 Y-8.63 Z1.2 F288.0 E29727.129
G1 X6.57 Y-6.46 Z1.2 F288.0 E29732.166
G1 X7.37 Y-5.08 Z1.2 F288.0 E29734.795
;M103
G1 X6.23 Y-6.21 Z1.2 F2880.0
;M101
G1 X4.15 Y-8.29 Z1.2 F288.0 E29739.63
G1 X3.52 Y-8.32 Z1.2 F288.0 E29740.661
G1 X8.22 Y-3.63 Z1.2 F288.0 E29751.56
G1 X8.5 Y-2.75 Z1.2 F288.0 E29753.074
G1 X2.73 Y-8.53 Z1.2 F288.0 E29766.484
G1 X1.93 Y-8.73 Z1.2 F288.0 E29767.833
G1 X8.79 Y-1.88 Z1.2 F288.0 E29783.752
G1 X8.88 Y-1.19 Z1.2 F288.0 E29784.885
G1 X1.14 Y-8.94 Z1.2 F288.0 E29802.865
G1 X0.54 Y-8.94 Z1.2 F288.0 E29803.842
G1 X8.92 Y-0.56 Z1.2 F288.0 E29823.299
G1 X8.96 Y0.07 Z1.2 F288.0 E29824.339
G1 X-0.05 Y-8.94 Z1.2 F288.0 E29845.264
G1 X-0.64 Y-8.94 Z1.2 F288.0 E29846.236
G1 X9.0 Y0.71 Z1.2 F288.0 E29868.63
G1 X9.04 Y1.34 Z1.2 F288.0 E29869.672
G1 X5.56 Y-2.14 Z1.2 F288.0 E29877.745
G1 X5.82 Y-1.29 Z1.2 F288.0 E29879.197
G1 X12.9 Y5.79 Z1.2 F288.0 E29895.643
G1 X12.02 Y5.51 Z1.2 F288.0 E29897.162
G1 X5.93 Y-0.59 Z1.2 F288.0 E29911.317
G1 X5.95 Y0.02 Z1.2 F288.0 E29912.327
G1 X11.14 Y5.22 Z1.2 F288.0 E29924.387
G1 X10.26 Y4.93 Z1.2 F288.0 E29925.907
G1 X5.95 Y0.62 Z1.2 F288.0 E29935.917
G1 X5.84 Y1.1 Z1.2 F288.0 E29936.731
G1 X9.38 Y4.64 Z1.2 F288.0 E29944.95
G1 X8.5 Y4.36 Z1.2 F288.0 E29946.47
G1 X5.74 Y1.59 Z1.2 F288.0 E29952.896
G1 X5.62 Y2.07 Z1.2 F288.0 E29953.701
G1 X7.96 Y4.4 Z1.2 F288.0 E29959.13
G1 X7.69 Y4.73 Z1.2 F288.0 E29959.821
G1 X5.42 Y2.46 Z1.2 F288.0 E29965.094
G1 X5.22 Y2.85 Z1.2 F288.0 E29965.817
G1 X7.42 Y5.05 Z1.2 F288.0 E29970.932
G1 X7.15 Y5.38 Z1.2 F288.0 E29971.623
G1 X5.02 Y3.24 Z1.2 F288.0 E29976.581
G1 X4.77 Y3.58 Z1.2 F288.0 E29977.278
G1 X6.88 Y5.7 Z1.2 F288.0 E29982.189
G1 X6.62 Y6.02 Z1.2 F288.0 E29982.88
G1 X4.49 Y3.9 Z1.2 F288.0 E29987.817
G1 X4.21 Y4.21 Z1.2 F288.0 E29988.506
G1 X6.35 Y6.35 Z1.2 F288.0 E29993.47
G1 X6.06 Y6.65 Z1.2 F288.0 E29994.159
G1 X3.93 Y4.52 Z1.2 F288.0 E29999.095
G1 X3.58 Y4.76 Z1.2 F288.0 E29999.795
G1 X5.71 Y6.9 Z1.2 F288.0 E30004.755
G1 X5.37 Y7.15 Z1.2 F288.0 E30005.451
G1 X3.22 Y5.0 Z1.2 F288.0 E30010.442
G1 X2.86 Y5.23 Z1.2 F288.0 E30011.143
G1 X5.03 Y7.4 Z1.2 F288.0 E30016.164
G1 X4.68 Y7.65 Z1.2 F288.0 E30016.861
G1 X2.47 Y5.44 Z1.2 F288.0 E30021.99
G1 X2.03 Y5.59 Z1.2 F288.0 E30022.757
G1 X4.34 Y7.89 Z1.2 F288.0 E30028.113
G1 X3.92 Y8.06 Z1.2 F288.0 E30028.862
G1 X1.98 Y6.13 Z1.2 F288.0 E30033.344
G1 X1.98 Y6.72 Z1.2 F288.0 E30034.318
G1 X3.49 Y8.23 Z1.2 F288.0 E30037.816
G1 X3.07 Y8.4 Z1.2 F288.0 E30038.565
G1 X1.98 Y7.32 Z1.2 F288.0 E30041.078
G1 X1.6 Y7.53 Z1.2 F288.0 E30041.793
G1 X2.64 Y8.57 Z1.2 F288.0 E30044.209
G1 X2.22 Y8.74 Z1.2 F288.0 E30044.959
G1 X1.01 Y7.53 Z1.2 F288.0 E30047.767
G1 X0.42 Y7.53 Z1.2 F288.0 E30048.739
G1 X1.79 Y8.9 Z1.2 F288.0 E30051.937
G1 X1.52 Y9.22 Z1.2 F288.0 E30052.626
G1 X-0.18 Y7.53 Z1.2 F288.0 E30056.552
G1 X-0.77 Y7.53 Z1.2 F288.0 E30057.524
G1 X1.52 Y9.81 Z1.2 F288.0 E30062.828
G1 X1.52 Y10.4 Z1.2 F288.0 E30063.801
G1 X-1.36 Y7.53 Z1.2 F288.0 E30070.482
G1 X-1.95 Y7.53 Z1.2 F288.0 E30071.455
G1 X1.52 Y11.0 Z1.2 F288.0 E30079.514
G1 X1.52 Y11.59 Z1.2 F288.0 E30080.487
G1 X-9.02 Y1.05 Z1.2 F288.0 E30104.962
G1 X-9.25 Y1.41 Z1.2 F288.0 E30105.667
G1 X1.52 Y12.18 Z1.2 F288.0 E30130.673
G1 X1.52 Y12.78 Z1.2 F288.0 E30131.647
G1 X-1.52 Y9.74 Z1.2 F288.0 E30138.695
G1 X-1.52 Y10.33 Z1.2 F288.0 E30139.666
G1 X1.52 Y13.37 Z1.2 F288.0 E30146.718
G1 X1.52 Y13.96 Z1.2 F288.0 E30147.693
G1 X-1.52 Y10.92 Z1.2 F288.0 E30154.749
G1 X-1.52 Y11.51 Z1.2 F288.0 E30155.72
G1 X1.52 Y14.56 Z1.2 F288.0 E30162.779
G1 X1.52 Y15.15 Z1.2 F288.0 E30163.753
G1 X-1.52 Y12.11 Z1.2 F288.0 E30170.817
G1 X-1.52 Y12.7 Z1.2 F288.0 E30171.787
G1 X1.52 Y15.74 Z1.2 F288.0 E30178.855
G1 X1.53 Y16.33 Z1.2 F288.0 E30179.829
G1 X-1.52 Y13.29 Z1.2 F288.0 E30186.9
G1 X-1.52 Y13.88 Z1.2 F288.0 E30187.872
G1 X1.53 Y16.93 Z1.2 F288.0 E30194.947
G1 X1.53 Y17.52 Z1.2 F288.0 E30195.921
G1 X-1.52 Y14.47 Z1.2 F288.0 E30203.0
G1 X-1.52 Y15.06 Z1.2 F288.0 E30203.972
G1 X1.53 Y18.11 Z1.2 F288.0 E30211.054
G1 X1.53 Y18.71 Z1.2 F288.0 E30212.028
G1 X-1.52 Y15.66 Z1.2 F288.0 E30219.115
G1 X-1.53 Y16.25 Z1.2 F288.0 E30220.087
G1 X1.53 Y19.3 Z1.2 F288.0 E30227.178
G1 X1.53 Y19.89 Z1.2 F288.0 E30228.152
G1 X-1.53 Y16.84 Z1.2 F288.0 E30235.247
G1 X-1.53 Y17.43 Z1.2 F288.0 E30236.219
G1 X5.67 Y24.63 Z1.2 F288.0 E30252.933
G1 X5.71 Y25.26 Z1.2 F288.0 E30253.969
G1 X4.58 Y24.13 Z1.2 F288.0 E30256.584
;M103
G1 X4.13 Y23.68 Z1.2 F2880.0
;M101
G1 X-1.53 Y18.02 Z1.2 F288.0 E30269.727
G1 X-1.53 Y18.61 Z1.2 F288.0 E30270.699
G1 X3.6 Y23.74 Z1.2 F288.0 E30282.599
G1 X3.06 Y23.8 Z1.2 F288.0 E30283.484
G1 X-1.53 Y19.2 Z1.2 F288.0 E30294.142
G1 X-1.53 Y19.8 Z1.2 F288.0 E30295.112
G1 X2.53 Y23.85 Z1.2 F288.0 E30304.528
G1 X1.99 Y23.91 Z1.2 F288.0 E30305.413
G1 X-1.68 Y20.24 Z1.2 F288.0 E30313.929
G1 X-2.01 Y20.5 Z1.2 F288.0 E30314.619
G1 X1.45 Y23.96 Z1.2 F288.0 E30322.651
G1 X0.92 Y24.02 Z1.2 F288.0 E30323.536
G1 X-2.33 Y20.77 Z1.2 F288.0 E30331.085
G1 X-2.96 Y20.74 Z1.2 F288.0 E30332.109
G1 X0.58 Y24.27 Z1.2 F288.0 E30340.315
G1 X0.5 Y24.79 Z1.2 F288.0 E30341.17
G1 X-3.7 Y20.58 Z1.2 F288.0 E30350.931
G1 X-4.45 Y20.43 Z1.2 F288.0 E30352.185
G1 X0.42 Y25.3 Z1.2 F288.0 E30363.502
G1 X0.35 Y25.82 Z1.2 F288.0 E30364.357
G1 X-0.47 Y25.01 Z1.2 F288.0 E30366.242
G1 X-0.36 Y25.7 Z1.2 F288.0 E30367.399
G1 X0.27 Y26.33 Z1.2 F288.0 E30368.862
G1 X0.19 Y26.85 Z1.2 F288.0 E30369.717
G1 X-0.26 Y26.4 Z1.2 F288.0 E30370.761
G1 X-0.16 Y27.09 Z1.2 F288.0 E30371.916
G1 X0.11 Y27.36 Z1.2 F288.0 E30372.54
G1 X-0.05 Y27.79 Z1.2 F288.0 E30373.293
G1 X0.04 Y27.88 Z1.2 F288.0 E30373.496
;M103
G1 X-1.52 Y23.96 Z1.2 F2880.0
;M101
G1 X-5.2 Y20.27 Z1.2 F288.0 E30382.05
G1 X-5.95 Y20.12 Z1.2 F288.0 E30383.304
G1 X-2.18 Y23.89 Z1.2 F288.0 E30392.058
G1 X-2.84 Y23.82 Z1.2 F288.0 E30393.151
G1 X-6.89 Y19.77 Z1.2 F288.0 E30402.562
G1 X-7.87 Y19.38 Z1.2 F288.0 E30404.294
;M103
G1 X-7.13 Y20.12 Z1.2 F2880.0
;M101
G1 X-3.5 Y23.75 Z1.2 F288.0 E30412.714
G1 X-4.16 Y23.68 Z1.2 F288.0 E30413.808
G1 X-8.85 Y18.99 Z1.2 F288.0 E30424.697
G1 X-10.1 Y18.33 Z1.2 F288.0 E30427.013
;M103
G1 X-9.11 Y19.33 Z1.2 F2880.0
;M101
G1 X-4.51 Y23.93 Z1.2 F288.0 E30437.689
G1 X-4.67 Y24.36 Z1.2 F288.0 E30438.444
G1 X-11.6 Y17.42 Z1.2 F288.0 E30454.547
;M103
G1 X-12.96 Y20.21 Z1.2 F2880.0
;M101
G1 X-21.44 Y11.74 Z1.2 F288.0 E30474.218
G1 X-21.77 Y12.0 Z1.2 F288.0 E30474.91
G1 X-21.02 Y12.75 Z1.2 F288.0 E30476.646
G1 X-21.44 Y12.92 Z1.2 F288.0 E30477.396
G1 X-22.1 Y12.26 Z1.2 F288.0 E30478.911
G1 X-22.43 Y12.53 Z1.2 F288.0 E30479.603
G1 X-21.87 Y13.08 Z1.2 F288.0 E30480.898
G1 X-22.29 Y13.25 Z1.2 F288.0 E30481.649
G1 X-22.76 Y12.79 Z1.2 F288.0 E30482.722
G1 X-23.09 Y13.05 Z1.2 F288.0 E30483.414
G1 X-22.72 Y13.42 Z1.2 F288.0 E30484.267
G1 X-23.14 Y13.58 Z1.2 F288.0 E30485.016
G1 X-23.42 Y13.31 Z1.2 F288.0 E30485.648
G1 X-23.75 Y13.58 Z1.2 F288.0 E30486.341
G1 X-23.57 Y13.75 Z1.2 F288.0 E30486.751
G1 X-23.99 Y13.92 Z1.2 F288.0 E30487.5
G1 X-24.08 Y13.84 Z1.2 F288.0 E30487.69
;M103
G1 X-21.18 Y11.4 Z1.2 F2880.0
;M101
G1 X-11.56 Y21.02 Z1.2 F288.0 E30510.018
;M103
G1 X-10.45 Y22.13 Z1.2 F2880.0
;M101
G1 X-9.67 Y22.91 Z1.2 F288.0 E30511.838
G1 X-9.44 Y22.55 Z1.2 F288.0 E30512.542
G1 X-21.65 Y10.34 Z1.2 F288.0 E30540.904
G1 X-22.13 Y9.27 Z1.2 F288.0 E30542.821
;M103
G1 X-21.3 Y10.1 Z1.2 F2880.0
;M101
G1 X-9.15 Y22.25 Z1.2 F288.0 E30571.034
G1 X-8.27 Y22.53 Z1.2 F288.0 E30572.548
G1 X-23.66 Y7.15 Z1.2 F288.0 E30608.265
G1 X-24.05 Y7.35 Z1.2 F288.0 E30608.991
G1 X-23.29 Y8.11 Z1.2 F288.0 E30610.768
G1 X-23.79 Y8.2 Z1.2 F288.0 E30611.614
G1 X-24.45 Y7.54 Z1.2 F288.0 E30613.13
G1 X-24.84 Y7.74 Z1.2 F288.0 E30613.857
G1 X-24.3 Y8.28 Z1.2 F288.0 E30615.114
G1 X-24.81 Y8.37 Z1.2 F288.0 E30615.96
G1 X-25.24 Y7.94 Z1.2 F288.0 E30616.956
G1 X-25.63 Y8.13 Z1.2 F288.0 E30617.68
G1 X-25.32 Y8.45 Z1.2 F288.0 E30618.415
G1 X-25.82 Y8.54 Z1.2 F288.0 E30619.259
G1 X-26.03 Y8.33 Z1.2 F288.0 E30619.735
G1 X-26.33 Y8.62 Z1.2 F288.0 E30620.423
G1 X-26.42 Y8.53 Z1.2 F288.0 E30620.638
;M103
G1 X-23.26 Y6.95 Z1.2 F2880.0
;M101
G1 X-7.4 Y22.82 Z1.2 F288.0 E30657.474
G1 X-6.52 Y23.1 Z1.2 F288.0 E30658.989
G1 X-23.14 Y6.48 Z1.2 F288.0 E30697.591
G1 X-23.3 Y5.72 Z1.2 F288.0 E30698.855
G1 X-17.49 Y11.54 Z1.2 F288.0 E30712.364
;M103
G1 X-18.7 Y15.07 Z1.2 F2880.0
;M101
G1 X-13.8 Y19.97 Z1.2 F288.0 E30723.751
G1 X-14.09 Y20.27 Z1.2 F288.0 E30724.438
G1 X-14.85 Y19.51 Z1.2 F288.0 E30726.196
G1 X-15.05 Y19.9 Z1.2 F288.0 E30726.918
G1 X-14.38 Y20.57 Z1.2 F288.0 E30728.463
G1 X-14.68 Y20.87 Z1.2 F288.0 E30729.151
G1 X-15.25 Y20.29 Z1.2 F288.0 E30730.487
G1 X-15.45 Y20.68 Z1.2 F288.0 E30731.208
G1 X-14.97 Y21.17 Z1.2 F288.0 E30732.33
G1 X-15.27 Y21.46 Z1.2 F288.0 E30733.018
G1 X-15.66 Y21.07 Z1.2 F288.0 E30733.928
G1 X-15.86 Y21.46 Z1.2 F288.0 E30734.648
G1 X-15.56 Y21.76 Z1.2 F288.0 E30735.35
G1 X-15.85 Y22.06 Z1.2 F288.0 E30736.037
G1 X-16.06 Y21.85 Z1.2 F288.0 E30736.526
G1 X-16.27 Y22.24 Z1.2 F288.0 E30737.246
G1 X-16.15 Y22.36 Z1.2 F288.0 E30737.525
G1 X-16.44 Y22.66 Z1.2 F288.0 E30738.213
G1 X-16.47 Y22.63 Z1.2 F288.0 E30738.281
;M103
G1 X-15.63 Y19.28 Z1.2 F3600.0
G1 X-17.68 Y16.68 Z1.2 F2880.0
;M101
G1 X-18.48 Y15.88 Z1.2 F288.0 E30740.146
G1 X-18.75 Y16.2 Z1.2 F288.0 E30740.838
G1 X-18.03 Y16.92 Z1.2 F288.0 E30742.498
G1 X-18.39 Y17.16 Z1.2 F288.0 E30743.199
G1 X-19.01 Y16.53 Z1.2 F288.0 E30744.653
G1 X-19.28 Y16.86 Z1.2 F288.0 E30745.345
G1 X-18.74 Y17.39 Z1.2 F288.0 E30746.593
G1 X-19.1 Y17.63 Z1.2 F288.0 E30747.295
G1 X-19.55 Y17.18 Z1.2 F288.0 E30748.335
G1 X-19.82 Y17.5 Z1.2 F288.0 E30749.026
G1 X-19.46 Y17.86 Z1.2 F288.0 E30749.862
G1 X-19.81 Y18.1 Z1.2 F288.0 E30750.563
G1 X-20.08 Y17.83 Z1.2 F288.0 E30751.192
G1 X-20.35 Y18.15 Z1.2 F288.0 E30751.884
G1 X-20.17 Y18.34 Z1.2 F288.0 E30752.306
G1 X-20.53 Y18.57 Z1.2 F288.0 E30753.008
G1 X-20.62 Y18.48 Z1.2 F288.0 E30753.224
G1 X-20.89 Y18.8 Z1.2 F288.0 E30753.915
G1 X-20.88 Y18.81 Z1.2 F288.0 E30753.927
;M103
G1 X-17.54 Y17.56 Z1.2 F3600.0
G1 X-15.63 Y19.28 Z1.2 F3600.0
G1 X-16.18 Y20.58 Z1.2 F3600.0
G1 X-14.03 Y21.2 Z1.2 F3600.0
G1 X-13.51 Y20.82 Z1.2 F3600.0
G1 X-11.28 Y22.11 Z1.2 F3600.0
G1 X-10.58 Y22.59 Z1.2 F2880.0
;M101
G1 X-9.9 Y23.28 Z1.2 F288.0 E30755.512
G1 X-10.13 Y23.64 Z1.2 F288.0 E30756.217
G1 X-10.71 Y23.06 Z1.2 F288.0 E30757.563
G1 X-10.84 Y23.52 Z1.2 F288.0 E30758.353
G1 X-10.36 Y24.0 Z1.2 F288.0 E30759.463
G1 X-10.59 Y24.36 Z1.2 F288.0 E30760.168
G1 X-10.97 Y23.98 Z1.2 F288.0 E30761.041
G1 X-11.1 Y24.45 Z1.2 F288.0 E30761.831
G1 X-10.82 Y24.72 Z1.2 F288.0 E30762.467
G1 X-11.05 Y25.08 Z1.2 F288.0 E30763.171
G1 X-11.22 Y24.91 Z1.2 F288.0 E30763.57
G1 X-11.35 Y25.38 Z1.2 F288.0 E30764.361
G1 X-11.28 Y25.45 Z1.2 F288.0 E30764.523
;M103
G1 X-8.88 Y23.18 Z1.2 F3600.0
G1 X-6.43 Y23.97 Z1.2 F3600.0
G1 X-5.74 Y25.66 Z1.2 F2880.0
;M101
G1 X-5.31 Y26.08 Z1.2 F288.0 E30765.503
G1 X-5.48 Y26.51 Z1.2 F288.0 E30766.259
G1 X-5.77 Y26.22 Z1.2 F288.0 E30766.942
G1 X-5.8 Y26.78 Z1.2 F288.0 E30767.86
G1 X-5.64 Y26.94 Z1.2 F288.0 E30768.248
G1 X-5.84 Y27.34 Z1.2 F288.0 E30768.97
G1 X-5.8 Y27.38 Z1.2 F288.0 E30769.063
;M103
G1 X-5.15 Y25.65 Z1.2 F2880.0
;M101
G1 X-5.7 Y25.1 Z1.2 F288.0 E30770.338
G1 X-5.67 Y24.54 Z1.2 F288.0 E30771.256
G1 X-4.99 Y25.22 Z1.2 F288.0 E30772.824
G1 X-4.83 Y24.79 Z1.2 F288.0 E30773.58
G1 X-5.63 Y23.99 Z1.2 F288.0 E30775.445
;M103
G1 X2.48 Y20.84 Z1.2 F2880.0
;M101
G1 X5.63 Y24.0 Z1.2 F288.0 E30782.778
G1 X5.62 Y23.39 Z1.2 F288.0 E30783.771
G1 X2.97 Y20.74 Z1.2 F288.0 E30789.937
G1 X3.46 Y20.64 Z1.2 F288.0 E30790.76
G1 X6.07 Y23.25 Z1.2 F288.0 E30796.825
G1 X6.52 Y23.1 Z1.2 F288.0 E30797.597
G1 X3.95 Y20.53 Z1.2 F288.0 E30803.562
G1 X4.44 Y20.43 Z1.2 F288.0 E30804.385
G1 X6.96 Y22.96 Z1.2 F288.0 E30810.25
G1 X7.41 Y22.81 Z1.2 F288.0 E30811.022
G1 X4.93 Y20.33 Z1.2 F288.0 E30816.782
G1 X5.42 Y20.23 Z1.2 F288.0 E30817.604
G1 X7.86 Y22.67 Z1.2 F288.0 E30823.266
G1 X8.3 Y22.52 Z1.2 F288.0 E30824.038
G1 X5.91 Y20.13 Z1.2 F288.0 E30829.599
G1 X6.35 Y19.98 Z1.2 F288.0 E30830.367
G1 X8.75 Y22.38 Z1.2 F288.0 E30835.935
G1 X9.2 Y22.23 Z1.2 F288.0 E30836.707
G1 X6.78 Y19.81 Z1.2 F288.0 E30842.327
G1 X7.2 Y19.64 Z1.2 F288.0 E30843.076
G1 X10.74 Y23.18 Z1.2 F288.0 E30851.301
G1 X10.52 Y22.37 Z1.2 F288.0 E30852.696
G1 X7.63 Y19.47 Z1.2 F288.0 E30859.408
G1 X8.05 Y19.31 Z1.2 F288.0 E30860.156
G1 X10.42 Y21.68 Z1.2 F288.0 E30865.664
G1 X10.8 Y21.46 Z1.2 F288.0 E30866.375
G1 X8.48 Y19.14 Z1.2 F288.0 E30871.769
G1 X8.9 Y18.97 Z1.2 F288.0 E30872.52
G1 X11.17 Y21.24 Z1.2 F288.0 E30877.799
G1 X11.55 Y21.03 Z1.2 F288.0 E30878.511
G1 X9.32 Y18.8 Z1.2 F288.0 E30883.678
G1 X9.69 Y18.58 Z1.2 F288.0 E30884.386
G1 X11.92 Y20.81 Z1.2 F288.0 E30889.564
G1 X12.3 Y20.59 Z1.2 F288.0 E30890.277
G1 X10.06 Y18.36 Z1.2 F288.0 E30895.471
G1 X10.43 Y18.13 Z1.2 F288.0 E30896.179
G1 X12.68 Y20.38 Z1.2 F288.0 E30901.387
G1 X13.05 Y20.16 Z1.2 F288.0 E30902.1
G1 X10.8 Y17.91 Z1.2 F288.0 E30907.324
G1 X11.17 Y17.69 Z1.2 F288.0 E30908.032
G1 X13.43 Y19.94 Z1.2 F288.0 E30913.271
;M103
G1 X14.92 Y19.66 Z1.2 F2880.0
;M101
G1 X12.28 Y17.02 Z1.2 F288.0 E30919.417
G1 X12.6 Y16.75 Z1.2 F288.0 E30920.108
G1 X14.8 Y18.95 Z1.2 F288.0 E30925.21
G1 X15.11 Y18.67 Z1.2 F288.0 E30925.897
G1 X12.92 Y16.48 Z1.2 F288.0 E30930.986
G1 X13.24 Y16.2 Z1.2 F288.0 E30931.675
G1 X15.42 Y18.39 Z1.2 F288.0 E30936.749
G1 X15.74 Y18.11 Z1.2 F288.0 E30937.438
G1 X13.56 Y15.93 Z1.2 F288.0 E30942.498
G1 X13.88 Y15.65 Z1.2 F288.0 E30943.187
G1 X16.05 Y17.83 Z1.2 F288.0 E30948.232
G1 X16.36 Y17.54 Z1.2 F288.0 E30948.921
G1 X14.19 Y15.38 Z1.2 F288.0 E30953.951
G1 X14.51 Y15.1 Z1.2 F288.0 E30954.64
G1 X16.67 Y17.26 Z1.2 F288.0 E30959.657
G1 X16.98 Y16.98 Z1.2 F288.0 E30960.346
G1 X14.83 Y14.83 Z1.2 F288.0 E30965.348
G1 X15.12 Y14.53 Z1.2 F288.0 E30966.035
G1 X17.3 Y16.7 Z1.2 F288.0 E30971.077
;M103
G1 X18.25 Y17.06 Z1.2 F2880.0
;M101
G1 X15.39 Y14.21 Z1.2 F288.0 E30977.708
G1 X15.66 Y13.88 Z1.2 F288.0 E30978.398
G1 X20.0 Y18.22 Z1.2 F288.0 E30988.466
;M103
G1 X19.56 Y17.19 Z1.2 F2880.0
;M101
G1 X15.93 Y13.56 Z1.2 F288.0 E30996.895
G1 X16.2 Y13.23 Z1.2 F288.0 E30997.585
G1 X18.42 Y15.46 Z1.2 F288.0 E31002.742
G1 X18.67 Y15.11 Z1.2 F288.0 E31003.438
G1 X16.46 Y12.91 Z1.2 F288.0 E31008.551
G1 X16.73 Y12.59 Z1.2 F288.0 E31009.243
G1 X18.92 Y14.77 Z1.2 F288.0 E31014.314
G1 X19.17 Y14.43 Z1.2 F288.0 E31015.01
G1 X17.0 Y12.26 Z1.2 F288.0 E31020.037
G1 X17.26 Y11.93 Z1.2 F288.0 E31020.73
G1 X19.41 Y14.08 Z1.2 F288.0 E31025.725
G1 X19.66 Y13.74 Z1.2 F288.0 E31026.422
G1 X17.48 Y11.55 Z1.2 F288.0 E31031.498
G1 X17.69 Y11.18 Z1.2 F288.0 E31032.211
G1 X19.91 Y13.4 Z1.2 F288.0 E31037.365
G1 X20.16 Y13.05 Z1.2 F288.0 E31038.061
G1 X17.91 Y10.8 Z1.2 F288.0 E31043.295
G1 X18.12 Y10.42 Z1.2 F288.0 E31044.008
G1 X20.41 Y12.71 Z1.2 F288.0 E31049.321
G1 X21.06 Y12.76 Z1.2 F288.0 E31050.383
G1 X18.34 Y10.05 Z1.2 F288.0 E31056.693
G1 X18.55 Y9.67 Z1.2 F288.0 E31057.407
G1 X22.04 Y13.15 Z1.2 F288.0 E31065.49
G1 X23.01 Y13.53 Z1.2 F288.0 E31067.214
G1 X23.27 Y13.2 Z1.2 F288.0 E31067.908
G1 X23.99 Y13.92 Z1.2 F288.0 E31069.587
;M103
G1 X22.27 Y12.79 Z1.2 F2880.0
;M101
G1 X18.77 Y9.29 Z1.2 F288.0 E31077.714
G1 X18.99 Y8.91 Z1.2 F288.0 E31078.427
G1 X21.27 Y11.2 Z1.2 F288.0 E31083.731
G1 X21.45 Y10.79 Z1.2 F288.0 E31084.467
G1 X18.86 Y8.2 Z1.2 F288.0 E31090.474
;M103
G1 X18.18 Y7.52 Z1.2 F2880.0
;M101
G1 X13.43 Y2.76 Z1.2 F288.0 E31101.513
G1 X12.55 Y2.48 Z1.2 F288.0 E31103.023
G1 X17.3 Y7.23 Z1.2 F288.0 E31114.052
G1 X16.42 Y6.94 Z1.2 F288.0 E31115.572
G1 X11.67 Y2.2 Z1.2 F288.0 E31126.592
G1 X10.8 Y1.91 Z1.2 F288.0 E31128.102
G1 X15.54 Y6.65 Z1.2 F288.0 E31139.11
G1 X14.66 Y6.37 Z1.2 F288.0 E31140.628
G1 X9.92 Y1.63 Z1.2 F288.0 E31151.628
G1 X9.05 Y1.35 Z1.2 F288.0 E31153.138
G1 X13.78 Y6.08 Z1.2 F288.0 E31164.128
;M103
G1 X14.3 Y3.05 Z1.2 F2880.0
;M101
G1 X21.63 Y10.38 Z1.2 F288.0 E31181.154
G1 X21.82 Y9.97 Z1.2 F288.0 E31181.891
G1 X15.18 Y3.33 Z1.2 F288.0 E31197.309
G1 X16.05 Y3.61 Z1.2 F288.0 E31198.819
G1 X22.0 Y9.56 Z1.2 F288.0 E31212.628
G1 X22.18 Y9.15 Z1.2 F288.0 E31213.365
G1 X16.93 Y3.89 Z1.2 F288.0 E31225.564
G1 X17.8 Y4.18 Z1.2 F288.0 E31227.074
G1 X22.36 Y8.74 Z1.2 F288.0 E31237.665
G1 X22.55 Y8.33 Z1.2 F288.0 E31238.401
G1 X18.68 Y4.46 Z1.2 F288.0 E31247.381
G1 X19.55 Y4.74 Z1.2 F288.0 E31248.891
G1 X22.85 Y8.04 Z1.2 F288.0 E31256.543
G1 X23.56 Y8.16 Z1.2 F288.0 E31257.729
G1 X19.94 Y4.54 Z1.2 F288.0 E31266.125
G1 X20.3 Y4.31 Z1.2 F288.0 E31266.828
G1 X24.27 Y8.28 Z1.2 F288.0 E31276.042
G1 X24.98 Y8.4 Z1.2 F288.0 E31277.227
G1 X23.82 Y7.23 Z1.2 F288.0 E31279.937
;M103
G1 X23.13 Y6.54 Z1.2 F2880.0
;M101
G1 X20.59 Y4.01 Z1.2 F288.0 E31285.829
G1 X20.65 Y3.47 Z1.2 F288.0 E31286.711
G1 X23.23 Y6.05 Z1.2 F288.0 E31292.708
G1 X23.34 Y5.57 Z1.2 F288.0 E31293.529
G1 X20.71 Y2.94 Z1.2 F288.0 E31299.63
G1 X20.77 Y2.4 Z1.2 F288.0 E31300.512
G1 X23.44 Y5.08 Z1.2 F288.0 E31306.719
G1 X23.55 Y4.59 Z1.2 F288.0 E31307.538
G1 X20.83 Y1.87 Z1.2 F288.0 E31313.849
G1 X20.89 Y1.34 Z1.2 F288.0 E31314.731
G1 X23.65 Y4.1 Z1.2 F288.0 E31321.147
G1 X23.75 Y3.61 Z1.2 F288.0 E31321.966
G1 X20.94 Y0.8 Z1.2 F288.0 E31328.488
G1 X20.97 Y0.24 Z1.2 F288.0 E31329.419
G1 X23.86 Y3.12 Z1.2 F288.0 E31336.121
G1 X24.42 Y3.1 Z1.2 F288.0 E31337.048
G1 X20.93 Y-0.4 Z1.2 F288.0 E31345.152
G1 X20.89 Y-1.03 Z1.2 F288.0 E31346.192
G1 X24.99 Y3.07 Z1.2 F288.0 E31355.705
G1 X25.56 Y3.05 Z1.2 F288.0 E31356.638
G1 X24.57 Y2.06 Z1.2 F288.0 E31358.925
G1 X25.37 Y2.27 Z1.2 F288.0 E31360.281
G1 X26.12 Y3.02 Z1.2 F288.0 E31362.029
G1 X26.17 Y2.47 Z1.2 F288.0 E31362.93
G1 X26.69 Y3.0 Z1.2 F288.0 E31364.142
G1 X26.97 Y2.68 Z1.2 F288.0 E31364.832
G1 X27.26 Y2.97 Z1.2 F288.0 E31365.508
G1 X27.77 Y2.89 Z1.2 F288.0 E31366.352
G1 X27.83 Y2.95 Z1.2 F288.0 E31366.491
;M103
G1 X23.99 Y1.47 Z1.2 F2880.0
;M101
G1 X20.85 Y-1.66 Z1.2 F288.0 E31373.766
G1 X20.81 Y-2.29 Z1.2 F288.0 E31374.806
G1 X23.99 Y0.88 Z1.2 F288.0 E31382.173
G1 X23.99 Y0.29 Z1.2 F288.0 E31383.147
G1 X20.77 Y-2.92 Z1.2 F288.0 E31390.606
G1 X20.62 Y-3.67 Z1.2 F288.0 E31391.851
G1 X23.99 Y-0.3 Z1.2 F288.0 E31399.659
G1 X23.99 Y-0.9 Z1.2 F288.0 E31400.633
G1 X20.44 Y-4.44 Z1.2 F288.0 E31408.863
G1 X20.26 Y-5.21 Z1.2 F288.0 E31410.168
G1 X23.99 Y-1.49 Z1.2 F288.0 E31418.82
G1 X24.12 Y-1.94 Z1.2 F288.0 E31419.601
G1 X20.08 Y-5.99 Z1.2 F288.0 E31428.991
G1 X19.81 Y-6.85 Z1.2 F288.0 E31430.474
G1 X24.59 Y-2.07 Z1.2 F288.0 E31441.583
G1 X25.06 Y-2.19 Z1.2 F288.0 E31442.382
G1 X19.38 Y-7.87 Z1.2 F288.0 E31455.58
G1 X18.95 Y-8.89 Z1.2 F288.0 E31457.4
;M103
G1 X19.73 Y-8.11 Z1.2 F2880.0
;M101
G1 X23.62 Y-4.22 Z1.2 F288.0 E31466.437
G1 X23.46 Y-4.97 Z1.2 F288.0 E31467.701
G1 X18.41 Y-10.03 Z1.2 F288.0 E31479.441
G1 X17.38 Y-11.65 Z1.2 F288.0 E31482.595
;M103
G1 X18.74 Y-10.29 Z1.2 F2880.0
;M101
G1 X23.3 Y-5.72 Z1.2 F288.0 E31493.199
G1 X23.14 Y-6.48 Z1.2 F288.0 E31494.463
G1 X14.6 Y-15.02 Z1.2 F288.0 E31514.302
;M103
G1 X20.88 Y-18.81 Z1.2 F2880.0
;M101
G1 X20.89 Y-18.8 Z1.2 F288.0 E31514.314
G1 X20.62 Y-18.48 Z1.2 F288.0 E31515.005
G1 X20.53 Y-18.57 Z1.2 F288.0 E31515.221
G1 X20.17 Y-18.34 Z1.2 F288.0 E31515.923
G1 X20.35 Y-18.15 Z1.2 F288.0 E31516.345
G1 X20.08 Y-17.83 Z1.2 F288.0 E31517.037
G1 X19.81 Y-18.1 Z1.2 F288.0 E31517.666
G1 X19.46 Y-17.86 Z1.2 F288.0 E31518.367
G1 X19.82 Y-17.5 Z1.2 F288.0 E31519.203
G1 X19.55 Y-17.18 Z1.2 F288.0 E31519.894
G1 X19.1 Y-17.63 Z1.2 F288.0 E31520.934
G1 X18.74 Y-17.39 Z1.2 F288.0 E31521.637
G1 X19.28 Y-16.86 Z1.2 F288.0 E31522.885
G1 X19.01 Y-16.53 Z1.2 F288.0 E31523.576
G1 X18.39 Y-17.16 Z1.2 F288.0 E31525.03
G1 X18.03 Y-16.92 Z1.2 F288.0 E31525.731
G1 X18.75 Y-16.2 Z1.2 F288.0 E31527.391
G1 X18.48 Y-15.88 Z1.2 F288.0 E31528.083
G1 X17.68 Y-16.68 Z1.2 F288.0 E31529.949
;M103
G1 X18.7 Y-15.07 Z1.2 F2880.0
;M101
G1 X13.8 Y-19.97 Z1.2 F288.0 E31541.336
G1 X14.09 Y-20.27 Z1.2 F288.0 E31542.023
G1 X14.85 Y-19.51 Z1.2 F288.0 E31543.781
G1 X15.05 Y-19.9 Z1.2 F288.0 E31544.502
G1 X14.38 Y-20.57 Z1.2 F288.0 E31546.048
G1 X14.68 Y-20.87 Z1.2 F288.0 E31546.736
G1 X15.25 Y-20.29 Z1.2 F288.0 E31548.071
G1 X15.45 Y-20.68 Z1.2 F288.0 E31548.792
G1 X14.97 Y-21.17 Z1.2 F288.0 E31549.915
G1 X15.27 Y-21.46 Z1.2 F288.0 E31550.602
G1 X15.66 Y-21.07 Z1.2 F288.0 E31551.513
G1 X15.86 Y-21.46 Z1.2 F288.0 E31552.233
G1 X15.56 Y-21.76 Z1.2 F288.0 E31552.934
G1 X15.85 Y-22.06 Z1.2 F288.0 E31553.622
G1 X16.06 Y-21.85 Z1.2 F288.0 E31554.11
G1 X16.27 Y-22.24 Z1.2 F288.0 E31554.831
G1 X16.15 Y-22.36 Z1.2 F288.0 E31555.109
G1 X16.44 Y-22.66 Z1.2 F288.0 E31555.798
G1 X16.47 Y-22.63 Z1.2 F288.0 E31555.865
;M103
G1 X12.96 Y-20.21 Z1.2 F2880.0
;M101
G1 X21.44 Y-11.74 Z1.2 F288.0 E31575.536
G1 X21.77 Y-12.0 Z1.2 F288.0 E31576.228
G1 X21.02 Y-12.75 Z1.2 F288.0 E31577.964
G1 X21.44 Y-12.92 Z1.2 F288.0 E31578.714
G1 X22.1 Y-12.26 Z1.2 F288.0 E31580.229
G1 X22.43 Y-12.53 Z1.2 F288.0 E31580.921
G1 X21.87 Y-13.08 Z1.2 F288.0 E31582.216
G1 X22.29 Y-13.25 Z1.2 F288.0 E31582.967
G1 X22.76 Y-12.79 Z1.2 F288.0 E31584.04
G1 X23.09 Y-13.05 Z1.2 F288.0 E31584.732
G1 X22.72 Y-13.42 Z1.2 F288.0 E31585.585
G1 X23.14 Y-13.58 Z1.2 F288.0 E31586.334
G1 X23.42 Y-13.31 Z1.2 F288.0 E31586.966
G1 X23.75 Y-13.58 Z1.2 F288.0 E31587.659
G1 X23.57 Y-13.75 Z1.2 F288.0 E31588.069
G1 X23.99 Y-13.92 Z1.2 F288.0 E31588.818
G1 X24.08 Y-13.84 Z1.2 F288.0 E31589.008
;M103
G1 X21.18 Y-11.4 Z1.2 F2880.0
;M101
G1 X11.56 Y-21.02 Z1.2 F288.0 E31611.336
;M103
G1 X10.45 Y-22.13 Z1.2 F2880.0
;M101
G1 X9.67 Y-22.91 Z1.2 F288.0 E31613.156
G1 X9.9 Y-23.28 Z1.2 F288.0 E31613.86
G1 X10.58 Y-22.59 Z1.2 F288.0 E31615.445
G1 X10.71 Y-23.06 Z1.2 F288.0 E31616.235
G1 X10.13 Y-23.64 Z1.2 F288.0 E31617.582
G1 X10.36 Y-24.0 Z1.2 F288.0 E31618.286
G1 X10.84 Y-23.52 Z1.2 F288.0 E31619.395
G1 X10.97 Y-23.98 Z1.2 F288.0 E31620.186
G1 X10.59 Y-24.36 Z1.2 F288.0 E31621.059
G1 X10.82 Y-24.72 Z1.2 F288.0 E31621.763
G1 X11.1 Y-24.45 Z1.2 F288.0 E31622.4
G1 X11.22 Y-24.91 Z1.2 F288.0 E31623.189
G1 X11.05 Y-25.08 Z1.2 F288.0 E31623.588
G1 X11.35 Y-25.38 Z1.2 F288.0 E31624.277
G1 X11.28 Y-25.45 Z1.2 F288.0 E31624.439
;M103
G1 X9.44 Y-22.55 Z1.2 F2880.0
;M101
G1 X21.65 Y-10.34 Z1.2 F288.0 E31652.802
G1 X22.13 Y-9.27 Z1.2 F288.0 E31654.719
;M103
G1 X21.3 Y-10.1 Z1.2 F2880.0
;M101
G1 X9.15 Y-22.25 Z1.2 F288.0 E31682.932
G1 X8.27 Y-22.53 Z1.2 F288.0 E31684.446
G1 X23.66 Y-7.15 Z1.2 F288.0 E31720.162
G1 X24.05 Y-7.35 Z1.2 F288.0 E31720.889
G1 X23.29 Y-8.11 Z1.2 F288.0 E31722.666
G1 X23.79 Y-8.2 Z1.2 F288.0 E31723.512
G1 X24.45 Y-7.54 Z1.2 F288.0 E31725.028
G1 X24.84 Y-7.74 Z1.2 F288.0 E31725.754
G1 X24.3 Y-8.28 Z1.2 F288.0 E31727.012
G1 X24.81 Y-8.37 Z1.2 F288.0 E31727.857
G1 X25.24 Y-7.94 Z1.2 F288.0 E31728.853
G1 X25.63 Y-8.13 Z1.2 F288.0 E31729.577
G1 X25.32 Y-8.45 Z1.2 F288.0 E31730.312
G1 X25.82 Y-8.54 Z1.2 F288.0 E31731.156
G1 X26.03 Y-8.33 Z1.2 F288.0 E31731.632
G1 X26.33 Y-8.62 Z1.2 F288.0 E31732.321
G1 X26.42 Y-8.53 Z1.2 F288.0 E31732.536
;M103
G1 X23.98 Y-6.41 Z1.2 F3600.0
G1 X24.51 Y-3.89 Z1.2 F3600.0
G1 X25.53 Y-2.31 Z1.2 F2880.0
;M101
G1 X24.76 Y-3.08 Z1.2 F288.0 E31734.326
G1 X25.38 Y-3.05 Z1.2 F288.0 E31735.343
G1 X26.0 Y-2.43 Z1.2 F288.0 E31736.789
G1 X26.47 Y-2.55 Z1.2 F288.0 E31737.586
G1 X26.0 Y-3.03 Z1.2 F288.0 E31738.685
G1 X26.62 Y-3.0 Z1.2 F288.0 E31739.704
G1 X26.94 Y-2.68 Z1.2 F288.0 E31740.459
G1 X27.24 Y-2.97 Z1.2 F288.0 E31741.146
G1 X27.41 Y-2.8 Z1.2 F288.0 E31741.555
G1 X27.86 Y-2.95 Z1.2 F288.0 E31742.322
G1 X27.88 Y-2.92 Z1.2 F288.0 E31742.385
;M103
G1 X24.79 Y-1.29 Z1.2 F3600.0
G1 X24.79 Y1.29 Z1.2 F3600.0
G1 X26.6 Y1.87 Z1.2 F3600.0
G1 X26.01 Y3.72 Z1.2 F3600.0
G1 X24.51 Y3.89 Z1.2 F3600.0
G1 X23.98 Y6.41 Z1.2 F3600.0
G1 X25.0 Y7.82 Z1.2 F2880.0
;M101
G1 X25.7 Y8.52 Z1.2 F288.0 E31744.002
G1 X26.18 Y8.41 Z1.2 F288.0 E31744.819
G1 X26.41 Y8.64 Z1.2 F288.0 E31745.342
;M103
G1 X23.17 Y8.9 Z1.2 F3600.0
G1 X22.12 Y11.26 Z1.2 F3600.0
G1 X23.49 Y12.49 Z1.2 F3600.0
G1 X22.27 Y13.98 Z1.2 F3600.0
G1 X20.81 Y13.53 Z1.2 F3600.0
G1 X19.29 Y15.61 Z1.2 F3600.0
G1 X20.14 Y16.81 Z1.2 F3600.0
G1 X19.01 Y18.39 Z1.2 F3600.0
G1 X17.54 Y17.56 Z1.2 F3600.0
G1 X15.63 Y19.28 Z1.2 F3600.0
G1 X16.2 Y22.13 Z1.2 F2880.0
;M101
G1 X11.54 Y17.46 Z1.2 F288.0 E31756.177
G1 X11.91 Y17.24 Z1.2 F288.0 E31756.885
G1 X15.56 Y20.9 Z1.2 F288.0 E31765.376
;M103
G1 X13.51 Y20.82 Z1.2 F3600.0
G1 X9.29 Y22.32 Z1.2 F2880.0
;M101
G1 X10.97 Y24.0 Z1.2 F288.0 E31769.273
G1 X10.33 Y23.96 Z1.2 F288.0 E31770.325
G1 X11.2 Y24.82 Z1.2 F288.0 E31772.336
G1 X11.37 Y25.59 Z1.2 F288.0 E31773.624
G1 X11.42 Y25.64 Z1.2 F288.0 E31773.749
;M103
G1 X8.88 Y23.18 Z1.2 F3600.0
G1 X6.43 Y23.97 Z1.2 F3600.0
G1 X5.75 Y25.89 Z1.2 F2880.0
;M101
G1 X4.94 Y25.08 Z1.2 F288.0 E31775.632
;M103
G1 X5.29 Y26.02 Z1.2 F2880.0
;M101
G1 X5.79 Y26.52 Z1.2 F288.0 E31776.783
G1 X5.64 Y26.97 Z1.2 F288.0 E31777.557
G1 X5.82 Y27.15 Z1.2 F288.0 E31777.977
;M103
G1 X-2.21 Y13.3 Z1.2 F3600.0
G1 X-2.3 Y9.55 Z1.2 F3600.0
G1 X-7.58 Y4.86 Z1.2 F2880.0
;M101
G1 X-5.1 Y7.35 Z1.2 F288.0 E31783.747
;M103
G1 X-3.45 Y4.85 Z1.2 F2880.0
;M101
G1 X-1.98 Y6.31 Z1.2 F288.0 E31787.146
G1 X-1.98 Y5.72 Z1.2 F288.0 E31788.118
G1 X-2.16 Y5.54 Z1.2 F288.0 E31788.52
;M103
G1 X-4.36 Y3.0 Z1.2 F3600.0
G1 X-4.98 Y1.8 Z1.2 F3600.0
G1 X-5.27 Y0.48 Z1.2 F3600.0
G1 X-5.22 Y-0.87 Z1.2 F3600.0
G1 X-4.83 Y-2.16 Z1.2 F3600.0
G1 X-4.13 Y-3.31 Z1.2 F3600.0
G1 X-3.16 Y-4.25 Z1.2 F3600.0
G1 X-1.98 Y-4.91 Z1.2 F3600.0
G1 X-0.67 Y-5.25 Z1.2 F3600.0
G1 X0.67 Y-5.25 Z1.2 F3600.0
G1 X1.98 Y-4.91 Z1.2 F3600.0
G1 X2.49 Y-4.63 Z1.2 F3600.0
G1 X6.35 Y-12.51 Z1.2 F3600.0
G1 X9.78 Y-17.33 Z1.2 F3600.0
G1 X9.66 Y-17.76 Z1.2 F3600.0
G1 X8.94 Y-18.9 Z1.2 F2880.0
;M101
G1 X4.16 Y-23.68 Z1.2 F288.0 E31799.608
G1 X3.5 Y-23.75 Z1.2 F288.0 E31800.703
G1 X7.86 Y-19.39 Z1.2 F288.0 E31810.823
;M103
G1 X7.44 Y-19.19 Z1.2 F3600.0
;M101
G1 X6.79 Y-19.48 Z1.2 F288.0 E31811.997
G1 X3.44 Y-20.34 Z1.2 F288.0 E31817.673
G1 X0.0 Y-20.63 Z1.2 F288.0 E31823.346
G1 X-3.44 Y-20.34 Z1.2 F288.0 E31829.019
G1 X-6.79 Y-19.48 Z1.2 F288.0 E31834.695
G1 X-9.99 Y-18.04 Z1.2 F288.0 E31840.453
G1 X-10.2 Y-17.25 Z1.2 F288.0 E31841.797
G1 X-3.93 Y-8.59 Z1.2 F288.0 E31859.353
G1 X-1.17 Y-9.29 Z1.2 F288.0 E31864.026
G1 X1.17 Y-9.29 Z1.2 F288.0 E31867.868
G1 X3.93 Y-8.59 Z1.2 F288.0 E31872.541
G1 X10.2 Y-17.25 Z1.2 F288.0 E31890.097
G1 X9.99 Y-18.04 Z1.2 F288.0 E31891.441
G1 X7.71 Y-19.07 Z1.2 F288.0 E31895.537
G1 X7.44 Y-19.19 Z1.2 F288.0 E31896.025
;M103
G1 X13.25 Y-15.03 Z1.2 F3600.0
;M101
G1 X6.95 Y-6.39 Z1.2 F288.0 E31913.584
G1 X8.48 Y-3.99 Z1.2 F288.0 E31918.257
G1 X9.2 Y-1.76 Z1.2 F288.0 E31922.1
G1 X9.38 Y1.08 Z1.2 F288.0 E31926.77
G1 X19.55 Y4.37 Z1.2 F288.0 E31944.325
G1 X20.24 Y3.93 Z1.2 F288.0 E31945.669
G1 X20.63 Y0.44 Z1.2 F288.0 E31951.431
G1 X20.41 Y-3.01 Z1.2 F288.0 E31957.105
G1 X19.62 Y-6.38 Z1.2 F288.0 E31962.778
G1 X18.28 Y-9.56 Z1.2 F288.0 E31968.451
G1 X16.43 Y-12.48 Z1.2 F288.0 E31974.128
G1 X14.07 Y-15.07 Z1.2 F288.0 E31979.883
G1 X13.25 Y-15.03 Z1.2 F288.0 E31981.226
;M103
G1 X3.75 Y-9.07 Z1.2 F3600.0
G1 X-6.95 Y-6.39 Z1.2 F3600.0
;M101
G1 X-13.25 Y-15.03 Z1.2 F288.0 E31998.786
G1 X-14.07 Y-15.07 Z1.2 F288.0 E32000.129
G1 X-16.43 Y-12.48 Z1.2 F288.0 E32005.884
G1 X-18.28 Y-9.56 Z1.2 F288.0 E32011.561
G1 X-19.62 Y-6.38 Z1.2 F288.0 E32017.234
G1 X-20.41 Y-3.01 Z1.2 F288.0 E32022.907
G1 X-20.63 Y0.44 Z1.2 F288.0 E32028.581
G1 X-20.24 Y3.93 Z1.2 F288.0 E32034.343
G1 X-19.55 Y4.37 Z1.2 F288.0 E32035.687
G1 X-9.38 Y1.08 Z1.2 F288.0 E32053.242
G1 X-9.2 Y-1.76 Z1.2 F288.0 E32057.912
G1 X-8.48 Y-3.99 Z1.2 F288.0 E32061.755
G1 X-6.95 Y-6.39 Z1.2 F288.0 E32066.428
;M103
G1 X-4.39 Y-3.52 Z1.2 F3600.0
;M101
G1 X-5.14 Y-2.3 Z1.2 F288.0 E32068.786
G1 X-5.56 Y-0.92 Z1.2 F288.0 E32071.144
G1 X-5.61 Y0.51 Z1.2 F288.0 E32073.503
G1 X-5.3 Y1.91 Z1.2 F288.0 E32075.86
G1 X-4.64 Y3.19 Z1.2 F288.0 E32078.218
G1 X-3.68 Y4.26 Z1.2 F288.0 E32080.577
G1 X-2.49 Y5.06 Z1.2 F288.0 E32082.936
G1 X-1.63 Y5.35 Z1.2 F288.0 E32084.424
G1 X-1.63 Y7.17 Z1.2 F288.0 E32087.414
G1 X1.63 Y7.17 Z1.2 F288.0 E32092.76
G1 X1.63 Y5.35 Z1.2 F288.0 E32095.75
G1 X2.49 Y5.06 Z1.2 F288.0 E32097.238
G1 X3.68 Y4.26 Z1.2 F288.0 E32099.596
G1 X4.64 Y3.19 Z1.2 F288.0 E32101.955
G1 X5.3 Y1.91 Z1.2 F288.0 E32104.314
G1 X5.61 Y0.51 Z1.2 F288.0 E32106.67
G1 X5.56 Y-0.92 Z1.2 F288.0 E32109.03
G1 X5.14 Y-2.3 Z1.2 F288.0 E32111.387
G1 X4.39 Y-3.52 Z1.2 F288.0 E32113.746
G1 X3.36 Y-4.52 Z1.2 F288.0 E32116.105
G1 X2.11 Y-5.23 Z1.2 F288.0 E32118.464
G1 X0.72 Y-5.59 Z1.2 F288.0 E32120.823
G1 X-0.72 Y-5.59 Z1.2 F288.0 E32123.18
G1 X-2.11 Y-5.23 Z1.2 F288.0 E32125.539
G1 X-3.36 Y-4.52 Z1.2 F288.0 E32127.898
G1 X-4.39 Y-3.52 Z1.2 F288.0 E32130.257
;M103
G1 X-8.23 Y4.64 Z1.2 F3600.0
;M101
G1 X-18.39 Y7.96 Z1.2 F288.0 E32147.812
G1 X-18.68 Y8.72 Z1.2 F288.0 E32149.157
G1 X-16.95 Y11.77 Z1.2 F288.0 E32154.917
G1 X-14.74 Y14.43 Z1.2 F288.0 E32160.592
G1 X-12.13 Y16.69 Z1.2 F288.0 E32166.263
G1 X-9.17 Y18.48 Z1.2 F288.0 E32171.937
G1 X-5.96 Y19.75 Z1.2 F288.0 E32177.612
G1 X-2.52 Y20.47 Z1.2 F288.0 E32183.371
G1 X-1.89 Y19.95 Z1.2 F288.0 E32184.717
G1 X-1.87 Y9.26 Z1.2 F288.0 E32202.273
G1 X-4.52 Y8.21 Z1.2 F288.0 E32206.946
G1 X-6.41 Y6.83 Z1.2 F288.0 E32210.787
G1 X-8.23 Y4.64 Z1.2 F288.0 E32215.46
;M103
G1 X1.87 Y9.26 Z1.2 F3600.0
;M101
G1 X1.89 Y19.95 Z1.2 F288.0 E32233.016
G1 X2.52 Y20.47 Z1.2 F288.0 E32234.362
G1 X5.96 Y19.75 Z1.2 F288.0 E32240.121
G1 X9.17 Y18.48 Z1.2 F288.0 E32245.796
G1 X12.13 Y16.69 Z1.2 F288.0 E32251.47
G1 X14.74 Y14.43 Z1.2 F288.0 E32257.141
G1 X16.95 Y11.77 Z1.2 F288.0 E32262.816
G1 X18.68 Y8.72 Z1.2 F288.0 E32268.576
G1 X18.39 Y7.96 Z1.2 F288.0 E32269.921
G1 X8.23 Y4.64 Z1.2 F288.0 E32287.476
G1 X6.41 Y6.83 Z1.2 F288.0 E32292.148
G1 X4.52 Y8.21 Z1.2 F288.0 E32295.99
G1 X1.87 Y9.26 Z1.2 F288.0 E32300.662
;M103
G1 X2.28 Y19.76 Z1.2 F3600.0
G1 X3.44 Y24.11 Z1.2 F3600.0
;M101
G1 X0.92 Y24.38 Z1.2 F288.0 E32304.813
G1 X0.21 Y29.12 Z1.2 F288.0 E32312.689
G1 X-0.21 Y29.12 Z1.2 F288.0 E32313.375
G1 X-0.92 Y24.38 Z1.2 F288.0 E32321.252
G1 X-4.17 Y24.04 Z1.2 F288.0 E32326.612
G1 X-5.85 Y28.53 Z1.2 F288.0 E32334.49
G1 X-6.26 Y28.44 Z1.2 F288.0 E32335.175
G1 X-5.97 Y23.65 Z1.2 F288.0 E32343.05
G1 X-9.07 Y22.65 Z1.2 F288.0 E32348.411
G1 X-11.65 Y26.69 Z1.2 F288.0 E32356.287
G1 X-12.04 Y26.52 Z1.2 F288.0 E32356.973
G1 X-10.76 Y21.9 Z1.2 F288.0 E32364.849
G1 X-13.58 Y20.26 Z1.2 F288.0 E32370.21
G1 X-16.95 Y23.68 Z1.2 F288.0 E32378.086
G1 X-17.29 Y23.44 Z1.2 F288.0 E32378.772
G1 X-15.07 Y19.18 Z1.2 F288.0 E32386.648
G1 X-17.5 Y17.0 Z1.2 F288.0 E32392.009
G1 X-21.5 Y19.64 Z1.2 F288.0 E32399.884
G1 X-21.78 Y19.33 Z1.2 F288.0 E32400.569
G1 X-18.73 Y15.63 Z1.2 F288.0 E32408.444
G1 X-20.65 Y12.99 Z1.2 F288.0 E32413.806
G1 X-25.12 Y14.74 Z1.2 F288.0 E32421.682
G1 X-25.32 Y14.38 Z1.2 F288.0 E32422.368
G1 X-21.57 Y11.39 Z1.2 F288.0 E32430.243
G1 X-22.9 Y8.41 Z1.2 F288.0 E32435.606
G1 X-27.63 Y9.2 Z1.2 F288.0 E32443.483
G1 X-27.76 Y8.8 Z1.2 F288.0 E32444.168
G1 X-23.47 Y6.66 Z1.2 F288.0 E32452.046
G1 X-24.15 Y3.46 Z1.2 F288.0 E32457.408
G1 X-28.94 Y3.25 Z1.2 F288.0 E32465.282
G1 X-28.98 Y2.84 Z1.2 F288.0 E32465.967
G1 X-24.34 Y1.63 Z1.2 F288.0 E32473.842
G1 X-24.34 Y-1.63 Z1.2 F288.0 E32479.205
G1 X-28.98 Y-2.84 Z1.2 F288.0 E32487.08
G1 X-28.94 Y-3.25 Z1.2 F288.0 E32487.765
G1 X-24.15 Y-3.46 Z1.2 F288.0 E32495.639
G1 X-23.47 Y-6.66 Z1.2 F288.0 E32501.001
G1 X-27.76 Y-8.8 Z1.2 F288.0 E32508.879
G1 X-27.63 Y-9.2 Z1.2 F288.0 E32509.565
G1 X-22.9 Y-8.41 Z1.2 F288.0 E32517.442
G1 X-21.57 Y-11.39 Z1.2 F288.0 E32522.804
G1 X-25.32 Y-14.38 Z1.2 F288.0 E32530.679
G1 X-25.12 Y-14.74 Z1.2 F288.0 E32531.366
G1 X-20.65 Y-12.99 Z1.2 F288.0 E32539.242
G1 X-18.73 Y-15.63 Z1.2 F288.0 E32544.603
G1 X-21.78 Y-19.33 Z1.2 F288.0 E32552.479
G1 X-21.5 Y-19.64 Z1.2 F288.0 E32553.163
G1 X-17.5 Y-17.0 Z1.2 F288.0 E32561.038
G1 X-15.07 Y-19.18 Z1.2 F288.0 E32566.399
G1 X-17.29 Y-23.44 Z1.2 F288.0 E32574.276
G1 X-16.95 Y-23.68 Z1.2 F288.0 E32574.961
G1 X-13.58 Y-20.26 Z1.2 F288.0 E32582.837
G1 X-10.76 Y-21.9 Z1.2 F288.0 E32588.199
G1 X-12.04 Y-26.52 Z1.2 F288.0 E32596.074
G1 X-11.65 Y-26.69 Z1.2 F288.0 E32596.761
G1 X-9.07 Y-22.65 Z1.2 F288.0 E32604.637
G1 X-5.97 Y-23.65 Z1.2 F288.0 E32609.997
G1 X-6.26 Y-28.44 Z1.2 F288.0 E32617.873
G1 X-5.85 Y-28.53 Z1.2 F288.0 E32618.558
G1 X-4.17 Y-24.04 Z1.2 F288.0 E32626.435
G1 X-0.92 Y-24.38 Z1.2 F288.0 E32631.796
G1 X-0.21 Y-29.12 Z1.2 F288.0 E32639.672
G1 X0.21 Y-29.12 Z1.2 F288.0 E32640.358
G1 X0.92 Y-24.38 Z1.2 F288.0 E32648.235
G1 X4.17 Y-24.04 Z1.2 F288.0 E32653.595
G1 X5.85 Y-28.53 Z1.2 F288.0 E32661.473
G1 X6.26 Y-28.44 Z1.2 F288.0 E32662.158
G1 X5.97 Y-23.65 Z1.2 F288.0 E32670.033
G1 X9.07 Y-22.65 Z1.2 F288.0 E32675.394
G1 X11.65 Y-26.69 Z1.2 F288.0 E32683.27
G1 X12.04 Y-26.52 Z1.2 F288.0 E32683.956
G1 X10.76 Y-21.9 Z1.2 F288.0 E32691.832
G1 X13.58 Y-20.26 Z1.2 F288.0 E32697.193
G1 X16.95 Y-23.68 Z1.2 F288.0 E32705.069
G1 X17.29 Y-23.44 Z1.2 F288.0 E32705.755
G1 X15.07 Y-19.18 Z1.2 F288.0 E32713.631
G1 X17.5 Y-17.0 Z1.2 F288.0 E32718.992
G1 X21.5 Y-19.64 Z1.2 F288.0 E32726.867
G1 X21.78 Y-19.33 Z1.2 F288.0 E32727.552
G1 X18.73 Y-15.63 Z1.2 F288.0 E32735.427
G1 X20.65 Y-12.99 Z1.2 F288.0 E32740.789
G1 X25.12 Y-14.74 Z1.2 F288.0 E32748.665
G1 X25.32 Y-14.38 Z1.2 F288.0 E32749.351
G1 X21.57 Y-11.39 Z1.2 F288.0 E32757.226
G1 X22.9 Y-8.41 Z1.2 F288.0 E32762.589
G1 X27.63 Y-9.2 Z1.2 F288.0 E32770.466
G1 X27.76 Y-8.8 Z1.2 F288.0 E32771.151
G1 X23.47 Y-6.66 Z1.2 F288.0 E32779.029
G1 X24.15 Y-3.46 Z1.2 F288.0 E32784.391
G1 X28.94 Y-3.25 Z1.2 F288.0 E32792.265
G1 X28.98 Y-2.84 Z1.2 F288.0 E32792.95
G1 X24.34 Y-1.63 Z1.2 F288.0 E32800.826
G1 X24.34 Y1.63 Z1.2 F288.0 E32806.188
G1 X28.98 Y2.84 Z1.2 F288.0 E32814.063
G1 X28.94 Y3.25 Z1.2 F288.0 E32814.749
G1 X24.15 Y3.46 Z1.2 F288.0 E32822.622
G1 X23.47 Y6.66 Z1.2 F288.0 E32827.984
G1 X27.76 Y8.8 Z1.2 F288.0 E32835.862
G1 X27.63 Y9.2 Z1.2 F288.0 E32836.548
G1 X22.9 Y8.41 Z1.2 F288.0 E32844.425
G1 X21.57 Y11.39 Z1.2 F288.0 E32849.787
G1 X25.32 Y14.38 Z1.2 F288.0 E32857.662
G1 X25.12 Y14.74 Z1.2 F288.0 E32858.349
G1 X20.65 Y12.99 Z1.2 F288.0 E32866.225
G1 X18.73 Y15.63 Z1.2 F288.0 E32871.586
G1 X21.78 Y19.33 Z1.2 F288.0 E32879.462
G1 X21.5 Y19.64 Z1.2 F288.0 E32880.146
G1 X17.5 Y17.0 Z1.2 F288.0 E32888.021
G1 X15.07 Y19.18 Z1.2 F288.0 E32893.382
G1 X17.29 Y23.44 Z1.2 F288.0 E32901.259
G1 X16.95 Y23.68 Z1.2 F288.0 E32901.944
G1 X13.58 Y20.26 Z1.2 F288.0 E32909.821
G1 X10.76 Y21.9 Z1.2 F288.0 E32915.182
G1 X12.04 Y26.52 Z1.2 F288.0 E32923.057
G1 X11.65 Y26.69 Z1.2 F288.0 E32923.744
G1 X9.07 Y22.65 Z1.2 F288.0 E32931.62
G1 X5.97 Y23.65 Z1.2 F288.0 E32936.98
G1 X6.26 Y28.44 Z1.2 F288.0 E32944.856
G1 X5.85 Y28.53 Z1.2 F288.0 E32945.541
G1 X4.17 Y24.04 Z1.2 F288.0 E32953.418
G1 X3.44 Y24.11 Z1.2 F288.0 E32954.628
;M103
;M108 S5.629
;M108 S5.91
G1 X3.48 Y24.53 Z1.2 F3600.0
;M101
G1 X1.29 Y24.76 Z1.2 F243.0 E32957.845
G1 X0.57 Y29.54 Z1.2 F243.0 E32964.898
G1 X-0.57 Y29.54 Z1.2 F243.0 E32966.562
G1 X-1.29 Y24.76 Z1.2 F243.0 E32973.615
G1 X-3.89 Y24.49 Z1.2 F243.0 E32977.434
G1 X-5.59 Y29.01 Z1.2 F243.0 E32984.488
G1 X-6.7 Y28.78 Z1.2 F243.0 E32986.15
G1 X-6.41 Y23.95 Z1.2 F243.0 E32993.204
G1 X-8.9 Y23.14 Z1.2 F243.0 E32997.023
G1 X-11.5 Y27.22 Z1.2 F243.0 E33004.076
G1 X-12.54 Y26.76 Z1.2 F243.0 E33005.739
G1 X-11.25 Y22.1 Z1.2 F243.0 E33012.791
G1 X-13.51 Y20.79 Z1.2 F243.0 E33016.61
G1 X-16.9 Y24.23 Z1.2 F243.0 E33023.663
G1 X-17.82 Y23.56 Z1.2 F243.0 E33025.324
G1 X-15.6 Y19.27 Z1.2 F243.0 E33032.378
G1 X-17.54 Y17.52 Z1.2 F243.0 E33036.197
G1 X-21.57 Y20.19 Z1.2 F243.0 E33043.25
G1 X-22.33 Y19.34 Z1.2 F243.0 E33044.913
G1 X-19.26 Y15.61 Z1.2 F243.0 E33051.966
G1 X-20.8 Y13.5 Z1.2 F243.0 E33055.786
G1 X-25.3 Y15.26 Z1.2 F243.0 E33062.839
G1 X-25.87 Y14.28 Z1.2 F243.0 E33064.501
G1 X-22.09 Y11.27 Z1.2 F243.0 E33071.553
G1 X-23.15 Y8.88 Z1.2 F243.0 E33075.372
G1 X-27.92 Y9.67 Z1.2 F243.0 E33082.427
G1 X-28.27 Y8.59 Z1.2 F243.0 E33084.09
G1 X-23.95 Y6.43 Z1.2 F243.0 E33091.144
G1 X-24.49 Y3.87 Z1.2 F243.0 E33094.964
G1 X-29.32 Y3.66 Z1.2 F243.0 E33102.016
G1 X-29.44 Y2.52 Z1.2 F243.0 E33103.678
G1 X-24.76 Y1.31 Z1.2 F243.0 E33110.731
G1 X-24.76 Y-1.31 Z1.2 F243.0 E33114.551
G1 X-29.44 Y-2.52 Z1.2 F243.0 E33121.603
G1 X-29.32 Y-3.66 Z1.2 F243.0 E33123.265
G1 X-24.49 Y-3.87 Z1.2 F243.0 E33130.318
G1 X-23.95 Y-6.43 Z1.2 F243.0 E33134.137
G1 X-28.27 Y-8.59 Z1.2 F243.0 E33141.191
G1 X-27.92 Y-9.67 Z1.2 F243.0 E33142.854
G1 X-23.15 Y-8.88 Z1.2 F243.0 E33149.91
G1 X-22.09 Y-11.27 Z1.2 F243.0 E33153.728
G1 X-25.87 Y-14.28 Z1.2 F243.0 E33160.78
G1 X-25.3 Y-15.26 Z1.2 F243.0 E33162.443
G1 X-20.8 Y-13.5 Z1.2 F243.0 E33169.496
G1 X-19.26 Y-15.61 Z1.2 F243.0 E33173.315
G1 X-22.33 Y-19.34 Z1.2 F243.0 E33180.369
G1 X-21.57 Y-20.19 Z1.2 F243.0 E33182.031
G1 X-17.54 Y-17.52 Z1.2 F243.0 E33189.085
G1 X-15.6 Y-19.27 Z1.2 F243.0 E33192.904
G1 X-17.82 Y-23.56 Z1.2 F243.0 E33199.957
G1 X-16.9 Y-24.23 Z1.2 F243.0 E33201.618
G1 X-13.51 Y-20.79 Z1.2 F243.0 E33208.671
G1 X-11.25 Y-22.1 Z1.2 F243.0 E33212.49
G1 X-12.54 Y-26.76 Z1.2 F243.0 E33219.543
G1 X-11.5 Y-27.22 Z1.2 F243.0 E33221.205
G1 X-8.9 Y-23.14 Z1.2 F243.0 E33228.258
G1 X-6.41 Y-23.95 Z1.2 F243.0 E33232.077
G1 X-6.7 Y-28.78 Z1.2 F243.0 E33239.131
G1 X-5.59 Y-29.01 Z1.2 F243.0 E33240.793
G1 X-3.89 Y-24.49 Z1.2 F243.0 E33247.847
G1 X-1.29 Y-24.76 Z1.2 F243.0 E33251.667
G1 X-0.57 Y-29.54 Z1.2 F243.0 E33258.72
G1 X0.57 Y-29.54 Z1.2 F243.0 E33260.383
G1 X1.29 Y-24.76 Z1.2 F243.0 E33267.437
G1 X3.89 Y-24.49 Z1.2 F243.0 E33271.256
G1 X5.59 Y-29.01 Z1.2 F243.0 E33278.31
G1 X6.7 Y-28.78 Z1.2 F243.0 E33279.972
G1 X6.41 Y-23.95 Z1.2 F243.0 E33287.026
G1 X8.9 Y-23.14 Z1.2 F243.0 E33290.845
G1 X11.5 Y-27.22 Z1.2 F243.0 E33297.898
G1 X12.54 Y-26.76 Z1.2 F243.0 E33299.561
G1 X11.25 Y-22.1 Z1.2 F243.0 E33306.613
G1 X13.51 Y-20.79 Z1.2 F243.0 E33310.432
G1 X16.9 Y-24.23 Z1.2 F243.0 E33317.485
G1 X17.82 Y-23.56 Z1.2 F243.0 E33319.146
G1 X15.6 Y-19.27 Z1.2 F243.0 E33326.2
G1 X17.54 Y-17.52 Z1.2 F243.0 E33330.019
G1 X21.57 Y-20.19 Z1.2 F243.0 E33337.072
G1 X22.33 Y-19.34 Z1.2 F243.0 E33338.735
G1 X19.26 Y-15.61 Z1.2 F243.0 E33345.788
G1 X20.8 Y-13.5 Z1.2 F243.0 E33349.608
G1 X25.3 Y-15.26 Z1.2 F243.0 E33356.661
G1 X25.87 Y-14.28 Z1.2 F243.0 E33358.323
G1 X22.09 Y-11.27 Z1.2 F243.0 E33365.375
G1 X23.15 Y-8.88 Z1.2 F243.0 E33369.194
G1 X27.92 Y-9.67 Z1.2 F243.0 E33376.249
G1 X28.27 Y-8.59 Z1.2 F243.0 E33377.912
G1 X23.95 Y-6.43 Z1.2 F243.0 E33384.966
G1 X24.49 Y-3.87 Z1.2 F243.0 E33388.786
G1 X29.32 Y-3.66 Z1.2 F243.0 E33395.838
G1 X29.44 Y-2.52 Z1.2 F243.0 E33397.5
G1 X24.76 Y-1.31 Z1.2 F243.0 E33404.552
G1 X24.76 Y1.31 Z1.2 F243.0 E33408.373
G1 X29.44 Y2.52 Z1.2 F243.0 E33415.425
G1 X29.32 Y3.66 Z1.2 F243.0 E33417.087
G1 X24.49 Y3.87 Z1.2 F243.0 E33424.139
G1 X23.95 Y6.43 Z1.2 F243.0 E33427.959
G1 X28.27 Y8.59 Z1.2 F243.0 E33435.013
G1 X27.92 Y9.67 Z1.2 F243.0 E33436.676
G1 X23.15 Y8.88 Z1.2 F243.0 E33443.731
G1 X22.09 Y11.27 Z1.2 F243.0 E33447.55
G1 X25.87 Y14.28 Z1.2 F243.0 E33454.602
G1 X25.3 Y15.26 Z1.2 F243.0 E33456.264
G1 X20.8 Y13.5 Z1.2 F243.0 E33463.318
G1 X19.26 Y15.61 Z1.2 F243.0 E33467.137
G1 X22.33 Y19.34 Z1.2 F243.0 E33474.19
G1 X21.57 Y20.19 Z1.2 F243.0 E33475.853
G1 X17.54 Y17.52 Z1.2 F243.0 E33482.906
G1 X15.6 Y19.27 Z1.2 F243.0 E33486.725
G1 X17.82 Y23.56 Z1.2 F243.0 E33493.779
G1 X16.9 Y24.23 Z1.2 F243.0 E33495.44
G1 X13.51 Y20.79 Z1.2 F243.0 E33502.493
G1 X11.25 Y22.1 Z1.2 F243.0 E33506.312
G1 X12.54 Y26.76 Z1.2 F243.0 E33513.364
G1 X11.5 Y27.22 Z1.2 F243.0 E33515.027
G1 X8.9 Y23.14 Z1.2 F243.0 E33522.08
G1 X6.41 Y23.95 Z1.2 F243.0 E33525.899
G1 X6.7 Y28.78 Z1.2 F243.0 E33532.953
G1 X5.59 Y29.01 Z1.2 F243.0 E33534.615
G1 X3.89 Y24.49 Z1.2 F243.0 E33541.669
G1 X3.48 Y24.53 Z1.2 F243.0 E33542.272
;M103
G1 X2.63 Y20.01 Z1.2 F3600.0
;M101
G1 X5.84 Y19.35 Z1.2 F243.0 E33547.057
G1 X8.98 Y18.1 Z1.2 F243.0 E33551.996
G1 X11.88 Y16.35 Z1.2 F243.0 E33556.936
G1 X14.44 Y14.14 Z1.2 F243.0 E33561.873
G1 X16.6 Y11.53 Z1.2 F243.0 E33566.813
G1 X18.22 Y8.68 Z1.2 F243.0 E33571.597
G1 X18.07 Y8.3 Z1.2 F243.0 E33572.185
G1 X8.37 Y5.13 Z1.2 F243.0 E33587.091
G1 X6.7 Y7.14 Z1.2 F243.0 E33590.904
G1 X4.72 Y8.58 Z1.2 F243.0 E33594.473
G1 X2.29 Y9.54 Z1.2 F243.0 E33598.285
G1 X2.31 Y19.76 Z1.2 F243.0 E33613.191
G1 X2.63 Y20.01 Z1.2 F243.0 E33613.778
;M103
G1 X-2.31 Y19.76 Z1.2 F3600.0
;M101
G1 X-2.29 Y9.54 Z1.2 F243.0 E33628.685
G1 X-4.72 Y8.58 Z1.2 F243.0 E33632.497
G1 X-6.7 Y7.14 Z1.2 F243.0 E33636.066
G1 X-8.37 Y5.13 Z1.2 F243.0 E33639.879
G1 X-18.07 Y8.3 Z1.2 F243.0 E33654.784
G1 X-18.22 Y8.68 Z1.2 F243.0 E33655.373
G1 X-16.6 Y11.53 Z1.2 F243.0 E33660.157
G1 X-14.44 Y14.14 Z1.2 F243.0 E33665.097
G1 X-11.88 Y16.35 Z1.2 F243.0 E33670.034
G1 X-8.98 Y18.1 Z1.2 F243.0 E33674.974
G1 X-5.84 Y19.35 Z1.2 F243.0 E33679.913
G1 X-2.63 Y20.01 Z1.2 F243.0 E33684.698
G1 X-2.31 Y19.76 Z1.2 F243.0 E33685.285
;M103
G1 X-1.21 Y6.75 Z1.2 F3600.0
;M101
G1 X1.21 Y6.75 Z1.2 F243.0 E33688.816
G1 X1.21 Y5.05 Z1.2 F243.0 E33691.3
G1 X2.3 Y4.68 Z1.2 F243.0 E33692.979
G1 X3.41 Y3.94 Z1.2 F243.0 E33694.919
G1 X4.29 Y2.95 Z1.2 F243.0 E33696.858
G1 X4.9 Y1.77 Z1.2 F243.0 E33698.797
G1 X5.19 Y0.47 Z1.2 F243.0 E33700.736
G1 X5.14 Y-0.85 Z1.2 F243.0 E33702.675
G1 X4.76 Y-2.13 Z1.2 F243.0 E33704.614
G1 X4.07 Y-3.26 Z1.2 F243.0 E33706.552
G1 X3.11 Y-4.18 Z1.2 F243.0 E33708.492
G1 X1.95 Y-4.83 Z1.2 F243.0 E33710.431
G1 X0.66 Y-5.17 Z1.2 F243.0 E33712.371
G1 X-0.66 Y-5.17 Z1.2 F243.0 E33714.309
G1 X-1.95 Y-4.83 Z1.2 F243.0 E33716.248
G1 X-3.11 Y-4.18 Z1.2 F243.0 E33718.188
G1 X-4.07 Y-3.26 Z1.2 F243.0 E33720.128
G1 X-4.76 Y-2.13 Z1.2 F243.0 E33722.066
G1 X-5.14 Y-0.85 Z1.2 F243.0 E33724.004
G1 X-5.19 Y0.47 Z1.2 F243.0 E33725.944
G1 X-4.9 Y1.77 Z1.2 F243.0 E33727.882
G1 X-4.29 Y2.95 Z1.2 F243.0 E33729.821
G1 X-3.41 Y3.94 Z1.2 F243.0 E33731.761
G1 X-2.3 Y4.68 Z1.2 F243.0 E33733.701
G1 X-1.21 Y5.05 Z1.2 F243.0 E33735.38
G1 X-1.21 Y6.75 Z1.2 F243.0 E33737.864
;M103
G1 X-9.78 Y0.77 Z1.2 F3600.0
;M101
G1 X-9.62 Y-1.84 Z1.2 F243.0 E33741.675
G1 X-8.86 Y-4.16 Z1.2 F243.0 E33745.245
G1 X-7.46 Y-6.37 Z1.2 F243.0 E33749.058
G1 X-13.48 Y-14.62 Z1.2 F243.0 E33763.963
G1 X-13.88 Y-14.64 Z1.2 F243.0 E33764.551
G1 X-16.1 Y-12.22 Z1.2 F243.0 E33769.335
G1 X-17.91 Y-9.37 Z1.2 F243.0 E33774.275
G1 X-19.22 Y-6.25 Z1.2 F243.0 E33779.214
G1 X-19.99 Y-2.95 Z1.2 F243.0 E33784.153
G1 X-20.21 Y0.43 Z1.2 F243.0 E33789.09
G1 X-19.84 Y3.69 Z1.2 F243.0 E33793.876
G1 X-19.5 Y3.91 Z1.2 F243.0 E33794.464
G1 X-9.78 Y0.77 Z1.2 F243.0 E33809.369
;M103
G1 X-3.76 Y-9.07 Z1.2 F3600.0
;M101
G1 X-1.22 Y-9.71 Z1.2 F243.0 E33813.183
G1 X1.22 Y-9.71 Z1.2 F243.0 E33816.752
G1 X3.76 Y-9.07 Z1.2 F243.0 E33820.566
G1 X9.74 Y-17.34 Z1.2 F243.0 E33835.471
G1 X9.64 Y-17.73 Z1.2 F243.0 E33836.059
G1 X6.65 Y-19.09 Z1.2 F243.0 E33840.844
G1 X3.37 Y-19.93 Z1.2 F243.0 E33845.782
G1 X0.0 Y-20.21 Z1.2 F243.0 E33850.722
G1 X-3.37 Y-19.93 Z1.2 F243.0 E33855.661
G1 X-6.65 Y-19.09 Z1.2 F243.0 E33860.6
G1 X-9.64 Y-17.73 Z1.2 F243.0 E33865.385
G1 X-9.74 Y-17.34 Z1.2 F243.0 E33865.972
G1 X-3.76 Y-9.07 Z1.2 F243.0 E33880.877
;M103
G1 X7.46 Y-6.37 Z1.2 F3600.0
;M101
G1 X8.86 Y-4.16 Z1.2 F243.0 E33884.691
G1 X9.62 Y-1.84 Z1.2 F243.0 E33888.26
G1 X9.78 Y0.77 Z1.2 F243.0 E33892.072
G1 X19.5 Y3.91 Z1.2 F243.0 E33906.977
G1 X19.84 Y3.69 Z1.2 F243.0 E33907.565
G1 X20.21 Y0.43 Z1.2 F243.0 E33912.35
G1 X19.99 Y-2.95 Z1.2 F243.0 E33917.288
G1 X19.22 Y-6.25 Z1.2 F243.0 E33922.227
G1 X17.91 Y-9.37 Z1.2 F243.0 E33927.166
G1 X16.1 Y-12.22 Z1.2 F243.0 E33932.106
G1 X13.88 Y-14.64 Z1.2 F243.0 E33936.89
G1 X13.48 Y-14.62 Z1.2 F243.0 E33937.478
G1 X7.46 Y-6.37 Z1.2 F243.0 E33952.383
;M103
;M108 S7.506
G1 X8.44 Y-9.03 Z1.5 F3600.0
;M101
G1 X3.9 Y-4.49 Z1.5 F360.0 E33960.414
G1 X4.2 Y-4.2 Z1.5 F360.0 E33960.938
G1 X6.85 Y-6.85 Z1.5 F360.0 E33965.619
;M103
G1 X6.71 Y-6.11 Z1.5 F3600.0
;M101
G1 X4.51 Y-3.91 Z1.5 F360.0 E33969.514
G1 X4.77 Y-3.59 Z1.5 F360.0 E33970.04
G1 X6.94 Y-5.75 Z1.5 F360.0 E33973.867
G1 X7.17 Y-5.39 Z1.5 F360.0 E33974.404
G1 X5.0 Y-3.22 Z1.5 F360.0 E33978.24
G1 X5.22 Y-2.85 Z1.5 F360.0 E33978.779
G1 X7.4 Y-5.03 Z1.5 F360.0 E33982.624
G1 X7.63 Y-4.66 Z1.5 F360.0 E33983.16
G1 X5.45 Y-2.49 Z1.5 F360.0 E33987.014
G1 X5.59 Y-2.04 Z1.5 F360.0 E33987.601
G1 X7.86 Y-4.3 Z1.5 F360.0 E33991.603
G1 X8.09 Y-3.94 Z1.5 F360.0 E33992.141
G1 X5.73 Y-1.58 Z1.5 F360.0 E33996.306
G1 X5.87 Y-1.13 Z1.5 F360.0 E33996.902
G1 X8.26 Y-3.52 Z1.5 F360.0 E34001.127
G1 X8.4 Y-3.07 Z1.5 F360.0 E34001.715
G1 X5.93 Y-0.59 Z1.5 F360.0 E34006.093
G1 X5.95 Y-0.02 Z1.5 F360.0 E34006.808
G1 X8.55 Y-2.62 Z1.5 F360.0 E34011.404
G1 X8.69 Y-2.17 Z1.5 F360.0 E34011.993
G1 X5.97 Y0.55 Z1.5 F360.0 E34016.812
G1 X5.8 Y1.31 Z1.5 F360.0 E34017.789
G1 X8.84 Y-1.73 Z1.5 F360.0 E34023.165
G1 X8.88 Y-1.18 Z1.5 F360.0 E34023.853
G1 X5.61 Y2.1 Z1.5 F360.0 E34029.647
G1 X4.98 Y3.31 Z1.5 F360.0 E34031.359
G1 X1.98 Y6.31 Z1.5 F360.0 E34036.659
G1 X1.98 Y6.9 Z1.5 F360.0 E34037.4
G1 X8.95 Y-0.07 Z1.5 F360.0 E34049.725
G1 X8.92 Y-0.62 Z1.5 F360.0 E34050.423
G1 X5.95 Y2.35 Z1.5 F360.0 E34055.675
;M103
G1 X7.58 Y4.86 Z1.5 F3600.0
;M101
G1 X5.1 Y7.35 Z1.5 F360.0 E34060.071
;M103
G1 X3.7 Y8.15 Z1.5 F3600.0
;M101
G1 X10.15 Y1.7 Z1.5 F360.0 E34071.472
G1 X10.59 Y1.85 Z1.5 F360.0 E34072.06
G1 X8.19 Y4.25 Z1.5 F360.0 E34076.316
G1 X8.63 Y4.4 Z1.5 F360.0 E34076.904
G1 X11.04 Y1.99 Z1.5 F360.0 E34081.164
G1 X11.49 Y2.14 Z1.5 F360.0 E34081.753
G1 X9.08 Y4.55 Z1.5 F360.0 E34086.015
G1 X9.53 Y4.69 Z1.5 F360.0 E34086.603
G1 X11.94 Y2.28 Z1.5 F360.0 E34090.866
G1 X12.38 Y2.43 Z1.5 F360.0 E34091.455
G1 X9.97 Y4.84 Z1.5 F360.0 E34095.72
G1 X10.42 Y4.98 Z1.5 F360.0 E34096.308
G1 X12.83 Y2.57 Z1.5 F360.0 E34100.575
G1 X13.28 Y2.72 Z1.5 F360.0 E34101.163
G1 X10.87 Y5.13 Z1.5 F360.0 E34105.432
G1 X11.31 Y5.27 Z1.5 F360.0 E34106.02
G1 X13.73 Y2.86 Z1.5 F360.0 E34110.291
G1 X14.18 Y3.01 Z1.5 F360.0 E34110.88
G1 X11.76 Y5.42 Z1.5 F360.0 E34115.154
G1 X12.21 Y5.57 Z1.5 F360.0 E34115.742
G1 X14.62 Y3.15 Z1.5 F360.0 E34120.017
G1 X15.07 Y3.29 Z1.5 F360.0 E34120.606
G1 X12.65 Y5.71 Z1.5 F360.0 E34124.882
G1 X13.1 Y5.86 Z1.5 F360.0 E34125.469
G1 X15.52 Y3.44 Z1.5 F360.0 E34129.748
G1 X15.97 Y3.58 Z1.5 F360.0 E34130.336
G1 X13.55 Y6.0 Z1.5 F360.0 E34134.616
G1 X13.99 Y6.15 Z1.5 F360.0 E34135.203
G1 X16.41 Y3.73 Z1.5 F360.0 E34139.486
G1 X16.86 Y3.87 Z1.5 F360.0 E34140.076
G1 X14.44 Y6.3 Z1.5 F360.0 E34144.36
G1 X14.89 Y6.44 Z1.5 F360.0 E34144.948
G1 X17.31 Y4.02 Z1.5 F360.0 E34149.234
G1 X17.76 Y4.16 Z1.5 F360.0 E34149.823
G1 X15.33 Y6.59 Z1.5 F360.0 E34154.111
G1 X15.78 Y6.73 Z1.5 F360.0 E34154.699
G1 X18.2 Y4.31 Z1.5 F360.0 E34158.989
G1 X18.65 Y4.45 Z1.5 F360.0 E34159.578
G1 X16.23 Y6.88 Z1.5 F360.0 E34163.87
G1 X16.67 Y7.02 Z1.5 F360.0 E34164.457
G1 X19.1 Y4.6 Z1.5 F360.0 E34168.752
G1 X19.55 Y4.74 Z1.5 F360.0 E34169.339
G1 X17.12 Y7.17 Z1.5 F360.0 E34173.636
;M103
G1 X18.09 Y8.27 Z1.5 F3600.0
G1 X18.25 Y8.69 Z1.5 F3600.0
G1 X18.27 Y10.16 Z1.5 F3600.0
;M101
G1 X23.46 Y4.97 Z1.5 F360.0 E34182.819
G1 X23.62 Y4.22 Z1.5 F360.0 E34183.782
G1 X19.06 Y8.78 Z1.5 F360.0 E34191.856
G1 X18.92 Y8.33 Z1.5 F360.0 E34192.445
G1 X25.06 Y2.19 Z1.5 F360.0 E34203.321
G1 X25.53 Y2.31 Z1.5 F360.0 E34203.929
G1 X24.76 Y3.08 Z1.5 F360.0 E34205.293
G1 X25.38 Y3.05 Z1.5 F360.0 E34206.07
G1 X26.0 Y2.43 Z1.5 F360.0 E34207.171
G1 X26.48 Y2.55 Z1.5 F360.0 E34207.78
G1 X26.0 Y3.03 Z1.5 F360.0 E34208.617
G1 X26.62 Y3.0 Z1.5 F360.0 E34209.394
G1 X26.95 Y2.67 Z1.5 F360.0 E34209.968
G1 X27.24 Y2.97 Z1.5 F360.0 E34210.492
G1 X27.42 Y2.8 Z1.5 F360.0 E34210.802
G1 X27.86 Y2.94 Z1.5 F360.0 E34211.389
G1 X27.89 Y2.92 Z1.5 F360.0 E34211.435
;M103
G1 X24.59 Y2.07 Z1.5 F3600.0
;M101
G1 X18.75 Y7.91 Z1.5 F360.0 E34221.769
G1 X18.46 Y7.61 Z1.5 F360.0 E34222.293
G1 X24.12 Y1.94 Z1.5 F360.0 E34232.312
G1 X23.99 Y1.49 Z1.5 F360.0 E34232.907
G1 X18.01 Y7.46 Z1.5 F360.0 E34243.475
G1 X17.57 Y7.32 Z1.5 F360.0 E34244.062
G1 X23.99 Y0.9 Z1.5 F360.0 E34255.42
G1 X23.99 Y0.3 Z1.5 F360.0 E34256.162
G1 X20.63 Y3.66 Z1.5 F360.0 E34262.098
G1 X20.7 Y2.99 Z1.5 F360.0 E34262.936
G1 X23.99 Y-0.29 Z1.5 F360.0 E34268.741
G1 X23.99 Y-0.88 Z1.5 F360.0 E34269.483
G1 X20.78 Y2.33 Z1.5 F360.0 E34275.159
G1 X20.85 Y1.66 Z1.5 F360.0 E34275.996
G1 X23.99 Y-1.47 Z1.5 F360.0 E34281.542
;M103
G1 X24.57 Y-2.06 Z1.5 F3600.0
;M101
G1 X25.56 Y-3.05 Z1.5 F360.0 E34283.286
G1 X26.13 Y-3.02 Z1.5 F360.0 E34283.997
G1 X25.37 Y-2.27 Z1.5 F360.0 E34285.331
G1 X26.17 Y-2.48 Z1.5 F360.0 E34286.365
G1 X26.69 Y-3.0 Z1.5 F360.0 E34287.288
G1 X26.97 Y-2.68 Z1.5 F360.0 E34287.812
G1 X27.26 Y-2.97 Z1.5 F360.0 E34288.326
G1 X27.77 Y-2.89 Z1.5 F360.0 E34288.971
G1 X27.83 Y-2.95 Z1.5 F360.0 E34289.074
;M103
G1 X24.99 Y-3.07 Z1.5 F3600.0
;M101
G1 X20.92 Y1.0 Z1.5 F360.0 E34296.267
G1 X20.98 Y0.35 Z1.5 F360.0 E34297.079
G1 X24.42 Y-3.1 Z1.5 F360.0 E34303.172
G1 X23.86 Y-3.12 Z1.5 F360.0 E34303.878
G1 X20.94 Y-0.21 Z1.5 F360.0 E34309.034
G1 X20.91 Y-0.77 Z1.5 F360.0 E34309.734
G1 X23.75 Y-3.61 Z1.5 F360.0 E34314.767
G1 X23.65 Y-4.1 Z1.5 F360.0 E34315.391
G1 X20.87 Y-1.32 Z1.5 F360.0 E34320.303
G1 X20.84 Y-1.88 Z1.5 F360.0 E34321.001
G1 X23.55 Y-4.59 Z1.5 F360.0 E34325.791
G1 X23.44 Y-5.08 Z1.5 F360.0 E34326.415
G1 X20.8 Y-2.44 Z1.5 F360.0 E34331.082
G1 X20.77 Y-3.0 Z1.5 F360.0 E34331.78
G1 X23.34 Y-5.57 Z1.5 F360.0 E34336.325
G1 X23.23 Y-6.05 Z1.5 F360.0 E34336.951
G1 X20.66 Y-3.49 Z1.5 F360.0 E34341.496
G1 X20.55 Y-3.97 Z1.5 F360.0 E34342.112
G1 X23.13 Y-6.54 Z1.5 F360.0 E34346.672
;M103
G1 X23.82 Y-7.23 Z1.5 F3600.0
;M101
G1 X24.98 Y-8.4 Z1.5 F360.0 E34348.735
G1 X25.0 Y-7.82 Z1.5 F360.0 E34349.46
G1 X25.69 Y-8.51 Z1.5 F360.0 E34350.693
G1 X26.18 Y-8.4 Z1.5 F360.0 E34351.312
G1 X26.4 Y-8.63 Z1.5 F360.0 E34351.717
;M103
G1 X24.27 Y-8.28 Z1.5 F3600.0
;M101
G1 X20.44 Y-4.45 Z1.5 F360.0 E34358.494
G1 X20.33 Y-4.93 Z1.5 F360.0 E34359.111
G1 X23.56 Y-8.16 Z1.5 F360.0 E34364.829
G1 X22.85 Y-8.04 Z1.5 F360.0 E34365.731
G1 X20.21 Y-5.41 Z1.5 F360.0 E34370.39
G1 X20.1 Y-5.88 Z1.5 F360.0 E34371.005
G1 X22.55 Y-8.33 Z1.5 F360.0 E34375.328
G1 X22.36 Y-8.74 Z1.5 F360.0 E34375.89
G1 X19.99 Y-6.36 Z1.5 F360.0 E34380.09
G1 X19.83 Y-6.8 Z1.5 F360.0 E34380.667
G1 X22.18 Y-9.15 Z1.5 F360.0 E34384.826
G1 X22.0 Y-9.56 Z1.5 F360.0 E34385.388
G1 X19.65 Y-7.21 Z1.5 F360.0 E34389.535
G1 X19.48 Y-7.63 Z1.5 F360.0 E34390.1
G1 X21.82 Y-9.97 Z1.5 F360.0 E34394.235
G1 X21.63 Y-10.38 Z1.5 F360.0 E34394.797
G1 X19.3 Y-8.05 Z1.5 F360.0 E34398.918
G1 X19.13 Y-8.47 Z1.5 F360.0 E34399.484
G1 X21.45 Y-10.79 Z1.5 F360.0 E34403.594
G1 X21.27 Y-11.2 Z1.5 F360.0 E34404.155
G1 X18.95 Y-8.88 Z1.5 F360.0 E34408.253
G1 X18.78 Y-9.3 Z1.5 F360.0 E34408.819
G1 X23.01 Y-13.53 Z1.5 F360.0 E34416.305
G1 X23.26 Y-13.19 Z1.5 F360.0 E34416.836
G1 X23.99 Y-13.92 Z1.5 F360.0 E34418.128
;M103
G1 X22.03 Y-13.15 Z1.5 F3600.0
;M101
G1 X18.6 Y-9.72 Z1.5 F360.0 E34424.198
G1 X18.37 Y-10.08 Z1.5 F360.0 E34424.734
G1 X21.06 Y-12.76 Z1.5 F360.0 E34429.48
G1 X20.41 Y-12.71 Z1.5 F360.0 E34430.288
G1 X18.14 Y-10.44 Z1.5 F360.0 E34434.3
G1 X17.91 Y-10.81 Z1.5 F360.0 E34434.837
G1 X20.16 Y-13.05 Z1.5 F360.0 E34438.815
G1 X19.91 Y-13.4 Z1.5 F360.0 E34439.345
G1 X17.68 Y-11.17 Z1.5 F360.0 E34443.29
G1 X17.45 Y-11.53 Z1.5 F360.0 E34443.827
G1 X19.66 Y-13.74 Z1.5 F360.0 E34447.737
G1 X19.41 Y-14.08 Z1.5 F360.0 E34448.268
G1 X17.22 Y-11.89 Z1.5 F360.0 E34452.143
G1 X16.99 Y-12.25 Z1.5 F360.0 E34452.681
G1 X19.17 Y-14.43 Z1.5 F360.0 E34456.523
G1 X18.92 Y-14.77 Z1.5 F360.0 E34457.053
G1 X16.76 Y-12.62 Z1.5 F360.0 E34460.862
G1 X16.49 Y-12.94 Z1.5 F360.0 E34461.386
G1 X18.67 Y-15.11 Z1.5 F360.0 E34465.232
G1 X18.42 Y-15.46 Z1.5 F360.0 E34465.762
G1 X16.21 Y-13.25 Z1.5 F360.0 E34469.666
G1 X15.93 Y-13.56 Z1.5 F360.0 E34470.19
G1 X19.54 Y-17.17 Z1.5 F360.0 E34476.586
G1 X20.01 Y-18.23 Z1.5 F360.0 E34478.026
;M103
G1 X19.19 Y-17.41 Z1.5 F3600.0
;M101
G1 X15.65 Y-13.87 Z1.5 F360.0 E34484.298
G1 X15.36 Y-14.18 Z1.5 F360.0 E34484.822
G1 X18.25 Y-17.07 Z1.5 F360.0 E34489.928
;M103
G1 X17.3 Y-16.7 Z1.5 F3600.0
;M101
G1 X15.08 Y-14.49 Z1.5 F360.0 E34493.843
G1 X14.8 Y-14.8 Z1.5 F360.0 E34494.369
G1 X16.98 Y-16.98 Z1.5 F360.0 E34498.231
G1 X16.67 Y-17.26 Z1.5 F360.0 E34498.756
G1 X14.52 Y-15.11 Z1.5 F360.0 E34502.567
G1 X14.24 Y-15.42 Z1.5 F360.0 E34503.091
G1 X16.36 Y-17.54 Z1.5 F360.0 E34506.849
G1 X16.05 Y-17.83 Z1.5 F360.0 E34507.373
G1 X13.63 Y-15.41 Z1.5 F360.0 E34511.651
;M103
G1 X11.62 Y-13.4 Z1.5 F3600.0
;M101
G1 X3.23 Y-5.01 Z1.5 F360.0 E34526.505
G1 X3.6 Y-4.79 Z1.5 F360.0 E34527.046
G1 X10.03 Y-11.22 Z1.5 F360.0 E34538.427
;M103
G1 X7.28 Y-12.61 Z1.5 F3600.0
;M101
G1 X15.57 Y-20.9 Z1.5 F360.0 E34553.086
G1 X16.21 Y-22.14 Z1.5 F360.0 E34554.83
;M103
G1 X15.23 Y-21.15 Z1.5 F3600.0
;M101
G1 X8.84 Y-14.76 Z1.5 F360.0 E34566.132
;M103
G1 X14.93 Y-19.66 Z1.5 F3600.0
;M101
G1 X5.73 Y-10.47 Z1.5 F360.0 E34582.405
;M103
G1 X-2.11 Y-5.59 Z1.5 F3600.0
;M101
G1 X1.21 Y-8.91 Z1.5 F360.0 E34588.284
G1 X1.69 Y-8.79 Z1.5 F360.0 E34588.894
G1 X-1.31 Y-5.8 Z1.5 F360.0 E34594.188
G1 X-0.57 Y-5.94 Z1.5 F360.0 E34595.123
G1 X2.16 Y-8.67 Z1.5 F360.0 E34599.953
G1 X2.63 Y-8.55 Z1.5 F360.0 E34600.562
G1 X0.02 Y-5.94 Z1.5 F360.0 E34605.179
G1 X0.61 Y-5.94 Z1.5 F360.0 E34605.92
G1 X3.1 Y-8.43 Z1.5 F360.0 E34610.323
G1 X3.57 Y-8.31 Z1.5 F360.0 E34610.931
G1 X1.11 Y-5.85 Z1.5 F360.0 E34615.282
G1 X1.58 Y-5.73 Z1.5 F360.0 E34615.89
G1 X14.8 Y-18.95 Z1.5 F360.0 E34639.274
G1 X15.11 Y-18.67 Z1.5 F360.0 E34639.797
G1 X2.05 Y-5.61 Z1.5 F360.0 E34662.902
G1 X2.47 Y-5.43 Z1.5 F360.0 E34663.467
G1 X15.42 Y-18.39 Z1.5 F360.0 E34686.387
G1 X15.74 Y-18.11 Z1.5 F360.0 E34686.912
G1 X2.85 Y-5.22 Z1.5 F360.0 E34709.713
;M103
G1 X-0.54 Y-8.94 Z1.5 F3600.0
;M101
G1 X-8.92 Y-0.56 Z1.5 F360.0 E34724.537
G1 X-8.88 Y-1.19 Z1.5 F360.0 E34725.331
G1 X-1.14 Y-8.94 Z1.5 F360.0 E34739.031
G1 X-1.93 Y-8.73 Z1.5 F360.0 E34740.059
G1 X-8.79 Y-1.88 Z1.5 F360.0 E34752.188
G1 X-8.5 Y-2.75 Z1.5 F360.0 E34753.343
G1 X-2.73 Y-8.53 Z1.5 F360.0 E34763.56
G1 X-3.52 Y-8.32 Z1.5 F360.0 E34764.588
G1 X-8.22 Y-3.63 Z1.5 F360.0 E34772.892
;M103
G1 X-7.37 Y-5.08 Z1.5 F3600.0
;M101
G1 X-4.15 Y-8.29 Z1.5 F360.0 E34778.579
G1 X-4.4 Y-8.63 Z1.5 F360.0 E34779.109
G1 X-6.57 Y-6.46 Z1.5 F360.0 E34782.947
G1 X-6.82 Y-6.81 Z1.5 F360.0 E34783.477
G1 X-4.65 Y-8.98 Z1.5 F360.0 E34787.317
G1 X-4.9 Y-9.32 Z1.5 F360.0 E34787.847
G1 X-7.07 Y-7.15 Z1.5 F360.0 E34791.688
G1 X-7.32 Y-7.49 Z1.5 F360.0 E34792.219
G1 X-5.15 Y-9.66 Z1.5 F360.0 E34796.061
G1 X-5.4 Y-10.01 Z1.5 F360.0 E34796.592
G1 X-7.57 Y-7.84 Z1.5 F360.0 E34800.434
G1 X-7.82 Y-8.18 Z1.5 F360.0 E34800.964
G1 X-5.64 Y-10.35 Z1.5 F360.0 E34804.81
G1 X-5.89 Y-10.69 Z1.5 F360.0 E34805.341
G1 X-8.07 Y-8.52 Z1.5 F360.0 E34809.188
G1 X-8.32 Y-8.86 Z1.5 F360.0 E34809.719
G1 X-6.14 Y-11.04 Z1.5 F360.0 E34813.568
G1 X-6.39 Y-11.38 Z1.5 F360.0 E34814.099
G1 X-8.57 Y-9.21 Z1.5 F360.0 E34817.949
G1 X-8.82 Y-9.55 Z1.5 F360.0 E34818.48
G1 X-6.64 Y-11.73 Z1.5 F360.0 E34822.332
G1 X-6.89 Y-12.07 Z1.5 F360.0 E34822.863
G1 X-9.07 Y-9.89 Z1.5 F360.0 E34826.716
G1 X-9.32 Y-10.23 Z1.5 F360.0 E34827.246
G1 X-7.14 Y-12.41 Z1.5 F360.0 E34831.101
G1 X-7.39 Y-12.76 Z1.5 F360.0 E34831.632
G1 X-9.57 Y-10.58 Z1.5 F360.0 E34835.489
G1 X-9.82 Y-10.92 Z1.5 F360.0 E34836.02
G1 X-7.63 Y-13.1 Z1.5 F360.0 E34839.877
G1 X-7.88 Y-13.44 Z1.5 F360.0 E34840.409
G1 X-10.07 Y-11.26 Z1.5 F360.0 E34844.269
G1 X-10.31 Y-11.6 Z1.5 F360.0 E34844.799
G1 X-8.13 Y-13.79 Z1.5 F360.0 E34848.66
G1 X-8.38 Y-14.13 Z1.5 F360.0 E34849.191
G1 X-10.56 Y-11.95 Z1.5 F360.0 E34853.053
G1 X-10.81 Y-12.29 Z1.5 F360.0 E34853.583
G1 X-8.63 Y-14.47 Z1.5 F360.0 E34857.448
G1 X-8.88 Y-14.82 Z1.5 F360.0 E34857.979
G1 X-11.06 Y-12.63 Z1.5 F360.0 E34861.844
G1 X-11.31 Y-12.98 Z1.5 F360.0 E34862.375
G1 X-9.13 Y-15.16 Z1.5 F360.0 E34866.243
G1 X-9.38 Y-15.5 Z1.5 F360.0 E34866.773
G1 X-11.56 Y-13.32 Z1.5 F360.0 E34870.642
G1 X-11.81 Y-13.66 Z1.5 F360.0 E34871.173
G1 X-9.63 Y-15.85 Z1.5 F360.0 E34875.044
G1 X-9.87 Y-16.19 Z1.5 F360.0 E34875.574
G1 X-12.06 Y-14.0 Z1.5 F360.0 E34879.446
G1 X-12.31 Y-14.35 Z1.5 F360.0 E34879.975
G1 X-10.12 Y-16.54 Z1.5 F360.0 E34883.85
G1 X-10.37 Y-16.88 Z1.5 F360.0 E34884.381
G1 X-12.56 Y-14.69 Z1.5 F360.0 E34888.258
G1 X-12.81 Y-15.03 Z1.5 F360.0 E34888.788
G1 X-10.56 Y-17.28 Z1.5 F360.0 E34892.775
G1 X-10.34 Y-18.09 Z1.5 F360.0 E34893.82
G1 X-13.06 Y-15.37 Z1.5 F360.0 E34898.629
G1 X-13.62 Y-15.41 Z1.5 F360.0 E34899.329
G1 X-4.67 Y-24.36 Z1.5 F360.0 E34915.167
G1 X-4.51 Y-23.93 Z1.5 F360.0 E34915.744
G1 X-10.02 Y-18.42 Z1.5 F360.0 E34925.494
;M103
G1 X-8.94 Y-18.9 Z1.5 F3600.0
;M101
G1 X-4.16 Y-23.68 Z1.5 F360.0 E34933.942
G1 X-3.5 Y-23.75 Z1.5 F360.0 E34934.776
G1 X-7.86 Y-19.39 Z1.5 F360.0 E34942.487
;M103
G1 X-6.82 Y-19.84 Z1.5 F3600.0
;M101
G1 X-2.84 Y-23.82 Z1.5 F360.0 E34949.521
G1 X-2.18 Y-23.89 Z1.5 F360.0 E34950.353
G1 X-6.02 Y-20.05 Z1.5 F360.0 E34957.147
G1 X-5.22 Y-20.25 Z1.5 F360.0 E34958.177
G1 X-1.52 Y-23.96 Z1.5 F360.0 E34964.731
G1 X-0.85 Y-24.03 Z1.5 F360.0 E34965.563
G1 X-4.42 Y-20.46 Z1.5 F360.0 E34971.878
G1 X-3.63 Y-20.66 Z1.5 F360.0 E34972.907
G1 X0.5 Y-24.79 Z1.5 F360.0 E34980.205
G1 X0.42 Y-25.3 Z1.5 F360.0 E34980.856
G1 X-0.57 Y-24.31 Z1.5 F360.0 E34982.615
G1 X-0.47 Y-25.01 Z1.5 F360.0 E34983.497
G1 X0.35 Y-25.82 Z1.5 F360.0 E34984.933
G1 X0.27 Y-26.33 Z1.5 F360.0 E34985.586
G1 X-0.36 Y-25.7 Z1.5 F360.0 E34986.702
G1 X-0.26 Y-26.4 Z1.5 F360.0 E34987.584
G1 X0.19 Y-26.85 Z1.5 F360.0 E34988.378
G1 X-0.15 Y-27.1 Z1.5 F360.0 E34988.91
G1 X0.12 Y-27.37 Z1.5 F360.0 E34989.384
G1 X-0.05 Y-27.79 Z1.5 F360.0 E34989.958
G1 X0.04 Y-27.88 Z1.5 F360.0 E34990.11
;M103
G1 X0.58 Y-24.27 Z1.5 F3600.0
;M101
G1 X-2.96 Y-20.74 Z1.5 F360.0 E34996.359
G1 X-2.31 Y-20.79 Z1.5 F360.0 E34997.17
G1 X0.92 Y-24.02 Z1.5 F360.0 E35002.877
G1 X1.45 Y-23.96 Z1.5 F360.0 E35003.552
G1 X-1.66 Y-20.85 Z1.5 F360.0 E35009.063
G1 X-1.01 Y-20.9 Z1.5 F360.0 E35009.875
G1 X1.99 Y-23.91 Z1.5 F360.0 E35015.19
G1 X2.53 Y-23.85 Z1.5 F360.0 E35015.864
G1 X-0.37 Y-20.96 Z1.5 F360.0 E35020.984
G1 X0.24 Y-20.97 Z1.5 F360.0 E35021.739
G1 X3.06 Y-23.8 Z1.5 F360.0 E35026.74
G1 X3.6 Y-23.74 Z1.5 F360.0 E35027.414
G1 X0.78 Y-20.92 Z1.5 F360.0 E35032.396
G1 X1.33 Y-20.88 Z1.5 F360.0 E35033.083
G1 X4.13 Y-23.68 Z1.5 F360.0 E35038.046
G1 X5.67 Y-24.63 Z1.5 F360.0 E35040.307
;M103
G1 X4.58 Y-24.13 Z1.5 F3600.0
;M101
G1 X5.71 Y-25.26 Z1.5 F360.0 E35042.301
G1 X4.94 Y-25.08 Z1.5 F360.0 E35043.293
G1 X5.75 Y-25.89 Z1.5 F360.0 E35044.728
G1 X5.29 Y-26.03 Z1.5 F360.0 E35045.323
G1 X5.79 Y-26.52 Z1.5 F360.0 E35046.199
G1 X5.65 Y-26.98 Z1.5 F360.0 E35046.792
G1 X5.83 Y-27.15 Z1.5 F360.0 E35047.107
;M103
G1 X4.39 Y-23.35 Z1.5 F3600.0
;M101
G1 X1.87 Y-20.83 Z1.5 F360.0 E35051.566
G1 X2.42 Y-20.79 Z1.5 F360.0 E35052.253
G1 X5.63 Y-24.0 Z1.5 F360.0 E35057.937
G1 X5.62 Y-23.39 Z1.5 F360.0 E35058.695
G1 X2.97 Y-20.74 Z1.5 F360.0 E35063.39
G1 X3.51 Y-20.69 Z1.5 F360.0 E35064.074
G1 X6.07 Y-23.25 Z1.5 F360.0 E35068.595
G1 X6.52 Y-23.1 Z1.5 F360.0 E35069.183
G1 X3.98 Y-20.57 Z1.5 F360.0 E35073.662
G1 X4.46 Y-20.45 Z1.5 F360.0 E35074.27
G1 X6.96 Y-22.96 Z1.5 F360.0 E35078.706
G1 X7.41 Y-22.81 Z1.5 F360.0 E35079.295
G1 X4.93 Y-20.33 Z1.5 F360.0 E35083.687
G1 X5.4 Y-20.21 Z1.5 F360.0 E35084.296
G1 X7.86 Y-22.67 Z1.5 F360.0 E35088.647
G1 X8.3 Y-22.52 Z1.5 F360.0 E35089.235
G1 X5.87 Y-20.09 Z1.5 F360.0 E35093.543
G1 X6.34 Y-19.97 Z1.5 F360.0 E35094.151
G1 X8.75 Y-22.38 Z1.5 F360.0 E35098.417
G1 X9.2 Y-22.23 Z1.5 F360.0 E35099.005
G1 X6.81 Y-19.84 Z1.5 F360.0 E35103.228
G1 X7.23 Y-19.67 Z1.5 F360.0 E35103.797
G1 X10.75 Y-23.19 Z1.5 F360.0 E35110.011
G1 X10.97 Y-24.01 Z1.5 F360.0 E35111.075
G1 X9.29 Y-22.33 Z1.5 F360.0 E35114.049
;M103
G1 X10.52 Y-22.37 Z1.5 F3600.0
;M101
G1 X7.64 Y-19.49 Z1.5 F360.0 E35119.139
G1 X8.05 Y-19.3 Z1.5 F360.0 E35119.698
G1 X10.42 Y-21.68 Z1.5 F360.0 E35123.898
G1 X10.8 Y-21.46 Z1.5 F360.0 E35124.44
G1 X8.46 Y-19.12 Z1.5 F360.0 E35128.582
G1 X8.87 Y-18.94 Z1.5 F360.0 E35129.143
G1 X11.17 Y-21.24 Z1.5 F360.0 E35133.226
G1 X11.55 Y-21.03 Z1.5 F360.0 E35133.769
G1 X9.27 Y-18.75 Z1.5 F360.0 E35137.794
G1 X9.68 Y-18.57 Z1.5 F360.0 E35138.353
G1 X11.92 Y-20.81 Z1.5 F360.0 E35142.32
G1 X12.3 Y-20.59 Z1.5 F360.0 E35142.863
G1 X10.09 Y-18.38 Z1.5 F360.0 E35146.772
G1 X10.35 Y-18.05 Z1.5 F360.0 E35147.3
G1 X12.68 Y-20.38 Z1.5 F360.0 E35151.408
G1 X13.05 Y-20.16 Z1.5 F360.0 E35151.951
G1 X10.48 Y-17.59 Z1.5 F360.0 E35156.503
G1 X10.39 Y-16.91 Z1.5 F360.0 E35157.355
G1 X13.43 Y-19.94 Z1.5 F360.0 E35162.72
;M103
G1 X11.28 Y-22.11 Z1.5 F3600.0
G1 X10.34 Y-23.96 Z1.5 F3600.0
;M101
G1 X11.2 Y-24.83 Z1.5 F360.0 E35164.248
G1 X11.38 Y-25.6 Z1.5 F360.0 E35165.239
G1 X11.43 Y-25.65 Z1.5 F360.0 E35165.325
;M103
G1 X8.88 Y-23.18 Z1.5 F3600.0
G1 X6.43 Y-23.97 Z1.5 F3600.0
G1 X6.41 Y-25.41 Z1.5 F3600.0
G1 X4.23 Y-25.15 Z1.5 F3600.0
G1 X3.87 Y-24.52 Z1.5 F3600.0
G1 X1.31 Y-24.78 Z1.5 F3600.0
G1 X1.16 Y-25.08 Z1.5 F3600.0
G1 X-1.18 Y-24.92 Z1.5 F3600.0
G1 X-1.31 Y-24.78 Z1.5 F3600.0
G1 X-3.87 Y-24.52 Z1.5 F3600.0
G1 X-4.83 Y-24.79 Z1.5 F3600.0
;M101
G1 X-5.63 Y-23.99 Z1.5 F360.0 E35166.748
G1 X-5.67 Y-24.55 Z1.5 F360.0 E35167.448
G1 X-4.99 Y-25.22 Z1.5 F360.0 E35168.645
G1 X-5.15 Y-25.65 Z1.5 F360.0 E35169.221
G1 X-5.7 Y-25.1 Z1.5 F360.0 E35170.191
G1 X-5.73 Y-25.66 Z1.5 F360.0 E35170.89
G1 X-5.31 Y-26.08 Z1.5 F360.0 E35171.636
G1 X-5.47 Y-26.52 Z1.5 F360.0 E35172.211
G1 X-5.77 Y-26.22 Z1.5 F360.0 E35172.731
G1 X-5.8 Y-26.78 Z1.5 F360.0 E35173.431
G1 X-5.64 Y-26.95 Z1.5 F360.0 E35173.726
G1 X-5.84 Y-27.34 Z1.5 F360.0 E35174.277
G1 X-5.8 Y-27.38 Z1.5 F360.0 E35174.347
;M103
G1 X-6.52 Y-23.1 Z1.5 F3600.0
;M101
G1 X-23.14 Y-6.48 Z1.5 F360.0 E35203.759
G1 X-23.26 Y-6.95 Z1.5 F360.0 E35204.371
G1 X-7.4 Y-22.82 Z1.5 F360.0 E35232.437
G1 X-8.27 Y-22.53 Z1.5 F360.0 E35233.591
G1 X-23.66 Y-7.15 Z1.5 F360.0 E35260.804
G1 X-24.05 Y-7.35 Z1.5 F360.0 E35261.357
G1 X-23.29 Y-8.11 Z1.5 F360.0 E35262.711
G1 X-23.79 Y-8.2 Z1.5 F360.0 E35263.354
G1 X-24.45 Y-7.54 Z1.5 F360.0 E35264.509
G1 X-24.84 Y-7.74 Z1.5 F360.0 E35265.062
G1 X-24.3 Y-8.28 Z1.5 F360.0 E35266.019
G1 X-24.81 Y-8.37 Z1.5 F360.0 E35266.662
G1 X-25.24 Y-7.94 Z1.5 F360.0 E35267.421
G1 X-25.63 Y-8.14 Z1.5 F360.0 E35267.974
G1 X-25.31 Y-8.45 Z1.5 F360.0 E35268.535
G1 X-25.82 Y-8.54 Z1.5 F360.0 E35269.178
G1 X-26.03 Y-8.33 Z1.5 F360.0 E35269.541
G1 X-26.33 Y-8.62 Z1.5 F360.0 E35270.065
G1 X-26.42 Y-8.53 Z1.5 F360.0 E35270.23
;M103
G1 X-23.3 Y-5.72 Z1.5 F3600.0
;M101
G1 X-17.38 Y-11.65 Z1.5 F360.0 E35280.712
;M103
G1 X-18.41 Y-10.03 Z1.5 F3600.0
;M101
G1 X-23.46 Y-4.97 Z1.5 F360.0 E35289.657
G1 X-23.62 Y-4.22 Z1.5 F360.0 E35290.621
G1 X-18.95 Y-8.89 Z1.5 F360.0 E35298.893
;M103
G1 X-19.38 Y-7.87 Z1.5 F3600.0
;M101
G1 X-23.78 Y-3.47 Z1.5 F360.0 E35306.689
G1 X-24.59 Y-2.07 Z1.5 F360.0 E35308.71
G1 X-25.06 Y-2.19 Z1.5 F360.0 E35309.317
G1 X-24.14 Y-3.11 Z1.5 F360.0 E35310.946
G1 X-24.76 Y-3.08 Z1.5 F360.0 E35311.722
G1 X-25.53 Y-2.31 Z1.5 F360.0 E35313.086
G1 X-26.0 Y-2.43 Z1.5 F360.0 E35313.695
G1 X-25.38 Y-3.05 Z1.5 F360.0 E35314.796
G1 X-26.0 Y-3.03 Z1.5 F360.0 E35315.571
G1 X-26.48 Y-2.55 Z1.5 F360.0 E35316.409
G1 X-26.62 Y-3.0 Z1.5 F360.0 E35316.996
G1 X-26.95 Y-2.67 Z1.5 F360.0 E35317.57
G1 X-27.24 Y-2.97 Z1.5 F360.0 E35318.094
G1 X-27.42 Y-2.8 Z1.5 F360.0 E35318.404
G1 X-27.86 Y-2.94 Z1.5 F360.0 E35318.991
G1 X-27.89 Y-2.92 Z1.5 F360.0 E35319.037
;M103
G1 X-23.45 Y-3.21 Z1.5 F3600.0
;M101
G1 X-19.81 Y-6.85 Z1.5 F360.0 E35325.48
G1 X-20.08 Y-5.99 Z1.5 F360.0 E35326.61
G1 X-24.12 Y-1.94 Z1.5 F360.0 E35333.765
G1 X-23.99 Y-1.49 Z1.5 F360.0 E35334.36
G1 X-20.26 Y-5.21 Z1.5 F360.0 E35340.952
G1 X-20.44 Y-4.44 Z1.5 F360.0 E35341.946
G1 X-23.99 Y-0.9 Z1.5 F360.0 E35348.217
G1 X-23.99 Y-0.3 Z1.5 F360.0 E35348.959
G1 X-20.62 Y-3.67 Z1.5 F360.0 E35354.909
G1 X-20.77 Y-2.92 Z1.5 F360.0 E35355.857
G1 X-23.99 Y0.29 Z1.5 F360.0 E35361.541
G1 X-23.99 Y0.88 Z1.5 F360.0 E35362.283
G1 X-20.81 Y-2.29 Z1.5 F360.0 E35367.896
G1 X-20.85 Y-1.66 Z1.5 F360.0 E35368.688
G1 X-23.99 Y1.47 Z1.5 F360.0 E35374.231
;M103
G1 X-24.57 Y2.06 Z1.5 F3600.0
;M101
G1 X-25.56 Y3.05 Z1.5 F360.0 E35375.975
G1 X-26.13 Y3.02 Z1.5 F360.0 E35376.686
G1 X-25.37 Y2.27 Z1.5 F360.0 E35378.02
G1 X-26.17 Y2.48 Z1.5 F360.0 E35379.054
G1 X-26.69 Y3.0 Z1.5 F360.0 E35379.977
G1 X-26.97 Y2.68 Z1.5 F360.0 E35380.501
G1 X-27.26 Y2.97 Z1.5 F360.0 E35381.015
G1 X-27.77 Y2.89 Z1.5 F360.0 E35381.66
G1 X-27.83 Y2.95 Z1.5 F360.0 E35381.763
;M103
G1 X-24.99 Y3.07 Z1.5 F3600.0
;M101
G1 X-20.89 Y-1.03 Z1.5 F360.0 E35389.013
G1 X-20.93 Y-0.4 Z1.5 F360.0 E35389.805
G1 X-24.42 Y3.1 Z1.5 F360.0 E35395.98
G1 X-23.86 Y3.12 Z1.5 F360.0 E35396.687
G1 X-20.97 Y0.24 Z1.5 F360.0 E35401.794
G1 X-20.94 Y0.8 Z1.5 F360.0 E35402.502
G1 X-23.75 Y3.61 Z1.5 F360.0 E35407.472
G1 X-23.65 Y4.1 Z1.5 F360.0 E35408.096
G1 X-20.89 Y1.34 Z1.5 F360.0 E35412.985
G1 X-20.83 Y1.87 Z1.5 F360.0 E35413.657
G1 X-23.55 Y4.59 Z1.5 F360.0 E35418.465
G1 X-23.44 Y5.08 Z1.5 F360.0 E35419.089
G1 X-20.77 Y2.4 Z1.5 F360.0 E35423.818
G1 X-20.71 Y2.94 Z1.5 F360.0 E35424.491
G1 X-23.34 Y5.57 Z1.5 F360.0 E35429.139
G1 X-23.23 Y6.05 Z1.5 F360.0 E35429.765
G1 X-20.65 Y3.47 Z1.5 F360.0 E35434.334
G1 X-20.59 Y4.01 Z1.5 F360.0 E35435.006
G1 X-23.13 Y6.54 Z1.5 F360.0 E35439.496
;M103
G1 X-23.82 Y7.23 Z1.5 F3600.0
;M101
G1 X-24.98 Y8.4 Z1.5 F360.0 E35441.559
G1 X-25.0 Y7.82 Z1.5 F360.0 E35442.284
G1 X-25.69 Y8.51 Z1.5 F360.0 E35443.517
G1 X-26.18 Y8.4 Z1.5 F360.0 E35444.137
G1 X-26.4 Y8.63 Z1.5 F360.0 E35444.541
;M103
G1 X-24.27 Y8.28 Z1.5 F3600.0
;M101
G1 X-20.3 Y4.31 Z1.5 F360.0 E35451.557
G1 X-19.94 Y4.54 Z1.5 F360.0 E35452.093
G1 X-23.56 Y8.16 Z1.5 F360.0 E35458.489
G1 X-22.85 Y8.04 Z1.5 F360.0 E35459.391
G1 X-19.55 Y4.74 Z1.5 F360.0 E35465.22
G1 X-18.68 Y4.46 Z1.5 F360.0 E35466.37
G1 X-22.55 Y8.33 Z1.5 F360.0 E35473.213
G1 X-22.36 Y8.74 Z1.5 F360.0 E35473.774
G1 X-17.8 Y4.18 Z1.5 F360.0 E35481.843
G1 X-16.93 Y3.89 Z1.5 F360.0 E35482.994
G1 X-22.18 Y9.15 Z1.5 F360.0 E35492.289
G1 X-22.0 Y9.56 Z1.5 F360.0 E35492.851
G1 X-16.05 Y3.61 Z1.5 F360.0 E35503.372
G1 X-15.18 Y3.33 Z1.5 F360.0 E35504.522
G1 X-21.82 Y9.97 Z1.5 F360.0 E35516.27
G1 X-21.63 Y10.38 Z1.5 F360.0 E35516.831
G1 X-14.3 Y3.05 Z1.5 F360.0 E35529.804
G1 X-13.43 Y2.76 Z1.5 F360.0 E35530.956
G1 X-18.18 Y7.52 Z1.5 F360.0 E35539.366
G1 X-17.3 Y7.23 Z1.5 F360.0 E35540.523
G1 X-12.55 Y2.48 Z1.5 F360.0 E35548.927
G1 X-11.67 Y2.2 Z1.5 F360.0 E35550.078
G1 X-16.42 Y6.94 Z1.5 F360.0 E35558.475
G1 X-15.54 Y6.65 Z1.5 F360.0 E35559.633
G1 X-10.8 Y1.91 Z1.5 F360.0 E35568.021
G1 X-9.92 Y1.63 Z1.5 F360.0 E35569.172
G1 X-14.66 Y6.37 Z1.5 F360.0 E35577.554
;M103
G1 X-18.86 Y8.2 Z1.5 F3600.0
;M101
G1 X-21.45 Y10.79 Z1.5 F360.0 E35582.131
G1 X-21.27 Y11.2 Z1.5 F360.0 E35582.692
G1 X-18.99 Y8.91 Z1.5 F360.0 E35586.733
G1 X-18.77 Y9.29 Z1.5 F360.0 E35587.276
G1 X-23.01 Y13.53 Z1.5 F360.0 E35594.778
G1 X-23.26 Y13.19 Z1.5 F360.0 E35595.309
G1 X-23.99 Y13.92 Z1.5 F360.0 E35596.601
;M103
G1 X-22.03 Y13.15 Z1.5 F3600.0
;M101
G1 X-18.55 Y9.67 Z1.5 F360.0 E35602.756
G1 X-18.34 Y10.05 Z1.5 F360.0 E35603.3
G1 X-21.06 Y12.76 Z1.5 F360.0 E35608.107
G1 X-20.41 Y12.71 Z1.5 F360.0 E35608.915
G1 X-18.12 Y10.42 Z1.5 F360.0 E35612.963
G1 X-17.91 Y10.8 Z1.5 F360.0 E35613.507
G1 X-20.16 Y13.05 Z1.5 F360.0 E35617.495
G1 X-19.91 Y13.4 Z1.5 F360.0 E35618.025
G1 X-17.69 Y11.18 Z1.5 F360.0 E35621.952
G1 X-17.48 Y11.55 Z1.5 F360.0 E35622.495
G1 X-19.66 Y13.74 Z1.5 F360.0 E35626.363
G1 X-19.41 Y14.08 Z1.5 F360.0 E35626.894
G1 X-17.26 Y11.93 Z1.5 F360.0 E35630.7
G1 X-17.0 Y12.26 Z1.5 F360.0 E35631.228
G1 X-19.17 Y14.43 Z1.5 F360.0 E35635.058
G1 X-18.92 Y14.77 Z1.5 F360.0 E35635.588
G1 X-16.73 Y12.59 Z1.5 F360.0 E35639.452
G1 X-16.46 Y12.91 Z1.5 F360.0 E35639.979
G1 X-18.67 Y15.11 Z1.5 F360.0 E35643.875
G1 X-18.42 Y15.46 Z1.5 F360.0 E35644.405
G1 X-16.2 Y13.23 Z1.5 F360.0 E35648.335
G1 X-15.93 Y13.56 Z1.5 F360.0 E35648.861
G1 X-19.54 Y17.17 Z1.5 F360.0 E35655.258
G1 X-20.01 Y18.23 Z1.5 F360.0 E35656.697
;M103
G1 X-19.19 Y17.41 Z1.5 F3600.0
;M101
G1 X-15.66 Y13.88 Z1.5 F360.0 E35662.947
G1 X-15.39 Y14.21 Z1.5 F360.0 E35663.473
G1 X-18.25 Y17.07 Z1.5 F360.0 E35668.531
;M103
