G21 (This is GCode, generated with Skeinforge version 35 from ReplicatorG)
G21 (Ultimaker profile - Quality print - alterations/start-centered.gcode)
G21 (Metric: The unit is a millimeter)
M18 (Disable motors for now, to allow manual moving of the head)
G90 (Absolute Positioning)
;G92 X0 Y0 Z0 E0 (set origin to current position)
;M1 (Check if the platform is empty before continuing)
;G1 X-220.0 Y-220.0 F2000 (ensure you're in the front left corner)
;G92 X-110 Y-110 Z220 E0 (make the center the origin)
;G1 X0.0 Y0.0 F3000 (go back to the center)
;G1 Z210.0 F100 (let the platform go up slightly, start slowly)
;G1 Z0.0 F400 (we don't have all day...)
;G92 X0 Y0 Z0 E0 (make the center the origin)
;G91 (Relative positioning)
;G1 Z35.0 F400 (lower platform for cleaning nozzle)
;G92 E0 (zero the extruded length)
;G1 E260 F1000 (extrude some to get the flow going)
;G1 E-20 F3000 (reverse a little)
;G92 E0 (zero the extruded length)
;M1 (Clean the nozzle and press YES to continue...)
;G1 Z-1.0 F100 (rise platform again)
;G1 Z-34.0 F400 (rise platform again)
;G90 
;G1 Z0.4
;G92 E0 (zero the extruded length)
;G21 (end of start .gcode file)
G90
G21
;M103
M105
M106
M113 S1.0
;M108 S7.506
M104 S245.0
G1 X-13.48 Y-27.25 Z0.53 F54.0
;M101
G1 X-13.48 Y78.0 Z0.53 F54.0 E877.76
G1 X47.0 Y78.0 Z0.53 F54.0 E1382.08
G1 X47.0 Y-27.25 Z0.53 F54.0 E2259.84
G1 X-13.48 Y-27.25 Z0.53 F54.0 E2764.16
;M103
G1 X-10.48 Y-24.25 Z0.53 F54.0
;M101
G1 X-10.48 Y75.0 Z0.53 F54.0 E3591.88
G1 X-8.38 Y75.0 Z0.53 F54.0 E3609.352
G1 X-8.38 Y-24.25 Z0.53 F54.0 E4437.072
G1 X-6.29 Y-24.25 Z0.53 F54.0 E4454.544
G1 X-6.29 Y75.0 Z0.53 F54.0 E5282.264
G1 X-4.19 Y75.0 Z0.53 F54.0 E5299.736
G1 X-4.19 Y-24.25 Z0.53 F54.0 E6127.456
G1 X-2.1 Y-24.25 Z0.53 F54.0 E6144.929
G1 X-2.1 Y75.0 Z0.53 F54.0 E6972.649
G1 X0.0 Y75.0 Z0.53 F54.0 E6990.121
G1 X0.0 Y-24.25 Z0.53 F54.0 E7817.841
G1 X2.1 Y-24.25 Z0.53 F54.0 E7835.313
G1 X2.1 Y75.0 Z0.53 F54.0 E8663.033
G1 X4.19 Y75.0 Z0.53 F54.0 E8680.506
G1 X4.19 Y-24.25 Z0.53 F54.0 E9508.226
G1 X6.29 Y-24.25 Z0.53 F54.0 E9525.698
G1 X6.29 Y75.0 Z0.53 F54.0 E10353.418
G1 X8.38 Y75.0 Z0.53 F54.0 E10370.89
G1 X8.38 Y-24.25 Z0.53 F54.0 E11198.61
G1 X10.48 Y-24.25 Z0.53 F54.0 E11216.082
G1 X10.48 Y75.0 Z0.53 F54.0 E12043.802
G1 X12.57 Y75.0 Z0.53 F54.0 E12061.275
G1 X12.57 Y-24.25 Z0.53 F54.0 E12888.995
G1 X14.67 Y-24.25 Z0.53 F54.0 E12906.467
G1 X14.67 Y75.0 Z0.53 F54.0 E13734.187
G1 X16.76 Y75.0 Z0.53 F54.0 E13751.659
G1 X16.76 Y-24.25 Z0.53 F54.0 E14579.379
G1 X18.86 Y-24.25 Z0.53 F54.0 E14596.851
G1 X18.86 Y75.0 Z0.53 F54.0 E15424.571
G1 X20.95 Y75.0 Z0.53 F54.0 E15442.044
G1 X20.95 Y-24.25 Z0.53 F54.0 E16269.764
G1 X23.05 Y-24.25 Z0.53 F54.0 E16287.236
G1 X23.05 Y75.0 Z0.53 F54.0 E17114.956
G1 X25.14 Y75.0 Z0.53 F54.0 E17132.428
G1 X25.14 Y-24.25 Z0.53 F54.0 E17960.148
G1 X27.24 Y-24.25 Z0.53 F54.0 E17977.621
G1 X27.24 Y75.0 Z0.53 F54.0 E18805.341
G1 X29.33 Y75.0 Z0.53 F54.0 E18822.813
G1 X29.33 Y-24.25 Z0.53 F54.0 E19650.533
G1 X31.43 Y-24.25 Z0.53 F54.0 E19668.005
G1 X31.43 Y75.0 Z0.53 F54.0 E20495.725
G1 X33.52 Y75.0 Z0.53 F54.0 E20513.197
G1 X33.52 Y-24.25 Z0.53 F54.0 E21340.917
G1 X35.62 Y-24.25 Z0.53 F54.0 E21358.39
G1 X35.62 Y75.0 Z0.53 F54.0 E22186.11
G1 X37.71 Y75.0 Z0.53 F54.0 E22203.582
G1 X37.71 Y-24.25 Z0.53 F54.0 E23031.302
G1 X39.81 Y-24.25 Z0.53 F54.0 E23048.774
G1 X39.81 Y75.0 Z0.53 F54.0 E23876.494
G1 X41.9 Y75.0 Z0.53 F54.0 E23893.967
G1 X41.9 Y-24.25 Z0.53 F54.0 E24721.687
G1 X44.0 Y-24.25 Z0.53 F54.0 E24739.159
G1 X44.0 Y75.0 Z0.53 F54.0 E25566.879
;M103
G1 X-10.5 Y74.95 Z0.89 F360.0
;M101
G1 X44.02 Y74.95 Z0.89 F360.0 E25635.073
G1 X44.02 Y74.49 Z0.89 F360.0 E25635.655
G1 X-10.5 Y74.49 Z0.89 F360.0 E25703.85
G1 X-10.5 Y74.02 Z0.89 F360.0 E25704.433
G1 X44.02 Y74.02 Z0.89 F360.0 E25772.627
G1 X44.02 Y73.56 Z0.89 F360.0 E25773.209
G1 X-10.5 Y73.56 Z0.89 F360.0 E25841.403
G1 X-10.5 Y73.09 Z0.89 F360.0 E25841.986
G1 X44.02 Y73.09 Z0.89 F360.0 E25910.181
G1 X44.02 Y72.63 Z0.89 F360.0 E25910.762
G1 X-10.5 Y72.63 Z0.89 F360.0 E25978.957
G1 X-10.5 Y72.16 Z0.89 F360.0 E25979.54
G1 X44.02 Y72.16 Z0.89 F360.0 E26047.734
G1 X44.02 Y71.7 Z0.89 F360.0 E26048.316
G1 X-10.5 Y71.7 Z0.89 F360.0 E26116.511
G1 X-10.5 Y71.23 Z0.89 F360.0 E26117.094
G1 X44.02 Y71.23 Z0.89 F360.0 E26185.288
G1 X44.02 Y70.76 Z0.89 F360.0 E26185.871
G1 X-10.5 Y70.76 Z0.89 F360.0 E26254.066
G1 X-10.5 Y70.3 Z0.89 F360.0 E26254.647
G1 X44.02 Y70.3 Z0.89 F360.0 E26322.842
G1 X44.02 Y69.83 Z0.89 F360.0 E26323.425
G1 X-10.5 Y69.83 Z0.89 F360.0 E26391.619
G1 X-10.5 Y69.37 Z0.89 F360.0 E26392.201
G1 X44.02 Y69.37 Z0.89 F360.0 E26460.396
G1 X44.02 Y68.9 Z0.89 F360.0 E26460.979
G1 X-10.5 Y68.9 Z0.89 F360.0 E26529.173
G1 X-10.5 Y68.44 Z0.89 F360.0 E26529.755
G1 X44.02 Y68.44 Z0.89 F360.0 E26597.949
G1 X44.02 Y67.97 Z0.89 F360.0 E26598.532
G1 X-10.5 Y67.97 Z0.89 F360.0 E26666.727
G1 X-10.5 Y67.51 Z0.89 F360.0 E26667.308
G1 X44.02 Y67.51 Z0.89 F360.0 E26735.503
G1 X44.02 Y67.04 Z0.89 F360.0 E26736.086
G1 X-10.5 Y67.04 Z0.89 F360.0 E26804.28
G1 X-10.5 Y66.57 Z0.89 F360.0 E26804.863
G1 X44.02 Y66.57 Z0.89 F360.0 E26873.058
G1 X44.02 Y66.11 Z0.89 F360.0 E26873.64
G1 X-10.5 Y66.11 Z0.89 F360.0 E26941.834
G1 X-10.5 Y65.64 Z0.89 F360.0 E26942.417
G1 X44.02 Y65.64 Z0.89 F360.0 E27010.612
G1 X44.02 Y65.18 Z0.89 F360.0 E27011.193
G1 X-10.5 Y65.18 Z0.89 F360.0 E27079.388
G1 X-10.5 Y64.71 Z0.89 F360.0 E27079.971
G1 X44.02 Y64.71 Z0.89 F360.0 E27148.165
G1 X44.02 Y64.25 Z0.89 F360.0 E27148.747
G1 X-10.5 Y64.25 Z0.89 F360.0 E27216.942
G1 X-10.5 Y63.78 Z0.89 F360.0 E27217.525
G1 X44.02 Y63.78 Z0.89 F360.0 E27285.719
G1 X44.02 Y63.32 Z0.89 F360.0 E27286.301
G1 X-10.5 Y63.32 Z0.89 F360.0 E27354.495
G1 X-10.5 Y62.85 Z0.89 F360.0 E27355.078
G1 X44.02 Y62.85 Z0.89 F360.0 E27423.273
G1 X44.02 Y62.38 Z0.89 F360.0 E27423.856
G1 X-10.5 Y62.38 Z0.89 F360.0 E27492.05
G1 X-10.5 Y61.92 Z0.89 F360.0 E27492.632
G1 X44.02 Y61.92 Z0.89 F360.0 E27560.826
G1 X44.02 Y61.45 Z0.89 F360.0 E27561.409
G1 X-10.5 Y61.45 Z0.89 F360.0 E27629.604
G1 X-10.5 Y60.99 Z0.89 F360.0 E27630.186
G1 X44.02 Y60.99 Z0.89 F360.0 E27698.38
G1 X44.02 Y60.52 Z0.89 F360.0 E27698.963
G1 X-10.5 Y60.52 Z0.89 F360.0 E27767.158
G1 X-10.5 Y60.06 Z0.89 F360.0 E27767.739
G1 X44.02 Y60.06 Z0.89 F360.0 E27835.934
G1 X44.02 Y59.59 Z0.89 F360.0 E27836.517
G1 X-10.5 Y59.59 Z0.89 F360.0 E27904.711
G1 X-10.5 Y59.13 Z0.89 F360.0 E27905.293
G1 X44.02 Y59.13 Z0.89 F360.0 E27973.488
G1 X44.02 Y58.66 Z0.89 F360.0 E27974.071
G1 X-10.5 Y58.66 Z0.89 F360.0 E28042.265
G1 X-10.5 Y58.19 Z0.89 F360.0 E28042.848
G1 X44.02 Y58.19 Z0.89 F360.0 E28111.043
G1 X44.02 Y57.73 Z0.89 F360.0 E28111.624
G1 X-10.5 Y57.73 Z0.89 F360.0 E28179.819
G1 X-10.5 Y57.26 Z0.89 F360.0 E28180.402
G1 X44.02 Y57.26 Z0.89 F360.0 E28248.596
G1 X44.02 Y56.8 Z0.89 F360.0 E28249.178
G1 X-10.5 Y56.8 Z0.89 F360.0 E28317.372
G1 X-10.5 Y56.33 Z0.89 F360.0 E28317.955
G1 X44.02 Y56.33 Z0.89 F360.0 E28386.15
G1 X44.02 Y55.87 Z0.89 F360.0 E28386.732
G1 X-10.5 Y55.87 Z0.89 F360.0 E28454.926
G1 X-10.5 Y55.4 Z0.89 F360.0 E28455.509
G1 X44.02 Y55.4 Z0.89 F360.0 E28523.704
G1 X44.02 Y54.94 Z0.89 F360.0 E28524.285
G1 X-10.5 Y54.94 Z0.89 F360.0 E28592.48
G1 X-10.5 Y54.47 Z0.89 F360.0 E28593.063
G1 X44.02 Y54.47 Z0.89 F360.0 E28661.257
G1 X44.02 Y54.0 Z0.89 F360.0 E28661.84
G1 X-10.5 Y54.0 Z0.89 F360.0 E28730.035
G1 X-10.5 Y53.54 Z0.89 F360.0 E28730.617
G1 X44.02 Y53.54 Z0.89 F360.0 E28798.811
G1 X44.02 Y53.07 Z0.89 F360.0 E28799.394
G1 X-10.5 Y53.07 Z0.89 F360.0 E28867.589
G1 X-10.5 Y52.61 Z0.89 F360.0 E28868.17
G1 X44.02 Y52.61 Z0.89 F360.0 E28936.365
G1 X44.02 Y52.14 Z0.89 F360.0 E28936.948
G1 X-10.5 Y52.14 Z0.89 F360.0 E29005.142
G1 X-10.5 Y51.68 Z0.89 F360.0 E29005.724
G1 X44.02 Y51.68 Z0.89 F360.0 E29073.918
G1 X44.02 Y51.21 Z0.89 F360.0 E29074.501
G1 X-10.5 Y51.21 Z0.89 F360.0 E29142.696
G1 X-10.5 Y50.75 Z0.89 F360.0 E29143.278
G1 X44.02 Y50.75 Z0.89 F360.0 E29211.472
G1 X44.02 Y50.28 Z0.89 F360.0 E29212.055
G1 X-10.5 Y50.28 Z0.89 F360.0 E29280.25
G1 X-10.5 Y49.81 Z0.89 F360.0 E29280.833
G1 X44.02 Y49.81 Z0.89 F360.0 E29349.027
G1 X44.02 Y49.35 Z0.89 F360.0 E29349.609
G1 X-10.5 Y49.35 Z0.89 F360.0 E29417.803
G1 X-10.5 Y48.88 Z0.89 F360.0 E29418.386
G1 X44.02 Y48.88 Z0.89 F360.0 E29486.581
G1 X44.02 Y48.42 Z0.89 F360.0 E29487.163
G1 X-10.5 Y48.42 Z0.89 F360.0 E29555.357
G1 X-10.5 Y47.95 Z0.89 F360.0 E29555.94
G1 X44.02 Y47.95 Z0.89 F360.0 E29624.135
G1 X44.02 Y47.49 Z0.89 F360.0 E29624.716
G1 X-10.5 Y47.49 Z0.89 F360.0 E29692.911
G1 X-10.5 Y47.02 Z0.89 F360.0 E29693.494
G1 X44.02 Y47.02 Z0.89 F360.0 E29761.688
G1 X44.02 Y46.56 Z0.89 F360.0 E29762.27
G1 X-10.5 Y46.56 Z0.89 F360.0 E29830.464
G1 X-10.5 Y46.09 Z0.89 F360.0 E29831.047
G1 X44.02 Y46.09 Z0.89 F360.0 E29899.242
G1 X44.02 Y45.62 Z0.89 F360.0 E29899.825
G1 X-10.5 Y45.62 Z0.89 F360.0 E29968.019
G1 X-10.5 Y45.16 Z0.89 F360.0 E29968.601
G1 X44.02 Y45.16 Z0.89 F360.0 E30036.796
G1 X44.02 Y44.69 Z0.89 F360.0 E30037.379
G1 X-10.5 Y44.69 Z0.89 F360.0 E30105.573
G1 X-10.5 Y44.23 Z0.89 F360.0 E30106.155
G1 X44.02 Y44.23 Z0.89 F360.0 E30174.349
G1 X44.02 Y43.76 Z0.89 F360.0 E30174.932
G1 X-10.5 Y43.76 Z0.89 F360.0 E30243.127
G1 X-10.5 Y43.3 Z0.89 F360.0 E30243.709
G1 X44.02 Y43.3 Z0.89 F360.0 E30311.903
G1 X44.02 Y42.83 Z0.89 F360.0 E30312.486
G1 X-10.5 Y42.83 Z0.89 F360.0 E30380.681
G1 X-10.5 Y42.37 Z0.89 F360.0 E30381.262
G1 X44.02 Y42.37 Z0.89 F360.0 E30449.457
G1 X44.02 Y41.9 Z0.89 F360.0 E30450.04
G1 X-10.5 Y41.9 Z0.89 F360.0 E30518.234
G1 X-10.5 Y41.43 Z0.89 F360.0 E30518.817
G1 X44.02 Y41.43 Z0.89 F360.0 E30587.012
G1 X44.02 Y40.97 Z0.89 F360.0 E30587.593
G1 X-10.5 Y40.97 Z0.89 F360.0 E30655.788
G1 X-10.5 Y40.5 Z0.89 F360.0 E30656.371
G1 X44.02 Y40.5 Z0.89 F360.0 E30724.565
G1 X44.02 Y40.04 Z0.89 F360.0 E30725.147
G1 X-10.5 Y40.04 Z0.89 F360.0 E30793.342
G1 X-10.5 Y39.57 Z0.89 F360.0 E30793.925
G1 X44.02 Y39.57 Z0.89 F360.0 E30862.119
G1 X44.02 Y39.11 Z0.89 F360.0 E30862.701
G1 X-10.5 Y39.11 Z0.89 F360.0 E30930.895
G1 X-10.5 Y38.64 Z0.89 F360.0 E30931.478
G1 X44.02 Y38.64 Z0.89 F360.0 E30999.673
G1 X44.02 Y38.18 Z0.89 F360.0 E31000.255
G1 X-10.5 Y38.18 Z0.89 F360.0 E31068.449
G1 X-10.5 Y37.71 Z0.89 F360.0 E31069.032
G1 X44.02 Y37.71 Z0.89 F360.0 E31137.227
G1 X44.02 Y37.24 Z0.89 F360.0 E31137.81
G1 X-10.5 Y37.24 Z0.89 F360.0 E31206.004
G1 X-10.5 Y36.78 Z0.89 F360.0 E31206.586
G1 X44.02 Y36.78 Z0.89 F360.0 E31274.78
G1 X44.02 Y36.31 Z0.89 F360.0 E31275.363
G1 X-10.5 Y36.31 Z0.89 F360.0 E31343.558
G1 X-10.5 Y35.85 Z0.89 F360.0 E31344.139
G1 X44.02 Y35.85 Z0.89 F360.0 E31412.334
G1 X44.02 Y35.38 Z0.89 F360.0 E31412.917
G1 X-10.5 Y35.38 Z0.89 F360.0 E31481.111
G1 X-10.5 Y34.92 Z0.89 F360.0 E31481.693
G1 X44.02 Y34.92 Z0.89 F360.0 E31549.888
G1 X44.02 Y34.45 Z0.89 F360.0 E31550.471
G1 X-10.5 Y34.45 Z0.89 F360.0 E31618.665
G1 X-10.5 Y33.99 Z0.89 F360.0 E31619.247
G1 X44.02 Y33.99 Z0.89 F360.0 E31687.441
G1 X44.02 Y33.52 Z0.89 F360.0 E31688.024
G1 X-10.5 Y33.52 Z0.89 F360.0 E31756.219
G1 X-10.5 Y33.05 Z0.89 F360.0 E31756.802
G1 X44.02 Y33.05 Z0.89 F360.0 E31824.996
G1 X44.02 Y32.59 Z0.89 F360.0 E31825.578
G1 X-10.5 Y32.59 Z0.89 F360.0 E31893.773
G1 X-10.5 Y32.12 Z0.89 F360.0 E31894.356
G1 X44.02 Y32.12 Z0.89 F360.0 E31962.55
G1 X44.02 Y31.66 Z0.89 F360.0 E31963.132
G1 X-10.5 Y31.66 Z0.89 F360.0 E32031.326
G1 X-10.5 Y31.19 Z0.89 F360.0 E32031.909
G1 X44.02 Y31.19 Z0.89 F360.0 E32100.104
G1 X44.02 Y30.73 Z0.89 F360.0 E32100.685
G1 X-10.5 Y30.73 Z0.89 F360.0 E32168.88
G1 X-10.5 Y30.26 Z0.89 F360.0 E32169.463
G1 X44.02 Y30.26 Z0.89 F360.0 E32237.657
G1 X44.02 Y29.8 Z0.89 F360.0 E32238.239
G1 X-10.5 Y29.8 Z0.89 F360.0 E32306.434
G1 X-10.5 Y29.33 Z0.89 F360.0 E32307.017
G1 X44.02 Y29.33 Z0.89 F360.0 E32375.211
G1 X44.02 Y28.86 Z0.89 F360.0 E32375.794
G1 X-10.5 Y28.86 Z0.89 F360.0 E32443.989
G1 X-10.5 Y28.4 Z0.89 F360.0 E32444.57
G1 X44.02 Y28.4 Z0.89 F360.0 E32512.765
G1 X44.02 Y27.93 Z0.89 F360.0 E32513.348
G1 X-10.5 Y27.93 Z0.89 F360.0 E32581.542
G1 X-10.5 Y27.47 Z0.89 F360.0 E32582.124
G1 X44.02 Y27.47 Z0.89 F360.0 E32650.319
G1 X44.02 Y27.0 Z0.89 F360.0 E32650.902
G1 X-10.5 Y27.0 Z0.89 F360.0 E32719.096
G1 X-10.5 Y26.54 Z0.89 F360.0 E32719.678
G1 X44.02 Y26.54 Z0.89 F360.0 E32787.872
G1 X44.02 Y26.07 Z0.89 F360.0 E32788.455
G1 X-10.5 Y26.07 Z0.89 F360.0 E32856.65
G1 X-10.5 Y25.61 Z0.89 F360.0 E32857.231
G1 X44.02 Y25.61 Z0.89 F360.0 E32925.426
G1 X44.02 Y25.14 Z0.89 F360.0 E32926.009
G1 X-10.5 Y25.14 Z0.89 F360.0 E32994.203
G1 X-10.5 Y24.67 Z0.89 F360.0 E32994.786
G1 X44.02 Y24.67 Z0.89 F360.0 E33062.981
G1 X44.02 Y24.21 Z0.89 F360.0 E33063.563
G1 X-10.5 Y24.21 Z0.89 F360.0 E33131.757
G1 X-10.5 Y23.74 Z0.89 F360.0 E33132.34
G1 X44.02 Y23.74 Z0.89 F360.0 E33200.535
G1 X44.02 Y23.28 Z0.89 F360.0 E33201.116
G1 X-10.5 Y23.28 Z0.89 F360.0 E33269.311
G1 X-10.5 Y22.81 Z0.89 F360.0 E33269.894
G1 X44.02 Y22.81 Z0.89 F360.0 E33338.088
G1 X44.02 Y22.35 Z0.89 F360.0 E33338.67
G1 X-10.5 Y22.35 Z0.89 F360.0 E33406.865
G1 X-10.5 Y21.88 Z0.89 F360.0 E33407.448
G1 X44.02 Y21.88 Z0.89 F360.0 E33475.642
G1 X44.02 Y21.42 Z0.89 F360.0 E33476.224
G1 X-10.5 Y21.42 Z0.89 F360.0 E33544.418
G1 X-10.5 Y20.95 Z0.89 F360.0 E33545.001
G1 X44.02 Y20.95 Z0.89 F360.0 E33613.196
G1 X44.02 Y20.48 Z0.89 F360.0 E33613.779
G1 X-10.5 Y20.48 Z0.89 F360.0 E33681.973
G1 X-10.5 Y20.02 Z0.89 F360.0 E33682.555
G1 X44.02 Y20.02 Z0.89 F360.0 E33750.749
G1 X44.02 Y19.55 Z0.89 F360.0 E33751.332
G1 X-10.5 Y19.55 Z0.89 F360.0 E33819.527
G1 X-10.5 Y19.09 Z0.89 F360.0 E33820.109
G1 X44.02 Y19.09 Z0.89 F360.0 E33888.303
G1 X44.02 Y18.62 Z0.89 F360.0 E33888.886
G1 X-10.5 Y18.62 Z0.89 F360.0 E33957.081
G1 X-10.5 Y18.16 Z0.89 F360.0 E33957.662
G1 X44.02 Y18.16 Z0.89 F360.0 E34025.857
G1 X44.02 Y17.69 Z0.89 F360.0 E34026.44
G1 X-10.5 Y17.69 Z0.89 F360.0 E34094.634
G1 X-10.5 Y17.23 Z0.89 F360.0 E34095.216
G1 X44.02 Y17.23 Z0.89 F360.0 E34163.411
G1 X44.02 Y16.76 Z0.89 F360.0 E34163.994
G1 X-10.5 Y16.76 Z0.89 F360.0 E34232.188
G1 X-10.5 Y16.29 Z0.89 F360.0 E34232.771
G1 X44.02 Y16.29 Z0.89 F360.0 E34300.966
G1 X44.02 Y15.83 Z0.89 F360.0 E34301.547
G1 X-10.5 Y15.83 Z0.89 F360.0 E34369.742
G1 X-10.5 Y15.36 Z0.89 F360.0 E34370.325
G1 X44.02 Y15.36 Z0.89 F360.0 E34438.519
G1 X44.02 Y14.9 Z0.89 F360.0 E34439.101
G1 X-10.5 Y14.9 Z0.89 F360.0 E34507.295
G1 X-10.5 Y14.43 Z0.89 F360.0 E34507.878
G1 X44.02 Y14.43 Z0.89 F360.0 E34576.073
G1 X44.02 Y13.97 Z0.89 F360.0 E34576.655
G1 X-10.5 Y13.97 Z0.89 F360.0 E34644.849
G1 X-10.5 Y13.5 Z0.89 F360.0 E34645.432
G1 X44.02 Y13.5 Z0.89 F360.0 E34713.627
G1 X44.02 Y13.04 Z0.89 F360.0 E34714.208
G1 X-10.5 Y13.04 Z0.89 F360.0 E34782.403
G1 X-10.5 Y12.57 Z0.89 F360.0 E34782.986
G1 X44.02 Y12.57 Z0.89 F360.0 E34851.18
G1 X44.02 Y12.1 Z0.89 F360.0 E34851.763
G1 X-10.5 Y12.1 Z0.89 F360.0 E34919.958
G1 X-10.5 Y11.64 Z0.89 F360.0 E34920.54
G1 X44.02 Y11.64 Z0.89 F360.0 E34988.734
G1 X44.02 Y11.17 Z0.89 F360.0 E34989.317
G1 X-10.5 Y11.17 Z0.89 F360.0 E35057.512
G1 X-10.5 Y10.71 Z0.89 F360.0 E35058.093
G1 X44.02 Y10.71 Z0.89 F360.0 E35126.288
G1 X44.02 Y10.24 Z0.89 F360.0 E35126.871
G1 X-10.5 Y10.24 Z0.89 F360.0 E35195.065
G1 X-10.5 Y9.78 Z0.89 F360.0 E35195.647
G1 X44.02 Y9.78 Z0.89 F360.0 E35263.841
G1 X44.02 Y9.31 Z0.89 F360.0 E35264.424
G1 X-10.5 Y9.31 Z0.89 F360.0 E35332.619
G1 X-10.5 Y8.85 Z0.89 F360.0 E35333.201
G1 X44.02 Y8.85 Z0.89 F360.0 E35401.395
G1 X44.02 Y8.38 Z0.89 F360.0 E35401.978
G1 X-10.5 Y8.38 Z0.89 F360.0 E35470.173
G1 X-10.5 Y7.91 Z0.89 F360.0 E35470.756
G1 X44.02 Y7.91 Z0.89 F360.0 E35538.95
G1 X44.02 Y7.45 Z0.89 F360.0 E35539.532
G1 X-10.5 Y7.45 Z0.89 F360.0 E35607.726
G1 X-10.5 Y6.98 Z0.89 F360.0 E35608.309
G1 X44.02 Y6.98 Z0.89 F360.0 E35676.504
G1 X44.02 Y6.52 Z0.89 F360.0 E35677.086
G1 X-10.5 Y6.52 Z0.89 F360.0 E35745.28
G1 X-10.5 Y6.05 Z0.89 F360.0 E35745.863
G1 X44.02 Y6.05 Z0.89 F360.0 E35814.058
G1 X44.02 Y5.59 Z0.89 F360.0 E35814.639
G1 X-10.5 Y5.59 Z0.89 F360.0 E35882.834
G1 X-10.5 Y5.12 Z0.89 F360.0 E35883.417
G1 X44.02 Y5.12 Z0.89 F360.0 E35951.611
G1 X44.02 Y4.66 Z0.89 F360.0 E35952.193
G1 X-10.5 Y4.66 Z0.89 F360.0 E36020.387
G1 X-10.5 Y4.19 Z0.89 F360.0 E36020.97
G1 X44.02 Y4.19 Z0.89 F360.0 E36089.165
G1 X44.02 Y3.72 Z0.89 F360.0 E36089.748
G1 X-10.5 Y3.72 Z0.89 F360.0 E36157.942
G1 X-10.5 Y3.26 Z0.89 F360.0 E36158.524
G1 X44.02 Y3.26 Z0.89 F360.0 E36226.719
G1 X44.02 Y2.79 Z0.89 F360.0 E36227.302
G1 X-10.5 Y2.79 Z0.89 F360.0 E36295.496
G1 X-10.5 Y2.33 Z0.89 F360.0 E36296.078
G1 X44.02 Y2.33 Z0.89 F360.0 E36364.272
G1 X44.02 Y1.86 Z0.89 F360.0 E36364.855
G1 X-10.5 Y1.86 Z0.89 F360.0 E36433.05
G1 X-10.5 Y1.4 Z0.89 F360.0 E36433.632
G1 X44.02 Y1.4 Z0.89 F360.0 E36501.826
G1 X44.02 Y0.93 Z0.89 F360.0 E36502.409
G1 X-10.5 Y0.93 Z0.89 F360.0 E36570.604
G1 X-10.5 Y0.47 Z0.89 F360.0 E36571.185
G1 X44.02 Y0.47 Z0.89 F360.0 E36639.38
G1 X44.02 Y0.0 Z0.89 F360.0 E36639.963
G1 X-10.5 Y0.0 Z0.89 F360.0 E36708.157
G1 X-10.5 Y-0.47 Z0.89 F360.0 E36708.74
G1 X44.02 Y-0.47 Z0.89 F360.0 E36776.935
G1 X44.02 Y-0.93 Z0.89 F360.0 E36777.516
G1 X-10.5 Y-0.93 Z0.89 F360.0 E36845.711
G1 X-10.5 Y-1.4 Z0.89 F360.0 E36846.294
G1 X44.02 Y-1.4 Z0.89 F360.0 E36914.488
G1 X44.02 Y-1.86 Z0.89 F360.0 E36915.07
G1 X-10.5 Y-1.86 Z0.89 F360.0 E36983.265
G1 X-10.5 Y-2.33 Z0.89 F360.0 E36983.848
G1 X44.02 Y-2.33 Z0.89 F360.0 E37052.042
G1 X44.02 Y-2.79 Z0.89 F360.0 E37052.624
G1 X-10.5 Y-2.79 Z0.89 F360.0 E37120.818
G1 X-10.5 Y-3.26 Z0.89 F360.0 E37121.401
G1 X44.02 Y-3.26 Z0.89 F360.0 E37189.596
G1 X44.02 Y-3.72 Z0.89 F360.0 E37190.178
G1 X-10.5 Y-3.72 Z0.89 F360.0 E37258.372
G1 X-10.5 Y-4.19 Z0.89 F360.0 E37258.955
G1 X44.02 Y-4.19 Z0.89 F360.0 E37327.15
G1 X44.02 Y-4.66 Z0.89 F360.0 E37327.732
G1 X-10.5 Y-4.66 Z0.89 F360.0 E37395.927
G1 X-10.5 Y-5.12 Z0.89 F360.0 E37396.509
G1 X44.02 Y-5.12 Z0.89 F360.0 E37464.703
G1 X44.02 Y-5.59 Z0.89 F360.0 E37465.286
G1 X-10.5 Y-5.59 Z0.89 F360.0 E37533.481
G1 X-10.5 Y-6.05 Z0.89 F360.0 E37534.062
G1 X44.02 Y-6.05 Z0.89 F360.0 E37602.257
G1 X44.02 Y-6.52 Z0.89 F360.0 E37602.84
G1 X-10.5 Y-6.52 Z0.89 F360.0 E37671.034
G1 X-10.5 Y-6.98 Z0.89 F360.0 E37671.616
G1 X44.02 Y-6.98 Z0.89 F360.0 E37739.811
G1 X44.02 Y-7.45 Z0.89 F360.0 E37740.394
G1 X-10.5 Y-7.45 Z0.89 F360.0 E37808.588
G1 X-10.5 Y-7.91 Z0.89 F360.0 E37809.17
G1 X44.02 Y-7.91 Z0.89 F360.0 E37877.364
G1 X44.02 Y-8.38 Z0.89 F360.0 E37877.947
G1 X-10.5 Y-8.38 Z0.89 F360.0 E37946.142
G1 X-10.5 Y-8.85 Z0.89 F360.0 E37946.725
G1 X44.02 Y-8.85 Z0.89 F360.0 E38014.919
G1 X44.02 Y-9.31 Z0.89 F360.0 E38015.501
G1 X-10.5 Y-9.31 Z0.89 F360.0 E38083.696
G1 X-10.5 Y-9.78 Z0.89 F360.0 E38084.278
G1 X44.02 Y-9.78 Z0.89 F360.0 E38152.473
G1 X44.02 Y-10.24 Z0.89 F360.0 E38153.055
G1 X-10.5 Y-10.24 Z0.89 F360.0 E38221.249
G1 X-10.5 Y-10.71 Z0.89 F360.0 E38221.832
G1 X44.02 Y-10.71 Z0.89 F360.0 E38290.027
G1 X44.02 Y-11.17 Z0.89 F360.0 E38290.608
G1 X-10.5 Y-11.17 Z0.89 F360.0 E38358.803
G1 X-10.5 Y-11.64 Z0.89 F360.0 E38359.386
G1 X44.02 Y-11.64 Z0.89 F360.0 E38427.58
G1 X44.02 Y-12.1 Z0.89 F360.0 E38428.162
G1 X-10.5 Y-12.1 Z0.89 F360.0 E38496.357
G1 X-10.5 Y-12.57 Z0.89 F360.0 E38496.94
G1 X44.02 Y-12.57 Z0.89 F360.0 E38565.134
G1 X44.02 Y-13.04 Z0.89 F360.0 E38565.717
G1 X-10.5 Y-13.04 Z0.89 F360.0 E38633.912
G1 X-10.5 Y-13.5 Z0.89 F360.0 E38634.493
G1 X44.02 Y-13.5 Z0.89 F360.0 E38702.688
G1 X44.02 Y-13.97 Z0.89 F360.0 E38703.271
G1 X-10.5 Y-13.97 Z0.89 F360.0 E38771.465
G1 X-10.5 Y-14.43 Z0.89 F360.0 E38772.047
G1 X44.02 Y-14.43 Z0.89 F360.0 E38840.242
G1 X44.02 Y-14.9 Z0.89 F360.0 E38840.824
G1 X-10.5 Y-14.9 Z0.89 F360.0 E38909.019
G1 X-10.5 Y-15.36 Z0.89 F360.0 E38909.601
G1 X44.02 Y-15.36 Z0.89 F360.0 E38977.795
G1 X44.02 Y-15.83 Z0.89 F360.0 E38978.378
G1 X-10.5 Y-15.83 Z0.89 F360.0 E39046.573
G1 X-10.5 Y-16.29 Z0.89 F360.0 E39047.154
G1 X44.02 Y-16.29 Z0.89 F360.0 E39115.349
G1 X44.02 Y-16.76 Z0.89 F360.0 E39115.932
G1 X-10.5 Y-16.76 Z0.89 F360.0 E39184.126
G1 X-10.5 Y-17.23 Z0.89 F360.0 E39184.709
G1 X44.02 Y-17.23 Z0.89 F360.0 E39252.904
G1 X44.02 Y-17.69 Z0.89 F360.0 E39253.486
G1 X-10.5 Y-17.69 Z0.89 F360.0 E39321.68
G1 X-10.5 Y-18.16 Z0.89 F360.0 E39322.263
G1 X44.02 Y-18.16 Z0.89 F360.0 E39390.458
G1 X44.02 Y-18.62 Z0.89 F360.0 E39391.039
G1 X-10.5 Y-18.62 Z0.89 F360.0 E39459.234
G1 X-10.5 Y-19.09 Z0.89 F360.0 E39459.817
G1 X44.02 Y-19.09 Z0.89 F360.0 E39528.011
G1 X44.02 Y-19.55 Z0.89 F360.0 E39528.593
G1 X-10.5 Y-19.55 Z0.89 F360.0 E39596.788
G1 X-10.5 Y-20.02 Z0.89 F360.0 E39597.37
G1 X44.02 Y-20.02 Z0.89 F360.0 E39665.565
G1 X44.02 Y-20.48 Z0.89 F360.0 E39666.147
G1 X-10.5 Y-20.48 Z0.89 F360.0 E39734.341
G1 X-10.5 Y-20.95 Z0.89 F360.0 E39734.924
G1 X44.02 Y-20.95 Z0.89 F360.0 E39803.119
G1 X44.02 Y-21.42 Z0.89 F360.0 E39803.702
G1 X-10.5 Y-21.42 Z0.89 F360.0 E39871.896
G1 X-10.5 Y-21.88 Z0.89 F360.0 E39872.478
G1 X44.02 Y-21.88 Z0.89 F360.0 E39940.672
G1 X44.02 Y-22.35 Z0.89 F360.0 E39941.255
G1 X-10.5 Y-22.35 Z0.89 F360.0 E40009.45
G1 X-10.5 Y-22.81 Z0.89 F360.0 E40010.032
G1 X44.02 Y-22.81 Z0.89 F360.0 E40078.226
G1 X44.02 Y-23.28 Z0.89 F360.0 E40078.809
G1 X-10.5 Y-23.28 Z0.89 F360.0 E40147.004
G1 X-10.5 Y-23.74 Z0.89 F360.0 E40147.585
G1 X44.02 Y-23.74 Z0.89 F360.0 E40215.78
G1 X44.02 Y-24.21 Z0.89 F360.0 E40216.363
G1 X-10.5 Y-24.21 Z0.89 F360.0 E40284.557
;M103
;M108 S7.881
G1 X0.21 Y-18.16 Z1.2 F2880.0
;M101
G1 X-0.69 Y-19.05 Z1.2 F288.0 E40286.631
G1 X-1.28 Y-19.05 Z1.2 F288.0 E40287.603
G1 X-0.45 Y-18.22 Z1.2 F288.0 E40289.525
G1 X-0.97 Y-18.15 Z1.2 F288.0 E40290.392
G1 X-1.87 Y-19.05 Z1.2 F288.0 E40292.476
G1 X-2.46 Y-19.05 Z1.2 F288.0 E40293.449
G1 X-1.4 Y-17.98 Z1.2 F288.0 E40295.929
G1 X-1.76 Y-17.76 Z1.2 F288.0 E40296.637
G1 X-3.06 Y-19.05 Z1.2 F288.0 E40299.639
G1 X-3.57 Y-18.98 Z1.2 F288.0 E40300.496
G1 X-2.09 Y-17.49 Z1.2 F288.0 E40303.942
G1 X-2.35 Y-17.16 Z1.2 F288.0 E40304.636
G1 X-3.57 Y-18.38 Z1.2 F288.0 E40307.483
G1 X-3.57 Y-17.79 Z1.2 F288.0 E40308.455
G1 X-2.55 Y-16.77 Z1.2 F288.0 E40310.833
G1 X-2.69 Y-16.32 Z1.2 F288.0 E40311.605
G1 X-3.57 Y-17.2 Z1.2 F288.0 E40313.645
G1 X-3.57 Y-16.61 Z1.2 F288.0 E40314.616
G1 X-2.75 Y-15.78 Z1.2 F288.0 E40316.533
G1 X-2.6 Y-15.04 Z1.2 F288.0 E40317.778
G1 X-3.57 Y-16.01 Z1.2 F288.0 E40320.044
;M103
G1 X31.77 Y19.33 Z1.2 F2880.0
;M101
G1 X-1.17 Y-13.61 Z1.2 F288.0 E40396.536
G1 X-0.43 Y-13.46 Z1.2 F288.0 E40397.783
G1 X31.62 Y18.59 Z1.2 F288.0 E40472.199
G1 X31.67 Y18.05 Z1.2 F288.0 E40473.088
G1 X0.11 Y-13.52 Z1.2 F288.0 E40546.378
G1 X0.56 Y-13.66 Z1.2 F288.0 E40547.151
G1 X31.82 Y17.6 Z1.2 F288.0 E40619.738
G1 X32.02 Y17.21 Z1.2 F288.0 E40620.46
G1 X0.95 Y-13.86 Z1.2 F288.0 E40692.612
G1 X1.28 Y-14.12 Z1.2 F288.0 E40693.305
G1 X32.28 Y16.88 Z1.2 F288.0 E40765.277
G1 X32.6 Y16.61 Z1.2 F288.0 E40765.968
G1 X1.55 Y-14.45 Z1.2 F288.0 E40838.074
G1 X1.77 Y-14.81 Z1.2 F288.0 E40838.781
G1 X32.97 Y16.38 Z1.2 F288.0 E40911.221
G1 X33.39 Y16.21 Z1.2 F288.0 E40911.968
G1 X1.94 Y-15.24 Z1.2 F288.0 E40984.991
G1 X2.01 Y-15.76 Z1.2 F288.0 E40985.857
G1 X33.92 Y16.14 Z1.2 F288.0 E41059.933
G1 X34.57 Y16.21 Z1.2 F288.0 E41061.016
G1 X1.95 Y-16.42 Z1.2 F288.0 E41136.768
;M103
G1 X28.34 Y-19.05 Z1.2 F2880.0
;M101
G1 X31.62 Y-15.77 Z1.2 F288.0 E41144.384
G1 X31.67 Y-16.31 Z1.2 F288.0 E41145.276
G1 X28.93 Y-19.05 Z1.2 F288.0 E41151.635
G1 X29.53 Y-19.05 Z1.2 F288.0 E41152.607
G1 X31.82 Y-16.76 Z1.2 F288.0 E41157.924
G1 X32.02 Y-17.15 Z1.2 F288.0 E41158.646
G1 X30.12 Y-19.05 Z1.2 F288.0 E41163.056
G1 X30.71 Y-19.05 Z1.2 F288.0 E41164.029
G1 X32.27 Y-17.49 Z1.2 F288.0 E41167.661
G1 X32.6 Y-17.76 Z1.2 F288.0 E41168.351
G1 X31.3 Y-19.05 Z1.2 F288.0 E41171.36
G1 X31.9 Y-19.05 Z1.2 F288.0 E41172.334
G1 X32.97 Y-17.98 Z1.2 F288.0 E41174.82
G1 X33.39 Y-18.15 Z1.2 F288.0 E41175.566
G1 X32.49 Y-19.05 Z1.2 F288.0 E41177.651
G1 X33.08 Y-19.05 Z1.2 F288.0 E41178.623
G1 X33.91 Y-18.22 Z1.2 F288.0 E41180.548
G1 X34.56 Y-18.16 Z1.2 F288.0 E41181.628
G1 X33.67 Y-19.05 Z1.2 F288.0 E41183.698
;M103
G1 X36.63 Y-19.05 Z1.2 F2880.0
;M101
G1 X37.21 Y-18.48 Z1.2 F288.0 E41185.028
G1 X37.21 Y-17.89 Z1.2 F288.0 E41186.002
G1 X36.04 Y-19.05 Z1.2 F288.0 E41188.709
G1 X35.45 Y-19.05 Z1.2 F288.0 E41189.681
G1 X37.21 Y-17.29 Z1.2 F288.0 E41193.763
G1 X37.21 Y-16.7 Z1.2 F288.0 E41194.737
G1 X34.86 Y-19.05 Z1.2 F288.0 E41200.196
G1 X34.26 Y-19.05 Z1.2 F288.0 E41201.168
G1 X37.21 Y-16.11 Z1.2 F288.0 E41208.002
G1 X37.21 Y-15.52 Z1.2 F288.0 E41208.974
G1 X36.32 Y-16.41 Z1.2 F288.0 E41211.044
G1 X36.38 Y-15.75 Z1.2 F288.0 E41212.124
G1 X37.21 Y-14.92 Z1.2 F288.0 E41214.049
G1 X37.21 Y-14.33 Z1.2 F288.0 E41215.021
G1 X36.31 Y-15.23 Z1.2 F288.0 E41217.106
G1 X36.14 Y-14.81 Z1.2 F288.0 E41217.852
G1 X37.21 Y-13.74 Z1.2 F288.0 E41220.337
G1 X37.21 Y-13.15 Z1.2 F288.0 E41221.311
G1 X35.91 Y-14.44 Z1.2 F288.0 E41224.32
G1 X35.64 Y-14.12 Z1.2 F288.0 E41225.012
G1 X37.21 Y-12.55 Z1.2 F288.0 E41228.642
G1 X37.21 Y-11.96 Z1.2 F288.0 E41229.616
G1 X35.31 Y-13.86 Z1.2 F288.0 E41234.028
G1 X34.92 Y-13.66 Z1.2 F288.0 E41234.75
G1 X37.21 Y-11.37 Z1.2 F288.0 E41240.069
G1 X37.21 Y-10.78 Z1.2 F288.0 E41241.041
G1 X34.47 Y-13.52 Z1.2 F288.0 E41247.402
G1 X33.93 Y-13.46 Z1.2 F288.0 E41248.292
G1 X37.21 Y-10.18 Z1.2 F288.0 E41255.909
G1 X37.21 Y-9.59 Z1.2 F288.0 E41256.881
G1 X33.18 Y-13.62 Z1.2 F288.0 E41266.232
;M103
G1 X31.77 Y-15.02 Z1.2 F2880.0
;M101
G1 X27.75 Y-19.05 Z1.2 F288.0 E41275.582
G1 X27.16 Y-19.05 Z1.2 F288.0 E41276.555
G1 X37.21 Y-9.0 Z1.2 F288.0 E41299.896
G1 X37.21 Y-8.41 Z1.2 F288.0 E41300.868
G1 X26.56 Y-19.05 Z1.2 F288.0 E41325.583
G1 X25.97 Y-19.05 Z1.2 F288.0 E41326.555
G1 X37.21 Y-7.82 Z1.2 F288.0 E41352.644
G1 X37.21 Y-7.22 Z1.2 F288.0 E41353.618
G1 X25.38 Y-19.05 Z1.2 F288.0 E41381.084
G1 X24.79 Y-19.05 Z1.2 F288.0 E41382.056
G1 X37.21 Y-6.63 Z1.2 F288.0 E41410.897
G1 X37.21 Y-6.04 Z1.2 F288.0 E41411.869
G1 X24.19 Y-19.05 Z1.2 F288.0 E41442.085
G1 X23.6 Y-19.05 Z1.2 F288.0 E41443.059
G1 X37.21 Y-5.45 Z1.2 F288.0 E41474.651
G1 X37.21 Y-4.85 Z1.2 F288.0 E41475.623
G1 X23.01 Y-19.05 Z1.2 F288.0 E41508.59
G1 X22.42 Y-19.05 Z1.2 F288.0 E41509.564
G1 X37.21 Y-4.26 Z1.2 F288.0 E41543.908
G1 X37.21 Y-3.67 Z1.2 F288.0 E41544.88
G1 X21.82 Y-19.05 Z1.2 F288.0 E41580.599
G1 X21.23 Y-19.05 Z1.2 F288.0 E41581.571
G1 X37.21 Y-3.08 Z1.2 F288.0 E41618.664
G1 X37.21 Y-2.48 Z1.2 F288.0 E41619.638
G1 X20.64 Y-19.05 Z1.2 F288.0 E41658.108
G1 X20.05 Y-19.05 Z1.2 F288.0 E41659.08
G1 X37.21 Y-1.89 Z1.2 F288.0 E41698.925
G1 X37.21 Y-1.3 Z1.2 F288.0 E41699.899
G1 X19.45 Y-19.05 Z1.2 F288.0 E41741.12
G1 X18.86 Y-19.05 Z1.2 F288.0 E41742.092
G1 X37.21 Y-0.71 Z1.2 F288.0 E41784.689
G1 X37.21 Y-0.11 Z1.2 F288.0 E41785.661
G1 X18.27 Y-19.05 Z1.2 F288.0 E41829.632
G1 X17.68 Y-19.05 Z1.2 F288.0 E41830.605
G1 X37.21 Y0.48 Z1.2 F288.0 E41875.953
G1 X37.21 Y1.07 Z1.2 F288.0 E41876.925
G1 X17.09 Y-19.05 Z1.2 F288.0 E41923.648
G1 X16.49 Y-19.05 Z1.2 F288.0 E41924.62
G1 X37.21 Y1.66 Z1.2 F288.0 E41972.717
G1 X37.21 Y2.26 Z1.2 F288.0 E41973.691
G1 X15.9 Y-19.05 Z1.2 F288.0 E42023.165
G1 X15.31 Y-19.05 Z1.2 F288.0 E42024.137
G1 X37.21 Y2.85 Z1.2 F288.0 E42074.985
G1 X37.21 Y3.44 Z1.2 F288.0 E42075.959
G1 X14.72 Y-19.05 Z1.2 F288.0 E42128.184
G1 X14.12 Y-19.05 Z1.2 F288.0 E42129.156
G1 X37.21 Y4.03 Z1.2 F288.0 E42182.757
G1 X37.21 Y4.63 Z1.2 F288.0 E42183.729
G1 X13.53 Y-19.05 Z1.2 F288.0 E42238.703
G1 X12.94 Y-19.05 Z1.2 F288.0 E42239.677
G1 X37.21 Y5.22 Z1.2 F288.0 E42296.029
G1 X37.21 Y5.81 Z1.2 F288.0 E42297.001
G1 X12.35 Y-19.05 Z1.2 F288.0 E42354.727
G1 X11.75 Y-19.05 Z1.2 F288.0 E42355.701
G1 X37.21 Y6.4 Z1.2 F288.0 E42414.804
G1 X37.21 Y7.0 Z1.2 F288.0 E42415.776
G1 X11.16 Y-19.05 Z1.2 F288.0 E42476.254
G1 X10.57 Y-19.05 Z1.2 F288.0 E42477.226
G1 X37.21 Y7.59 Z1.2 F288.0 E42539.078
G1 X37.21 Y8.18 Z1.2 F288.0 E42540.052
G1 X9.98 Y-19.05 Z1.2 F288.0 E42603.281
G1 X9.38 Y-19.05 Z1.2 F288.0 E42604.253
G1 X37.21 Y8.77 Z1.2 F288.0 E42668.857
G1 X37.21 Y9.36 Z1.2 F288.0 E42669.829
G1 X8.79 Y-19.05 Z1.2 F288.0 E42735.808
G1 X8.2 Y-19.05 Z1.2 F288.0 E42736.781
G1 X37.21 Y9.96 Z1.2 F288.0 E42804.137
G1 X37.21 Y10.55 Z1.2 F288.0 E42805.109
G1 X7.61 Y-19.05 Z1.2 F288.0 E42873.839
G1 X7.01 Y-19.05 Z1.2 F288.0 E42874.812
G1 X37.21 Y11.14 Z1.2 F288.0 E42944.919
G1 X37.21 Y11.73 Z1.2 F288.0 E42945.891
G1 X6.42 Y-19.05 Z1.2 F288.0 E43017.373
G1 X5.83 Y-19.05 Z1.2 F288.0 E43018.345
G1 X37.21 Y12.33 Z1.2 F288.0 E43091.201
G1 X37.21 Y12.92 Z1.2 F288.0 E43092.175
G1 X5.24 Y-19.05 Z1.2 F288.0 E43166.408
G1 X4.64 Y-19.05 Z1.2 F288.0 E43167.38
G1 X37.21 Y13.51 Z1.2 F288.0 E43242.988
G1 X37.21 Y14.1 Z1.2 F288.0 E43243.961
G1 X4.05 Y-19.05 Z1.2 F288.0 E43320.946
G1 X3.46 Y-19.05 Z1.2 F288.0 E43321.918
G1 X37.21 Y14.7 Z1.2 F288.0 E43400.277
G1 X37.21 Y15.29 Z1.2 F288.0 E43401.249
G1 X2.87 Y-19.05 Z1.2 F288.0 E43480.983
G1 X2.28 Y-19.05 Z1.2 F288.0 E43481.957
G1 X37.21 Y15.88 Z1.2 F288.0 E43563.067
G1 X37.21 Y16.47 Z1.2 F288.0 E43564.039
G1 X1.68 Y-19.05 Z1.2 F288.0 E43646.525
G1 X1.09 Y-19.05 Z1.2 F288.0 E43647.497
G1 X37.21 Y17.07 Z1.2 F288.0 E43731.357
G1 X37.21 Y17.66 Z1.2 F288.0 E43732.33
G1 X0.5 Y-19.05 Z1.2 F288.0 E43817.567
G1 X-0.09 Y-19.05 Z1.2 F288.0 E43818.539
G1 X37.21 Y18.25 Z1.2 F288.0 E43905.151
G1 X37.21 Y18.84 Z1.2 F288.0 E43906.124
G1 X36.31 Y17.95 Z1.2 F288.0 E43908.198
G1 X36.38 Y18.61 Z1.2 F288.0 E43909.282
G1 X37.21 Y19.43 Z1.2 F288.0 E43911.204
G1 X37.21 Y20.03 Z1.2 F288.0 E43912.176
G1 X36.31 Y19.13 Z1.2 F288.0 E43914.26
G1 X36.14 Y19.55 Z1.2 F288.0 E43915.007
G1 X37.21 Y20.62 Z1.2 F288.0 E43917.487
G1 X37.21 Y21.21 Z1.2 F288.0 E43918.459
G1 X35.91 Y19.92 Z1.2 F288.0 E43921.46
G1 X35.65 Y20.25 Z1.2 F288.0 E43922.151
G1 X37.13 Y21.73 Z1.2 F288.0 E43925.597
G1 X36.54 Y21.73 Z1.2 F288.0 E43926.57
G1 X35.31 Y20.5 Z1.2 F288.0 E43929.418
G1 X34.92 Y20.71 Z1.2 F288.0 E43930.14
G1 X35.95 Y21.73 Z1.2 F288.0 E43932.518
G1 X35.35 Y21.73 Z1.2 F288.0 E43933.491
G1 X34.48 Y20.85 Z1.2 F288.0 E43935.531
G1 X33.94 Y20.9 Z1.2 F288.0 E43936.42
G1 X34.76 Y21.73 Z1.2 F288.0 E43938.337
G1 X34.17 Y21.73 Z1.2 F288.0 E43939.309
G1 X33.19 Y20.75 Z1.2 F288.0 E43941.575
;M103
G1 X33.58 Y21.73 Z1.2 F2880.0
;M101
G1 X-3.57 Y-15.42 Z1.2 F288.0 E44027.834
G1 X-3.57 Y-14.83 Z1.2 F288.0 E44028.806
G1 X32.98 Y21.73 Z1.2 F288.0 E44113.69
G1 X32.39 Y21.73 Z1.2 F288.0 E44114.664
G1 X-3.57 Y-14.24 Z1.2 F288.0 E44198.171
G1 X-3.57 Y-13.64 Z1.2 F288.0 E44199.143
G1 X31.8 Y21.73 Z1.2 F288.0 E44281.275
G1 X31.21 Y21.73 Z1.2 F288.0 E44282.247
G1 X-3.57 Y-13.05 Z1.2 F288.0 E44363.005
G1 X-3.57 Y-12.46 Z1.2 F288.0 E44363.979
G1 X30.61 Y21.73 Z1.2 F288.0 E44443.359
G1 X30.02 Y21.73 Z1.2 F288.0 E44444.331
G1 X-3.57 Y-11.87 Z1.2 F288.0 E44522.338
G1 X-3.57 Y-11.27 Z1.2 F288.0 E44523.31
G1 X29.43 Y21.73 Z1.2 F288.0 E44599.941
G1 X28.84 Y21.73 Z1.2 F288.0 E44600.915
G1 X-3.57 Y-10.68 Z1.2 F288.0 E44676.17
G1 X-3.57 Y-10.09 Z1.2 F288.0 E44677.142
G1 X28.25 Y21.73 Z1.2 F288.0 E44751.022
G1 X27.65 Y21.73 Z1.2 F288.0 E44751.996
G1 X-3.57 Y-9.5 Z1.2 F288.0 E44824.499
G1 X-3.57 Y-8.9 Z1.2 F288.0 E44825.471
G1 X27.06 Y21.73 Z1.2 F288.0 E44896.6
G1 X26.47 Y21.73 Z1.2 F288.0 E44897.572
G1 X-3.57 Y-8.31 Z1.2 F288.0 E44967.326
G1 X-3.57 Y-7.72 Z1.2 F288.0 E44968.299
G1 X25.88 Y21.73 Z1.2 F288.0 E45036.676
G1 X25.28 Y21.73 Z1.2 F288.0 E45037.648
G1 X-3.57 Y-7.13 Z1.2 F288.0 E45104.651
G1 X-3.57 Y-6.53 Z1.2 F288.0 E45105.625
G1 X24.69 Y21.73 Z1.2 F288.0 E45171.25
G1 X24.1 Y21.73 Z1.2 F288.0 E45172.222
G1 X-3.57 Y-5.94 Z1.2 F288.0 E45236.473
G1 X-3.57 Y-5.35 Z1.2 F288.0 E45237.445
G1 X23.51 Y21.73 Z1.2 F288.0 E45300.322
G1 X22.91 Y21.73 Z1.2 F288.0 E45301.295
G1 X-3.57 Y-4.76 Z1.2 F288.0 E45362.795
G1 X-3.57 Y-4.17 Z1.2 F288.0 E45363.767
G1 X22.32 Y21.73 Z1.2 F288.0 E45423.892
G1 X21.73 Y21.73 Z1.2 F288.0 E45424.864
G1 X-3.57 Y-3.57 Z1.2 F288.0 E45483.614
G1 X-3.57 Y-2.98 Z1.2 F288.0 E45484.587
G1 X21.14 Y21.73 Z1.2 F288.0 E45541.961
G1 X20.54 Y21.73 Z1.2 F288.0 E45542.933
G1 X-3.57 Y-2.39 Z1.2 F288.0 E45598.932
G1 X-3.57 Y-1.8 Z1.2 F288.0 E45599.905
G1 X20.02 Y21.8 Z1.2 F288.0 E45654.695
G1 X20.02 Y22.39 Z1.2 F288.0 E45655.667
G1 X-3.57 Y-1.2 Z1.2 F288.0 E45710.457
G1 X-3.57 Y-0.61 Z1.2 F288.0 E45711.429
G1 X20.02 Y22.99 Z1.2 F288.0 E45766.22
G1 X20.02 Y23.58 Z1.2 F288.0 E45767.193
G1 X-3.57 Y-0.02 Z1.2 F288.0 E45821.983
G1 X-3.57 Y0.57 Z1.2 F288.0 E45822.955
G1 X20.02 Y24.17 Z1.2 F288.0 E45877.746
G1 X20.02 Y24.76 Z1.2 F288.0 E45878.719
G1 X-3.57 Y1.17 Z1.2 F288.0 E45933.509
G1 X-3.57 Y1.76 Z1.2 F288.0 E45934.481
G1 X20.02 Y25.36 Z1.2 F288.0 E45989.272
G1 X20.02 Y25.95 Z1.2 F288.0 E45990.244
G1 X-3.57 Y2.35 Z1.2 F288.0 E46045.034
G1 X-3.57 Y2.94 Z1.2 F288.0 E46046.007
G1 X20.02 Y26.54 Z1.2 F288.0 E46100.798
G1 X20.02 Y27.13 Z1.2 F288.0 E46101.77
G1 X-3.57 Y3.54 Z1.2 F288.0 E46156.56
G1 X-3.57 Y4.13 Z1.2 F288.0 E46157.532
G1 X20.02 Y27.73 Z1.2 F288.0 E46212.323
G1 X20.02 Y28.32 Z1.2 F288.0 E46213.295
G1 X-3.57 Y4.72 Z1.2 F288.0 E46268.085
G1 X-3.57 Y5.31 Z1.2 F288.0 E46269.057
G1 X12.84 Y21.73 Z1.2 F288.0 E46307.175
G1 X12.25 Y21.73 Z1.2 F288.0 E46308.148
G1 X-3.57 Y5.91 Z1.2 F288.0 E46344.889
G1 X-3.57 Y6.5 Z1.2 F288.0 E46345.861
G1 X11.66 Y21.73 Z1.2 F288.0 E46381.226
G1 X11.07 Y21.73 Z1.2 F288.0 E46382.198
G1 X-3.57 Y7.09 Z1.2 F288.0 E46416.19
G1 X-3.57 Y7.68 Z1.2 F288.0 E46417.163
G1 X10.47 Y21.73 Z1.2 F288.0 E46449.777
G1 X9.88 Y21.73 Z1.2 F288.0 E46450.749
G1 X-3.57 Y8.28 Z1.2 F288.0 E46481.989
G1 X-3.57 Y8.87 Z1.2 F288.0 E46482.963
G1 X9.29 Y21.73 Z1.2 F288.0 E46512.826
G1 X8.7 Y21.73 Z1.2 F288.0 E46513.797
G1 X-3.57 Y9.46 Z1.2 F288.0 E46542.286
G1 X-3.57 Y10.05 Z1.2 F288.0 E46543.258
G1 X8.1 Y21.73 Z1.2 F288.0 E46570.371
G1 X7.51 Y21.73 Z1.2 F288.0 E46571.345
G1 X-3.57 Y10.65 Z1.2 F288.0 E46597.081
G1 X-3.57 Y11.24 Z1.2 F288.0 E46598.053
G1 X6.92 Y21.73 Z1.2 F288.0 E46622.415
G1 X6.33 Y21.73 Z1.2 F288.0 E46623.387
G1 X-3.57 Y11.83 Z1.2 F288.0 E46646.375
G1 X-3.57 Y12.42 Z1.2 F288.0 E46647.349
G1 X0.22 Y16.21 Z1.2 F288.0 E46656.143
G1 X-0.44 Y16.14 Z1.2 F288.0 E46657.231
G1 X-3.57 Y13.01 Z1.2 F288.0 E46664.495
G1 X-3.57 Y13.61 Z1.2 F288.0 E46665.468
G1 X-0.97 Y16.21 Z1.2 F288.0 E46671.518
G1 X-1.39 Y16.38 Z1.2 F288.0 E46672.266
G1 X-3.57 Y14.2 Z1.2 F288.0 E46677.334
G1 X-3.57 Y14.79 Z1.2 F288.0 E46678.306
G1 X-1.76 Y16.6 Z1.2 F288.0 E46682.516
G1 X-2.09 Y16.87 Z1.2 F288.0 E46683.206
G1 X-3.57 Y15.38 Z1.2 F288.0 E46686.658
G1 X-3.57 Y15.98 Z1.2 F288.0 E46687.63
G1 X-2.34 Y17.21 Z1.2 F288.0 E46690.486
G1 X-2.55 Y17.59 Z1.2 F288.0 E46691.206
G1 X-3.57 Y16.57 Z1.2 F288.0 E46693.587
G1 X-3.57 Y17.16 Z1.2 F288.0 E46694.559
G1 X-2.69 Y18.04 Z1.2 F288.0 E46696.601
G1 X-2.75 Y18.58 Z1.2 F288.0 E46697.488
G1 X-3.57 Y17.75 Z1.2 F288.0 E46699.401
G1 X-3.57 Y18.35 Z1.2 F288.0 E46700.374
G1 X-2.6 Y19.32 Z1.2 F288.0 E46702.626
;M103
G1 X-3.57 Y19.53 Z1.2 F2880.0
;M101
G1 X-1.37 Y21.73 Z1.2 F288.0 E46707.732
G1 X-0.78 Y21.73 Z1.2 F288.0 E46708.704
G1 X-3.57 Y18.94 Z1.2 F288.0 E46715.184
;M103
G1 X-3.57 Y20.12 Z1.2 F2880.0
;M101
G1 X-1.97 Y21.73 Z1.2 F288.0 E46718.913
G1 X-2.56 Y21.73 Z1.2 F288.0 E46719.885
G1 X-3.57 Y20.72 Z1.2 F288.0 E46722.24
G1 X-3.57 Y21.31 Z1.2 F288.0 E46723.213
G1 X-3.15 Y21.73 Z1.2 F288.0 E46724.191
;M103
G1 X-1.16 Y20.76 Z1.2 F2880.0
;M101
G1 X-0.19 Y21.73 Z1.2 F288.0 E46726.442
G1 X0.4 Y21.73 Z1.2 F288.0 E46727.416
G1 X-0.42 Y20.91 Z1.2 F288.0 E46729.329
G1 X0.12 Y20.85 Z1.2 F288.0 E46730.215
G1 X1.0 Y21.73 Z1.2 F288.0 E46732.258
G1 X1.59 Y21.73 Z1.2 F288.0 E46733.23
G1 X0.56 Y20.7 Z1.2 F288.0 E46735.611
G1 X0.95 Y20.5 Z1.2 F288.0 E46736.33
G1 X2.18 Y21.73 Z1.2 F288.0 E46739.186
G1 X2.77 Y21.73 Z1.2 F288.0 E46740.158
G1 X1.29 Y20.24 Z1.2 F288.0 E46743.61
G1 X1.55 Y19.92 Z1.2 F288.0 E46744.301
G1 X3.37 Y21.73 Z1.2 F288.0 E46748.511
G1 X3.96 Y21.73 Z1.2 F288.0 E46749.483
G1 X1.78 Y19.55 Z1.2 F288.0 E46754.55
G1 X1.94 Y19.12 Z1.2 F288.0 E46755.298
G1 X4.55 Y21.73 Z1.2 F288.0 E46761.348
G1 X5.14 Y21.73 Z1.2 F288.0 E46762.322
G1 X2.01 Y18.6 Z1.2 F288.0 E46769.586
G1 X1.95 Y17.94 Z1.2 F288.0 E46770.673
G1 X5.73 Y21.73 Z1.2 F288.0 E46779.468
;M103
G1 X5.17 Y22.42 Z1.2 F3600.0
G1 X12.77 Y22.57 Z1.2 F3600.0
G1 X12.77 Y28.45 Z1.2 F3600.0
G1 X1.96 Y28.59 Z1.2 F3600.0
G1 X0.38 Y30.98 Z1.2 F3600.0
G1 X0.07 Y30.86 Z1.2 F3600.0
G1 X-0.37 Y30.8 Z1.2 F3600.0
G1 X-0.8 Y30.86 Z1.2 F3600.0
G1 X-1.21 Y31.03 Z1.2 F3600.0
G1 X-1.56 Y31.3 Z1.2 F3600.0
G1 X-1.83 Y31.65 Z1.2 F3600.0
G1 X-2.0 Y32.06 Z1.2 F3600.0
G1 X-2.05 Y32.49 Z1.2 F3600.0
G1 X-1.61 Y34.52 Z1.2 F2880.0
;M101
G1 X31.97 Y68.11 Z1.2 F288.0 E46857.444
G1 X31.65 Y67.2 Z1.2 F288.0 E46859.022
G1 X-0.71 Y34.84 Z1.2 F288.0 E46934.158
G1 X-0.1 Y34.85 Z1.2 F288.0 E46935.147
G1 X31.64 Y66.6 Z1.2 F288.0 E47008.862
G1 X31.75 Y66.11 Z1.2 F288.0 E47009.684
G1 X0.39 Y34.74 Z1.2 F288.0 E47082.501
G1 X0.81 Y34.57 Z1.2 F288.0 E47083.244
G1 X31.92 Y65.69 Z1.2 F288.0 E47155.495
G1 X32.17 Y65.35 Z1.2 F288.0 E47156.19
G1 X1.15 Y34.32 Z1.2 F288.0 E47228.234
G1 X1.44 Y34.03 Z1.2 F288.0 E47228.92
G1 X32.47 Y65.05 Z1.2 F288.0 E47300.953
G1 X32.8 Y64.79 Z1.2 F288.0 E47301.647
G1 X1.7 Y33.69 Z1.2 F288.0 E47373.861
G1 X1.88 Y33.27 Z1.2 F288.0 E47374.604
G1 X33.22 Y64.62 Z1.2 F288.0 E47447.385
G1 X33.7 Y64.51 Z1.2 F288.0 E47448.198
G1 X1.99 Y32.79 Z1.2 F288.0 E47521.846
G1 X1.99 Y32.2 Z1.2 F288.0 E47522.82
G1 X34.3 Y64.51 Z1.2 F288.0 E47597.845
G1 X35.15 Y64.77 Z1.2 F288.0 E47599.318
G1 X1.72 Y31.34 Z1.2 F288.0 E47676.942
;M103
G1 X1.1 Y33.34 Z1.2 F3600.0
G1 X0.83 Y33.69 Z1.2 F3600.0
G1 X0.48 Y33.95 Z1.2 F3600.0
G1 X0.07 Y34.12 Z1.2 F3600.0
G1 X-0.37 Y34.18 Z1.2 F3600.0
G1 X-2.4 Y33.74 Z1.2 F2880.0
;M101
G1 X-3.57 Y32.56 Z1.2 F288.0 E47679.673
G1 X-2.71 Y32.83 Z1.2 F288.0 E47681.153
G1 X-3.57 Y31.97 Z1.2 F288.0 E47683.151
G1 X-3.57 Y31.38 Z1.2 F288.0 E47684.125
G1 X-2.72 Y32.23 Z1.2 F288.0 E47686.101
G1 X-2.62 Y31.74 Z1.2 F288.0 E47686.923
G1 X-3.57 Y30.79 Z1.2 F288.0 E47689.137
G1 X-3.57 Y30.19 Z1.2 F288.0 E47690.111
G1 X-2.44 Y31.32 Z1.2 F288.0 E47692.73
G1 X-2.19 Y30.98 Z1.2 F288.0 E47693.426
G1 X-3.57 Y29.6 Z1.2 F288.0 E47696.629
G1 X-3.3 Y29.29 Z1.2 F288.0 E47697.319
G1 X-1.9 Y30.68 Z1.2 F288.0 E47700.562
G1 X-1.56 Y30.42 Z1.2 F288.0 E47701.257
G1 X-2.7 Y29.29 Z1.2 F288.0 E47703.902
G1 X-2.11 Y29.29 Z1.2 F288.0 E47704.874
G1 X-1.15 Y30.25 Z1.2 F288.0 E47707.115
G1 X-0.66 Y30.14 Z1.2 F288.0 E47707.928
G1 X-1.52 Y29.29 Z1.2 F288.0 E47709.915
G1 X-0.93 Y29.29 Z1.2 F288.0 E47710.889
G1 X-0.07 Y30.14 Z1.2 F288.0 E47712.876
G1 X0.78 Y30.4 Z1.2 F288.0 E47714.343
G1 X-0.33 Y29.29 Z1.2 F288.0 E47716.941
G1 X0.26 Y29.29 Z1.2 F288.0 E47717.914
G1 X37.21 Y66.23 Z1.2 F288.0 E47803.706
G1 X37.21 Y65.64 Z1.2 F288.0 E47804.678
G1 X0.85 Y29.29 Z1.2 F288.0 E47889.095
G1 X1.44 Y29.29 Z1.2 F288.0 E47890.067
G1 X37.21 Y65.05 Z1.2 F288.0 E47973.11
G1 X37.21 Y64.46 Z1.2 F288.0 E47974.084
G1 X2.04 Y29.29 Z1.2 F288.0 E48055.749
G1 X2.63 Y29.29 Z1.2 F288.0 E48056.721
G1 X37.21 Y63.86 Z1.2 F288.0 E48137.012
G1 X37.21 Y63.27 Z1.2 F288.0 E48137.986
G1 X3.22 Y29.29 Z1.2 F288.0 E48216.9
G1 X3.81 Y29.29 Z1.2 F288.0 E48217.872
G1 X37.21 Y62.68 Z1.2 F288.0 E48295.412
G1 X37.21 Y62.09 Z1.2 F288.0 E48296.384
G1 X4.41 Y29.29 Z1.2 F288.0 E48372.549
G1 X5.0 Y29.29 Z1.2 F288.0 E48373.522
G1 X37.21 Y61.49 Z1.2 F288.0 E48448.311
G1 X37.21 Y60.9 Z1.2 F288.0 E48449.283
G1 X5.59 Y29.29 Z1.2 F288.0 E48522.696
G1 X6.18 Y29.29 Z1.2 F288.0 E48523.668
G1 X37.21 Y60.31 Z1.2 F288.0 E48595.707
G1 X37.21 Y59.72 Z1.2 F288.0 E48596.68
G1 X6.78 Y29.29 Z1.2 F288.0 E48667.342
G1 X7.37 Y29.29 Z1.2 F288.0 E48668.314
G1 X37.21 Y59.13 Z1.2 F288.0 E48737.602
G1 X37.21 Y58.53 Z1.2 F288.0 E48738.575
G1 X7.96 Y29.29 Z1.2 F288.0 E48806.486
G1 X8.55 Y29.29 Z1.2 F288.0 E48807.458
G1 X37.21 Y57.94 Z1.2 F288.0 E48873.994
G1 X37.21 Y57.35 Z1.2 F288.0 E48874.966
G1 X9.14 Y29.29 Z1.2 F288.0 E48940.127
G1 X9.74 Y29.29 Z1.2 F288.0 E48941.1
G1 X37.21 Y56.76 Z1.2 F288.0 E49004.885
G1 X37.21 Y56.16 Z1.2 F288.0 E49005.857
G1 X10.33 Y29.29 Z1.2 F288.0 E49068.266
G1 X10.92 Y29.29 Z1.2 F288.0 E49069.24
G1 X37.21 Y55.57 Z1.2 F288.0 E49130.273
G1 X37.21 Y54.98 Z1.2 F288.0 E49131.245
G1 X11.51 Y29.29 Z1.2 F288.0 E49190.903
G1 X12.11 Y29.29 Z1.2 F288.0 E49191.875
G1 X37.21 Y54.39 Z1.2 F288.0 E49250.159
G1 X37.21 Y53.79 Z1.2 F288.0 E49251.132
G1 X12.7 Y29.29 Z1.2 F288.0 E49308.039
G1 X13.29 Y29.29 Z1.2 F288.0 E49309.011
G1 X37.21 Y53.2 Z1.2 F288.0 E49364.543
G1 X37.21 Y52.61 Z1.2 F288.0 E49365.515
G1 X13.61 Y29.01 Z1.2 F288.0 E49420.306
G1 X13.61 Y28.42 Z1.2 F288.0 E49421.278
G1 X37.21 Y52.02 Z1.2 F288.0 E49476.068
G1 X37.21 Y51.42 Z1.2 F288.0 E49477.04
G1 X13.61 Y27.83 Z1.2 F288.0 E49531.83
G1 X13.61 Y27.24 Z1.2 F288.0 E49532.804
G1 X37.21 Y50.83 Z1.2 F288.0 E49587.594
G1 X37.21 Y50.24 Z1.2 F288.0 E49588.566
G1 X13.61 Y26.64 Z1.2 F288.0 E49643.356
G1 X13.61 Y26.05 Z1.2 F288.0 E49644.328
G1 X37.21 Y49.65 Z1.2 F288.0 E49699.119
G1 X37.21 Y49.05 Z1.2 F288.0 E49700.092
G1 X13.61 Y25.46 Z1.2 F288.0 E49754.882
G1 X13.61 Y24.87 Z1.2 F288.0 E49755.854
G1 X37.21 Y48.46 Z1.2 F288.0 E49810.645
G1 X37.21 Y47.87 Z1.2 F288.0 E49811.618
G1 X13.61 Y24.27 Z1.2 F288.0 E49866.408
G1 X13.61 Y23.68 Z1.2 F288.0 E49867.38
G1 X37.21 Y47.28 Z1.2 F288.0 E49922.171
G1 X37.21 Y46.69 Z1.2 F288.0 E49923.143
G1 X13.61 Y23.09 Z1.2 F288.0 E49977.933
G1 X13.61 Y22.5 Z1.2 F288.0 E49978.906
G1 X20.02 Y28.91 Z1.2 F288.0 E49993.798
;M103
G1 X20.4 Y29.29 Z1.2 F2880.0
;M101
G1 X37.21 Y46.09 Z1.2 F288.0 E50032.823
G1 X37.21 Y45.5 Z1.2 F288.0 E50033.795
G1 X20.99 Y29.29 Z1.2 F288.0 E50071.446
G1 X21.58 Y29.29 Z1.2 F288.0 E50072.418
G1 X37.21 Y44.91 Z1.2 F288.0 E50108.694
G1 X37.21 Y44.32 Z1.2 F288.0 E50109.668
G1 X22.18 Y29.29 Z1.2 F288.0 E50144.567
G1 X22.77 Y29.29 Z1.2 F288.0 E50145.539
G1 X37.21 Y43.72 Z1.2 F288.0 E50179.063
G1 X37.21 Y43.13 Z1.2 F288.0 E50180.037
G1 X23.36 Y29.29 Z1.2 F288.0 E50212.184
G1 X23.95 Y29.29 Z1.2 F288.0 E50213.156
G1 X37.21 Y42.54 Z1.2 F288.0 E50243.929
G1 X37.21 Y41.95 Z1.2 F288.0 E50244.901
G1 X24.55 Y29.29 Z1.2 F288.0 E50274.3
G1 X25.14 Y29.29 Z1.2 F288.0 E50275.273
G1 X37.21 Y41.35 Z1.2 F288.0 E50303.295
G1 X37.21 Y40.76 Z1.2 F288.0 E50304.267
G1 X25.73 Y29.29 Z1.2 F288.0 E50330.914
G1 X26.32 Y29.29 Z1.2 F288.0 E50331.887
G1 X37.21 Y40.17 Z1.2 F288.0 E50357.157
G1 X37.21 Y39.58 Z1.2 F288.0 E50358.129
G1 X26.92 Y29.29 Z1.2 F288.0 E50382.025
G1 X27.51 Y29.29 Z1.2 F288.0 E50382.996
G1 X32.0 Y33.77 Z1.2 F288.0 E50393.415
;M103
G1 X31.66 Y32.84 Z1.2 F2880.0
;M101
G1 X28.1 Y29.29 Z1.2 F288.0 E50401.669
G1 X28.69 Y29.29 Z1.2 F288.0 E50402.641
G1 X31.64 Y32.24 Z1.2 F288.0 E50409.493
G1 X31.75 Y31.75 Z1.2 F288.0 E50410.316
G1 X29.29 Y29.29 Z1.2 F288.0 E50416.028
G1 X29.88 Y29.29 Z1.2 F288.0 E50417.001
G1 X31.92 Y31.33 Z1.2 F288.0 E50421.739
G1 X32.17 Y30.99 Z1.2 F288.0 E50422.435
G1 X30.47 Y29.29 Z1.2 F288.0 E50426.383
G1 X31.06 Y29.29 Z1.2 F288.0 E50427.356
G1 X32.46 Y30.69 Z1.2 F288.0 E50430.606
G1 X32.8 Y30.43 Z1.2 F288.0 E50431.299
G1 X31.66 Y29.29 Z1.2 F288.0 E50433.952
G1 X32.25 Y29.29 Z1.2 F288.0 E50434.924
G1 X33.22 Y30.25 Z1.2 F288.0 E50437.172
G1 X33.7 Y30.14 Z1.2 F288.0 E50437.982
G1 X32.84 Y29.29 Z1.2 F288.0 E50439.971
G1 X33.43 Y29.29 Z1.2 F288.0 E50440.943
G1 X34.29 Y30.14 Z1.2 F288.0 E50442.928
G1 X35.14 Y30.4 Z1.2 F288.0 E50444.387
G1 X34.03 Y29.29 Z1.2 F288.0 E50446.97
G1 X34.62 Y29.29 Z1.2 F288.0 E50447.942
G1 X37.21 Y31.88 Z1.2 F288.0 E50453.956
G1 X37.21 Y32.47 Z1.2 F288.0 E50454.928
G1 X36.09 Y31.36 Z1.2 F288.0 E50457.511
G1 X36.35 Y32.21 Z1.2 F288.0 E50458.969
G1 X37.21 Y33.06 Z1.2 F288.0 E50460.955
G1 X37.21 Y33.65 Z1.2 F288.0 E50461.927
G1 X36.35 Y32.8 Z1.2 F288.0 E50463.915
G1 X36.24 Y33.28 Z1.2 F288.0 E50464.726
G1 X37.21 Y34.24 Z1.2 F288.0 E50466.974
G1 X37.21 Y34.84 Z1.2 F288.0 E50467.946
G1 X36.06 Y33.7 Z1.2 F288.0 E50470.598
G1 X35.81 Y34.03 Z1.2 F288.0 E50471.292
G1 X37.21 Y35.43 Z1.2 F288.0 E50474.541
G1 X37.21 Y36.02 Z1.2 F288.0 E50475.515
G1 X35.51 Y34.32 Z1.2 F288.0 E50479.462
G1 X35.17 Y34.57 Z1.2 F288.0 E50480.158
G1 X37.21 Y36.61 Z1.2 F288.0 E50484.896
G1 X37.21 Y37.21 Z1.2 F288.0 E50485.87
G1 X34.75 Y34.75 Z1.2 F288.0 E50491.582
G1 X34.26 Y34.85 Z1.2 F288.0 E50492.405
G1 X37.21 Y37.8 Z1.2 F288.0 E50499.257
G1 X37.21 Y38.39 Z1.2 F288.0 E50500.229
G1 X33.65 Y34.84 Z1.2 F288.0 E50508.483
G1 X32.72 Y34.5 Z1.2 F288.0 E50510.111
;M103
G1 X33.42 Y35.2 Z1.2 F2880.0
;M101
G1 X37.21 Y38.98 Z1.2 F288.0 E50518.902
;M103
G1 X37.21 Y31.28 Z1.2 F2880.0
;M101
G1 X35.21 Y29.29 Z1.2 F288.0 E50523.542
G1 X35.8 Y29.29 Z1.2 F288.0 E50524.515
G1 X37.21 Y30.69 Z1.2 F288.0 E50527.778
G1 X37.21 Y30.1 Z1.2 F288.0 E50528.75
G1 X36.39 Y29.29 Z1.2 F288.0 E50530.637
G1 X36.99 Y29.29 Z1.2 F288.0 E50531.609
G1 X37.21 Y29.51 Z1.2 F288.0 E50532.123
;M103
G1 X-0.8 Y34.12 Z1.2 F3600.0
G1 X-3.57 Y33.16 Z1.2 F2880.0
;M101
G1 X33.34 Y70.07 Z1.2 F288.0 E50617.826
G1 X33.93 Y70.07 Z1.2 F288.0 E50618.798
G1 X32.75 Y68.89 Z1.2 F288.0 E50621.529
G1 X33.66 Y69.2 Z1.2 F288.0 E50623.107
G1 X34.52 Y70.07 Z1.2 F288.0 E50625.105
G1 X35.11 Y70.07 Z1.2 F288.0 E50626.078
G1 X34.26 Y69.21 Z1.2 F288.0 E50628.054
G1 X34.75 Y69.11 Z1.2 F288.0 E50628.877
G1 X35.71 Y70.07 Z1.2 F288.0 E50631.091
G1 X36.3 Y70.07 Z1.2 F288.0 E50632.064
G1 X35.17 Y68.94 Z1.2 F288.0 E50634.683
G1 X35.51 Y68.69 Z1.2 F288.0 E50635.38
G1 X36.89 Y70.07 Z1.2 F288.0 E50638.583
G1 X37.21 Y69.79 Z1.2 F288.0 E50639.273
G1 X35.81 Y68.39 Z1.2 F288.0 E50642.515
G1 X36.07 Y68.06 Z1.2 F288.0 E50643.211
G1 X37.21 Y69.19 Z1.2 F288.0 E50645.856
G1 X37.21 Y68.6 Z1.2 F288.0 E50646.828
G1 X36.24 Y67.64 Z1.2 F288.0 E50649.068
G1 X36.35 Y67.16 Z1.2 F288.0 E50649.881
G1 X37.21 Y68.01 Z1.2 F288.0 E50651.869
G1 X37.21 Y67.42 Z1.2 F288.0 E50652.842
G1 X36.35 Y66.56 Z1.2 F288.0 E50654.83
G1 X36.09 Y65.71 Z1.2 F288.0 E50656.297
G1 X37.21 Y66.83 Z1.2 F288.0 E50658.894
;M103
G1 X32.74 Y70.07 Z1.2 F2880.0
;M101
G1 X-3.57 Y33.75 Z1.2 F288.0 E50743.221
G1 X-3.57 Y34.34 Z1.2 F288.0 E50744.193
G1 X32.15 Y70.07 Z1.2 F288.0 E50827.145
G1 X31.56 Y70.07 Z1.2 F288.0 E50828.117
G1 X-3.57 Y34.93 Z1.2 F288.0 E50909.695
G1 X-3.57 Y35.53 Z1.2 F288.0 E50910.668
G1 X30.97 Y70.07 Z1.2 F288.0 E50990.869
G1 X30.38 Y70.07 Z1.2 F288.0 E50991.841
G1 X-3.57 Y36.12 Z1.2 F288.0 E51070.667
G1 X-3.57 Y36.71 Z1.2 F288.0 E51071.64
G1 X29.78 Y70.07 Z1.2 F288.0 E51149.089
G1 X29.19 Y70.07 Z1.2 F288.0 E51150.061
G1 X-3.57 Y37.3 Z1.2 F288.0 E51226.136
G1 X-3.57 Y37.89 Z1.2 F288.0 E51227.108
G1 X28.6 Y70.07 Z1.2 F288.0 E51301.808
G1 X28.01 Y70.07 Z1.2 F288.0 E51302.781
G1 X-3.57 Y38.49 Z1.2 F288.0 E51376.104
G1 X-3.57 Y39.08 Z1.2 F288.0 E51377.076
G1 X27.41 Y70.07 Z1.2 F288.0 E51449.024
G1 X26.82 Y70.07 Z1.2 F288.0 E51449.998
G1 X-3.57 Y39.67 Z1.2 F288.0 E51520.569
G1 X-3.57 Y40.26 Z1.2 F288.0 E51521.541
G1 X26.23 Y70.07 Z1.2 F288.0 E51590.738
G1 X25.64 Y70.07 Z1.2 F288.0 E51591.71
G1 X-3.57 Y40.86 Z1.2 F288.0 E51659.532
G1 X-3.57 Y41.45 Z1.2 F288.0 E51660.506
G1 X25.04 Y70.07 Z1.2 F288.0 E51726.951
G1 X24.45 Y70.07 Z1.2 F288.0 E51727.923
G1 X-3.57 Y42.04 Z1.2 F288.0 E51792.994
G1 X-3.57 Y42.63 Z1.2 F288.0 E51793.966
G1 X23.86 Y70.07 Z1.2 F288.0 E51857.662
G1 X23.27 Y70.07 Z1.2 F288.0 E51858.636
G1 X-3.57 Y43.23 Z1.2 F288.0 E51920.955
G1 X-3.57 Y43.82 Z1.2 F288.0 E51921.927
G1 X22.67 Y70.07 Z1.2 F288.0 E51982.871
G1 X22.08 Y70.07 Z1.2 F288.0 E51983.845
G1 X-3.57 Y44.41 Z1.2 F288.0 E52043.413
G1 X-3.57 Y45.0 Z1.2 F288.0 E52044.385
G1 X21.49 Y70.07 Z1.2 F288.0 E52102.578
G1 X20.9 Y70.07 Z1.2 F288.0 E52103.55
G1 X-3.57 Y45.6 Z1.2 F288.0 E52160.368
G1 X-3.57 Y46.19 Z1.2 F288.0 E52161.342
G1 X20.3 Y70.07 Z1.2 F288.0 E52216.783
G1 X19.71 Y70.07 Z1.2 F288.0 E52217.755
G1 X-3.57 Y46.78 Z1.2 F288.0 E52271.822
G1 X-3.57 Y47.37 Z1.2 F288.0 E52272.796
G1 X19.12 Y70.07 Z1.2 F288.0 E52325.486
G1 X18.53 Y70.07 Z1.2 F288.0 E52326.457
G1 X-3.57 Y47.97 Z1.2 F288.0 E52377.773
G1 X-3.57 Y48.56 Z1.2 F288.0 E52378.745
G1 X17.93 Y70.07 Z1.2 F288.0 E52428.686
G1 X17.34 Y70.07 Z1.2 F288.0 E52429.659
G1 X-3.57 Y49.15 Z1.2 F288.0 E52478.223
G1 X-3.57 Y49.74 Z1.2 F288.0 E52479.195
G1 X16.75 Y70.07 Z1.2 F288.0 E52526.384
G1 X16.16 Y70.07 Z1.2 F288.0 E52527.356
G1 X-3.57 Y50.33 Z1.2 F288.0 E52573.171
G1 X-3.57 Y50.93 Z1.2 F288.0 E52574.145
G1 X15.57 Y70.07 Z1.2 F288.0 E52618.582
G1 X14.97 Y70.07 Z1.2 F288.0 E52619.554
G1 X-3.57 Y51.52 Z1.2 F288.0 E52662.617
G1 X-3.57 Y52.11 Z1.2 F288.0 E52663.591
G1 X14.38 Y70.07 Z1.2 F288.0 E52705.277
G1 X13.79 Y70.07 Z1.2 F288.0 E52706.249
G1 X-3.57 Y52.7 Z1.2 F288.0 E52746.561
G1 X-3.57 Y53.3 Z1.2 F288.0 E52747.533
G1 X13.2 Y70.07 Z1.2 F288.0 E52786.47
G1 X12.6 Y70.07 Z1.2 F288.0 E52787.443
G1 X-3.57 Y53.89 Z1.2 F288.0 E52825.003
G1 X-3.57 Y54.48 Z1.2 F288.0 E52825.975
G1 X12.01 Y70.07 Z1.2 F288.0 E52862.161
G1 X11.42 Y70.07 Z1.2 F288.0 E52863.134
G1 X-3.57 Y55.07 Z1.2 F288.0 E52897.943
G1 X-3.57 Y55.67 Z1.2 F288.0 E52898.915
G1 X10.83 Y70.07 Z1.2 F288.0 E52932.349
G1 X10.23 Y70.07 Z1.2 F288.0 E52933.321
G1 X-3.57 Y56.26 Z1.2 F288.0 E52965.38
G1 X-3.57 Y56.85 Z1.2 F288.0 E52966.354
G1 X9.64 Y70.07 Z1.2 F288.0 E52997.036
G1 X9.05 Y70.07 Z1.2 F288.0 E52998.008
G1 X-3.57 Y57.44 Z1.2 F288.0 E53027.316
G1 X-3.57 Y58.04 Z1.2 F288.0 E53028.288
G1 X8.46 Y70.07 Z1.2 F288.0 E53056.221
G1 X7.86 Y70.07 Z1.2 F288.0 E53057.195
G1 X-3.57 Y58.63 Z1.2 F288.0 E53083.751
G1 X-3.57 Y59.22 Z1.2 F288.0 E53084.723
G1 X7.27 Y70.07 Z1.2 F288.0 E53109.905
G1 X6.68 Y70.07 Z1.2 F288.0 E53110.878
G1 X-3.57 Y59.81 Z1.2 F288.0 E53134.683
G1 X-3.57 Y60.41 Z1.2 F288.0 E53135.655
G1 X0.8 Y64.78 Z1.2 F288.0 E53145.808
G1 X-0.06 Y64.51 Z1.2 F288.0 E53147.291
G1 X-3.57 Y61.0 Z1.2 F288.0 E53155.443
G1 X-3.57 Y61.59 Z1.2 F288.0 E53156.417
G1 X-0.66 Y64.51 Z1.2 F288.0 E53163.189
G1 X-1.14 Y64.61 Z1.2 F288.0 E53164.003
G1 X-3.57 Y62.18 Z1.2 F288.0 E53169.651
G1 X-3.57 Y62.78 Z1.2 F288.0 E53170.625
G1 X-1.56 Y64.79 Z1.2 F288.0 E53175.3
G1 X-1.9 Y65.05 Z1.2 F288.0 E53175.994
G1 X-3.57 Y63.37 Z1.2 F288.0 E53179.891
G1 X-3.57 Y63.96 Z1.2 F288.0 E53180.863
G1 X-2.19 Y65.34 Z1.2 F288.0 E53184.075
G1 X-2.44 Y65.68 Z1.2 F288.0 E53184.771
G1 X-3.57 Y64.55 Z1.2 F288.0 E53187.393
G1 X-3.57 Y65.14 Z1.2 F288.0 E53188.365
G1 X-2.62 Y66.1 Z1.2 F288.0 E53190.585
G1 X-2.72 Y66.59 Z1.2 F288.0 E53191.404
G1 X-3.57 Y65.74 Z1.2 F288.0 E53193.383
G1 X-3.57 Y66.33 Z1.2 F288.0 E53194.356
G1 X-2.71 Y67.19 Z1.2 F288.0 E53196.353
G1 X-3.57 Y66.92 Z1.2 F288.0 E53197.832
G1 X-0.43 Y70.07 Z1.2 F288.0 E53205.132
G1 X-1.02 Y70.07 Z1.2 F288.0 E53206.106
G1 X-3.57 Y67.51 Z1.2 F288.0 E53212.029
G1 X-3.57 Y68.11 Z1.2 F288.0 E53213.001
G1 X-1.61 Y70.07 Z1.2 F288.0 E53217.55
G1 X-2.21 Y70.07 Z1.2 F288.0 E53218.522
G1 X-3.57 Y68.7 Z1.2 F288.0 E53221.696
G1 X-3.57 Y69.29 Z1.2 F288.0 E53222.67
G1 X-2.8 Y70.07 Z1.2 F288.0 E53224.467
G1 X-3.39 Y70.07 Z1.2 F288.0 E53225.439
G1 X-3.57 Y69.88 Z1.2 F288.0 E53225.862
;M103
G1 X-0.7 Y69.21 Z1.2 F2880.0
;M101
G1 X0.16 Y70.07 Z1.2 F288.0 E53227.858
G1 X0.76 Y70.07 Z1.2 F288.0 E53228.832
G1 X-0.1 Y69.21 Z1.2 F288.0 E53230.81
G1 X0.39 Y69.11 Z1.2 F288.0 E53231.63
G1 X1.35 Y70.07 Z1.2 F288.0 E53233.849
G1 X1.94 Y70.07 Z1.2 F288.0 E53234.821
G1 X0.81 Y68.94 Z1.2 F288.0 E53237.444
G1 X1.15 Y68.68 Z1.2 F288.0 E53238.139
G1 X2.53 Y70.07 Z1.2 F288.0 E53241.35
G1 X3.13 Y70.07 Z1.2 F288.0 E53242.322
G1 X1.45 Y68.39 Z1.2 F288.0 E53246.217
G1 X1.71 Y68.05 Z1.2 F288.0 E53246.91
G1 X3.72 Y70.07 Z1.2 F288.0 E53251.583
G1 X4.31 Y70.07 Z1.2 F288.0 E53252.557
G1 X1.88 Y67.63 Z1.2 F288.0 E53258.205
G1 X1.99 Y67.15 Z1.2 F288.0 E53259.019
G1 X4.9 Y70.07 Z1.2 F288.0 E53265.791
G1 X5.5 Y70.07 Z1.2 F288.0 E53266.765
G1 X1.98 Y66.55 Z1.2 F288.0 E53274.917
G1 X1.72 Y65.69 Z1.2 F288.0 E53276.396
G1 X6.09 Y70.07 Z1.2 F288.0 E53286.544
;M103
G1 X33.26 Y34.37 Z1.2 F3600.0
;M101
G1 X33.47 Y34.45 Z1.2 F288.0 E53286.927
G1 X34.0 Y34.52 Z1.2 F288.0 E53287.798
G1 X34.53 Y34.45 Z1.2 F288.0 E53288.668
G1 X35.02 Y34.25 Z1.2 F288.0 E53289.539
G1 X35.44 Y33.93 Z1.2 F288.0 E53290.409
G1 X35.76 Y33.51 Z1.2 F288.0 E53291.28
G1 X35.96 Y33.02 Z1.2 F288.0 E53292.15
G1 X36.03 Y32.49 Z1.2 F288.0 E53293.022
G1 X35.96 Y31.97 Z1.2 F288.0 E53293.891
G1 X35.76 Y31.48 Z1.2 F288.0 E53294.76
G1 X35.44 Y31.06 Z1.2 F288.0 E53295.632
G1 X35.01 Y30.73 Z1.2 F288.0 E53296.505
G1 X34.53 Y30.53 Z1.2 F288.0 E53297.374
G1 X34.0 Y30.46 Z1.2 F288.0 E53298.243
G1 X33.47 Y30.53 Z1.2 F288.0 E53299.114
G1 X32.98 Y30.73 Z1.2 F288.0 E53299.985
G1 X32.56 Y31.06 Z1.2 F288.0 E53300.856
G1 X32.24 Y31.48 Z1.2 F288.0 E53301.726
G1 X32.04 Y31.97 Z1.2 F288.0 E53302.597
G1 X31.97 Y32.49 Z1.2 F288.0 E53303.466
G1 X32.04 Y33.02 Z1.2 F288.0 E53304.337
G1 X32.24 Y33.51 Z1.2 F288.0 E53305.208
G1 X32.56 Y33.93 Z1.2 F288.0 E53306.078
G1 X32.98 Y34.25 Z1.2 F288.0 E53306.948
G1 X33.26 Y34.37 Z1.2 F288.0 E53307.435
;M103
G1 X12.92 Y24.77 Z1.2 F3600.0
G1 X12.77 Y22.57 Z1.2 F3600.0
G1 X8.22 Y22.42 Z1.2 F3600.0
G1 X1.39 Y19.54 Z1.2 F3600.0
;M101
G1 X1.6 Y19.05 Z1.2 F288.0 E53308.305
G1 X1.67 Y18.52 Z1.2 F288.0 E53309.177
G1 X1.6 Y18.0 Z1.2 F288.0 E53310.046
G1 X1.39 Y17.51 Z1.2 F288.0 E53310.915
G1 X1.07 Y17.09 Z1.2 F288.0 E53311.788
G1 X0.65 Y16.76 Z1.2 F288.0 E53312.66
G1 X0.16 Y16.56 Z1.2 F288.0 E53313.529
G1 X-0.37 Y16.49 Z1.2 F288.0 E53314.398
G1 X-0.89 Y16.56 Z1.2 F288.0 E53315.27
G1 X-1.38 Y16.76 Z1.2 F288.0 E53316.14
G1 X-1.8 Y17.09 Z1.2 F288.0 E53317.011
G1 X-2.13 Y17.51 Z1.2 F288.0 E53317.881
G1 X-2.33 Y18.0 Z1.2 F288.0 E53318.752
G1 X-2.4 Y18.52 Z1.2 F288.0 E53319.622
G1 X-2.33 Y19.05 Z1.2 F288.0 E53320.493
G1 X-2.13 Y19.54 Z1.2 F288.0 E53321.363
G1 X-1.8 Y19.96 Z1.2 F288.0 E53322.233
G1 X-1.38 Y20.28 Z1.2 F288.0 E53323.103
G1 X-0.89 Y20.48 Z1.2 F288.0 E53323.974
G1 X-0.37 Y20.55 Z1.2 F288.0 E53324.845
G1 X0.16 Y20.48 Z1.2 F288.0 E53325.714
G1 X0.65 Y20.28 Z1.2 F288.0 E53326.585
G1 X1.07 Y19.96 Z1.2 F288.0 E53327.456
G1 X1.39 Y19.54 Z1.2 F288.0 E53328.327
;M103
G1 X0.97 Y22.42 Z1.2 F3600.0
G1 X12.77 Y22.57 Z1.2 F3600.0
G1 X12.77 Y28.45 Z1.2 F3600.0
G1 X0.23 Y28.59 Z1.2 F3600.0
G1 X-0.07 Y30.5 Z1.2 F3600.0
;M101
G1 X-0.37 Y30.46 Z1.2 F288.0 E53328.825
G1 X-0.89 Y30.53 Z1.2 F288.0 E53329.697
G1 X-1.38 Y30.73 Z1.2 F288.0 E53330.567
G1 X-1.8 Y31.06 Z1.2 F288.0 E53331.438
G1 X-2.13 Y31.48 Z1.2 F288.0 E53332.308
G1 X-2.33 Y31.97 Z1.2 F288.0 E53333.179
G1 X-2.4 Y32.49 Z1.2 F288.0 E53334.048
G1 X-2.33 Y33.02 Z1.2 F288.0 E53334.919
G1 X-2.13 Y33.51 Z1.2 F288.0 E53335.79
G1 X-1.8 Y33.93 Z1.2 F288.0 E53336.66
G1 X-1.38 Y34.25 Z1.2 F288.0 E53337.53
G1 X-0.89 Y34.45 Z1.2 F288.0 E53338.401
G1 X-0.37 Y34.52 Z1.2 F288.0 E53339.272
G1 X0.16 Y34.45 Z1.2 F288.0 E53340.141
G1 X0.65 Y34.25 Z1.2 F288.0 E53341.012
G1 X1.07 Y33.93 Z1.2 F288.0 E53341.882
G1 X1.39 Y33.51 Z1.2 F288.0 E53342.754
G1 X1.6 Y33.02 Z1.2 F288.0 E53343.624
G1 X1.67 Y32.49 Z1.2 F288.0 E53344.495
G1 X1.6 Y31.97 Z1.2 F288.0 E53345.365
G1 X1.39 Y31.48 Z1.2 F288.0 E53346.233
G1 X1.07 Y31.06 Z1.2 F288.0 E53347.106
G1 X0.65 Y30.73 Z1.2 F288.0 E53347.978
G1 X0.16 Y30.53 Z1.2 F288.0 E53348.847
G1 X-0.07 Y30.5 Z1.2 F288.0 E53349.218
;M103
G1 X6.1 Y28.59 Z1.2 F3600.0
G1 X12.77 Y28.45 Z1.2 F3600.0
G1 X12.92 Y25.97 Z1.2 F3600.0
G1 X20.72 Y22.98 Z1.2 F3600.0
G1 X20.86 Y22.57 Z1.2 F3600.0
G1 X21.77 Y22.42 Z1.2 F3600.0
G1 X32.04 Y19.05 Z1.2 F3600.0
;M101
G1 X32.24 Y19.54 Z1.2 F288.0 E53350.089
G1 X32.56 Y19.96 Z1.2 F288.0 E53350.959
G1 X32.98 Y20.28 Z1.2 F288.0 E53351.829
G1 X33.47 Y20.48 Z1.2 F288.0 E53352.7
G1 X34.0 Y20.55 Z1.2 F288.0 E53353.571
G1 X34.53 Y20.48 Z1.2 F288.0 E53354.44
G1 X35.02 Y20.28 Z1.2 F288.0 E53355.311
G1 X35.44 Y19.96 Z1.2 F288.0 E53356.181
G1 X35.76 Y19.54 Z1.2 F288.0 E53357.052
G1 X35.96 Y19.05 Z1.2 F288.0 E53357.923
G1 X36.03 Y18.52 Z1.2 F288.0 E53358.794
G1 X35.96 Y18.0 Z1.2 F288.0 E53359.664
G1 X35.76 Y17.51 Z1.2 F288.0 E53360.532
G1 X35.44 Y17.09 Z1.2 F288.0 E53361.405
G1 X35.01 Y16.76 Z1.2 F288.0 E53362.277
G1 X34.53 Y16.56 Z1.2 F288.0 E53363.146
G1 X34.0 Y16.49 Z1.2 F288.0 E53364.016
G1 X33.47 Y16.56 Z1.2 F288.0 E53364.887
G1 X32.98 Y16.76 Z1.2 F288.0 E53365.757
G1 X32.56 Y17.09 Z1.2 F288.0 E53366.628
G1 X32.24 Y17.51 Z1.2 F288.0 E53367.498
G1 X32.04 Y18.0 Z1.2 F288.0 E53368.369
G1 X31.97 Y18.52 Z1.2 F288.0 E53369.239
G1 X32.04 Y19.05 Z1.2 F288.0 E53370.11
;M103
G1 X1.07 Y-14.41 Z1.2 F3600.0
;M101
G1 X1.39 Y-14.83 Z1.2 F288.0 E53370.982
G1 X1.6 Y-15.32 Z1.2 F288.0 E53371.849
G1 X1.67 Y-15.84 Z1.2 F288.0 E53372.721
G1 X1.6 Y-16.37 Z1.2 F288.0 E53373.592
G1 X1.39 Y-16.86 Z1.2 F288.0 E53374.462
G1 X1.07 Y-17.28 Z1.2 F288.0 E53375.333
G1 X0.65 Y-17.6 Z1.2 F288.0 E53376.205
G1 X0.16 Y-17.81 Z1.2 F288.0 E53377.074
G1 X-0.37 Y-17.88 Z1.2 F288.0 E53377.943
G1 X-0.89 Y-17.81 Z1.2 F288.0 E53378.814
G1 X-1.38 Y-17.6 Z1.2 F288.0 E53379.685
G1 X-1.8 Y-17.28 Z1.2 F288.0 E53380.555
G1 X-2.13 Y-16.86 Z1.2 F288.0 E53381.424
G1 X-2.33 Y-16.37 Z1.2 F288.0 E53382.295
G1 X-2.4 Y-15.84 Z1.2 F288.0 E53383.166
G1 X-2.33 Y-15.32 Z1.2 F288.0 E53384.037
G1 X-2.13 Y-14.83 Z1.2 F288.0 E53384.907
G1 X-1.8 Y-14.41 Z1.2 F288.0 E53385.777
G1 X-1.38 Y-14.09 Z1.2 F288.0 E53386.648
G1 X-0.89 Y-13.88 Z1.2 F288.0 E53387.518
G1 X-0.37 Y-13.81 Z1.2 F288.0 E53388.39
G1 X0.16 Y-13.88 Z1.2 F288.0 E53389.259
G1 X0.65 Y-14.09 Z1.2 F288.0 E53390.128
G1 X1.07 Y-14.41 Z1.2 F288.0 E53391.0
;M103
G1 X31.97 Y-15.84 Z1.2 F3600.0
;M101
G1 X32.04 Y-15.32 Z1.2 F288.0 E53391.871
G1 X32.24 Y-14.83 Z1.2 F288.0 E53392.741
G1 X32.56 Y-14.41 Z1.2 F288.0 E53393.611
G1 X32.98 Y-14.09 Z1.2 F288.0 E53394.482
G1 X33.47 Y-13.88 Z1.2 F288.0 E53395.352
G1 X34.0 Y-13.81 Z1.2 F288.0 E53396.224
G1 X34.53 Y-13.88 Z1.2 F288.0 E53397.093
G1 X35.01 Y-14.09 Z1.2 F288.0 E53397.962
G1 X35.44 Y-14.41 Z1.2 F288.0 E53398.834
G1 X35.76 Y-14.83 Z1.2 F288.0 E53399.707
G1 X35.96 Y-15.32 Z1.2 F288.0 E53400.574
G1 X36.03 Y-15.84 Z1.2 F288.0 E53401.445
G1 X35.96 Y-16.37 Z1.2 F288.0 E53402.317
G1 X35.76 Y-16.86 Z1.2 F288.0 E53403.187
G1 X35.44 Y-17.28 Z1.2 F288.0 E53404.058
G1 X35.01 Y-17.6 Z1.2 F288.0 E53404.93
G1 X34.53 Y-17.81 Z1.2 F288.0 E53405.798
G1 X34.0 Y-17.88 Z1.2 F288.0 E53406.668
G1 X33.47 Y-17.81 Z1.2 F288.0 E53407.539
G1 X32.98 Y-17.6 Z1.2 F288.0 E53408.409
G1 X32.56 Y-17.28 Z1.2 F288.0 E53409.279
G1 X32.24 Y-16.86 Z1.2 F288.0 E53410.149
G1 X32.04 Y-16.37 Z1.2 F288.0 E53411.02
G1 X31.97 Y-15.84 Z1.2 F288.0 E53411.891
;M103
G1 X0.16 Y64.9 Z1.2 F3600.0
;M101
G1 X-0.37 Y64.83 Z1.2 F288.0 E53412.762
G1 X-0.89 Y64.9 Z1.2 F288.0 E53413.635
G1 X-1.38 Y65.1 Z1.2 F288.0 E53414.504
G1 X-1.8 Y65.42 Z1.2 F288.0 E53415.374
G1 X-2.13 Y65.84 Z1.2 F288.0 E53416.244
G1 X-2.33 Y66.33 Z1.2 F288.0 E53417.115
G1 X-2.4 Y66.86 Z1.2 F288.0 E53417.985
G1 X-2.33 Y67.38 Z1.2 F288.0 E53418.856
G1 X-2.13 Y67.87 Z1.2 F288.0 E53419.726
G1 X-1.8 Y68.29 Z1.2 F288.0 E53420.596
G1 X-1.38 Y68.62 Z1.2 F288.0 E53421.466
G1 X-0.89 Y68.82 Z1.2 F288.0 E53422.337
G1 X-0.37 Y68.89 Z1.2 F288.0 E53423.208
G1 X0.16 Y68.82 Z1.2 F288.0 E53424.077
G1 X0.65 Y68.62 Z1.2 F288.0 E53424.948
G1 X1.07 Y68.3 Z1.2 F288.0 E53425.819
G1 X1.39 Y67.87 Z1.2 F288.0 E53426.69
G1 X1.6 Y67.38 Z1.2 F288.0 E53427.56
G1 X1.67 Y66.86 Z1.2 F288.0 E53428.431
G1 X1.6 Y66.33 Z1.2 F288.0 E53429.301
G1 X1.39 Y65.84 Z1.2 F288.0 E53430.171
G1 X1.07 Y65.42 Z1.2 F288.0 E53431.042
G1 X0.65 Y65.1 Z1.2 F288.0 E53431.913
G1 X0.16 Y64.9 Z1.2 F288.0 E53432.782
;M103
G1 X31.97 Y66.86 Z1.2 F3600.0
;M101
G1 X32.04 Y67.38 Z1.2 F288.0 E53433.653
G1 X32.24 Y67.87 Z1.2 F288.0 E53434.524
G1 X32.56 Y68.29 Z1.2 F288.0 E53435.394
G1 X32.98 Y68.62 Z1.2 F288.0 E53436.264
G1 X33.47 Y68.82 Z1.2 F288.0 E53437.134
G1 X34.0 Y68.89 Z1.2 F288.0 E53438.005
G1 X34.53 Y68.82 Z1.2 F288.0 E53438.875
G1 X35.02 Y68.62 Z1.2 F288.0 E53439.746
G1 X35.44 Y68.3 Z1.2 F288.0 E53440.616
G1 X35.76 Y67.87 Z1.2 F288.0 E53441.487
G1 X35.96 Y67.38 Z1.2 F288.0 E53442.357
G1 X36.03 Y66.86 Z1.2 F288.0 E53443.229
G1 X35.96 Y66.33 Z1.2 F288.0 E53444.098
G1 X35.76 Y65.84 Z1.2 F288.0 E53444.968
G1 X35.44 Y65.42 Z1.2 F288.0 E53445.84
G1 X35.02 Y65.1 Z1.2 F288.0 E53446.71
G1 X34.53 Y64.9 Z1.2 F288.0 E53447.579
G1 X34.0 Y64.83 Z1.2 F288.0 E53448.45
G1 X33.47 Y64.9 Z1.2 F288.0 E53449.323
G1 X32.98 Y65.1 Z1.2 F288.0 E53450.193
G1 X32.56 Y65.42 Z1.2 F288.0 E53451.062
G1 X32.24 Y65.84 Z1.2 F288.0 E53451.932
G1 X32.04 Y66.33 Z1.2 F288.0 E53452.803
G1 X31.97 Y66.86 Z1.2 F288.0 E53453.673
;M103
G1 X31.97 Y70.42 Z1.2 F3600.0
;M101
G1 X-3.93 Y70.42 Z1.2 F288.0 E53512.613
G1 X-3.93 Y28.93 Z1.2 F288.0 E53580.737
G1 X13.25 Y28.93 Z1.2 F288.0 E53608.95
G1 X13.25 Y22.09 Z1.2 F288.0 E53620.187
G1 X-3.93 Y22.09 Z1.2 F288.0 E53648.399
G1 X-3.93 Y-19.41 Z1.2 F288.0 E53716.524
G1 X37.56 Y-19.41 Z1.2 F288.0 E53784.648
G1 X37.56 Y22.09 Z1.2 F288.0 E53852.773
G1 X20.38 Y22.09 Z1.2 F288.0 E53880.985
G1 X20.38 Y28.93 Z1.2 F288.0 E53892.222
G1 X37.56 Y28.93 Z1.2 F288.0 E53920.435
G1 X37.56 Y70.42 Z1.2 F288.0 E53988.559
G1 X31.97 Y70.42 Z1.2 F288.0 E53997.744
;M103
;M108 S5.629
;M108 S5.91
G1 X31.97 Y70.84 Z1.2 F3600.0
;M101
G1 X-4.35 Y70.84 Z1.2 F243.0 E54050.74
G1 X-4.35 Y28.51 Z1.2 F243.0 E54112.51
G1 X12.84 Y28.51 Z1.2 F243.0 E54137.586
G1 X12.84 Y22.5 Z1.2 F243.0 E54146.351
G1 X-4.35 Y22.5 Z1.2 F243.0 E54171.426
G1 X-4.35 Y-19.83 Z1.2 F243.0 E54233.197
G1 X37.98 Y-19.83 Z1.2 F243.0 E54294.967
G1 X37.98 Y22.5 Z1.2 F243.0 E54356.738
G1 X20.8 Y22.5 Z1.2 F243.0 E54381.812
G1 X20.8 Y28.51 Z1.2 F243.0 E54390.577
G1 X37.98 Y28.51 Z1.2 F243.0 E54415.651
G1 X37.98 Y70.84 Z1.2 F243.0 E54477.421
G1 X31.97 Y70.84 Z1.2 F243.0 E54486.196
;M103
G1 X33.2 Y68.25 Z1.2 F3600.0
;M101
G1 X33.58 Y68.41 Z1.2 F243.0 E54486.809
G1 X34.0 Y68.47 Z1.2 F243.0 E54487.423
G1 X34.42 Y68.41 Z1.2 F243.0 E54488.035
G1 X34.8 Y68.25 Z1.2 F243.0 E54488.648
G1 X35.14 Y68.0 Z1.2 F243.0 E54489.26
G1 X35.39 Y67.66 Z1.2 F243.0 E54489.873
G1 X35.55 Y67.28 Z1.2 F243.0 E54490.485
G1 X35.61 Y66.86 Z1.2 F243.0 E54491.099
G1 X35.55 Y66.44 Z1.2 F243.0 E54491.711
G1 X35.39 Y66.05 Z1.2 F243.0 E54492.324
G1 X35.14 Y65.72 Z1.2 F243.0 E54492.937
G1 X34.8 Y65.47 Z1.2 F243.0 E54493.549
G1 X34.42 Y65.31 Z1.2 F243.0 E54494.162
G1 X34.0 Y65.25 Z1.2 F243.0 E54494.774
G1 X33.58 Y65.31 Z1.2 F243.0 E54495.388
G1 X33.2 Y65.47 Z1.2 F243.0 E54496.001
G1 X32.86 Y65.72 Z1.2 F243.0 E54496.613
G1 X32.61 Y66.05 Z1.2 F243.0 E54497.224
G1 X32.45 Y66.44 Z1.2 F243.0 E54497.837
G1 X32.39 Y66.86 Z1.2 F243.0 E54498.45
G1 X32.45 Y67.28 Z1.2 F243.0 E54499.063
G1 X32.61 Y67.66 Z1.2 F243.0 E54499.676
G1 X32.86 Y68.0 Z1.2 F243.0 E54500.288
G1 X33.2 Y68.25 Z1.2 F243.0 E54500.9
;M103
G1 X1.24 Y66.86 Z1.2 F3600.0
;M101
G1 X1.19 Y66.44 Z1.2 F243.0 E54501.512
G1 X1.03 Y66.05 Z1.2 F243.0 E54502.124
G1 X0.77 Y65.72 Z1.2 F243.0 E54502.737
G1 X0.44 Y65.47 Z1.2 F243.0 E54503.349
G1 X0.05 Y65.31 Z1.2 F243.0 E54503.962
G1 X-0.37 Y65.25 Z1.2 F243.0 E54504.575
G1 X-0.78 Y65.31 Z1.2 F243.0 E54505.189
G1 X-1.17 Y65.47 Z1.2 F243.0 E54505.802
G1 X-1.5 Y65.72 Z1.2 F243.0 E54506.413
G1 X-1.76 Y66.05 Z1.2 F243.0 E54507.025
G1 X-1.92 Y66.44 Z1.2 F243.0 E54507.638
G1 X-1.97 Y66.86 Z1.2 F243.0 E54508.25
G1 X-1.92 Y67.28 Z1.2 F243.0 E54508.864
G1 X-1.76 Y67.66 Z1.2 F243.0 E54509.477
G1 X-1.5 Y68.0 Z1.2 F243.0 E54510.089
G1 X-1.17 Y68.25 Z1.2 F243.0 E54510.7
G1 X-0.78 Y68.41 Z1.2 F243.0 E54511.313
G1 X-0.37 Y68.47 Z1.2 F243.0 E54511.927
G1 X0.05 Y68.41 Z1.2 F243.0 E54512.539
G1 X0.44 Y68.25 Z1.2 F243.0 E54513.152
G1 X0.77 Y68.0 Z1.2 F243.0 E54513.764
G1 X1.03 Y67.66 Z1.2 F243.0 E54514.377
G1 X1.19 Y67.28 Z1.2 F243.0 E54514.99
G1 X1.24 Y66.86 Z1.2 F243.0 E54515.603
;M103
G1 X-0.37 Y34.1 Z1.2 F3600.0
;M101
G1 X0.05 Y34.05 Z1.2 F243.0 E54516.215
G1 X0.44 Y33.89 Z1.2 F243.0 E54516.828
G1 X0.77 Y33.63 Z1.2 F243.0 E54517.441
G1 X1.03 Y33.3 Z1.2 F243.0 E54518.053
G1 X1.19 Y32.91 Z1.2 F243.0 E54518.666
G1 X1.24 Y32.49 Z1.2 F243.0 E54519.28
G1 X1.19 Y32.08 Z1.2 F243.0 E54519.892
G1 X1.03 Y31.69 Z1.2 F243.0 E54520.503
G1 X0.77 Y31.36 Z1.2 F243.0 E54521.117
G1 X0.44 Y31.1 Z1.2 F243.0 E54521.731
G1 X0.05 Y30.94 Z1.2 F243.0 E54522.342
G1 X-0.37 Y30.88 Z1.2 F243.0 E54522.955
G1 X-0.78 Y30.94 Z1.2 F243.0 E54523.568
G1 X-1.17 Y31.1 Z1.2 F243.0 E54524.181
G1 X-1.5 Y31.36 Z1.2 F243.0 E54524.794
G1 X-1.76 Y31.69 Z1.2 F243.0 E54525.406
G1 X-1.92 Y32.08 Z1.2 F243.0 E54526.019
G1 X-1.97 Y32.49 Z1.2 F243.0 E54526.631
G1 X-1.92 Y32.91 Z1.2 F243.0 E54527.245
G1 X-1.76 Y33.3 Z1.2 F243.0 E54527.858
G1 X-1.5 Y33.63 Z1.2 F243.0 E54528.469
G1 X-1.17 Y33.89 Z1.2 F243.0 E54529.081
G1 X-0.78 Y34.05 Z1.2 F243.0 E54529.694
G1 X-0.37 Y34.1 Z1.2 F243.0 E54530.308
;M103
G1 X0.48 Y33.95 Z1.2 F3600.0
G1 X0.83 Y33.69 Z1.2 F3600.0
G1 X1.1 Y33.34 Z1.2 F3600.0
G1 X1.26 Y32.93 Z1.2 F3600.0
G1 X1.32 Y32.49 Z1.2 F3600.0
G1 X1.26 Y32.06 Z1.2 F3600.0
G1 X1.1 Y31.65 Z1.2 F3600.0
G1 X0.83 Y31.3 Z1.2 F3600.0
G1 X0.48 Y31.03 Z1.2 F3600.0
G1 X0.07 Y30.86 Z1.2 F3600.0
G1 X-0.33 Y30.8 Z1.2 F3600.0
G1 X-0.37 Y28.59 Z1.2 F3600.0
G1 X12.77 Y28.45 Z1.2 F3600.0
G1 X12.77 Y22.57 Z1.2 F3600.0
G1 X-0.37 Y22.42 Z1.2 F3600.0
G1 X-0.37 Y20.13 Z1.2 F3600.0
;M101
G1 X0.05 Y20.08 Z1.2 F243.0 E54530.92
G1 X0.44 Y19.92 Z1.2 F243.0 E54531.533
G1 X0.77 Y19.66 Z1.2 F243.0 E54532.145
G1 X1.03 Y19.33 Z1.2 F243.0 E54532.758
G1 X1.19 Y18.94 Z1.2 F243.0 E54533.37
G1 X1.24 Y18.52 Z1.2 F243.0 E54533.984
G1 X1.19 Y18.11 Z1.2 F243.0 E54534.596
G1 X1.03 Y17.72 Z1.2 F243.0 E54535.208
G1 X0.77 Y17.39 Z1.2 F243.0 E54535.822
G1 X0.44 Y17.13 Z1.2 F243.0 E54536.436
G1 X0.05 Y16.97 Z1.2 F243.0 E54537.047
G1 X-0.37 Y16.91 Z1.2 F243.0 E54537.659
G1 X-0.78 Y16.97 Z1.2 F243.0 E54538.273
G1 X-1.17 Y17.13 Z1.2 F243.0 E54538.885
G1 X-1.5 Y17.39 Z1.2 F243.0 E54539.498
G1 X-1.76 Y17.72 Z1.2 F243.0 E54540.11
G1 X-1.92 Y18.11 Z1.2 F243.0 E54540.723
G1 X-1.97 Y18.52 Z1.2 F243.0 E54541.336
G1 X-1.92 Y18.94 Z1.2 F243.0 E54541.949
G1 X-1.76 Y19.33 Z1.2 F243.0 E54542.562
G1 X-1.5 Y19.66 Z1.2 F243.0 E54543.174
G1 X-1.17 Y19.92 Z1.2 F243.0 E54543.786
G1 X-0.78 Y20.08 Z1.2 F243.0 E54544.399
G1 X-0.37 Y20.13 Z1.2 F243.0 E54545.012
;M103
G1 X32.39 Y18.52 Z1.2 F3600.0
;M101
G1 X32.45 Y18.94 Z1.2 F243.0 E54545.626
G1 X32.61 Y19.33 Z1.2 F243.0 E54546.239
G1 X32.86 Y19.66 Z1.2 F243.0 E54546.851
G1 X33.2 Y19.92 Z1.2 F243.0 E54547.462
G1 X33.58 Y20.08 Z1.2 F243.0 E54548.075
G1 X34.0 Y20.13 Z1.2 F243.0 E54548.689
G1 X34.42 Y20.08 Z1.2 F243.0 E54549.301
G1 X34.8 Y19.92 Z1.2 F243.0 E54549.914
G1 X35.14 Y19.66 Z1.2 F243.0 E54550.526
G1 X35.39 Y19.33 Z1.2 F243.0 E54551.139
G1 X35.55 Y18.94 Z1.2 F243.0 E54551.752
G1 X35.61 Y18.52 Z1.2 F243.0 E54552.365
G1 X35.55 Y18.11 Z1.2 F243.0 E54552.978
G1 X35.39 Y17.72 Z1.2 F243.0 E54553.589
G1 X35.14 Y17.39 Z1.2 F243.0 E54554.203
G1 X34.8 Y17.13 Z1.2 F243.0 E54554.817
G1 X34.42 Y16.97 Z1.2 F243.0 E54555.428
G1 X34.0 Y16.91 Z1.2 F243.0 E54556.04
G1 X33.58 Y16.97 Z1.2 F243.0 E54556.654
G1 X33.2 Y17.13 Z1.2 F243.0 E54557.267
G1 X32.86 Y17.39 Z1.2 F243.0 E54557.88
G1 X32.61 Y17.72 Z1.2 F243.0 E54558.492
G1 X32.45 Y18.11 Z1.2 F243.0 E54559.105
G1 X32.39 Y18.52 Z1.2 F243.0 E54559.717
;M103
G1 X32.94 Y22.42 Z1.2 F3600.0
G1 X20.86 Y22.57 Z1.2 F3600.0
G1 X20.86 Y28.45 Z1.2 F3600.0
G1 X33.66 Y28.59 Z1.2 F3600.0
G1 X34.0 Y30.88 Z1.2 F3600.0
;M101
G1 X33.58 Y30.94 Z1.2 F243.0 E54560.331
G1 X33.2 Y31.1 Z1.2 F243.0 E54560.943
G1 X32.86 Y31.36 Z1.2 F243.0 E54561.556
G1 X32.61 Y31.69 Z1.2 F243.0 E54562.168
G1 X32.45 Y32.08 Z1.2 F243.0 E54562.781
G1 X32.39 Y32.49 Z1.2 F243.0 E54563.393
G1 X32.45 Y32.91 Z1.2 F243.0 E54564.007
G1 X32.61 Y33.3 Z1.2 F243.0 E54564.62
G1 X32.86 Y33.63 Z1.2 F243.0 E54565.231
G1 X33.2 Y33.89 Z1.2 F243.0 E54565.843
G1 X33.58 Y34.05 Z1.2 F243.0 E54566.456
G1 X34.0 Y34.1 Z1.2 F243.0 E54567.07
G1 X34.42 Y34.05 Z1.2 F243.0 E54567.682
G1 X34.8 Y33.89 Z1.2 F243.0 E54568.295
G1 X35.14 Y33.63 Z1.2 F243.0 E54568.907
G1 X35.39 Y33.3 Z1.2 F243.0 E54569.52
G1 X35.55 Y32.91 Z1.2 F243.0 E54570.132
G1 X35.61 Y32.49 Z1.2 F243.0 E54570.746
G1 X35.55 Y32.08 Z1.2 F243.0 E54571.359
G1 X35.39 Y31.69 Z1.2 F243.0 E54571.97
G1 X35.14 Y31.36 Z1.2 F243.0 E54572.584
G1 X34.8 Y31.1 Z1.2 F243.0 E54573.198
G1 X34.42 Y30.94 Z1.2 F243.0 E54573.809
G1 X34.0 Y30.88 Z1.2 F243.0 E54574.421
;M103
G1 X34.0 Y28.59 Z1.2 F3600.0
G1 X20.86 Y28.45 Z1.2 F3600.0
G1 X20.86 Y22.57 Z1.2 F3600.0
G1 X34.0 Y22.42 Z1.2 F3600.0
G1 X34.0 Y19.92 Z1.2 F3600.0
G1 X34.04 Y20.21 Z1.2 F3600.0
G1 X34.44 Y20.15 Z1.2 F3600.0
G1 X34.84 Y19.98 Z1.2 F3600.0
G1 X35.19 Y19.72 Z1.2 F3600.0
G1 X35.46 Y19.37 Z1.2 F3600.0
G1 X35.63 Y18.96 Z1.2 F3600.0
G1 X34.0 Y-14.24 Z1.2 F3600.0
;M101
G1 X34.42 Y-14.29 Z1.2 F243.0 E54575.034
G1 X34.8 Y-14.45 Z1.2 F243.0 E54575.645
G1 X35.14 Y-14.71 Z1.2 F243.0 E54576.259
G1 X35.39 Y-15.04 Z1.2 F243.0 E54576.872
G1 X35.55 Y-15.43 Z1.2 F243.0 E54577.483
G1 X35.61 Y-15.84 Z1.2 F243.0 E54578.097
G1 X35.55 Y-16.26 Z1.2 F243.0 E54578.71
G1 X35.39 Y-16.65 Z1.2 F243.0 E54579.323
G1 X35.14 Y-16.98 Z1.2 F243.0 E54579.936
G1 X34.8 Y-17.24 Z1.2 F243.0 E54580.549
G1 X34.42 Y-17.4 Z1.2 F243.0 E54581.16
G1 X34.0 Y-17.45 Z1.2 F243.0 E54581.772
G1 X33.58 Y-17.4 Z1.2 F243.0 E54582.386
G1 X33.2 Y-17.24 Z1.2 F243.0 E54582.999
G1 X32.86 Y-16.98 Z1.2 F243.0 E54583.61
G1 X32.61 Y-16.65 Z1.2 F243.0 E54584.222
G1 X32.45 Y-16.26 Z1.2 F243.0 E54584.835
G1 X32.39 Y-15.84 Z1.2 F243.0 E54585.449
G1 X32.45 Y-15.43 Z1.2 F243.0 E54586.062
G1 X32.61 Y-15.04 Z1.2 F243.0 E54586.674
G1 X32.86 Y-14.71 Z1.2 F243.0 E54587.286
G1 X33.2 Y-14.45 Z1.2 F243.0 E54587.899
G1 X33.58 Y-14.29 Z1.2 F243.0 E54588.511
G1 X34.0 Y-14.24 Z1.2 F243.0 E54589.125
;M103
G1 X1.24 Y-15.84 Z1.2 F3600.0
;M101
G1 X1.19 Y-16.26 Z1.2 F243.0 E54589.739
G1 X1.03 Y-16.65 Z1.2 F243.0 E54590.351
G1 X0.77 Y-16.98 Z1.2 F243.0 E54590.964
G1 X0.44 Y-17.24 Z1.2 F243.0 E54591.578
G1 X0.05 Y-17.4 Z1.2 F243.0 E54592.189
G1 X-0.37 Y-17.45 Z1.2 F243.0 E54592.801
G1 X-0.78 Y-17.4 Z1.2 F243.0 E54593.415
G1 X-1.17 Y-17.24 Z1.2 F243.0 E54594.027
G1 X-1.5 Y-16.98 Z1.2 F243.0 E54594.639
G1 X-1.76 Y-16.65 Z1.2 F243.0 E54595.251
G1 X-1.92 Y-16.26 Z1.2 F243.0 E54595.864
G1 X-1.97 Y-15.84 Z1.2 F243.0 E54596.477
G1 X-1.92 Y-15.43 Z1.2 F243.0 E54597.091
G1 X-1.76 Y-15.04 Z1.2 F243.0 E54597.703
G1 X-1.5 Y-14.71 Z1.2 F243.0 E54598.315
G1 X-1.17 Y-14.45 Z1.2 F243.0 E54598.928
G1 X-0.78 Y-14.29 Z1.2 F243.0 E54599.54
G1 X-0.37 Y-14.24 Z1.2 F243.0 E54600.154
G1 X0.05 Y-14.29 Z1.2 F243.0 E54600.766
G1 X0.44 Y-14.45 Z1.2 F243.0 E54601.377
G1 X0.77 Y-14.71 Z1.2 F243.0 E54601.991
G1 X1.03 Y-15.04 Z1.2 F243.0 E54602.604
G1 X1.19 Y-15.43 Z1.2 F243.0 E54603.215
G1 X1.24 Y-15.84 Z1.2 F243.0 E54603.829
;M103
;M108 S7.506
G1 X1.1 Y-16.69 Z1.5 F3600.0
G1 X0.83 Y-17.04 Z1.5 F3600.0
G1 X0.48 Y-17.31 Z1.5 F3600.0
G1 X0.07 Y-17.47 Z1.5 F3600.0
G1 X-3.15 Y-17.58 Z1.5 F3600.0
;M101
G1 X-2.1 Y-18.63 Z1.5 F360.0 E54605.69
G1 X-2.69 Y-18.63 Z1.5 F360.0 E54606.431
G1 X-3.15 Y-18.17 Z1.5 F360.0 E54607.245
;M103
G1 X31.07 Y-18.63 Z1.5 F3600.0
;M101
G1 X-3.15 Y15.59 Z1.5 F360.0 E54667.797
G1 X-3.15 Y15.0 Z1.5 F360.0 E54668.539
G1 X30.48 Y-18.63 Z1.5 F360.0 E54728.041
G1 X29.89 Y-18.63 Z1.5 F360.0 E54728.782
G1 X-3.15 Y14.41 Z1.5 F360.0 E54787.238
G1 X-3.15 Y13.82 Z1.5 F360.0 E54787.978
G1 X29.3 Y-18.63 Z1.5 F360.0 E54845.386
G1 X28.7 Y-18.63 Z1.5 F360.0 E54846.128
G1 X-3.15 Y13.22 Z1.5 F360.0 E54902.487
G1 X-3.15 Y12.63 Z1.5 F360.0 E54903.228
G1 X28.11 Y-18.63 Z1.5 F360.0 E54958.539
G1 X27.52 Y-18.63 Z1.5 F360.0 E54959.281
G1 X-3.15 Y12.04 Z1.5 F360.0 E55013.544
G1 X-3.15 Y11.45 Z1.5 F360.0 E55014.284
G1 X26.93 Y-18.63 Z1.5 F360.0 E55067.5
G1 X26.33 Y-18.63 Z1.5 F360.0 E55068.24
G1 X-3.15 Y10.86 Z1.5 F360.0 E55120.408
G1 X-3.15 Y10.26 Z1.5 F360.0 E55121.15
G1 X25.74 Y-18.63 Z1.5 F360.0 E55172.269
G1 X25.15 Y-18.63 Z1.5 F360.0 E55173.009
G1 X-3.15 Y9.67 Z1.5 F360.0 E55223.081
G1 X-3.15 Y9.08 Z1.5 F360.0 E55223.822
G1 X24.56 Y-18.63 Z1.5 F360.0 E55272.845
G1 X23.96 Y-18.63 Z1.5 F360.0 E55273.585
G1 X-3.15 Y8.49 Z1.5 F360.0 E55321.56
G1 X-3.15 Y7.89 Z1.5 F360.0 E55322.301
G1 X23.37 Y-18.63 Z1.5 F360.0 E55369.228
G1 X22.78 Y-18.63 Z1.5 F360.0 E55369.97
G1 X-3.15 Y7.3 Z1.5 F360.0 E55415.848
G1 X-3.15 Y6.71 Z1.5 F360.0 E55416.589
G1 X22.19 Y-18.63 Z1.5 F360.0 E55461.42
G1 X21.59 Y-18.63 Z1.5 F360.0 E55462.161
G1 X-3.15 Y6.12 Z1.5 F360.0 E55505.944
G1 X-3.15 Y5.52 Z1.5 F360.0 E55506.686
G1 X21.0 Y-18.63 Z1.5 F360.0 E55549.421
G1 X20.41 Y-18.63 Z1.5 F360.0 E55550.161
G1 X-3.15 Y4.93 Z1.5 F360.0 E55591.849
G1 X-3.15 Y4.34 Z1.5 F360.0 E55592.59
G1 X19.82 Y-18.63 Z1.5 F360.0 E55633.229
G1 X19.22 Y-18.63 Z1.5 F360.0 E55633.969
G1 X-3.15 Y3.75 Z1.5 F360.0 E55673.56
G1 X-3.15 Y3.15 Z1.5 F360.0 E55674.301
G1 X18.63 Y-18.63 Z1.5 F360.0 E55712.844
G1 X18.04 Y-18.63 Z1.5 F360.0 E55713.586
G1 X-3.15 Y2.56 Z1.5 F360.0 E55751.08
G1 X-3.15 Y1.97 Z1.5 F360.0 E55751.821
G1 X17.45 Y-18.63 Z1.5 F360.0 E55788.267
G1 X16.85 Y-18.63 Z1.5 F360.0 E55789.009
G1 X-3.15 Y1.38 Z1.5 F360.0 E55824.407
G1 X-3.15 Y0.78 Z1.5 F360.0 E55825.148
G1 X16.26 Y-18.63 Z1.5 F360.0 E55859.498
G1 X15.67 Y-18.63 Z1.5 F360.0 E55860.239
G1 X-3.15 Y0.19 Z1.5 F360.0 E55893.542
G1 X-3.15 Y-0.4 Z1.5 F360.0 E55894.284
G1 X15.08 Y-18.63 Z1.5 F360.0 E55926.538
G1 X14.49 Y-18.63 Z1.5 F360.0 E55927.278
G1 X-3.15 Y-0.99 Z1.5 F360.0 E55958.485
G1 X-3.15 Y-1.59 Z1.5 F360.0 E55959.225
G1 X13.89 Y-18.63 Z1.5 F360.0 E55989.385
G1 X13.3 Y-18.63 Z1.5 F360.0 E55990.126
G1 X-3.15 Y-2.18 Z1.5 F360.0 E56019.237
G1 X-3.15 Y-2.77 Z1.5 F360.0 E56019.977
G1 X12.71 Y-18.63 Z1.5 F360.0 E56048.04
G1 X12.12 Y-18.63 Z1.5 F360.0 E56048.782
G1 X-3.15 Y-3.36 Z1.5 F360.0 E56075.795
G1 X-3.15 Y-3.96 Z1.5 F360.0 E56076.536
G1 X11.52 Y-18.63 Z1.5 F360.0 E56102.502
G1 X10.93 Y-18.63 Z1.5 F360.0 E56103.243
G1 X-3.15 Y-4.55 Z1.5 F360.0 E56128.162
G1 X-3.15 Y-5.14 Z1.5 F360.0 E56128.904
G1 X10.34 Y-18.63 Z1.5 F360.0 E56152.773
G1 X9.75 Y-18.63 Z1.5 F360.0 E56153.514
G1 X-3.15 Y-5.73 Z1.5 F360.0 E56176.336
G1 X-3.15 Y-6.33 Z1.5 F360.0 E56177.078
G1 X9.15 Y-18.63 Z1.5 F360.0 E56198.852
G1 X8.56 Y-18.63 Z1.5 F360.0 E56199.592
G1 X-3.15 Y-6.92 Z1.5 F360.0 E56220.318
G1 X-3.15 Y-7.51 Z1.5 F360.0 E56221.059
G1 X7.97 Y-18.63 Z1.5 F360.0 E56240.737
G1 X7.38 Y-18.63 Z1.5 F360.0 E56241.479
G1 X-3.15 Y-8.1 Z1.5 F360.0 E56260.109
G1 X-3.15 Y-8.69 Z1.5 F360.0 E56260.849
G1 X6.78 Y-18.63 Z1.5 F360.0 E56278.431
G1 X6.19 Y-18.63 Z1.5 F360.0 E56279.172
G1 X2.12 Y-14.56 Z1.5 F360.0 E56286.374
G1 X2.39 Y-15.42 Z1.5 F360.0 E56287.504
G1 X5.6 Y-18.63 Z1.5 F360.0 E56293.181
G1 X5.01 Y-18.63 Z1.5 F360.0 E56293.921
G1 X2.42 Y-16.05 Z1.5 F360.0 E56298.498
G1 X2.35 Y-16.57 Z1.5 F360.0 E56299.158
G1 X4.41 Y-18.63 Z1.5 F360.0 E56302.809
G1 X3.82 Y-18.63 Z1.5 F360.0 E56303.549
G1 X2.18 Y-16.99 Z1.5 F360.0 E56306.458
G1 X1.97 Y-17.38 Z1.5 F360.0 E56307.006
G1 X3.23 Y-18.63 Z1.5 F360.0 E56309.228
G1 X2.64 Y-18.63 Z1.5 F360.0 E56309.97
G1 X1.72 Y-17.71 Z1.5 F360.0 E56311.6
G1 X1.41 Y-18.0 Z1.5 F360.0 E56312.123
G1 X2.05 Y-18.63 Z1.5 F360.0 E56313.247
G1 X1.45 Y-18.63 Z1.5 F360.0 E56313.989
G1 X1.07 Y-18.25 Z1.5 F360.0 E56314.659
G1 X0.86 Y-18.63 Z1.5 F360.0 E56315.203
G1 X0.66 Y-18.43 Z1.5 F360.0 E56315.551
G1 X0.27 Y-18.63 Z1.5 F360.0 E56316.104
G1 X0.22 Y-18.58 Z1.5 F360.0 E56316.198
G1 X-0.92 Y-18.63 Z1.5 F360.0 E56317.615
G1 X-0.97 Y-18.58 Z1.5 F360.0 E56317.714
G1 X-1.51 Y-18.63 Z1.5 F360.0 E56318.389
G1 X-3.15 Y-16.99 Z1.5 F360.0 E56321.299
G1 X-3.1 Y-16.45 Z1.5 F360.0 E56321.976
G1 X-3.15 Y-16.4 Z1.5 F360.0 E56322.071
G1 X-3.1 Y-15.26 Z1.5 F360.0 E56323.491
G1 X-3.15 Y-15.21 Z1.5 F360.0 E56323.582
G1 X-2.96 Y-14.81 Z1.5 F360.0 E56324.134
G1 X-3.15 Y-14.62 Z1.5 F360.0 E56324.481
G1 X-2.78 Y-14.4 Z1.5 F360.0 E56325.026
G1 X-3.15 Y-14.03 Z1.5 F360.0 E56325.695
G1 X-3.15 Y-13.43 Z1.5 F360.0 E56326.437
G1 X-2.52 Y-14.07 Z1.5 F360.0 E56327.561
G1 X-2.23 Y-13.76 Z1.5 F360.0 E56328.085
G1 X-3.15 Y-12.84 Z1.5 F360.0 E56329.714
G1 X-3.15 Y-12.25 Z1.5 F360.0 E56330.456
G1 X-1.9 Y-13.5 Z1.5 F360.0 E56332.678
G1 X-1.51 Y-13.3 Z1.5 F360.0 E56333.226
G1 X-3.15 Y-11.66 Z1.5 F360.0 E56336.135
G1 X-3.15 Y-11.06 Z1.5 F360.0 E56336.875
G1 X-1.09 Y-13.13 Z1.5 F360.0 E56340.526
G1 X-0.57 Y-13.06 Z1.5 F360.0 E56341.186
G1 X-3.15 Y-10.47 Z1.5 F360.0 E56345.763
G1 X-3.15 Y-9.88 Z1.5 F360.0 E56346.504
G1 X0.06 Y-13.09 Z1.5 F360.0 E56352.18
G1 X0.92 Y-13.36 Z1.5 F360.0 E56353.31
G1 X-3.15 Y-9.29 Z1.5 F360.0 E56360.512
;M103
G1 X-3.15 Y16.19 Z1.5 F3600.0
;M101
G1 X31.66 Y-18.63 Z1.5 F360.0 E56422.112
G1 X32.26 Y-18.63 Z1.5 F360.0 E56422.852
G1 X-3.15 Y16.78 Z1.5 F360.0 E56485.499
;M103
G1 X-2.95 Y21.31 Z1.5 F3600.0
;M101
G1 X-2.24 Y20.6 Z1.5 F360.0 E56486.753
G1 X-2.52 Y20.29 Z1.5 F360.0 E56487.278
G1 X-3.15 Y20.93 Z1.5 F360.0 E56488.396
G1 X-3.15 Y20.33 Z1.5 F360.0 E56489.137
G1 X-2.78 Y19.96 Z1.5 F360.0 E56489.8
G1 X-3.15 Y19.74 Z1.5 F360.0 E56490.343
G1 X-2.96 Y19.55 Z1.5 F360.0 E56490.685
G1 X-3.15 Y19.15 Z1.5 F360.0 E56491.24
G1 X-3.1 Y19.1 Z1.5 F360.0 E56491.33
G1 X-3.15 Y17.96 Z1.5 F360.0 E56492.751
G1 X-3.1 Y17.91 Z1.5 F360.0 E56492.849
G1 X-3.15 Y17.37 Z1.5 F360.0 E56493.525
G1 X32.85 Y-18.63 Z1.5 F360.0 E56557.221
G1 X33.39 Y-18.58 Z1.5 F360.0 E56557.895
G1 X33.44 Y-18.63 Z1.5 F360.0 E56557.995
G1 X34.58 Y-18.58 Z1.5 F360.0 E56559.415
G1 X34.63 Y-18.63 Z1.5 F360.0 E56559.506
G1 X35.02 Y-18.44 Z1.5 F360.0 E56560.06
G1 X35.22 Y-18.63 Z1.5 F360.0 E56560.405
G1 X35.44 Y-18.26 Z1.5 F360.0 E56560.947
G1 X35.81 Y-18.63 Z1.5 F360.0 E56561.611
G1 X36.4 Y-18.63 Z1.5 F360.0 E56562.351
G1 X35.77 Y-18.0 Z1.5 F360.0 E56563.469
G1 X36.08 Y-17.72 Z1.5 F360.0 E56563.994
G1 X36.79 Y-18.42 Z1.5 F360.0 E56565.249
G1 X36.79 Y-17.83 Z1.5 F360.0 E56565.991
G1 X36.34 Y-17.38 Z1.5 F360.0 E56566.788
G1 X36.54 Y-16.99 Z1.5 F360.0 E56567.335
G1 X36.79 Y-17.24 Z1.5 F360.0 E56567.77
G1 X36.79 Y-16.65 Z1.5 F360.0 E56568.51
G1 X36.72 Y-16.57 Z1.5 F360.0 E56568.639
G1 X36.79 Y-16.05 Z1.5 F360.0 E56569.296
G1 X36.79 Y-15.46 Z1.5 F360.0 E56570.037
G1 X36.76 Y-15.43 Z1.5 F360.0 E56570.09
G1 X36.79 Y-14.87 Z1.5 F360.0 E56570.795
G1 X36.49 Y-14.57 Z1.5 F360.0 E56571.318
G1 X36.79 Y-14.28 Z1.5 F360.0 E56571.843
G1 X1.2 Y21.31 Z1.5 F360.0 E56634.802
G1 X0.9 Y21.01 Z1.5 F360.0 E56635.327
G1 X0.61 Y21.31 Z1.5 F360.0 E56635.85
G1 X0.05 Y21.28 Z1.5 F360.0 E56636.556
G1 X0.02 Y21.31 Z1.5 F360.0 E56636.608
G1 X-0.57 Y21.31 Z1.5 F360.0 E56637.346
G1 X-1.1 Y21.24 Z1.5 F360.0 E56638.006
G1 X-1.17 Y21.31 Z1.5 F360.0 E56638.133
G1 X-1.52 Y21.06 Z1.5 F360.0 E56638.665
G1 X-1.76 Y21.31 Z1.5 F360.0 E56639.099
G1 X-1.9 Y20.86 Z1.5 F360.0 E56639.691
G1 X-2.35 Y21.31 Z1.5 F360.0 E56640.488
;M103
G1 X1.79 Y21.31 Z1.5 F3600.0
;M101
G1 X36.79 Y-13.69 Z1.5 F360.0 E56702.401
G1 X36.79 Y-13.09 Z1.5 F360.0 E56703.143
G1 X2.39 Y21.31 Z1.5 F360.0 E56764.006
G1 X2.98 Y21.31 Z1.5 F360.0 E56764.747
G1 X36.79 Y-12.5 Z1.5 F360.0 E56824.563
G1 X36.79 Y-11.91 Z1.5 F360.0 E56825.305
G1 X3.57 Y21.31 Z1.5 F360.0 E56884.071
G1 X4.16 Y21.31 Z1.5 F360.0 E56884.812
G1 X36.79 Y-11.32 Z1.5 F360.0 E56942.532
G1 X36.79 Y-10.72 Z1.5 F360.0 E56943.272
G1 X4.76 Y21.31 Z1.5 F360.0 E56999.944
G1 X5.35 Y21.31 Z1.5 F360.0 E57000.686
G1 X36.79 Y-10.13 Z1.5 F360.0 E57056.309
G1 X36.79 Y-9.54 Z1.5 F360.0 E57057.05
G1 X5.94 Y21.31 Z1.5 F360.0 E57111.626
G1 X6.53 Y21.31 Z1.5 F360.0 E57112.366
G1 X36.79 Y-8.95 Z1.5 F360.0 E57165.895
G1 X36.79 Y-8.35 Z1.5 F360.0 E57166.636
G1 X7.13 Y21.31 Z1.5 F360.0 E57219.116
G1 X7.72 Y21.31 Z1.5 F360.0 E57219.856
G1 X36.79 Y-7.76 Z1.5 F360.0 E57271.288
G1 X36.79 Y-7.17 Z1.5 F360.0 E57272.03
G1 X8.31 Y21.31 Z1.5 F360.0 E57322.413
G1 X8.9 Y21.31 Z1.5 F360.0 E57323.153
G1 X36.79 Y-6.58 Z1.5 F360.0 E57372.489
G1 X36.79 Y-5.98 Z1.5 F360.0 E57373.229
G1 X9.49 Y21.31 Z1.5 F360.0 E57421.517
G1 X10.09 Y21.31 Z1.5 F360.0 E57422.259
G1 X36.79 Y-5.39 Z1.5 F360.0 E57469.498
G1 X36.79 Y-4.8 Z1.5 F360.0 E57470.239
G1 X10.68 Y21.31 Z1.5 F360.0 E57516.43
G1 X11.27 Y21.31 Z1.5 F360.0 E57517.172
G1 X36.79 Y-4.21 Z1.5 F360.0 E57562.314
G1 X36.79 Y-3.61 Z1.5 F360.0 E57563.055
G1 X11.86 Y21.31 Z1.5 F360.0 E57607.15
G1 X12.46 Y21.31 Z1.5 F360.0 E57607.891
G1 X36.79 Y-3.02 Z1.5 F360.0 E57650.938
G1 X36.79 Y-2.43 Z1.5 F360.0 E57651.68
G1 X13.05 Y21.31 Z1.5 F360.0 E57693.679
G1 X13.64 Y21.31 Z1.5 F360.0 E57694.419
G1 X36.79 Y-1.84 Z1.5 F360.0 E57735.371
G1 X36.79 Y-1.25 Z1.5 F360.0 E57736.111
G1 X14.03 Y21.51 Z1.5 F360.0 E57776.376
G1 X14.03 Y22.11 Z1.5 F360.0 E57777.117
G1 X36.79 Y-0.65 Z1.5 F360.0 E57817.381
G1 X36.79 Y-0.06 Z1.5 F360.0 E57818.121
G1 X14.03 Y22.7 Z1.5 F360.0 E57858.385
G1 X14.03 Y23.29 Z1.5 F360.0 E57859.127
G1 X36.79 Y0.53 Z1.5 F360.0 E57899.391
G1 X36.79 Y1.13 Z1.5 F360.0 E57900.131
G1 X14.03 Y23.88 Z1.5 F360.0 E57940.395
G1 X14.03 Y24.48 Z1.5 F360.0 E57941.137
G1 X36.79 Y1.72 Z1.5 F360.0 E57981.402
G1 X36.79 Y2.31 Z1.5 F360.0 E57982.144
G1 X14.03 Y25.07 Z1.5 F360.0 E58022.408
G1 X14.03 Y25.66 Z1.5 F360.0 E58023.148
G1 X36.79 Y2.9 Z1.5 F360.0 E58063.412
G1 X36.79 Y3.5 Z1.5 F360.0 E58064.154
G1 X14.03 Y26.25 Z1.5 F360.0 E58104.418
G1 X14.03 Y26.85 Z1.5 F360.0 E58105.158
G1 X36.79 Y4.09 Z1.5 F360.0 E58145.422
;M103
G1 X20.16 Y21.31 Z1.5 F3600.0
;M101
G1 X36.79 Y4.68 Z1.5 F360.0 E58174.846
G1 X36.79 Y5.27 Z1.5 F360.0 E58175.588
G1 X20.75 Y21.31 Z1.5 F360.0 E58203.962
G1 X21.34 Y21.31 Z1.5 F360.0 E58204.702
G1 X36.79 Y5.86 Z1.5 F360.0 E58232.029
G1 X36.79 Y6.46 Z1.5 F360.0 E58232.77
G1 X21.93 Y21.31 Z1.5 F360.0 E58259.049
G1 X22.53 Y21.31 Z1.5 F360.0 E58259.791
G1 X36.79 Y7.05 Z1.5 F360.0 E58285.021
G1 X36.79 Y7.64 Z1.5 F360.0 E58285.762
G1 X23.12 Y21.31 Z1.5 F360.0 E58309.945
G1 X23.71 Y21.31 Z1.5 F360.0 E58310.687
G1 X36.79 Y8.23 Z1.5 F360.0 E58333.82
G1 X36.79 Y8.83 Z1.5 F360.0 E58334.561
G1 X24.3 Y21.31 Z1.5 F360.0 E58356.647
G1 X24.9 Y21.31 Z1.5 F360.0 E58357.388
G1 X36.79 Y9.42 Z1.5 F360.0 E58378.427
G1 X36.79 Y10.01 Z1.5 F360.0 E58379.169
G1 X25.49 Y21.31 Z1.5 F360.0 E58399.159
G1 X26.08 Y21.31 Z1.5 F360.0 E58399.899
G1 X36.79 Y10.6 Z1.5 F360.0 E58418.842
G1 X36.79 Y11.2 Z1.5 F360.0 E58419.584
G1 X26.67 Y21.31 Z1.5 F360.0 E58437.477
G1 X27.27 Y21.31 Z1.5 F360.0 E58438.218
G1 X36.79 Y11.79 Z1.5 F360.0 E58455.064
G1 X36.79 Y12.38 Z1.5 F360.0 E58455.805
G1 X33.38 Y15.79 Z1.5 F360.0 E58461.841
G1 X34.05 Y15.72 Z1.5 F360.0 E58462.684
G1 X36.79 Y12.97 Z1.5 F360.0 E58467.536
G1 X36.79 Y13.57 Z1.5 F360.0 E58468.276
G1 X34.57 Y15.79 Z1.5 F360.0 E58472.204
G1 X35.02 Y15.93 Z1.5 F360.0 E58472.795
G1 X36.79 Y14.16 Z1.5 F360.0 E58475.925
G1 X36.79 Y14.75 Z1.5 F360.0 E58476.666
G1 X35.43 Y16.11 Z1.5 F360.0 E58479.066
G1 X35.77 Y16.36 Z1.5 F360.0 E58479.596
G1 X36.79 Y15.34 Z1.5 F360.0 E58481.402
G1 X36.79 Y15.94 Z1.5 F360.0 E58482.144
G1 X36.08 Y16.65 Z1.5 F360.0 E58483.403
G1 X36.33 Y16.98 Z1.5 F360.0 E58483.932
G1 X36.79 Y16.53 Z1.5 F360.0 E58484.737
G1 X36.79 Y17.12 Z1.5 F360.0 E58485.477
G1 X36.54 Y17.37 Z1.5 F360.0 E58485.916
G1 X36.79 Y17.71 Z1.5 F360.0 E58486.448
G1 X36.71 Y17.79 Z1.5 F360.0 E58486.58
G1 X36.79 Y18.3 Z1.5 F360.0 E58487.234
G1 X36.79 Y18.9 Z1.5 F360.0 E58487.974
G1 X36.76 Y18.93 Z1.5 F360.0 E58488.026
G1 X36.79 Y19.49 Z1.5 F360.0 E58488.732
G1 X36.5 Y19.78 Z1.5 F360.0 E58489.244
G1 X36.79 Y20.08 Z1.5 F360.0 E58489.769
G1 X35.56 Y21.31 Z1.5 F360.0 E58491.943
G1 X35.26 Y21.02 Z1.5 F360.0 E58492.468
G1 X34.97 Y21.31 Z1.5 F360.0 E58492.982
G1 X34.4 Y21.28 Z1.5 F360.0 E58493.69
G1 X34.37 Y21.31 Z1.5 F360.0 E58493.739
G1 X33.78 Y21.31 Z1.5 F360.0 E58494.48
G1 X33.26 Y21.24 Z1.5 F360.0 E58495.136
G1 X33.19 Y21.31 Z1.5 F360.0 E58495.266
G1 X32.85 Y21.06 Z1.5 F360.0 E58495.797
G1 X32.6 Y21.31 Z1.5 F360.0 E58496.236
G1 X32.46 Y20.86 Z1.5 F360.0 E58496.831
G1 X32.01 Y21.31 Z1.5 F360.0 E58497.635
G1 X31.41 Y21.31 Z1.5 F360.0 E58498.375
G1 X32.12 Y20.6 Z1.5 F360.0 E58499.634
G1 X31.84 Y20.29 Z1.5 F360.0 E58500.158
G1 X30.82 Y21.31 Z1.5 F360.0 E58501.965
G1 X30.23 Y21.31 Z1.5 F360.0 E58502.705
G1 X31.58 Y19.95 Z1.5 F360.0 E58505.103
G1 X31.4 Y19.54 Z1.5 F360.0 E58505.665
G1 X29.64 Y21.31 Z1.5 F360.0 E58508.794
G1 X29.04 Y21.31 Z1.5 F360.0 E58509.535
G1 X31.26 Y19.09 Z1.5 F360.0 E58513.461
G1 X31.19 Y18.57 Z1.5 F360.0 E58514.122
G1 X28.45 Y21.31 Z1.5 F360.0 E58518.975
G1 X27.86 Y21.31 Z1.5 F360.0 E58519.716
G1 X31.27 Y17.9 Z1.5 F360.0 E58525.751
;M103
G1 X33.16 Y19.98 Z1.5 F3600.0
G1 X36.15 Y21.31 Z1.5 F3600.0
;M101
G1 X36.79 Y20.67 Z1.5 F360.0 E58526.876
G1 X36.79 Y21.27 Z1.5 F360.0 E58527.617
G1 X36.74 Y21.31 Z1.5 F360.0 E58527.695
;M103
G1 X35.7 Y22.42 Z1.5 F3600.0
G1 X20.86 Y22.57 Z1.5 F3600.0
G1 X20.86 Y28.45 Z1.5 F3600.0
G1 X31.54 Y28.59 Z1.5 F3600.0
G1 X2.36 Y67.55 Z1.5 F3600.0
;M101
G1 X34.69 Y35.22 Z1.5 F360.0 E58584.895
G1 X34.01 Y35.3 Z1.5 F360.0 E58585.755
G1 X2.45 Y66.86 Z1.5 F360.0 E58641.59
G1 X2.38 Y66.34 Z1.5 F360.0 E58642.251
G1 X33.48 Y35.24 Z1.5 F360.0 E58697.276
G1 X33.02 Y35.1 Z1.5 F360.0 E58697.874
G1 X2.25 Y65.88 Z1.5 F360.0 E58752.318
G1 X2.07 Y65.46 Z1.5 F360.0 E58752.885
G1 X32.6 Y34.93 Z1.5 F360.0 E58806.895
G1 X32.26 Y34.67 Z1.5 F360.0 E58807.424
G1 X1.82 Y65.12 Z1.5 F360.0 E58861.292
G1 X1.54 Y64.81 Z1.5 F360.0 E58861.817
G1 X31.95 Y34.4 Z1.5 F360.0 E58915.615
G1 X31.69 Y34.06 Z1.5 F360.0 E58916.143
G1 X1.21 Y64.55 Z1.5 F360.0 E58970.078
G1 X0.83 Y64.33 Z1.5 F360.0 E58970.622
G1 X31.48 Y33.69 Z1.5 F360.0 E59024.846
G1 X31.3 Y33.27 Z1.5 F360.0 E59025.412
G1 X0.41 Y64.16 Z1.5 F360.0 E59080.067
G1 X-0.1 Y64.08 Z1.5 F360.0 E59080.716
G1 X31.22 Y32.76 Z1.5 F360.0 E59136.135
G1 X31.23 Y32.15 Z1.5 F360.0 E59136.889
G1 X-0.71 Y64.09 Z1.5 F360.0 E59193.391
G1 X-1.53 Y64.32 Z1.5 F360.0 E59194.463
G1 X31.46 Y31.33 Z1.5 F360.0 E59252.834
;M103
G1 X27.67 Y28.59 Z1.5 F3600.0
G1 X20.86 Y28.45 Z1.5 F3600.0
G1 X20.72 Y22.98 Z1.5 F3600.0
G1 X19.61 Y21.86 Z1.5 F3600.0
;M101
G1 X14.03 Y27.44 Z1.5 F360.0 E59262.699
G1 X14.03 Y28.03 Z1.5 F360.0 E59263.439
G1 X19.61 Y22.46 Z1.5 F360.0 E59273.303
G1 X19.61 Y23.05 Z1.5 F360.0 E59274.044
G1 X14.03 Y28.62 Z1.5 F360.0 E59283.908
G1 X14.03 Y29.22 Z1.5 F360.0 E59284.65
G1 X19.61 Y23.64 Z1.5 F360.0 E59294.515
G1 X19.61 Y24.23 Z1.5 F360.0 E59295.257
G1 X-3.15 Y46.99 Z1.5 F360.0 E59335.521
G1 X-3.15 Y47.58 Z1.5 F360.0 E59336.261
G1 X19.61 Y24.82 Z1.5 F360.0 E59376.525
G1 X19.61 Y25.42 Z1.5 F360.0 E59377.267
G1 X-3.15 Y48.18 Z1.5 F360.0 E59417.531
G1 X-3.15 Y48.77 Z1.5 F360.0 E59418.271
G1 X19.61 Y26.01 Z1.5 F360.0 E59458.535
G1 X19.61 Y26.6 Z1.5 F360.0 E59459.276
G1 X-3.15 Y49.36 Z1.5 F360.0 E59499.541
G1 X-3.15 Y49.95 Z1.5 F360.0 E59500.281
G1 X19.61 Y27.19 Z1.5 F360.0 E59540.545
G1 X19.61 Y27.79 Z1.5 F360.0 E59541.286
G1 X-3.15 Y50.54 Z1.5 F360.0 E59581.55
G1 X-3.15 Y51.14 Z1.5 F360.0 E59582.292
G1 X19.61 Y28.38 Z1.5 F360.0 E59622.555
G1 X19.61 Y28.97 Z1.5 F360.0 E59623.296
G1 X-3.15 Y51.73 Z1.5 F360.0 E59663.56
G1 X-3.15 Y52.32 Z1.5 F360.0 E59664.302
G1 X19.61 Y29.56 Z1.5 F360.0 E59704.567
G1 X20.06 Y29.7 Z1.5 F360.0 E59705.158
G1 X-3.15 Y52.91 Z1.5 F360.0 E59746.22
G1 X-3.15 Y53.51 Z1.5 F360.0 E59746.961
G1 X20.65 Y29.7 Z1.5 F360.0 E59789.071
G1 X21.24 Y29.7 Z1.5 F360.0 E59789.813
G1 X-3.15 Y54.1 Z1.5 F360.0 E59832.972
G1 X-3.15 Y54.69 Z1.5 F360.0 E59833.713
G1 X21.83 Y29.7 Z1.5 F360.0 E59877.919
G1 X22.43 Y29.7 Z1.5 F360.0 E59878.66
G1 X-3.15 Y55.28 Z1.5 F360.0 E59923.914
G1 X-3.15 Y55.88 Z1.5 F360.0 E59924.655
G1 X23.02 Y29.7 Z1.5 F360.0 E59970.958
G1 X23.61 Y29.7 Z1.5 F360.0 E59971.699
G1 X-3.15 Y56.47 Z1.5 F360.0 E60019.049
G1 X-3.15 Y57.06 Z1.5 F360.0 E60019.791
G1 X24.2 Y29.7 Z1.5 F360.0 E60068.191
G1 X24.8 Y29.7 Z1.5 F360.0 E60068.931
G1 X-3.15 Y57.65 Z1.5 F360.0 E60118.378
G1 X-3.15 Y58.25 Z1.5 F360.0 E60119.119
G1 X25.39 Y29.7 Z1.5 F360.0 E60169.613
G1 X25.98 Y29.7 Z1.5 F360.0 E60170.355
G1 X-3.15 Y58.84 Z1.5 F360.0 E60221.898
G1 X-3.15 Y59.43 Z1.5 F360.0 E60222.639
G1 X26.57 Y29.7 Z1.5 F360.0 E60275.229
G1 X27.17 Y29.7 Z1.5 F360.0 E60275.971
G1 X-3.15 Y60.02 Z1.5 F360.0 E60329.611
G1 X-3.15 Y60.62 Z1.5 F360.0 E60330.352
G1 X27.76 Y29.7 Z1.5 F360.0 E60385.039
G1 X28.35 Y29.7 Z1.5 F360.0 E60385.779
G1 X-3.15 Y61.21 Z1.5 F360.0 E60441.514
G1 X-3.15 Y61.8 Z1.5 F360.0 E60442.256
G1 X28.94 Y29.7 Z1.5 F360.0 E60499.039
G1 X29.53 Y29.7 Z1.5 F360.0 E60499.78
G1 X-3.15 Y62.39 Z1.5 F360.0 E60557.611
G1 X-3.15 Y62.98 Z1.5 F360.0 E60558.352
G1 X30.13 Y29.7 Z1.5 F360.0 E60617.23
G1 X30.72 Y29.7 Z1.5 F360.0 E60617.972
G1 X-3.15 Y63.58 Z1.5 F360.0 E60677.899
G1 X-3.15 Y64.17 Z1.5 F360.0 E60678.64
G1 X31.31 Y29.7 Z1.5 F360.0 E60739.615
G1 X31.9 Y29.7 Z1.5 F360.0 E60740.357
G1 X-3.15 Y64.76 Z1.5 F360.0 E60802.38
;M103
G1 X36.79 Y59.18 Z1.5 F3600.0
;M101
G1 X26.32 Y69.65 Z1.5 F360.0 E60820.899
G1 X25.73 Y69.65 Z1.5 F360.0 E60821.64
G1 X36.79 Y58.59 Z1.5 F360.0 E60841.208
G1 X36.79 Y57.99 Z1.5 F360.0 E60841.948
G1 X25.14 Y69.65 Z1.5 F360.0 E60862.563
G1 X24.54 Y69.65 Z1.5 F360.0 E60863.304
G1 X36.79 Y57.4 Z1.5 F360.0 E60884.968
G1 X36.79 Y56.81 Z1.5 F360.0 E60885.709
G1 X23.95 Y69.65 Z1.5 F360.0 E60908.42
G1 X23.36 Y69.65 Z1.5 F360.0 E60909.16
G1 X36.79 Y56.22 Z1.5 F360.0 E60932.919
G1 X36.79 Y55.62 Z1.5 F360.0 E60933.66
G1 X22.77 Y69.65 Z1.5 F360.0 E60958.468
G1 X22.17 Y69.65 Z1.5 F360.0 E60959.208
G1 X36.79 Y55.03 Z1.5 F360.0 E60985.063
G1 X36.79 Y54.44 Z1.5 F360.0 E60985.804
G1 X21.58 Y69.65 Z1.5 F360.0 E61012.706
G1 X20.99 Y69.65 Z1.5 F360.0 E61013.448
G1 X36.79 Y53.85 Z1.5 F360.0 E61041.399
G1 X36.79 Y53.26 Z1.5 F360.0 E61042.14
G1 X20.4 Y69.65 Z1.5 F360.0 E61071.138
G1 X19.8 Y69.65 Z1.5 F360.0 E61071.88
G1 X36.79 Y52.66 Z1.5 F360.0 E61101.928
G1 X36.79 Y52.07 Z1.5 F360.0 E61102.669
G1 X19.21 Y69.65 Z1.5 F360.0 E61133.764
G1 X18.62 Y69.65 Z1.5 F360.0 E61134.504
G1 X36.79 Y51.48 Z1.5 F360.0 E61166.647
G1 X36.79 Y50.89 Z1.5 F360.0 E61167.389
G1 X18.03 Y69.65 Z1.5 F360.0 E61200.58
G1 X17.43 Y69.65 Z1.5 F360.0 E61201.321
G1 X36.79 Y50.29 Z1.5 F360.0 E61235.56
G1 X36.79 Y49.7 Z1.5 F360.0 E61236.302
G1 X16.84 Y69.65 Z1.5 F360.0 E61271.59
G1 X16.25 Y69.65 Z1.5 F360.0 E61272.33
G1 X36.79 Y49.11 Z1.5 F360.0 E61308.666
G1 X36.79 Y48.52 Z1.5 F360.0 E61309.406
G1 X15.66 Y69.65 Z1.5 F360.0 E61346.789
G1 X15.07 Y69.65 Z1.5 F360.0 E61347.531
G1 X36.79 Y47.92 Z1.5 F360.0 E61385.963
G1 X36.79 Y47.33 Z1.5 F360.0 E61386.704
G1 X14.47 Y69.65 Z1.5 F360.0 E61426.183
G1 X13.88 Y69.65 Z1.5 F360.0 E61426.923
G1 X36.79 Y46.74 Z1.5 F360.0 E61467.45
G1 X36.79 Y46.15 Z1.5 F360.0 E61468.192
G1 X13.29 Y69.65 Z1.5 F360.0 E61509.768
G1 X12.7 Y69.65 Z1.5 F360.0 E61510.508
G1 X36.79 Y45.55 Z1.5 F360.0 E61553.131
G1 X36.79 Y44.96 Z1.5 F360.0 E61553.873
G1 X12.1 Y69.65 Z1.5 F360.0 E61597.545
G1 X11.51 Y69.65 Z1.5 F360.0 E61598.286
G1 X36.79 Y44.37 Z1.5 F360.0 E61643.006
G1 X36.79 Y43.78 Z1.5 F360.0 E61643.746
G1 X10.92 Y69.65 Z1.5 F360.0 E61689.513
G1 X10.33 Y69.65 Z1.5 F360.0 E61690.255
G1 X36.79 Y43.18 Z1.5 F360.0 E61737.071
G1 X36.79 Y42.59 Z1.5 F360.0 E61737.812
G1 X9.73 Y69.65 Z1.5 F360.0 E61785.675
G1 X9.14 Y69.65 Z1.5 F360.0 E61786.417
G1 X36.79 Y42.0 Z1.5 F360.0 E61835.329
G1 X36.79 Y41.41 Z1.5 F360.0 E61836.07
G1 X8.55 Y69.65 Z1.5 F360.0 E61886.03
G1 X7.96 Y69.65 Z1.5 F360.0 E61886.771
G1 X36.79 Y40.82 Z1.5 F360.0 E61937.778
G1 X36.79 Y40.22 Z1.5 F360.0 E61938.52
G1 X7.36 Y69.65 Z1.5 F360.0 E61990.576
G1 X6.77 Y69.65 Z1.5 F360.0 E61991.317
G1 X36.79 Y39.63 Z1.5 F360.0 E62044.42
G1 X36.79 Y39.04 Z1.5 F360.0 E62045.161
G1 X6.18 Y69.65 Z1.5 F360.0 E62099.312
G1 X5.59 Y69.65 Z1.5 F360.0 E62100.054
G1 X36.79 Y38.45 Z1.5 F360.0 E62155.254
G1 X36.79 Y37.85 Z1.5 F360.0 E62155.995
G1 X5.0 Y69.65 Z1.5 F360.0 E62212.242
G1 X4.4 Y69.65 Z1.5 F360.0 E62212.984
G1 X36.79 Y37.26 Z1.5 F360.0 E62270.281
G1 X36.79 Y36.67 Z1.5 F360.0 E62271.021
G1 X3.81 Y69.65 Z1.5 F360.0 E62329.366
G1 X3.22 Y69.65 Z1.5 F360.0 E62330.106
G1 X36.79 Y36.08 Z1.5 F360.0 E62389.498
G1 X36.79 Y35.48 Z1.5 F360.0 E62390.239
G1 X2.63 Y69.65 Z1.5 F360.0 E62450.68
G1 X2.03 Y69.65 Z1.5 F360.0 E62451.42
G1 X36.79 Y34.89 Z1.5 F360.0 E62512.908
G1 X36.79 Y34.3 Z1.5 F360.0 E62513.65
G1 X1.44 Y69.65 Z1.5 F360.0 E62576.187
G1 X0.85 Y69.65 Z1.5 F360.0 E62576.928
G1 X36.79 Y33.71 Z1.5 F360.0 E62640.512
G1 X36.72 Y33.18 Z1.5 F360.0 E62641.176
G1 X36.79 Y33.11 Z1.5 F360.0 E62641.293
G1 X36.74 Y31.97 Z1.5 F360.0 E62642.722
G1 X36.79 Y31.93 Z1.5 F360.0 E62642.799
G1 X36.61 Y31.51 Z1.5 F360.0 E62643.366
G1 X36.79 Y31.34 Z1.5 F360.0 E62643.676
G1 X36.44 Y31.09 Z1.5 F360.0 E62644.209
G1 X36.79 Y30.74 Z1.5 F360.0 E62644.826
G1 X36.79 Y30.15 Z1.5 F360.0 E62645.567
G1 X36.18 Y30.76 Z1.5 F360.0 E62646.636
G1 X35.91 Y30.44 Z1.5 F360.0 E62647.161
G1 X36.64 Y29.7 Z1.5 F360.0 E62648.463
G1 X36.05 Y29.7 Z1.5 F360.0 E62649.205
G1 X35.57 Y30.18 Z1.5 F360.0 E62650.053
G1 X35.19 Y29.97 Z1.5 F360.0 E62650.596
G1 X35.46 Y29.7 Z1.5 F360.0 E62651.063
G1 X34.87 Y29.7 Z1.5 F360.0 E62651.803
G1 X34.77 Y29.8 Z1.5 F360.0 E62651.965
G1 X34.27 Y29.7 Z1.5 F360.0 E62652.602
G1 X34.26 Y29.71 Z1.5 F360.0 E62652.62
G1 X33.68 Y29.7 Z1.5 F360.0 E62653.348
G1 X33.66 Y29.72 Z1.5 F360.0 E62653.383
G1 X33.09 Y29.7 Z1.5 F360.0 E62654.101
G1 X32.84 Y29.96 Z1.5 F360.0 E62654.544
G1 X32.5 Y29.7 Z1.5 F360.0 E62655.075
G1 X-3.15 Y65.35 Z1.5 F360.0 E62718.146
G1 X-2.9 Y65.69 Z1.5 F360.0 E62718.676
G1 X-3.15 Y65.95 Z1.5 F360.0 E62719.12
G1 X-3.13 Y66.52 Z1.5 F360.0 E62719.837
G1 X-3.15 Y66.54 Z1.5 F360.0 E62719.872
G1 X-3.14 Y67.12 Z1.5 F360.0 E62720.6
G1 X-3.15 Y67.13 Z1.5 F360.0 E62720.618
G1 X-3.06 Y67.63 Z1.5 F360.0 E62721.257
G1 X-3.15 Y67.72 Z1.5 F360.0 E62721.417
G1 X-2.89 Y68.05 Z1.5 F360.0 E62721.943
G1 X-3.15 Y68.32 Z1.5 F360.0 E62722.41
G1 X-2.68 Y68.43 Z1.5 F360.0 E62723.026
G1 X-3.15 Y68.91 Z1.5 F360.0 E62723.873
G1 X-3.15 Y69.5 Z1.5 F360.0 E62724.615
G1 X-2.42 Y68.77 Z1.5 F360.0 E62725.917
G1 X-2.1 Y69.04 Z1.5 F360.0 E62726.442
G1 X-2.71 Y69.65 Z1.5 F360.0 E62727.511
G1 X-2.11 Y69.65 Z1.5 F360.0 E62728.252
G1 X-1.77 Y69.3 Z1.5 F360.0 E62728.869
G1 X-1.52 Y69.65 Z1.5 F360.0 E62729.402
G1 X-1.35 Y69.47 Z1.5 F360.0 E62729.712
G1 X-0.93 Y69.65 Z1.5 F360.0 E62730.277
G1 X-0.89 Y69.6 Z1.5 F360.0 E62730.353
G1 X0.26 Y69.65 Z1.5 F360.0 E62731.783
G1 X0.32 Y69.58 Z1.5 F360.0 E62731.898
;M103
G1 X1.32 Y66.86 Z1.5 F3600.0
G1 X-3.15 Y46.4 Z1.5 F3600.0
;M101
G1 X13.54 Y29.7 Z1.5 F360.0 E62761.433
G1 X12.95 Y29.7 Z1.5 F360.0 E62762.175
G1 X-3.15 Y45.81 Z1.5 F360.0 E62790.66
G1 X-3.15 Y45.21 Z1.5 F360.0 E62791.401
G1 X12.36 Y29.7 Z1.5 F360.0 E62818.839
G1 X11.76 Y29.7 Z1.5 F360.0 E62819.58
G1 X-3.15 Y44.62 Z1.5 F360.0 E62845.971
G1 X-3.15 Y44.03 Z1.5 F360.0 E62846.712
G1 X11.17 Y29.7 Z1.5 F360.0 E62872.054
G1 X10.58 Y29.7 Z1.5 F360.0 E62872.795
G1 X-3.15 Y43.44 Z1.5 F360.0 E62897.089
G1 X-3.15 Y42.84 Z1.5 F360.0 E62897.831
G1 X9.99 Y29.7 Z1.5 F360.0 E62921.076
G1 X9.39 Y29.7 Z1.5 F360.0 E62921.817
G1 X-3.15 Y42.25 Z1.5 F360.0 E62944.015
G1 X-3.15 Y41.66 Z1.5 F360.0 E62944.755
G1 X8.8 Y29.7 Z1.5 F360.0 E62965.906
G1 X8.21 Y29.7 Z1.5 F360.0 E62966.648
G1 X-3.15 Y41.07 Z1.5 F360.0 E62986.749
G1 X-3.15 Y40.47 Z1.5 F360.0 E62987.49
G1 X7.62 Y29.7 Z1.5 F360.0 E63006.544
G1 X7.02 Y29.7 Z1.5 F360.0 E63007.286
G1 X-3.15 Y39.88 Z1.5 F360.0 E63025.291
G1 X-3.15 Y39.29 Z1.5 F360.0 E63026.031
G1 X6.43 Y29.7 Z1.5 F360.0 E63042.989
G1 X5.84 Y29.7 Z1.5 F360.0 E63043.729
G1 X2.35 Y33.19 Z1.5 F360.0 E63049.895
G1 X2.44 Y32.51 Z1.5 F360.0 E63050.757
G1 X5.25 Y29.7 Z1.5 F360.0 E63055.713
G1 X4.65 Y29.7 Z1.5 F360.0 E63056.454
G1 X2.38 Y31.98 Z1.5 F360.0 E63060.48
G1 X2.25 Y31.52 Z1.5 F360.0 E63061.08
G1 X4.06 Y29.7 Z1.5 F360.0 E63064.29
G1 X3.47 Y29.7 Z1.5 F360.0 E63065.032
G1 X2.08 Y31.1 Z1.5 F360.0 E63067.498
G1 X1.82 Y30.76 Z1.5 F360.0 E63068.027
G1 X2.88 Y29.7 Z1.5 F360.0 E63069.897
G1 X2.28 Y29.7 Z1.5 F360.0 E63070.638
G1 X1.55 Y30.44 Z1.5 F360.0 E63071.946
G1 X1.21 Y30.19 Z1.5 F360.0 E63072.473
G1 X1.69 Y29.7 Z1.5 F360.0 E63073.327
G1 X1.1 Y29.7 Z1.5 F360.0 E63074.067
G1 X0.83 Y29.97 Z1.5 F360.0 E63074.54
G1 X0.51 Y29.7 Z1.5 F360.0 E63075.067
G1 X0.41 Y29.8 Z1.5 F360.0 E63075.232
G1 X-0.09 Y29.7 Z1.5 F360.0 E63075.868
G1 X-0.1 Y29.72 Z1.5 F360.0 E63075.887
G1 X-0.68 Y29.7 Z1.5 F360.0 E63076.615
G1 X-0.7 Y29.72 Z1.5 F360.0 E63076.648
G1 X-1.27 Y29.7 Z1.5 F360.0 E63077.367
G1 X-1.52 Y29.95 Z1.5 F360.0 E63077.801
G1 X-1.86 Y29.7 Z1.5 F360.0 E63078.333
G1 X-3.15 Y31.0 Z1.5 F360.0 E63080.619
G1 X-2.91 Y31.34 Z1.5 F360.0 E63081.151
G1 X-3.15 Y31.59 Z1.5 F360.0 E63081.585
G1 X-3.14 Y32.16 Z1.5 F360.0 E63082.304
G1 X-3.15 Y32.18 Z1.5 F360.0 E63082.336
G1 X-3.14 Y32.76 Z1.5 F360.0 E63083.065
G1 X-3.15 Y32.77 Z1.5 F360.0 E63083.084
G1 X-3.06 Y33.27 Z1.5 F360.0 E63083.72
G1 X-3.15 Y33.37 Z1.5 F360.0 E63083.883
G1 X-2.89 Y33.69 Z1.5 F360.0 E63084.41
G1 X-3.15 Y33.96 Z1.5 F360.0 E63084.881
G1 X-2.67 Y34.07 Z1.5 F360.0 E63085.499
G1 X-3.15 Y34.55 Z1.5 F360.0 E63086.352
G1 X-3.15 Y35.14 Z1.5 F360.0 E63087.093
G1 X-2.41 Y34.4 Z1.5 F360.0 E63088.401
G1 X-2.1 Y34.68 Z1.5 F360.0 E63088.927
G1 X-3.15 Y35.74 Z1.5 F360.0 E63090.796
G1 X-3.15 Y36.33 Z1.5 F360.0 E63091.536
G1 X-1.76 Y34.93 Z1.5 F360.0 E63094.003
G1 X-1.34 Y35.11 Z1.5 F360.0 E63094.57
G1 X-3.15 Y36.92 Z1.5 F360.0 E63097.778
G1 X-3.15 Y37.51 Z1.5 F360.0 E63098.518
G1 X-0.88 Y35.24 Z1.5 F360.0 E63102.542
G1 X-0.35 Y35.3 Z1.5 F360.0 E63103.207
G1 X-3.15 Y38.1 Z1.5 F360.0 E63108.164
G1 X-3.15 Y38.7 Z1.5 F360.0 E63108.906
G1 X0.33 Y35.21 Z1.5 F360.0 E63115.068
;M103
G1 X-1.83 Y33.34 Z1.5 F3600.0
G1 X-3.15 Y30.4 Z1.5 F3600.0
;M101
G1 X-2.46 Y29.7 Z1.5 F360.0 E63116.304
G1 X-3.05 Y29.7 Z1.5 F360.0 E63117.045
G1 X-3.15 Y29.81 Z1.5 F360.0 E63117.234
;M103
G1 X-2.03 Y28.59 Z1.5 F3600.0
G1 X12.77 Y28.45 Z1.5 F3600.0
G1 X12.77 Y22.57 Z1.5 F3600.0
G1 X2.13 Y22.42 Z1.5 F3600.0
G1 X31.27 Y-16.46 Z1.5 F3600.0
;M101
G1 X-0.98 Y15.79 Z1.5 F360.0 E63174.289
G1 X-0.31 Y15.72 Z1.5 F360.0 E63175.128
G1 X31.2 Y-15.79 Z1.5 F360.0 E63230.873
G1 X31.26 Y-15.27 Z1.5 F360.0 E63231.536
G1 X0.21 Y15.79 Z1.5 F360.0 E63286.476
G1 X0.66 Y15.93 Z1.5 F360.0 E63287.065
G1 X31.41 Y-14.82 Z1.5 F360.0 E63341.464
G1 X31.59 Y-14.41 Z1.5 F360.0 E63342.026
G1 X1.07 Y16.11 Z1.5 F360.0 E63396.016
G1 X1.41 Y16.37 Z1.5 F360.0 E63396.544
G1 X31.84 Y-14.07 Z1.5 F360.0 E63450.396
G1 X32.13 Y-13.77 Z1.5 F360.0 E63450.921
G1 X1.71 Y16.65 Z1.5 F360.0 E63504.733
G1 X1.97 Y16.99 Z1.5 F360.0 E63505.261
G1 X32.46 Y-13.51 Z1.5 F360.0 E63559.209
G1 X32.85 Y-13.3 Z1.5 F360.0 E63559.756
G1 X2.18 Y17.37 Z1.5 F360.0 E63614.025
G1 X2.35 Y17.79 Z1.5 F360.0 E63614.592
G1 X33.27 Y-13.13 Z1.5 F360.0 E63669.297
G1 X33.79 Y-13.06 Z1.5 F360.0 E63669.956
G1 X2.42 Y18.31 Z1.5 F360.0 E63725.46
G1 X2.39 Y18.93 Z1.5 F360.0 E63726.237
G1 X34.41 Y-13.09 Z1.5 F360.0 E63782.886
G1 X35.27 Y-13.35 Z1.5 F360.0 E63784.01
G1 X2.13 Y19.79 Z1.5 F360.0 E63842.645
;M103
G1 X4.18 Y22.42 Z1.5 F3600.0
G1 X12.77 Y22.57 Z1.5 F3600.0
G1 X12.77 Y28.45 Z1.5 F3600.0
G1 X8.09 Y28.59 Z1.5 F3600.0
G1 X34.19 Y65.19 Z1.5 F3600.0
G1 X34.44 Y65.23 Z1.5 F3600.0
G1 X34.84 Y65.4 Z1.5 F3600.0
G1 X35.19 Y65.67 Z1.5 F3600.0
G1 X36.79 Y69.25 Z1.5 F3600.0
;M101
G1 X36.39 Y69.65 Z1.5 F360.0 E63843.348
G1 X35.8 Y69.65 Z1.5 F360.0 E63844.088
G1 X36.79 Y68.66 Z1.5 F360.0 E63845.838
G1 X36.79 Y68.06 Z1.5 F360.0 E63846.58
G1 X35.21 Y69.65 Z1.5 F360.0 E63849.379
G1 X34.68 Y69.58 Z1.5 F360.0 E63850.044
G1 X34.61 Y69.65 Z1.5 F360.0 E63850.157
G1 X33.47 Y69.6 Z1.5 F360.0 E63851.586
G1 X33.43 Y69.65 Z1.5 F360.0 E63851.664
G1 X33.01 Y69.47 Z1.5 F360.0 E63852.229
G1 X32.84 Y69.65 Z1.5 F360.0 E63852.543
G1 X32.6 Y69.3 Z1.5 F360.0 E63853.075
G1 X32.24 Y69.65 Z1.5 F360.0 E63853.697
G1 X31.65 Y69.65 Z1.5 F360.0 E63854.438
G1 X32.26 Y69.04 Z1.5 F360.0 E63855.513
G1 X31.95 Y68.76 Z1.5 F360.0 E63856.039
G1 X31.06 Y69.65 Z1.5 F360.0 E63857.606
G1 X30.47 Y69.65 Z1.5 F360.0 E63858.347
G1 X31.69 Y68.43 Z1.5 F360.0 E63860.508
G1 X31.47 Y68.05 Z1.5 F360.0 E63861.051
G1 X29.88 Y69.65 Z1.5 F360.0 E63863.88
G1 X29.28 Y69.65 Z1.5 F360.0 E63864.621
G1 X31.3 Y67.63 Z1.5 F360.0 E63868.19
G1 X31.22 Y67.11 Z1.5 F360.0 E63868.839
G1 X28.69 Y69.65 Z1.5 F360.0 E63873.317
G1 X28.1 Y69.65 Z1.5 F360.0 E63874.058
G1 X31.23 Y66.51 Z1.5 F360.0 E63879.605
G1 X31.47 Y65.68 Z1.5 F360.0 E63880.682
G1 X27.51 Y69.65 Z1.5 F360.0 E63887.695
G1 X26.91 Y69.65 Z1.5 F360.0 E63888.436
G1 X36.79 Y59.77 Z1.5 F360.0 E63905.906
G1 X36.79 Y60.36 Z1.5 F360.0 E63906.647
G1 X32.82 Y64.33 Z1.5 F360.0 E63913.662
G1 X33.65 Y64.09 Z1.5 F360.0 E63914.74
G1 X36.79 Y60.96 Z1.5 F360.0 E63920.288
G1 X36.79 Y61.55 Z1.5 F360.0 E63921.029
G1 X34.26 Y64.08 Z1.5 F360.0 E63925.507
G1 X34.77 Y64.16 Z1.5 F360.0 E63926.157
G1 X36.79 Y62.14 Z1.5 F360.0 E63929.728
G1 X36.79 Y62.73 Z1.5 F360.0 E63930.469
G1 X35.19 Y64.33 Z1.5 F360.0 E63933.299
G1 X35.57 Y64.55 Z1.5 F360.0 E63933.842
G1 X36.79 Y63.33 Z1.5 F360.0 E63936.003
G1 X36.79 Y63.92 Z1.5 F360.0 E63936.745
G1 X35.9 Y64.8 Z1.5 F360.0 E63938.312
G1 X36.18 Y65.12 Z1.5 F360.0 E63938.836
G1 X36.79 Y64.51 Z1.5 F360.0 E63939.913
G1 X36.79 Y65.1 Z1.5 F360.0 E63940.653
G1 X36.44 Y65.45 Z1.5 F360.0 E63941.274
G1 X36.79 Y65.69 Z1.5 F360.0 E63941.808
G1 X36.61 Y65.87 Z1.5 F360.0 E63942.123
G1 X36.79 Y66.29 Z1.5 F360.0 E63942.686
G1 X36.74 Y66.33 Z1.5 F360.0 E63942.766
G1 X36.79 Y67.47 Z1.5 F360.0 E63944.193
G1 X36.72 Y67.54 Z1.5 F360.0 E63944.308
;M103
G1 X35.95 Y67.41 Z1.5 F3600.0
;M101
G1 X35.96 Y67.38 Z1.5 F360.0 E63944.338
G1 X36.03 Y66.86 Z1.5 F360.0 E63945.002
G1 X35.96 Y66.33 Z1.5 F360.0 E63945.664
G1 X35.76 Y65.84 Z1.5 F360.0 E63946.327
G1 X35.44 Y65.42 Z1.5 F360.0 E63946.991
G1 X35.02 Y65.1 Z1.5 F360.0 E63947.654
G1 X34.53 Y64.9 Z1.5 F360.0 E63948.317
G1 X34.0 Y64.83 Z1.5 F360.0 E63948.981
G1 X33.47 Y64.9 Z1.5 F360.0 E63949.646
G1 X32.98 Y65.1 Z1.5 F360.0 E63950.308
G1 X32.56 Y65.42 Z1.5 F360.0 E63950.971
G1 X32.24 Y65.84 Z1.5 F360.0 E63951.634
G1 X32.04 Y66.33 Z1.5 F360.0 E63952.297
G1 X31.97 Y66.86 Z1.5 F360.0 E63952.96
G1 X32.04 Y67.38 Z1.5 F360.0 E63953.623
G1 X32.24 Y67.87 Z1.5 F360.0 E63954.287
G1 X32.56 Y68.29 Z1.5 F360.0 E63954.95
G1 X32.98 Y68.62 Z1.5 F360.0 E63955.612
