G21 (This is GCode, generated with Skeinforge version 35 from ReplicatorG)
G21 (Ultimaker profile - Quality print - alterations/start-centered.gcode)
G21 (Metric: The unit is a millimeter)
G90 (Absolute Positioning)
G92 X0 Y0 Z0 E0 (set origin to current position)
G21 (end of start .gcode file)
G90
G21
;M103
M105
M106
M113 S1.0
;M108 S7.506
M104 S245.0
G1 X1.19 Y2.08 Z0.53 F54.0
;M101
G1 X1.19 Y57.98 Z0.53 F54.0 E466.189
G1 X59.57 Y57.98 Z0.53 F54.0 E953.037
G1 X59.57 Y2.08 Z0.53 F54.0 E1419.226
G1 X1.19 Y2.08 Z0.53 F54.0 E1906.074
;M103
G1 X4.19 Y5.08 Z0.53 F54.0
;M101
G1 X4.19 Y54.98 Z0.53 F54.0 E2322.223
G1 X6.29 Y54.98 Z0.53 F54.0 E2339.695
G1 X6.29 Y5.08 Z0.53 F54.0 E2755.845
G1 X8.38 Y5.08 Z0.53 F54.0 E2773.317
G1 X8.38 Y54.98 Z0.53 F54.0 E3189.466
G1 X10.48 Y54.98 Z0.53 F54.0 E3206.938
G1 X10.48 Y5.08 Z0.53 F54.0 E3623.088
G1 X12.57 Y5.08 Z0.53 F54.0 E3640.56
G1 X12.57 Y54.98 Z0.53 F54.0 E4056.709
G1 X14.67 Y54.98 Z0.53 F54.0 E4074.182
G1 X14.67 Y5.08 Z0.53 F54.0 E4490.331
G1 X16.76 Y5.08 Z0.53 F54.0 E4507.803
G1 X16.76 Y54.98 Z0.53 F54.0 E4923.953
G1 X18.86 Y54.98 Z0.53 F54.0 E4941.425
G1 X18.86 Y5.08 Z0.53 F54.0 E5357.574
G1 X20.95 Y5.08 Z0.53 F54.0 E5375.047
G1 X20.95 Y54.98 Z0.53 F54.0 E5791.196
G1 X23.05 Y54.98 Z0.53 F54.0 E5808.668
G1 X23.05 Y5.08 Z0.53 F54.0 E6224.818
G1 X25.14 Y5.08 Z0.53 F54.0 E6242.29
G1 X25.14 Y54.98 Z0.53 F54.0 E6658.439
G1 X27.24 Y54.98 Z0.53 F54.0 E6675.911
G1 X27.24 Y5.08 Z0.53 F54.0 E7092.061
G1 X29.33 Y5.08 Z0.53 F54.0 E7109.533
G1 X29.33 Y54.98 Z0.53 F54.0 E7525.682
G1 X31.43 Y54.98 Z0.53 F54.0 E7543.155
G1 X31.43 Y5.08 Z0.53 F54.0 E7959.304
G1 X33.52 Y5.08 Z0.53 F54.0 E7976.776
G1 X33.52 Y54.98 Z0.53 F54.0 E8392.926
G1 X35.62 Y54.98 Z0.53 F54.0 E8410.398
G1 X35.62 Y5.08 Z0.53 F54.0 E8826.547
G1 X37.71 Y5.08 Z0.53 F54.0 E8844.02
G1 X37.71 Y54.98 Z0.53 F54.0 E9260.169
G1 X39.81 Y54.98 Z0.53 F54.0 E9277.641
G1 X39.81 Y5.08 Z0.53 F54.0 E9693.79
G1 X41.9 Y5.08 Z0.53 F54.0 E9711.263
G1 X41.9 Y54.98 Z0.53 F54.0 E10127.412
G1 X44.0 Y54.98 Z0.53 F54.0 E10144.884
G1 X44.0 Y5.08 Z0.53 F54.0 E10561.034
G1 X46.09 Y5.08 Z0.53 F54.0 E10578.506
G1 X46.09 Y54.98 Z0.53 F54.0 E10994.655
G1 X48.19 Y54.98 Z0.53 F54.0 E11012.128
G1 X48.19 Y5.08 Z0.53 F54.0 E11428.277
G1 X50.28 Y5.08 Z0.53 F54.0 E11445.749
G1 X50.28 Y54.98 Z0.53 F54.0 E11861.899
G1 X52.38 Y54.98 Z0.53 F54.0 E11879.371
G1 X52.38 Y5.08 Z0.53 F54.0 E12295.52
G1 X54.47 Y5.08 Z0.53 F54.0 E12312.993
G1 X54.47 Y54.98 Z0.53 F54.0 E12729.142
G1 X56.57 Y54.98 Z0.53 F54.0 E12746.614
G1 X56.57 Y5.08 Z0.53 F54.0 E13162.763
;M103
G1 X4.17 Y5.12 Z0.89 F360.0
;M101
G1 X56.59 Y5.12 Z0.89 F360.0 E13228.337
G1 X56.59 Y5.59 Z0.89 F360.0 E13228.92
G1 X4.17 Y5.59 Z0.89 F360.0 E13294.494
G1 X4.17 Y6.05 Z0.89 F360.0 E13295.075
G1 X56.59 Y6.05 Z0.89 F360.0 E13360.649
G1 X56.59 Y6.52 Z0.89 F360.0 E13361.232
G1 X4.17 Y6.52 Z0.89 F360.0 E13426.806
G1 X4.17 Y6.98 Z0.89 F360.0 E13427.387
G1 X56.59 Y6.98 Z0.89 F360.0 E13492.961
G1 X56.59 Y7.45 Z0.89 F360.0 E13493.544
G1 X4.17 Y7.45 Z0.89 F360.0 E13559.118
G1 X4.17 Y7.91 Z0.89 F360.0 E13559.7
G1 X56.59 Y7.91 Z0.89 F360.0 E13625.273
G1 X56.59 Y8.38 Z0.89 F360.0 E13625.856
G1 X4.17 Y8.38 Z0.89 F360.0 E13691.43
G1 X4.17 Y8.85 Z0.89 F360.0 E13692.013
G1 X56.59 Y8.85 Z0.89 F360.0 E13757.586
G1 X56.59 Y9.31 Z0.89 F360.0 E13758.168
G1 X4.17 Y9.31 Z0.89 F360.0 E13823.742
G1 X4.17 Y9.78 Z0.89 F360.0 E13824.325
G1 X56.59 Y9.78 Z0.89 F360.0 E13889.898
G1 X56.59 Y10.24 Z0.89 F360.0 E13890.48
G1 X4.17 Y10.24 Z0.89 F360.0 E13956.054
G1 X4.17 Y10.71 Z0.89 F360.0 E13956.637
G1 X56.59 Y10.71 Z0.89 F360.0 E14022.21
G1 X56.59 Y11.17 Z0.89 F360.0 E14022.792
G1 X4.17 Y11.17 Z0.89 F360.0 E14088.366
G1 X4.17 Y11.64 Z0.89 F360.0 E14088.949
G1 X56.59 Y11.64 Z0.89 F360.0 E14154.522
G1 X56.59 Y12.1 Z0.89 F360.0 E14155.104
G1 X4.17 Y12.1 Z0.89 F360.0 E14220.678
G1 X4.17 Y12.57 Z0.89 F360.0 E14221.261
G1 X56.59 Y12.57 Z0.89 F360.0 E14286.834
G1 X56.59 Y13.04 Z0.89 F360.0 E14287.417
G1 X4.17 Y13.04 Z0.89 F360.0 E14352.991
G1 X4.17 Y13.5 Z0.89 F360.0 E14353.573
G1 X56.59 Y13.5 Z0.89 F360.0 E14419.147
G1 X56.59 Y13.97 Z0.89 F360.0 E14419.729
G1 X4.17 Y13.97 Z0.89 F360.0 E14485.303
G1 X4.17 Y14.43 Z0.89 F360.0 E14485.885
G1 X56.59 Y14.43 Z0.89 F360.0 E14551.459
G1 X56.59 Y14.9 Z0.89 F360.0 E14552.041
G1 X4.17 Y14.9 Z0.89 F360.0 E14617.615
G1 X4.17 Y15.36 Z0.89 F360.0 E14618.197
G1 X56.59 Y15.36 Z0.89 F360.0 E14683.771
G1 X56.59 Y15.83 Z0.89 F360.0 E14684.354
G1 X4.17 Y15.83 Z0.89 F360.0 E14749.927
G1 X4.17 Y16.29 Z0.89 F360.0 E14750.509
G1 X56.59 Y16.29 Z0.89 F360.0 E14816.083
G1 X56.59 Y16.76 Z0.89 F360.0 E14816.666
G1 X4.17 Y16.76 Z0.89 F360.0 E14882.239
G1 X4.17 Y17.23 Z0.89 F360.0 E14882.822
G1 X56.59 Y17.23 Z0.89 F360.0 E14948.396
G1 X56.59 Y17.69 Z0.89 F360.0 E14948.978
G1 X4.17 Y17.69 Z0.89 F360.0 E15014.551
G1 X4.17 Y18.16 Z0.89 F360.0 E15015.134
G1 X56.59 Y18.16 Z0.89 F360.0 E15080.708
G1 X56.59 Y18.62 Z0.89 F360.0 E15081.29
G1 X4.17 Y18.62 Z0.89 F360.0 E15146.863
G1 X4.17 Y19.09 Z0.89 F360.0 E15147.446
G1 X56.59 Y19.09 Z0.89 F360.0 E15213.02
G1 X56.59 Y19.55 Z0.89 F360.0 E15213.602
G1 X4.17 Y19.55 Z0.89 F360.0 E15279.175
G1 X4.17 Y20.02 Z0.89 F360.0 E15279.758
G1 X56.59 Y20.02 Z0.89 F360.0 E15345.332
G1 X56.59 Y20.48 Z0.89 F360.0 E15345.914
G1 X4.17 Y20.48 Z0.89 F360.0 E15411.487
G1 X4.17 Y20.95 Z0.89 F360.0 E15412.07
G1 X56.59 Y20.95 Z0.89 F360.0 E15477.644
G1 X56.59 Y21.42 Z0.89 F360.0 E15478.227
G1 X4.17 Y21.42 Z0.89 F360.0 E15543.801
G1 X4.17 Y21.88 Z0.89 F360.0 E15544.382
G1 X56.59 Y21.88 Z0.89 F360.0 E15609.956
G1 X56.59 Y22.35 Z0.89 F360.0 E15610.539
G1 X4.17 Y22.35 Z0.89 F360.0 E15676.113
G1 X4.17 Y22.81 Z0.89 F360.0 E15676.694
G1 X56.59 Y22.81 Z0.89 F360.0 E15742.268
G1 X56.59 Y23.28 Z0.89 F360.0 E15742.851
G1 X4.17 Y23.28 Z0.89 F360.0 E15808.425
G1 X4.17 Y23.74 Z0.89 F360.0 E15809.006
G1 X56.59 Y23.74 Z0.89 F360.0 E15874.58
G1 X56.59 Y24.21 Z0.89 F360.0 E15875.163
G1 X4.17 Y24.21 Z0.89 F360.0 E15940.737
G1 X4.17 Y24.67 Z0.89 F360.0 E15941.318
G1 X56.59 Y24.67 Z0.89 F360.0 E16006.892
G1 X56.59 Y25.14 Z0.89 F360.0 E16007.475
G1 X4.17 Y25.14 Z0.89 F360.0 E16073.049
G1 X4.17 Y25.61 Z0.89 F360.0 E16073.632
G1 X56.59 Y25.61 Z0.89 F360.0 E16139.205
G1 X56.59 Y26.07 Z0.89 F360.0 E16139.787
G1 X4.17 Y26.07 Z0.89 F360.0 E16205.361
G1 X4.17 Y26.54 Z0.89 F360.0 E16205.944
G1 X56.59 Y26.54 Z0.89 F360.0 E16271.517
G1 X56.59 Y27.0 Z0.89 F360.0 E16272.099
G1 X4.17 Y27.0 Z0.89 F360.0 E16337.673
G1 X4.17 Y27.47 Z0.89 F360.0 E16338.256
G1 X56.59 Y27.47 Z0.89 F360.0 E16403.829
G1 X56.59 Y27.93 Z0.89 F360.0 E16404.411
G1 X4.17 Y27.93 Z0.89 F360.0 E16469.985
G1 X4.17 Y28.4 Z0.89 F360.0 E16470.568
G1 X56.59 Y28.4 Z0.89 F360.0 E16536.141
G1 X56.59 Y28.86 Z0.89 F360.0 E16536.723
G1 X4.17 Y28.86 Z0.89 F360.0 E16602.297
G1 X4.17 Y29.33 Z0.89 F360.0 E16602.88
G1 X56.59 Y29.33 Z0.89 F360.0 E16668.453
G1 X56.59 Y29.8 Z0.89 F360.0 E16669.036
G1 X4.17 Y29.8 Z0.89 F360.0 E16734.61
G1 X4.17 Y30.26 Z0.89 F360.0 E16735.192
G1 X56.59 Y30.26 Z0.89 F360.0 E16800.765
G1 X56.59 Y30.73 Z0.89 F360.0 E16801.348
G1 X4.17 Y30.73 Z0.89 F360.0 E16866.922
G1 X4.17 Y31.19 Z0.89 F360.0 E16867.504
G1 X56.59 Y31.19 Z0.89 F360.0 E16933.077
G1 X56.59 Y31.66 Z0.89 F360.0 E16933.66
G1 X4.17 Y31.66 Z0.89 F360.0 E16999.234
G1 X4.17 Y32.12 Z0.89 F360.0 E16999.816
G1 X56.59 Y32.12 Z0.89 F360.0 E17065.389
G1 X56.59 Y32.59 Z0.89 F360.0 E17065.972
G1 X4.17 Y32.59 Z0.89 F360.0 E17131.546
G1 X4.17 Y33.05 Z0.89 F360.0 E17132.128
G1 X56.59 Y33.05 Z0.89 F360.0 E17197.701
G1 X56.59 Y33.52 Z0.89 F360.0 E17198.284
G1 X4.17 Y33.52 Z0.89 F360.0 E17263.858
G1 X4.17 Y33.99 Z0.89 F360.0 E17264.441
G1 X56.59 Y33.99 Z0.89 F360.0 E17330.015
G1 X56.59 Y34.45 Z0.89 F360.0 E17330.596
G1 X4.17 Y34.45 Z0.89 F360.0 E17396.17
G1 X4.17 Y34.92 Z0.89 F360.0 E17396.753
G1 X56.59 Y34.92 Z0.89 F360.0 E17462.327
G1 X56.59 Y35.38 Z0.89 F360.0 E17462.908
G1 X4.17 Y35.38 Z0.89 F360.0 E17528.482
G1 X4.17 Y35.85 Z0.89 F360.0 E17529.065
G1 X56.59 Y35.85 Z0.89 F360.0 E17594.639
G1 X56.59 Y36.31 Z0.89 F360.0 E17595.22
G1 X4.17 Y36.31 Z0.89 F360.0 E17660.794
G1 X4.17 Y36.78 Z0.89 F360.0 E17661.377
G1 X56.59 Y36.78 Z0.89 F360.0 E17726.951
G1 X56.59 Y37.24 Z0.89 F360.0 E17727.532
G1 X4.17 Y37.24 Z0.89 F360.0 E17793.106
G1 X4.17 Y37.71 Z0.89 F360.0 E17793.689
G1 X56.59 Y37.71 Z0.89 F360.0 E17859.263
G1 X56.59 Y38.18 Z0.89 F360.0 E17859.846
G1 X4.17 Y38.18 Z0.89 F360.0 E17925.419
G1 X4.17 Y38.64 Z0.89 F360.0 E17926.001
G1 X56.59 Y38.64 Z0.89 F360.0 E17991.575
G1 X56.59 Y39.11 Z0.89 F360.0 E17992.158
G1 X4.17 Y39.11 Z0.89 F360.0 E18057.731
G1 X4.17 Y39.57 Z0.89 F360.0 E18058.313
G1 X56.59 Y39.57 Z0.89 F360.0 E18123.887
G1 X56.59 Y40.04 Z0.89 F360.0 E18124.47
G1 X4.17 Y40.04 Z0.89 F360.0 E18190.043
G1 X4.17 Y40.5 Z0.89 F360.0 E18190.625
G1 X56.59 Y40.5 Z0.89 F360.0 E18256.199
G1 X56.59 Y40.97 Z0.89 F360.0 E18256.782
G1 X4.17 Y40.97 Z0.89 F360.0 E18322.355
G1 X4.17 Y41.43 Z0.89 F360.0 E18322.937
G1 X56.59 Y41.43 Z0.89 F360.0 E18388.511
G1 X56.59 Y41.9 Z0.89 F360.0 E18389.094
G1 X4.17 Y41.9 Z0.89 F360.0 E18454.667
G1 X4.17 Y42.37 Z0.89 F360.0 E18455.25
G1 X56.59 Y42.37 Z0.89 F360.0 E18520.824
G1 X56.59 Y42.83 Z0.89 F360.0 E18521.406
G1 X4.17 Y42.83 Z0.89 F360.0 E18586.979
G1 X4.17 Y43.3 Z0.89 F360.0 E18587.562
G1 X56.59 Y43.3 Z0.89 F360.0 E18653.136
G1 X56.59 Y43.76 Z0.89 F360.0 E18653.718
G1 X4.17 Y43.76 Z0.89 F360.0 E18719.291
G1 X4.17 Y44.23 Z0.89 F360.0 E18719.874
G1 X56.59 Y44.23 Z0.89 F360.0 E18785.448
G1 X56.59 Y44.69 Z0.89 F360.0 E18786.03
G1 X4.17 Y44.69 Z0.89 F360.0 E18851.603
G1 X4.17 Y45.16 Z0.89 F360.0 E18852.186
G1 X56.59 Y45.16 Z0.89 F360.0 E18917.76
G1 X56.59 Y45.62 Z0.89 F360.0 E18918.342
G1 X4.17 Y45.62 Z0.89 F360.0 E18983.915
G1 X4.17 Y46.09 Z0.89 F360.0 E18984.498
G1 X56.59 Y46.09 Z0.89 F360.0 E19050.072
G1 X56.59 Y46.56 Z0.89 F360.0 E19050.655
G1 X4.17 Y46.56 Z0.89 F360.0 E19116.229
G1 X4.17 Y47.02 Z0.89 F360.0 E19116.81
G1 X56.59 Y47.02 Z0.89 F360.0 E19182.384
G1 X56.59 Y47.49 Z0.89 F360.0 E19182.967
G1 X4.17 Y47.49 Z0.89 F360.0 E19248.541
G1 X4.17 Y47.95 Z0.89 F360.0 E19249.122
G1 X56.59 Y47.95 Z0.89 F360.0 E19314.696
G1 X56.59 Y48.42 Z0.89 F360.0 E19315.279
G1 X4.17 Y48.42 Z0.89 F360.0 E19380.853
G1 X4.17 Y48.88 Z0.89 F360.0 E19381.434
G1 X56.59 Y48.88 Z0.89 F360.0 E19447.008
G1 X56.59 Y49.35 Z0.89 F360.0 E19447.591
G1 X4.17 Y49.35 Z0.89 F360.0 E19513.165
G1 X4.17 Y49.81 Z0.89 F360.0 E19513.746
G1 X56.59 Y49.81 Z0.89 F360.0 E19579.32
G1 X56.59 Y50.28 Z0.89 F360.0 E19579.903
G1 X4.17 Y50.28 Z0.89 F360.0 E19645.477
G1 X4.17 Y50.75 Z0.89 F360.0 E19646.06
G1 X56.59 Y50.75 Z0.89 F360.0 E19711.633
G1 X56.59 Y51.21 Z0.89 F360.0 E19712.215
G1 X4.17 Y51.21 Z0.89 F360.0 E19777.789
G1 X4.17 Y51.68 Z0.89 F360.0 E19778.372
G1 X56.59 Y51.68 Z0.89 F360.0 E19843.945
G1 X56.59 Y52.14 Z0.89 F360.0 E19844.527
G1 X4.17 Y52.14 Z0.89 F360.0 E19910.101
G1 X4.17 Y52.61 Z0.89 F360.0 E19910.684
G1 X56.59 Y52.61 Z0.89 F360.0 E19976.257
G1 X56.59 Y53.07 Z0.89 F360.0 E19976.839
G1 X4.17 Y53.07 Z0.89 F360.0 E20042.413
G1 X4.17 Y53.54 Z0.89 F360.0 E20042.996
G1 X56.59 Y53.54 Z0.89 F360.0 E20108.569
G1 X56.59 Y54.0 Z0.89 F360.0 E20109.151
G1 X4.17 Y54.0 Z0.89 F360.0 E20174.725
G1 X4.17 Y54.47 Z0.89 F360.0 E20175.308
G1 X56.59 Y54.47 Z0.89 F360.0 E20240.881
G1 X56.59 Y54.94 Z0.89 F360.0 E20241.464
G1 X4.17 Y54.94 Z0.89 F360.0 E20307.038
;M103
;M108 S7.881
G1 X10.53 Y13.5 Z1.2 F2880.0
;M101
G1 X9.61 Y12.57 Z1.2 F288.0 E20309.184
G1 X9.61 Y11.98 Z1.2 F288.0 E20310.156
G1 X10.43 Y12.8 Z1.2 F288.0 E20312.057
G1 X10.5 Y12.28 Z1.2 F288.0 E20312.924
G1 X9.61 Y11.39 Z1.2 F288.0 E20314.987
G1 X9.61 Y10.8 Z1.2 F288.0 E20315.96
G1 X10.66 Y11.84 Z1.2 F288.0 E20318.389
G1 X10.87 Y11.46 Z1.2 F288.0 E20319.104
G1 X9.61 Y10.2 Z1.2 F288.0 E20322.028
G1 X9.61 Y9.61 Z1.2 F288.0 E20323.002
G1 X11.13 Y11.13 Z1.2 F288.0 E20326.524
G1 X11.46 Y10.87 Z1.2 F288.0 E20327.217
G1 X10.2 Y9.61 Z1.2 F288.0 E20330.142
G1 X10.8 Y9.61 Z1.2 F288.0 E20331.114
G1 X11.84 Y10.66 Z1.2 F288.0 E20333.543
G1 X12.28 Y10.5 Z1.2 F288.0 E20334.301
G1 X11.39 Y9.61 Z1.2 F288.0 E20336.362
G1 X11.98 Y9.61 Z1.2 F288.0 E20337.334
G1 X12.8 Y10.43 Z1.2 F288.0 E20339.237
G1 X13.49 Y10.53 Z1.2 F288.0 E20340.39
G1 X12.57 Y9.61 Z1.2 F288.0 E20342.531
;M103
G1 X47.86 Y44.9 Z1.2 F2880.0
;M101
G1 X15.1 Y12.14 Z1.2 F288.0 E20418.603
G1 X15.21 Y12.84 Z1.2 F288.0 E20419.76
G1 X47.17 Y44.8 Z1.2 F288.0 E20493.97
G1 X46.64 Y44.87 Z1.2 F288.0 E20494.837
G1 X15.14 Y13.36 Z1.2 F288.0 E20567.995
G1 X14.98 Y13.79 Z1.2 F288.0 E20568.754
G1 X46.21 Y45.02 Z1.2 F288.0 E20641.269
G1 X45.83 Y45.24 Z1.2 F288.0 E20641.983
G1 X14.76 Y14.17 Z1.2 F288.0 E20714.113
G1 X14.51 Y14.51 Z1.2 F288.0 E20714.806
G1 X45.49 Y45.49 Z1.2 F288.0 E20786.754
G1 X45.24 Y45.83 Z1.2 F288.0 E20787.447
G1 X14.17 Y14.76 Z1.2 F288.0 E20859.577
G1 X13.79 Y14.98 Z1.2 F288.0 E20860.291
G1 X45.02 Y46.21 Z1.2 F288.0 E20932.805
G1 X44.87 Y46.64 Z1.2 F288.0 E20933.565
G1 X13.36 Y15.14 Z1.2 F288.0 E21006.723
G1 X12.84 Y15.21 Z1.2 F288.0 E21007.59
G1 X44.8 Y47.17 Z1.2 F288.0 E21081.8
G1 X44.9 Y47.86 Z1.2 F288.0 E21082.957
G1 X12.14 Y15.1 Z1.2 F288.0 E21159.029
;M103
G1 X40.41 Y9.61 Z1.2 F2880.0
;M101
G1 X50.39 Y19.59 Z1.2 F288.0 E21182.193
G1 X50.39 Y20.18 Z1.2 F288.0 E21183.165
G1 X39.82 Y9.61 Z1.2 F288.0 E21207.703
G1 X39.23 Y9.61 Z1.2 F288.0 E21208.675
G1 X50.39 Y20.77 Z1.2 F288.0 E21234.588
G1 X50.39 Y21.36 Z1.2 F288.0 E21235.562
G1 X38.64 Y9.61 Z1.2 F288.0 E21262.852
G1 X38.05 Y9.61 Z1.2 F288.0 E21263.824
G1 X50.39 Y21.96 Z1.2 F288.0 E21292.489
G1 X50.39 Y22.55 Z1.2 F288.0 E21293.461
G1 X37.45 Y9.61 Z1.2 F288.0 E21323.5
G1 X36.86 Y9.61 Z1.2 F288.0 E21324.474
G1 X50.39 Y23.14 Z1.2 F288.0 E21355.89
G1 X50.39 Y23.73 Z1.2 F288.0 E21356.862
G1 X36.27 Y9.61 Z1.2 F288.0 E21389.652
G1 X35.67 Y9.61 Z1.2 F288.0 E21390.626
G1 X50.39 Y24.33 Z1.2 F288.0 E21424.794
G1 X50.39 Y24.92 Z1.2 F288.0 E21425.766
G1 X35.08 Y9.61 Z1.2 F288.0 E21461.308
G1 X34.49 Y9.61 Z1.2 F288.0 E21462.28
G1 X50.39 Y25.51 Z1.2 F288.0 E21499.197
G1 X50.39 Y26.1 Z1.2 F288.0 E21500.171
G1 X33.9 Y9.61 Z1.2 F288.0 E21538.464
G1 X33.31 Y9.61 Z1.2 F288.0 E21539.436
G1 X50.39 Y26.69 Z1.2 F288.0 E21579.105
G1 X50.39 Y27.29 Z1.2 F288.0 E21580.078
G1 X32.71 Y9.61 Z1.2 F288.0 E21621.124
G1 X32.12 Y9.61 Z1.2 F288.0 E21622.096
G1 X50.39 Y27.88 Z1.2 F288.0 E21664.516
G1 X50.39 Y28.47 Z1.2 F288.0 E21665.488
G1 X31.53 Y9.61 Z1.2 F288.0 E21709.282
G1 X30.94 Y9.61 Z1.2 F288.0 E21710.256
G1 X50.39 Y29.06 Z1.2 F288.0 E21755.427
G1 X50.39 Y29.66 Z1.2 F288.0 E21756.399
G1 X30.34 Y9.61 Z1.2 F288.0 E21802.945
G1 X29.75 Y9.61 Z1.2 F288.0 E21803.917
G1 X50.39 Y30.25 Z1.2 F288.0 E21851.838
G1 X50.39 Y30.84 Z1.2 F288.0 E21852.811
G1 X29.16 Y9.61 Z1.2 F288.0 E21902.109
G1 X28.57 Y9.61 Z1.2 F288.0 E21903.081
G1 X50.39 Y31.43 Z1.2 F288.0 E21953.753
G1 X50.39 Y32.03 Z1.2 F288.0 E21954.727
G1 X27.97 Y9.61 Z1.2 F288.0 E22006.776
G1 X27.38 Y9.61 Z1.2 F288.0 E22007.748
G1 X50.39 Y32.62 Z1.2 F288.0 E22061.172
G1 X50.39 Y33.21 Z1.2 F288.0 E22062.144
G1 X26.79 Y9.61 Z1.2 F288.0 E22116.942
G1 X26.2 Y9.61 Z1.2 F288.0 E22117.916
G1 X50.39 Y33.8 Z1.2 F288.0 E22174.091
G1 X50.39 Y34.4 Z1.2 F288.0 E22175.063
G1 X25.61 Y9.61 Z1.2 F288.0 E22232.613
G1 X25.01 Y9.61 Z1.2 F288.0 E22233.586
G1 X50.39 Y34.99 Z1.2 F288.0 E22292.513
G1 X50.39 Y35.58 Z1.2 F288.0 E22293.485
G1 X24.42 Y9.61 Z1.2 F288.0 E22353.786
G1 X23.83 Y9.61 Z1.2 F288.0 E22354.758
G1 X50.39 Y36.17 Z1.2 F288.0 E22416.434
G1 X50.39 Y36.77 Z1.2 F288.0 E22417.408
G1 X23.24 Y9.61 Z1.2 F288.0 E22480.461
G1 X22.64 Y9.61 Z1.2 F288.0 E22481.433
G1 X50.39 Y37.36 Z1.2 F288.0 E22545.86
G1 X50.39 Y37.95 Z1.2 F288.0 E22546.832
G1 X22.05 Y9.61 Z1.2 F288.0 E22612.634
G1 X21.46 Y9.61 Z1.2 F288.0 E22613.608
G1 X50.39 Y38.54 Z1.2 F288.0 E22680.787
G1 X50.39 Y39.13 Z1.2 F288.0 E22681.759
G1 X20.87 Y9.61 Z1.2 F288.0 E22750.313
G1 X20.27 Y9.61 Z1.2 F288.0 E22751.286
G1 X50.39 Y39.73 Z1.2 F288.0 E22821.217
G1 X50.39 Y40.32 Z1.2 F288.0 E22822.189
G1 X19.68 Y9.61 Z1.2 F288.0 E22893.494
G1 X19.09 Y9.61 Z1.2 F288.0 E22894.466
G1 X50.39 Y40.91 Z1.2 F288.0 E22967.146
G1 X50.39 Y41.5 Z1.2 F288.0 E22968.119
G1 X18.5 Y9.61 Z1.2 F288.0 E23042.176
G1 X17.9 Y9.61 Z1.2 F288.0 E23043.148
G1 X50.39 Y42.1 Z1.2 F288.0 E23118.579
G1 X50.39 Y42.69 Z1.2 F288.0 E23119.553
G1 X17.31 Y9.61 Z1.2 F288.0 E23196.361
G1 X16.72 Y9.61 Z1.2 F288.0 E23197.333
G1 X50.39 Y43.28 Z1.2 F288.0 E23275.516
G1 X50.39 Y43.87 Z1.2 F288.0 E23276.488
G1 X16.13 Y9.61 Z1.2 F288.0 E23356.045
G1 X15.53 Y9.61 Z1.2 F288.0 E23357.019
G1 X50.39 Y44.47 Z1.2 F288.0 E23437.953
G1 X50.39 Y45.06 Z1.2 F288.0 E23438.925
G1 X14.94 Y9.61 Z1.2 F288.0 E23521.234
G1 X14.35 Y9.61 Z1.2 F288.0 E23522.206
G1 X50.39 Y45.65 Z1.2 F288.0 E23605.889
G1 X50.39 Y46.24 Z1.2 F288.0 E23606.863
G1 X13.76 Y9.61 Z1.2 F288.0 E23691.923
G1 X13.17 Y9.61 Z1.2 F288.0 E23692.895
G1 X50.39 Y46.84 Z1.2 F288.0 E23779.33
G1 X50.39 Y47.43 Z1.2 F288.0 E23780.304
G1 X49.47 Y46.51 Z1.2 F288.0 E23782.445
G1 X49.57 Y47.2 Z1.2 F288.0 E23783.598
G1 X50.39 Y48.02 Z1.2 F288.0 E23785.501
G1 X50.39 Y48.61 Z1.2 F288.0 E23786.473
G1 X49.5 Y47.73 Z1.2 F288.0 E23788.534
G1 X49.34 Y48.16 Z1.2 F288.0 E23789.292
G1 X50.39 Y49.21 Z1.2 F288.0 E23791.721
G1 X50.39 Y49.8 Z1.2 F288.0 E23792.693
G1 X49.13 Y48.54 Z1.2 F288.0 E23795.617
G1 X48.87 Y48.87 Z1.2 F288.0 E23796.311
G1 X50.39 Y50.39 Z1.2 F288.0 E23799.833
G1 X49.8 Y50.39 Z1.2 F288.0 E23800.807
G1 X48.54 Y49.13 Z1.2 F288.0 E23803.731
G1 X48.16 Y49.34 Z1.2 F288.0 E23804.446
G1 X49.21 Y50.39 Z1.2 F288.0 E23806.875
G1 X48.61 Y50.39 Z1.2 F288.0 E23807.848
G1 X47.72 Y49.5 Z1.2 F288.0 E23809.911
G1 X47.2 Y49.57 Z1.2 F288.0 E23810.778
G1 X48.02 Y50.39 Z1.2 F288.0 E23812.679
G1 X47.43 Y50.39 Z1.2 F288.0 E23813.651
G1 X46.5 Y49.47 Z1.2 F288.0 E23815.797
;M103
G1 X46.84 Y50.39 Z1.2 F2880.0
;M101
G1 X9.61 Y13.17 Z1.2 F288.0 E23902.232
G1 X9.61 Y13.76 Z1.2 F288.0 E23903.204
G1 X46.24 Y50.39 Z1.2 F288.0 E23988.264
G1 X45.65 Y50.39 Z1.2 F288.0 E23989.238
G1 X9.61 Y14.35 Z1.2 F288.0 E24072.921
G1 X9.61 Y14.94 Z1.2 F288.0 E24073.893
G1 X45.06 Y50.39 Z1.2 F288.0 E24156.202
G1 X44.47 Y50.39 Z1.2 F288.0 E24157.174
G1 X9.61 Y15.53 Z1.2 F288.0 E24238.109
G1 X9.61 Y16.13 Z1.2 F288.0 E24239.082
G1 X43.87 Y50.39 Z1.2 F288.0 E24318.64
G1 X43.28 Y50.39 Z1.2 F288.0 E24319.612
G1 X9.61 Y16.72 Z1.2 F288.0 E24397.794
G1 X9.61 Y17.31 Z1.2 F288.0 E24398.766
G1 X42.69 Y50.39 Z1.2 F288.0 E24475.575
G1 X42.1 Y50.39 Z1.2 F288.0 E24476.548
G1 X9.61 Y17.9 Z1.2 F288.0 E24551.979
G1 X9.61 Y18.5 Z1.2 F288.0 E24552.951
G1 X41.5 Y50.39 Z1.2 F288.0 E24627.008
G1 X40.91 Y50.39 Z1.2 F288.0 E24627.982
G1 X9.61 Y19.09 Z1.2 F288.0 E24700.661
G1 X9.61 Y19.68 Z1.2 F288.0 E24701.633
G1 X40.32 Y50.39 Z1.2 F288.0 E24772.939
G1 X39.73 Y50.39 Z1.2 F288.0 E24773.911
G1 X9.61 Y20.27 Z1.2 F288.0 E24843.841
G1 X9.61 Y20.87 Z1.2 F288.0 E24844.815
G1 X39.13 Y50.39 Z1.2 F288.0 E24913.368
G1 X38.54 Y50.39 Z1.2 F288.0 E24914.34
G1 X9.61 Y21.46 Z1.2 F288.0 E24981.519
G1 X9.61 Y22.05 Z1.2 F288.0 E24982.493
G1 X37.95 Y50.39 Z1.2 F288.0 E25048.295
G1 X37.36 Y50.39 Z1.2 F288.0 E25049.267
G1 X9.61 Y22.64 Z1.2 F288.0 E25113.694
G1 X9.61 Y23.24 Z1.2 F288.0 E25114.666
G1 X36.77 Y50.39 Z1.2 F288.0 E25177.719
G1 X36.17 Y50.39 Z1.2 F288.0 E25178.693
G1 X9.61 Y23.83 Z1.2 F288.0 E25240.369
G1 X9.61 Y24.42 Z1.2 F288.0 E25241.341
G1 X35.58 Y50.39 Z1.2 F288.0 E25301.642
G1 X34.99 Y50.39 Z1.2 F288.0 E25302.614
G1 X9.61 Y25.01 Z1.2 F288.0 E25361.541
G1 X9.61 Y25.61 Z1.2 F288.0 E25362.515
G1 X34.4 Y50.39 Z1.2 F288.0 E25420.064
G1 X33.8 Y50.39 Z1.2 F288.0 E25421.036
G1 X9.61 Y26.2 Z1.2 F288.0 E25477.212
G1 X9.61 Y26.79 Z1.2 F288.0 E25478.185
G1 X33.21 Y50.39 Z1.2 F288.0 E25532.984
G1 X32.62 Y50.39 Z1.2 F288.0 E25533.956
G1 X9.61 Y27.38 Z1.2 F288.0 E25587.379
G1 X9.61 Y27.97 Z1.2 F288.0 E25588.351
G1 X32.03 Y50.39 Z1.2 F288.0 E25640.4
G1 X31.43 Y50.39 Z1.2 F288.0 E25641.374
G1 X9.61 Y28.57 Z1.2 F288.0 E25692.046
G1 X9.61 Y29.16 Z1.2 F288.0 E25693.018
G1 X30.84 Y50.39 Z1.2 F288.0 E25742.316
G1 X30.25 Y50.39 Z1.2 F288.0 E25743.289
G1 X9.61 Y29.75 Z1.2 F288.0 E25791.21
G1 X9.61 Y30.34 Z1.2 F288.0 E25792.182
G1 X29.66 Y50.39 Z1.2 F288.0 E25838.728
G1 X29.06 Y50.39 Z1.2 F288.0 E25839.7
G1 X9.61 Y30.94 Z1.2 F288.0 E25884.871
G1 X9.61 Y31.53 Z1.2 F288.0 E25885.845
G1 X28.47 Y50.39 Z1.2 F288.0 E25929.64
G1 X27.88 Y50.39 Z1.2 F288.0 E25930.612
G1 X9.61 Y32.12 Z1.2 F288.0 E25973.032
G1 X9.61 Y32.71 Z1.2 F288.0 E25974.004
G1 X27.29 Y50.39 Z1.2 F288.0 E26015.049
G1 X26.69 Y50.39 Z1.2 F288.0 E26016.022
G1 X9.61 Y33.31 Z1.2 F288.0 E26055.691
G1 X9.61 Y33.9 Z1.2 F288.0 E26056.663
G1 X26.1 Y50.39 Z1.2 F288.0 E26094.957
G1 X25.51 Y50.39 Z1.2 F288.0 E26095.93
G1 X9.61 Y34.49 Z1.2 F288.0 E26132.847
G1 X9.61 Y35.08 Z1.2 F288.0 E26133.819
G1 X24.92 Y50.39 Z1.2 F288.0 E26169.361
G1 X24.33 Y50.39 Z1.2 F288.0 E26170.333
G1 X9.61 Y35.67 Z1.2 F288.0 E26204.501
G1 X9.61 Y36.27 Z1.2 F288.0 E26205.475
G1 X23.73 Y50.39 Z1.2 F288.0 E26238.265
G1 X23.14 Y50.39 Z1.2 F288.0 E26239.237
G1 X9.61 Y36.86 Z1.2 F288.0 E26270.654
G1 X9.61 Y37.45 Z1.2 F288.0 E26271.627
G1 X22.55 Y50.39 Z1.2 F288.0 E26301.666
G1 X21.96 Y50.39 Z1.2 F288.0 E26302.638
G1 X9.61 Y38.05 Z1.2 F288.0 E26331.303
G1 X9.61 Y38.64 Z1.2 F288.0 E26332.275
G1 X21.36 Y50.39 Z1.2 F288.0 E26359.565
G1 X20.77 Y50.39 Z1.2 F288.0 E26360.539
G1 X9.61 Y39.23 Z1.2 F288.0 E26386.452
G1 X9.61 Y39.82 Z1.2 F288.0 E26387.424
G1 X20.18 Y50.39 Z1.2 F288.0 E26411.962
G1 X19.59 Y50.39 Z1.2 F288.0 E26412.934
G1 X9.61 Y40.41 Z1.2 F288.0 E26436.098
G1 X9.61 Y41.01 Z1.2 F288.0 E26437.072
G1 X13.51 Y44.91 Z1.2 F288.0 E26446.125
G1 X12.81 Y44.79 Z1.2 F288.0 E26447.294
G1 X9.61 Y41.6 Z1.2 F288.0 E26454.714
G1 X9.61 Y42.19 Z1.2 F288.0 E26455.687
G1 X12.28 Y44.86 Z1.2 F288.0 E26461.893
G1 X11.85 Y45.02 Z1.2 F288.0 E26462.653
G1 X9.61 Y42.78 Z1.2 F288.0 E26467.846
G1 X9.61 Y43.38 Z1.2 F288.0 E26468.818
G1 X11.47 Y45.23 Z1.2 F288.0 E26473.128
G1 X11.13 Y45.49 Z1.2 F288.0 E26473.822
G1 X9.61 Y43.97 Z1.2 F288.0 E26477.354
G1 X9.61 Y44.56 Z1.2 F288.0 E26478.326
G1 X10.87 Y45.82 Z1.2 F288.0 E26481.258
G1 X10.66 Y46.2 Z1.2 F288.0 E26481.972
G1 X9.61 Y45.15 Z1.2 F288.0 E26484.406
G1 X9.61 Y45.75 Z1.2 F288.0 E26485.378
G1 X10.5 Y46.64 Z1.2 F288.0 E26487.443
G1 X10.43 Y47.16 Z1.2 F288.0 E26488.31
G1 X9.61 Y46.34 Z1.2 F288.0 E26490.214
G1 X9.61 Y46.93 Z1.2 F288.0 E26491.187
G1 X10.53 Y47.85 Z1.2 F288.0 E26493.318
;M103
G1 X9.61 Y48.12 Z1.2 F2880.0
;M101
G1 X11.89 Y50.39 Z1.2 F288.0 E26498.6
G1 X12.48 Y50.39 Z1.2 F288.0 E26499.572
G1 X9.61 Y47.52 Z1.2 F288.0 E26506.229
;M103
G1 X9.61 Y48.71 Z1.2 F2880.0
;M101
G1 X11.29 Y50.39 Z1.2 F288.0 E26510.135
G1 X10.7 Y50.39 Z1.2 F288.0 E26511.107
G1 X9.61 Y49.3 Z1.2 F288.0 E26513.638
G1 X9.61 Y49.89 Z1.2 F288.0 E26514.611
G1 X10.11 Y50.39 Z1.2 F288.0 E26515.765
;M103
G1 X12.15 Y49.47 Z1.2 F2880.0
;M101
G1 X13.07 Y50.39 Z1.2 F288.0 E26517.896
G1 X13.66 Y50.39 Z1.2 F288.0 E26518.87
G1 X12.84 Y49.57 Z1.2 F288.0 E26520.774
G1 X13.37 Y49.5 Z1.2 F288.0 E26521.64
G1 X14.25 Y50.39 Z1.2 F288.0 E26523.705
G1 X14.85 Y50.39 Z1.2 F288.0 E26524.677
G1 X13.8 Y49.34 Z1.2 F288.0 E26527.112
G1 X14.18 Y49.13 Z1.2 F288.0 E26527.825
G1 X15.44 Y50.39 Z1.2 F288.0 E26530.758
G1 X16.03 Y50.39 Z1.2 F288.0 E26531.73
G1 X14.51 Y48.87 Z1.2 F288.0 E26535.261
G1 X14.77 Y48.53 Z1.2 F288.0 E26535.956
G1 X16.62 Y50.39 Z1.2 F288.0 E26540.265
G1 X17.22 Y50.39 Z1.2 F288.0 E26541.237
G1 X14.98 Y48.15 Z1.2 F288.0 E26546.43
G1 X15.14 Y47.72 Z1.2 F288.0 E26547.191
G1 X17.81 Y50.39 Z1.2 F288.0 E26553.396
G1 X18.4 Y50.39 Z1.2 F288.0 E26554.37
G1 X15.21 Y47.19 Z1.2 F288.0 E26561.789
G1 X15.09 Y46.49 Z1.2 F288.0 E26562.958
G1 X18.99 Y50.39 Z1.2 F288.0 E26572.012
;M103
G1 X48.65 Y13.66 Z1.2 F3600.0
G1 X49.89 Y9.61 Z1.2 F2880.0
;M101
G1 X50.39 Y10.11 Z1.2 F288.0 E26573.166
G1 X50.39 Y10.7 Z1.2 F288.0 E26574.139
G1 X49.3 Y9.61 Z1.2 F288.0 E26576.67
G1 X48.71 Y9.61 Z1.2 F288.0 E26577.642
G1 X50.39 Y11.29 Z1.2 F288.0 E26581.548
G1 X50.39 Y11.89 Z1.2 F288.0 E26582.521
G1 X48.12 Y9.61 Z1.2 F288.0 E26587.804
G1 X47.52 Y9.61 Z1.2 F288.0 E26588.776
G1 X50.39 Y12.48 Z1.2 F288.0 E26595.433
G1 X50.39 Y13.07 Z1.2 F288.0 E26596.405
G1 X49.47 Y12.15 Z1.2 F288.0 E26598.531
G1 X49.57 Y12.84 Z1.2 F288.0 E26599.671
G1 X50.39 Y13.66 Z1.2 F288.0 E26601.575
G1 X50.39 Y14.25 Z1.2 F288.0 E26602.547
G1 X49.5 Y13.37 Z1.2 F288.0 E26604.61
G1 X49.34 Y13.8 Z1.2 F288.0 E26605.367
G1 X50.39 Y14.85 Z1.2 F288.0 E26607.801
G1 X50.39 Y15.44 Z1.2 F288.0 E26608.775
G1 X49.13 Y14.18 Z1.2 F288.0 E26611.707
G1 X48.87 Y14.51 Z1.2 F288.0 E26612.4
G1 X50.39 Y16.03 Z1.2 F288.0 E26615.932
G1 X50.39 Y16.62 Z1.2 F288.0 E26616.906
G1 X48.53 Y14.77 Z1.2 F288.0 E26621.215
G1 X48.15 Y14.98 Z1.2 F288.0 E26621.931
G1 X50.39 Y17.22 Z1.2 F288.0 E26627.124
G1 X50.39 Y17.81 Z1.2 F288.0 E26628.096
G1 X47.72 Y15.14 Z1.2 F288.0 E26634.302
G1 X47.19 Y15.21 Z1.2 F288.0 E26635.168
G1 X50.39 Y18.4 Z1.2 F288.0 E26642.588
G1 X50.39 Y18.99 Z1.2 F288.0 E26643.56
G1 X46.49 Y15.09 Z1.2 F288.0 E26652.613
;M103
G1 X44.91 Y13.51 Z1.2 F2880.0
;M101
G1 X41.01 Y9.61 Z1.2 F288.0 E26661.666
G1 X41.6 Y9.61 Z1.2 F288.0 E26662.638
G1 X44.79 Y12.81 Z1.2 F288.0 E26670.058
G1 X44.86 Y12.28 Z1.2 F288.0 E26670.925
G1 X42.19 Y9.61 Z1.2 F288.0 E26677.13
G1 X42.78 Y9.61 Z1.2 F288.0 E26678.102
G1 X45.02 Y11.85 Z1.2 F288.0 E26683.295
G1 X45.23 Y11.47 Z1.2 F288.0 E26684.011
G1 X43.38 Y9.61 Z1.2 F288.0 E26688.321
G1 X43.97 Y9.61 Z1.2 F288.0 E26689.294
G1 X45.49 Y11.13 Z1.2 F288.0 E26692.826
G1 X45.82 Y10.87 Z1.2 F288.0 E26693.519
G1 X44.56 Y9.61 Z1.2 F288.0 E26696.451
G1 X45.15 Y9.61 Z1.2 F288.0 E26697.425
G1 X46.2 Y10.66 Z1.2 F288.0 E26699.86
G1 X46.63 Y10.5 Z1.2 F288.0 E26700.616
G1 X45.75 Y9.61 Z1.2 F288.0 E26702.679
G1 X46.34 Y9.61 Z1.2 F288.0 E26703.651
G1 X47.16 Y10.43 Z1.2 F288.0 E26705.555
G1 X47.85 Y10.53 Z1.2 F288.0 E26706.696
G1 X46.93 Y9.61 Z1.2 F288.0 E26708.821
;M103
G1 X46.89 Y10.83 Z1.2 F3600.0
;M101
G1 X46.66 Y10.86 Z1.2 F288.0 E26709.204
G1 X46.17 Y11.06 Z1.2 F288.0 E26710.075
G1 X45.75 Y11.38 Z1.2 F288.0 E26710.945
G1 X45.42 Y11.8 Z1.2 F288.0 E26711.816
G1 X45.22 Y12.29 Z1.2 F288.0 E26712.686
G1 X45.15 Y12.82 Z1.2 F288.0 E26713.558
G1 X45.22 Y13.34 Z1.2 F288.0 E26714.427
G1 X45.42 Y13.83 Z1.2 F288.0 E26715.296
G1 X45.75 Y14.25 Z1.2 F288.0 E26716.168
G1 X46.17 Y14.58 Z1.2 F288.0 E26717.041
G1 X46.66 Y14.78 Z1.2 F288.0 E26717.91
G1 X47.18 Y14.85 Z1.2 F288.0 E26718.779
G1 X47.71 Y14.78 Z1.2 F288.0 E26719.651
G1 X48.2 Y14.58 Z1.2 F288.0 E26720.521
G1 X48.62 Y14.25 Z1.2 F288.0 E26721.392
G1 X48.94 Y13.83 Z1.2 F288.0 E26722.262
G1 X49.15 Y13.34 Z1.2 F288.0 E26723.133
G1 X49.21 Y12.82 Z1.2 F288.0 E26724.002
G1 X49.15 Y12.29 Z1.2 F288.0 E26724.873
G1 X48.94 Y11.8 Z1.2 F288.0 E26725.744
G1 X48.62 Y11.38 Z1.2 F288.0 E26726.614
G1 X48.2 Y11.06 Z1.2 F288.0 E26727.484
G1 X47.71 Y10.86 Z1.2 F288.0 E26728.355
G1 X47.18 Y10.79 Z1.2 F288.0 E26729.226
G1 X46.89 Y10.83 Z1.2 F288.0 E26729.713
;M103
G1 X14.85 Y12.82 Z1.2 F3600.0
;M101
G1 X14.78 Y12.29 Z1.2 F288.0 E26730.584
G1 X14.58 Y11.8 Z1.2 F288.0 E26731.454
G1 X14.25 Y11.38 Z1.2 F288.0 E26732.326
G1 X13.83 Y11.06 Z1.2 F288.0 E26733.196
G1 X13.34 Y10.86 Z1.2 F288.0 E26734.067
G1 X12.82 Y10.79 Z1.2 F288.0 E26734.936
G1 X12.29 Y10.86 Z1.2 F288.0 E26735.807
G1 X11.8 Y11.06 Z1.2 F288.0 E26736.678
G1 X11.38 Y11.38 Z1.2 F288.0 E26737.548
G1 X11.06 Y11.8 Z1.2 F288.0 E26738.418
G1 X10.86 Y12.29 Z1.2 F288.0 E26739.288
G1 X10.79 Y12.82 Z1.2 F288.0 E26740.159
G1 X10.86 Y13.34 Z1.2 F288.0 E26741.029
G1 X11.06 Y13.83 Z1.2 F288.0 E26741.897
G1 X11.38 Y14.25 Z1.2 F288.0 E26742.769
G1 X11.8 Y14.58 Z1.2 F288.0 E26743.64
G1 X12.29 Y14.78 Z1.2 F288.0 E26744.51
G1 X12.82 Y14.85 Z1.2 F288.0 E26745.382
G1 X13.34 Y14.78 Z1.2 F288.0 E26746.251
G1 X13.83 Y14.58 Z1.2 F288.0 E26747.12
G1 X14.25 Y14.25 Z1.2 F288.0 E26747.993
G1 X14.58 Y13.83 Z1.2 F288.0 E26748.865
G1 X14.78 Y13.34 Z1.2 F288.0 E26749.734
G1 X14.85 Y12.82 Z1.2 F288.0 E26750.603
;M103
G1 X45.75 Y45.75 Z1.2 F3600.0
;M101
G1 X45.42 Y46.17 Z1.2 F288.0 E26751.476
G1 X45.22 Y46.66 Z1.2 F288.0 E26752.345
G1 X45.15 Y47.18 Z1.2 F288.0 E26753.214
G1 X45.22 Y47.71 Z1.2 F288.0 E26754.085
G1 X45.42 Y48.2 Z1.2 F288.0 E26754.956
G1 X45.75 Y48.62 Z1.2 F288.0 E26755.827
G1 X46.17 Y48.94 Z1.2 F288.0 E26756.698
G1 X46.66 Y49.14 Z1.2 F288.0 E26757.567
G1 X47.18 Y49.21 Z1.2 F288.0 E26758.437
G1 X47.71 Y49.14 Z1.2 F288.0 E26759.308
G1 X48.2 Y48.94 Z1.2 F288.0 E26760.178
G1 X48.62 Y48.62 Z1.2 F288.0 E26761.048
G1 X48.94 Y48.2 Z1.2 F288.0 E26761.918
G1 X49.15 Y47.71 Z1.2 F288.0 E26762.789
G1 X49.21 Y47.18 Z1.2 F288.0 E26763.66
G1 X49.15 Y46.66 Z1.2 F288.0 E26764.529
G1 X48.94 Y46.17 Z1.2 F288.0 E26765.4
G1 X48.62 Y45.75 Z1.2 F288.0 E26766.27
G1 X48.2 Y45.42 Z1.2 F288.0 E26767.142
G1 X47.71 Y45.22 Z1.2 F288.0 E26768.012
G1 X47.18 Y45.15 Z1.2 F288.0 E26768.883
G1 X46.66 Y45.22 Z1.2 F288.0 E26769.753
G1 X46.17 Y45.42 Z1.2 F288.0 E26770.621
G1 X45.75 Y45.75 Z1.2 F288.0 E26771.494
;M103
G1 X14.85 Y47.18 Z1.2 F3600.0
;M101
G1 X14.78 Y46.66 Z1.2 F288.0 E26772.363
G1 X14.58 Y46.17 Z1.2 F288.0 E26773.232
G1 X14.25 Y45.75 Z1.2 F288.0 E26774.105
G1 X13.83 Y45.42 Z1.2 F288.0 E26774.977
G1 X13.34 Y45.22 Z1.2 F288.0 E26775.846
G1 X12.82 Y45.15 Z1.2 F288.0 E26776.715
G1 X12.29 Y45.22 Z1.2 F288.0 E26777.587
G1 X11.8 Y45.42 Z1.2 F288.0 E26778.457
G1 X11.38 Y45.75 Z1.2 F288.0 E26779.328
G1 X11.06 Y46.17 Z1.2 F288.0 E26780.2
G1 X10.86 Y46.66 Z1.2 F288.0 E26781.068
G1 X10.79 Y47.18 Z1.2 F288.0 E26781.938
G1 X10.86 Y47.71 Z1.2 F288.0 E26782.809
G1 X11.06 Y48.2 Z1.2 F288.0 E26783.679
G1 X11.38 Y48.62 Z1.2 F288.0 E26784.549
G1 X11.8 Y48.94 Z1.2 F288.0 E26785.419
G1 X12.29 Y49.14 Z1.2 F288.0 E26786.289
G1 X12.82 Y49.21 Z1.2 F288.0 E26787.161
G1 X13.34 Y49.14 Z1.2 F288.0 E26788.03
G1 X13.83 Y48.94 Z1.2 F288.0 E26788.899
G1 X14.25 Y48.62 Z1.2 F288.0 E26789.771
G1 X14.58 Y48.2 Z1.2 F288.0 E26790.642
G1 X14.78 Y47.71 Z1.2 F288.0 E26791.512
G1 X14.85 Y47.18 Z1.2 F288.0 E26792.383
;M103
G1 X14.85 Y50.75 Z1.2 F3600.0
;M101
G1 X9.25 Y50.75 Z1.2 F288.0 E26801.568
G1 X9.25 Y9.25 Z1.2 F288.0 E26869.693
G1 X50.75 Y9.25 Z1.2 F288.0 E26937.817
G1 X50.75 Y50.75 Z1.2 F288.0 E27005.942
G1 X14.85 Y50.75 Z1.2 F288.0 E27064.882
;M103
;M108 S5.629
;M108 S5.91
G1 X14.85 Y51.17 Z1.2 F3600.0
;M101
G1 X8.84 Y51.17 Z1.2 F243.0 E27073.655
G1 X8.84 Y8.84 Z1.2 F243.0 E27135.424
G1 X51.17 Y8.84 Z1.2 F243.0 E27197.193
G1 X51.17 Y51.17 Z1.2 F243.0 E27258.962
G1 X14.85 Y51.17 Z1.2 F243.0 E27311.958
;M103
G1 X13.62 Y48.58 Z1.2 F3600.0
;M101
G1 X13.95 Y48.32 Z1.2 F243.0 E27312.571
G1 X14.21 Y47.99 Z1.2 F243.0 E27313.184
G1 X14.37 Y47.6 Z1.2 F243.0 E27313.796
G1 X14.43 Y47.18 Z1.2 F243.0 E27314.41
G1 X14.37 Y46.77 Z1.2 F243.0 E27315.023
G1 X14.21 Y46.38 Z1.2 F243.0 E27315.634
G1 X13.95 Y46.05 Z1.2 F243.0 E27316.248
G1 X13.62 Y45.79 Z1.2 F243.0 E27316.862
G1 X13.23 Y45.63 Z1.2 F243.0 E27317.473
G1 X12.82 Y45.58 Z1.2 F243.0 E27318.085
G1 X12.4 Y45.63 Z1.2 F243.0 E27318.699
G1 X12.01 Y45.79 Z1.2 F243.0 E27319.311
G1 X11.68 Y46.05 Z1.2 F243.0 E27319.924
G1 X11.42 Y46.38 Z1.2 F243.0 E27320.538
G1 X11.26 Y46.77 Z1.2 F243.0 E27321.149
G1 X11.21 Y47.18 Z1.2 F243.0 E27321.761
G1 X11.26 Y47.6 Z1.2 F243.0 E27322.375
G1 X11.42 Y47.99 Z1.2 F243.0 E27322.987
G1 X11.68 Y48.32 Z1.2 F243.0 E27323.599
G1 X12.01 Y48.58 Z1.2 F243.0 E27324.211
G1 X12.4 Y48.74 Z1.2 F243.0 E27324.823
G1 X12.82 Y48.79 Z1.2 F243.0 E27325.437
G1 X13.23 Y48.74 Z1.2 F243.0 E27326.049
G1 X13.62 Y48.58 Z1.2 F243.0 E27326.66
;M103
G1 X45.58 Y47.18 Z1.2 F3600.0
;M101
G1 X45.63 Y47.6 Z1.2 F243.0 E27327.274
G1 X45.79 Y47.99 Z1.2 F243.0 E27327.887
G1 X46.05 Y48.32 Z1.2 F243.0 E27328.5
G1 X46.38 Y48.58 Z1.2 F243.0 E27329.113
G1 X46.77 Y48.74 Z1.2 F243.0 E27329.724
G1 X47.18 Y48.79 Z1.2 F243.0 E27330.336
G1 X47.6 Y48.74 Z1.2 F243.0 E27330.95
G1 X47.99 Y48.58 Z1.2 F243.0 E27331.562
G1 X48.32 Y48.32 Z1.2 F243.0 E27332.174
G1 X48.58 Y47.99 Z1.2 F243.0 E27332.786
G1 X48.74 Y47.6 Z1.2 F243.0 E27333.399
G1 X48.79 Y47.18 Z1.2 F243.0 E27334.013
G1 X48.74 Y46.77 Z1.2 F243.0 E27334.625
G1 X48.58 Y46.38 Z1.2 F243.0 E27335.238
G1 X48.32 Y46.05 Z1.2 F243.0 E27335.85
G1 X47.99 Y45.79 Z1.2 F243.0 E27336.463
G1 X47.6 Y45.63 Z1.2 F243.0 E27337.075
G1 X47.18 Y45.58 Z1.2 F243.0 E27337.689
G1 X46.77 Y45.63 Z1.2 F243.0 E27338.301
G1 X46.38 Y45.79 Z1.2 F243.0 E27338.912
G1 X46.05 Y46.05 Z1.2 F243.0 E27339.527
G1 X45.79 Y46.38 Z1.2 F243.0 E27340.141
G1 X45.63 Y46.77 Z1.2 F243.0 E27340.752
G1 X45.58 Y47.18 Z1.2 F243.0 E27341.364
;M103
G1 X47.18 Y14.43 Z1.2 F3600.0
;M101
G1 X47.6 Y14.37 Z1.2 F243.0 E27341.978
G1 X47.99 Y14.21 Z1.2 F243.0 E27342.59
G1 X48.32 Y13.95 Z1.2 F243.0 E27343.203
G1 X48.58 Y13.62 Z1.2 F243.0 E27343.815
G1 X48.74 Y13.23 Z1.2 F243.0 E27344.428
G1 X48.79 Y12.82 Z1.2 F243.0 E27345.04
G1 X48.74 Y12.4 Z1.2 F243.0 E27345.654
G1 X48.58 Y12.01 Z1.2 F243.0 E27346.267
G1 X48.32 Y11.68 Z1.2 F243.0 E27346.879
G1 X47.99 Y11.42 Z1.2 F243.0 E27347.491
G1 X47.6 Y11.26 Z1.2 F243.0 E27348.104
G1 X47.18 Y11.21 Z1.2 F243.0 E27348.717
G1 X46.77 Y11.26 Z1.2 F243.0 E27349.329
G1 X46.38 Y11.42 Z1.2 F243.0 E27349.942
G1 X46.05 Y11.68 Z1.2 F243.0 E27350.554
G1 X45.79 Y12.01 Z1.2 F243.0 E27351.167
G1 X45.63 Y12.4 Z1.2 F243.0 E27351.78
G1 X45.58 Y12.82 Z1.2 F243.0 E27352.393
G1 X45.63 Y13.23 Z1.2 F243.0 E27353.006
G1 X45.79 Y13.62 Z1.2 F243.0 E27353.617
G1 X46.05 Y13.95 Z1.2 F243.0 E27354.231
G1 X46.38 Y14.21 Z1.2 F243.0 E27354.845
G1 X46.77 Y14.37 Z1.2 F243.0 E27355.456
G1 X47.18 Y14.43 Z1.2 F243.0 E27356.068
;M103
G1 X14.43 Y12.82 Z1.2 F3600.0
;M101
G1 X14.37 Y12.4 Z1.2 F243.0 E27356.682
G1 X14.21 Y12.01 Z1.2 F243.0 E27357.295
G1 X13.95 Y11.68 Z1.2 F243.0 E27357.908
G1 X13.62 Y11.42 Z1.2 F243.0 E27358.52
G1 X13.23 Y11.26 Z1.2 F243.0 E27359.133
G1 X12.82 Y11.21 Z1.2 F243.0 E27359.745
G1 X12.4 Y11.26 Z1.2 F243.0 E27360.358
G1 X12.01 Y11.42 Z1.2 F243.0 E27360.971
G1 X11.68 Y11.68 Z1.2 F243.0 E27361.583
G1 X11.42 Y12.01 Z1.2 F243.0 E27362.195
G1 X11.26 Y12.4 Z1.2 F243.0 E27362.807
G1 X11.21 Y12.82 Z1.2 F243.0 E27363.421
G1 X11.26 Y13.23 Z1.2 F243.0 E27364.034
G1 X11.42 Y13.62 Z1.2 F243.0 E27364.645
G1 X11.68 Y13.95 Z1.2 F243.0 E27365.258
G1 X12.01 Y14.21 Z1.2 F243.0 E27365.871
G1 X12.4 Y14.37 Z1.2 F243.0 E27366.483
G1 X12.82 Y14.43 Z1.2 F243.0 E27367.097
G1 X13.23 Y14.37 Z1.2 F243.0 E27367.709
G1 X13.62 Y14.21 Z1.2 F243.0 E27368.32
G1 X13.95 Y13.95 Z1.2 F243.0 E27368.935
G1 X14.21 Y13.62 Z1.2 F243.0 E27369.549
G1 X14.37 Y13.23 Z1.2 F243.0 E27370.16
G1 X14.43 Y12.82 Z1.2 F243.0 E27370.772
;M103
;M108 S7.506
G1 X15.54 Y13.49 Z1.5 F3600.0
;M101
G1 X19.0 Y10.03 Z1.5 F360.0 E27376.887
G1 X18.41 Y10.03 Z1.5 F360.0 E27377.628
G1 X15.63 Y12.81 Z1.5 F360.0 E27382.541
G1 X15.56 Y12.28 Z1.5 F360.0 E27383.201
G1 X17.81 Y10.03 Z1.5 F360.0 E27387.189
G1 X17.22 Y10.03 Z1.5 F360.0 E27387.93
G1 X15.42 Y11.83 Z1.5 F360.0 E27391.108
G1 X15.25 Y11.41 Z1.5 F360.0 E27391.674
G1 X16.63 Y10.03 Z1.5 F360.0 E27394.112
G1 X16.04 Y10.03 Z1.5 F360.0 E27394.853
G1 X14.99 Y11.07 Z1.5 F360.0 E27396.698
G1 X14.72 Y10.76 Z1.5 F360.0 E27397.223
G1 X15.44 Y10.03 Z1.5 F360.0 E27398.511
G1 X14.85 Y10.03 Z1.5 F360.0 E27399.252
G1 X14.38 Y10.5 Z1.5 F360.0 E27400.087
G1 X14.26 Y10.03 Z1.5 F360.0 E27400.697
G1 X14.0 Y10.29 Z1.5 F360.0 E27401.156
G1 X13.67 Y10.03 Z1.5 F360.0 E27401.684
G1 X13.58 Y10.12 Z1.5 F360.0 E27401.836
G1 X13.07 Y10.03 Z1.5 F360.0 E27402.479
G1 X12.48 Y10.03 Z1.5 F360.0 E27403.221
G1 X12.46 Y10.05 Z1.5 F360.0 E27403.26
G1 X11.89 Y10.03 Z1.5 F360.0 E27403.973
G1 X11.63 Y10.29 Z1.5 F360.0 E27404.437
G1 X11.3 Y10.03 Z1.5 F360.0 E27404.965
G1 X10.03 Y11.3 Z1.5 F360.0 E27407.206
G1 X10.29 Y11.63 Z1.5 F360.0 E27407.735
G1 X10.03 Y11.89 Z1.5 F360.0 E27408.2
G1 X10.05 Y12.46 Z1.5 F360.0 E27408.913
G1 X10.03 Y12.48 Z1.5 F360.0 E27408.953
G1 X10.03 Y13.07 Z1.5 F360.0 E27409.695
G1 X10.12 Y13.58 Z1.5 F360.0 E27410.337
G1 X10.03 Y13.67 Z1.5 F360.0 E27410.49
G1 X10.29 Y14.0 Z1.5 F360.0 E27411.019
G1 X10.03 Y14.26 Z1.5 F360.0 E27411.478
G1 X10.03 Y14.85 Z1.5 F360.0 E27412.22
G1 X10.5 Y14.38 Z1.5 F360.0 E27413.055
G1 X10.76 Y14.72 Z1.5 F360.0 E27413.584
G1 X10.03 Y15.44 Z1.5 F360.0 E27414.873
G1 X10.03 Y16.04 Z1.5 F360.0 E27415.615
G1 X11.07 Y14.99 Z1.5 F360.0 E27417.46
G1 X11.41 Y15.25 Z1.5 F360.0 E27417.988
G1 X10.03 Y16.63 Z1.5 F360.0 E27420.426
G1 X10.03 Y17.22 Z1.5 F360.0 E27421.167
G1 X11.83 Y15.42 Z1.5 F360.0 E27424.344
G1 X12.28 Y15.56 Z1.5 F360.0 E27424.942
G1 X10.03 Y17.81 Z1.5 F360.0 E27428.929
G1 X10.03 Y18.41 Z1.5 F360.0 E27429.67
G1 X12.81 Y15.63 Z1.5 F360.0 E27434.583
G1 X13.49 Y15.54 Z1.5 F360.0 E27435.441
G1 X10.03 Y19.0 Z1.5 F360.0 E27441.556
G1 X10.03 Y19.59 Z1.5 F360.0 E27442.298
G1 X19.59 Y10.03 Z1.5 F360.0 E27459.213
G1 X20.18 Y10.03 Z1.5 F360.0 E27459.953
G1 X10.03 Y20.18 Z1.5 F360.0 E27477.916
G1 X10.03 Y20.78 Z1.5 F360.0 E27478.658
G1 X20.78 Y10.03 Z1.5 F360.0 E27497.669
G1 X21.37 Y10.03 Z1.5 F360.0 E27498.41
G1 X10.03 Y21.37 Z1.5 F360.0 E27518.469
G1 X10.03 Y21.96 Z1.5 F360.0 E27519.209
G1 X21.96 Y10.03 Z1.5 F360.0 E27540.316
G1 X22.55 Y10.03 Z1.5 F360.0 E27541.058
G1 X10.03 Y22.55 Z1.5 F360.0 E27563.213
G1 X10.03 Y23.14 Z1.5 F360.0 E27563.954
G1 X23.14 Y10.03 Z1.5 F360.0 E27587.156
G1 X23.74 Y10.03 Z1.5 F360.0 E27587.898
G1 X10.03 Y23.74 Z1.5 F360.0 E27612.15
G1 X10.03 Y24.33 Z1.5 F360.0 E27612.891
G1 X24.33 Y10.03 Z1.5 F360.0 E27638.19
G1 X24.92 Y10.03 Z1.5 F360.0 E27638.931
G1 X10.03 Y24.92 Z1.5 F360.0 E27665.277
G1 X10.03 Y25.51 Z1.5 F360.0 E27666.019
G1 X25.51 Y10.03 Z1.5 F360.0 E27693.415
G1 X26.11 Y10.03 Z1.5 F360.0 E27694.156
G1 X10.03 Y26.11 Z1.5 F360.0 E27722.599
G1 X10.03 Y26.7 Z1.5 F360.0 E27723.339
G1 X26.7 Y10.03 Z1.5 F360.0 E27752.83
G1 X27.29 Y10.03 Z1.5 F360.0 E27753.572
G1 X10.03 Y27.29 Z1.5 F360.0 E27784.111
G1 X10.03 Y27.88 Z1.5 F360.0 E27784.852
G1 X27.88 Y10.03 Z1.5 F360.0 E27816.439
G1 X28.48 Y10.03 Z1.5 F360.0 E27817.181
G1 X10.03 Y28.48 Z1.5 F360.0 E27849.817
G1 X10.03 Y29.07 Z1.5 F360.0 E27850.557
G1 X29.07 Y10.03 Z1.5 F360.0 E27884.241
G1 X29.66 Y10.03 Z1.5 F360.0 E27884.981
G1 X10.03 Y29.66 Z1.5 F360.0 E27919.712
G1 X10.03 Y30.25 Z1.5 F360.0 E27920.454
G1 X30.25 Y10.03 Z1.5 F360.0 E27956.234
G1 X30.85 Y10.03 Z1.5 F360.0 E27956.974
G1 X10.03 Y30.85 Z1.5 F360.0 E27993.802
G1 X10.03 Y31.44 Z1.5 F360.0 E27994.544
G1 X31.44 Y10.03 Z1.5 F360.0 E28032.42
G1 X32.03 Y10.03 Z1.5 F360.0 E28033.161
G1 X10.03 Y32.03 Z1.5 F360.0 E28072.084
G1 X10.03 Y32.62 Z1.5 F360.0 E28072.825
G1 X32.62 Y10.03 Z1.5 F360.0 E28112.796
G1 X33.22 Y10.03 Z1.5 F360.0 E28113.538
G1 X10.03 Y33.22 Z1.5 F360.0 E28154.558
G1 X10.03 Y33.81 Z1.5 F360.0 E28155.299
G1 X33.81 Y10.03 Z1.5 F360.0 E28197.366
G1 X34.4 Y10.03 Z1.5 F360.0 E28198.107
G1 X10.03 Y34.4 Z1.5 F360.0 E28241.222
G1 X10.03 Y34.99 Z1.5 F360.0 E28241.964
G1 X34.99 Y10.03 Z1.5 F360.0 E28286.128
G1 X35.58 Y10.03 Z1.5 F360.0 E28286.868
G1 X10.03 Y35.58 Z1.5 F360.0 E28332.08
G1 X10.03 Y36.18 Z1.5 F360.0 E28332.822
G1 X36.18 Y10.03 Z1.5 F360.0 E28379.082
G1 X36.77 Y10.03 Z1.5 F360.0 E28379.823
G1 X10.03 Y36.77 Z1.5 F360.0 E28427.131
G1 X10.03 Y37.36 Z1.5 F360.0 E28427.871
G1 X37.36 Y10.03 Z1.5 F360.0 E28476.226
G1 X37.95 Y10.03 Z1.5 F360.0 E28476.968
G1 X10.03 Y37.95 Z1.5 F360.0 E28526.373
G1 X10.03 Y38.55 Z1.5 F360.0 E28527.113
G1 X38.55 Y10.03 Z1.5 F360.0 E28577.565
G1 X39.14 Y10.03 Z1.5 F360.0 E28578.307
G1 X10.03 Y39.14 Z1.5 F360.0 E28629.808
G1 X10.03 Y39.73 Z1.5 F360.0 E28630.548
G1 X39.73 Y10.03 Z1.5 F360.0 E28683.097
G1 X40.32 Y10.03 Z1.5 F360.0 E28683.837
G1 X10.03 Y40.32 Z1.5 F360.0 E28737.433
G1 X10.03 Y40.92 Z1.5 F360.0 E28738.175
G1 X40.92 Y10.03 Z1.5 F360.0 E28792.819
G1 X41.51 Y10.03 Z1.5 F360.0 E28793.56
G1 X10.03 Y41.51 Z1.5 F360.0 E28849.252
G1 X10.03 Y42.1 Z1.5 F360.0 E28849.992
G1 X42.1 Y10.03 Z1.5 F360.0 E28906.732
G1 X42.69 Y10.03 Z1.5 F360.0 E28907.474
G1 X10.03 Y42.69 Z1.5 F360.0 E28965.262
G1 X10.03 Y43.29 Z1.5 F360.0 E28966.003
G1 X43.29 Y10.03 Z1.5 F360.0 E29024.839
G1 X43.88 Y10.03 Z1.5 F360.0 E29025.581
G1 X10.03 Y43.88 Z1.5 F360.0 E29085.466
G1 X10.03 Y44.47 Z1.5 F360.0 E29086.206
G1 X44.47 Y10.03 Z1.5 F360.0 E29147.139
G1 X45.06 Y10.03 Z1.5 F360.0 E29147.879
G1 X10.03 Y45.06 Z1.5 F360.0 E29209.859
;M103
G1 X49.97 Y39.48 Z1.5 F3600.0
;M101
G1 X39.48 Y49.97 Z1.5 F360.0 E29228.421
G1 X38.89 Y49.97 Z1.5 F360.0 E29229.162
G1 X49.97 Y38.89 Z1.5 F360.0 E29248.771
G1 X49.97 Y38.3 Z1.5 F360.0 E29249.512
G1 X38.3 Y49.97 Z1.5 F360.0 E29270.169
G1 X37.7 Y49.97 Z1.5 F360.0 E29270.911
G1 X49.97 Y37.7 Z1.5 F360.0 E29292.617
G1 X49.97 Y37.11 Z1.5 F360.0 E29293.357
G1 X37.11 Y49.97 Z1.5 F360.0 E29316.111
G1 X36.52 Y49.97 Z1.5 F360.0 E29316.853
G1 X49.97 Y36.52 Z1.5 F360.0 E29340.655
G1 X49.97 Y35.92 Z1.5 F360.0 E29341.396
G1 X35.92 Y49.97 Z1.5 F360.0 E29366.246
G1 X35.33 Y49.97 Z1.5 F360.0 E29366.986
G1 X49.97 Y35.33 Z1.5 F360.0 E29392.884
G1 X49.97 Y34.74 Z1.5 F360.0 E29393.625
G1 X34.74 Y49.97 Z1.5 F360.0 E29420.572
G1 X34.15 Y49.97 Z1.5 F360.0 E29421.312
G1 X49.97 Y34.15 Z1.5 F360.0 E29449.306
G1 X49.97 Y33.56 Z1.5 F360.0 E29450.047
G1 X33.56 Y49.97 Z1.5 F360.0 E29479.088
G1 X32.96 Y49.97 Z1.5 F360.0 E29479.83
G1 X49.97 Y32.96 Z1.5 F360.0 E29509.92
G1 X49.97 Y32.37 Z1.5 F360.0 E29510.661
G1 X32.37 Y49.97 Z1.5 F360.0 E29541.798
G1 X31.78 Y49.97 Z1.5 F360.0 E29542.54
G1 X49.97 Y31.78 Z1.5 F360.0 E29574.727
G1 X49.97 Y31.19 Z1.5 F360.0 E29575.467
G1 X31.19 Y49.97 Z1.5 F360.0 E29608.701
G1 X30.59 Y49.97 Z1.5 F360.0 E29609.442
G1 X49.97 Y30.59 Z1.5 F360.0 E29643.723
G1 X49.97 Y30.0 Z1.5 F360.0 E29644.465
G1 X30.0 Y49.97 Z1.5 F360.0 E29679.796
G1 X29.41 Y49.97 Z1.5 F360.0 E29680.536
G1 X49.97 Y29.41 Z1.5 F360.0 E29716.914
G1 X49.97 Y28.82 Z1.5 F360.0 E29717.656
G1 X28.82 Y49.97 Z1.5 F360.0 E29755.083
G1 X28.22 Y49.97 Z1.5 F360.0 E29755.824
G1 X49.97 Y28.22 Z1.5 F360.0 E29794.298
G1 X49.97 Y27.63 Z1.5 F360.0 E29795.039
G1 X27.63 Y49.97 Z1.5 F360.0 E29834.56
G1 X27.04 Y49.97 Z1.5 F360.0 E29835.302
G1 X49.97 Y27.04 Z1.5 F360.0 E29875.873
G1 X49.97 Y26.45 Z1.5 F360.0 E29876.614
G1 X26.45 Y49.97 Z1.5 F360.0 E29918.232
G1 X25.86 Y49.97 Z1.5 F360.0 E29918.973
G1 X49.97 Y25.86 Z1.5 F360.0 E29961.638
G1 X49.97 Y25.26 Z1.5 F360.0 E29962.38
G1 X25.26 Y49.97 Z1.5 F360.0 E30006.095
G1 X24.67 Y49.97 Z1.5 F360.0 E30006.835
G1 X49.97 Y24.67 Z1.5 F360.0 E30051.597
G1 X49.97 Y24.08 Z1.5 F360.0 E30052.339
G1 X24.08 Y49.97 Z1.5 F360.0 E30098.15
G1 X23.49 Y49.97 Z1.5 F360.0 E30098.891
G1 X49.97 Y23.49 Z1.5 F360.0 E30145.749
G1 X49.97 Y22.89 Z1.5 F360.0 E30146.49
G1 X22.89 Y49.97 Z1.5 F360.0 E30194.396
G1 X22.3 Y49.97 Z1.5 F360.0 E30195.138
G1 X49.97 Y22.3 Z1.5 F360.0 E30244.093
G1 X49.97 Y21.71 Z1.5 F360.0 E30244.833
G1 X21.71 Y49.97 Z1.5 F360.0 E30294.836
G1 X21.12 Y49.97 Z1.5 F360.0 E30295.578
G1 X49.97 Y21.12 Z1.5 F360.0 E30346.629
G1 X49.97 Y20.52 Z1.5 F360.0 E30347.37
G1 X20.52 Y49.97 Z1.5 F360.0 E30399.469
G1 X19.93 Y49.97 Z1.5 F360.0 E30400.209
G1 X49.97 Y19.93 Z1.5 F360.0 E30453.355
G1 X49.97 Y19.34 Z1.5 F360.0 E30454.097
G1 X19.34 Y49.97 Z1.5 F360.0 E30508.292
G1 X18.75 Y49.97 Z1.5 F360.0 E30509.033
G1 X49.97 Y18.75 Z1.5 F360.0 E30564.276
G1 X49.97 Y18.15 Z1.5 F360.0 E30565.016
G1 X18.15 Y49.97 Z1.5 F360.0 E30621.306
G1 X17.56 Y49.97 Z1.5 F360.0 E30622.048
G1 X49.97 Y17.56 Z1.5 F360.0 E30679.387
G1 X49.97 Y16.97 Z1.5 F360.0 E30680.128
G1 X16.97 Y49.97 Z1.5 F360.0 E30738.515
G1 X16.38 Y49.97 Z1.5 F360.0 E30739.256
G1 X49.97 Y16.38 Z1.5 F360.0 E30798.692
G1 X49.97 Y15.78 Z1.5 F360.0 E30799.433
G1 X15.78 Y49.97 Z1.5 F360.0 E30859.916
G1 X15.19 Y49.97 Z1.5 F360.0 E30860.656
G1 X49.97 Y15.19 Z1.5 F360.0 E30922.187
G1 X49.97 Y14.6 Z1.5 F360.0 E30922.928
G1 X14.6 Y49.97 Z1.5 F360.0 E30985.508
G1 X14.01 Y49.97 Z1.5 F360.0 E30986.248
G1 X49.97 Y14.01 Z1.5 F360.0 E31049.875
G1 X49.91 Y13.48 Z1.5 F360.0 E31050.544
G1 X49.97 Y13.41 Z1.5 F360.0 E31050.654
G1 X49.93 Y12.28 Z1.5 F360.0 E31052.079
G1 X49.97 Y12.23 Z1.5 F360.0 E31052.16
G1 X49.79 Y11.82 Z1.5 F360.0 E31052.722
G1 X49.97 Y11.64 Z1.5 F360.0 E31053.044
G1 X49.61 Y11.4 Z1.5 F360.0 E31053.579
G1 X49.97 Y11.05 Z1.5 F360.0 E31054.213
G1 X49.97 Y10.45 Z1.5 F360.0 E31054.953
G1 X49.36 Y11.07 Z1.5 F360.0 E31056.041
G1 X49.08 Y10.76 Z1.5 F360.0 E31056.567
G1 X49.8 Y10.03 Z1.5 F360.0 E31057.85
G1 X49.21 Y10.03 Z1.5 F360.0 E31058.591
G1 X48.74 Y10.5 Z1.5 F360.0 E31059.419
G1 X48.36 Y10.29 Z1.5 F360.0 E31059.964
G1 X48.62 Y10.03 Z1.5 F360.0 E31060.418
G1 X48.02 Y10.03 Z1.5 F360.0 E31061.16
G1 X47.94 Y10.11 Z1.5 F360.0 E31061.306
G1 X47.43 Y10.03 Z1.5 F360.0 E31061.953
G1 X46.84 Y10.03 Z1.5 F360.0 E31062.693
G1 X46.82 Y10.05 Z1.5 F360.0 E31062.736
G1 X46.25 Y10.03 Z1.5 F360.0 E31063.448
G1 X45.98 Y10.3 Z1.5 F360.0 E31063.923
G1 X45.66 Y10.03 Z1.5 F360.0 E31064.45
G1 X10.03 Y45.66 Z1.5 F360.0 E31127.479
G1 X10.3 Y45.98 Z1.5 F360.0 E31128.006
G1 X10.03 Y46.25 Z1.5 F360.0 E31128.481
G1 X10.05 Y46.82 Z1.5 F360.0 E31129.193
G1 X10.03 Y46.84 Z1.5 F360.0 E31129.235
G1 X10.04 Y47.43 Z1.5 F360.0 E31129.967
G1 X10.11 Y47.94 Z1.5 F360.0 E31130.62
G1 X10.03 Y48.02 Z1.5 F360.0 E31130.768
G1 X10.29 Y48.36 Z1.5 F360.0 E31131.297
G1 X10.03 Y48.62 Z1.5 F360.0 E31131.752
G1 X10.5 Y48.74 Z1.5 F360.0 E31132.357
G1 X10.03 Y49.21 Z1.5 F360.0 E31133.185
G1 X10.03 Y49.8 Z1.5 F360.0 E31133.926
G1 X10.76 Y49.08 Z1.5 F360.0 E31135.209
G1 X11.07 Y49.36 Z1.5 F360.0 E31135.735
G1 X10.45 Y49.97 Z1.5 F360.0 E31136.823
G1 X11.05 Y49.97 Z1.5 F360.0 E31137.563
G1 X11.4 Y49.61 Z1.5 F360.0 E31138.197
G1 X11.64 Y49.97 Z1.5 F360.0 E31138.732
G1 X11.82 Y49.79 Z1.5 F360.0 E31139.056
G1 X12.23 Y49.97 Z1.5 F360.0 E31139.617
G1 X12.28 Y49.92 Z1.5 F360.0 E31139.7
G1 X13.41 Y49.97 Z1.5 F360.0 E31141.124
G1 X13.48 Y49.91 Z1.5 F360.0 E31141.236
;M103
G1 X15.54 Y47.84 Z1.5 F3600.0
;M101
G1 X47.84 Y15.54 Z1.5 F360.0 E31198.382
G1 X47.17 Y15.63 Z1.5 F360.0 E31199.237
G1 X15.63 Y47.17 Z1.5 F360.0 E31255.033
G1 X15.56 Y46.64 Z1.5 F360.0 E31255.692
G1 X46.64 Y15.56 Z1.5 F360.0 E31310.687
G1 X46.19 Y15.42 Z1.5 F360.0 E31311.284
G1 X15.42 Y46.19 Z1.5 F360.0 E31365.711
G1 X15.25 Y45.77 Z1.5 F360.0 E31366.277
G1 X45.77 Y15.25 Z1.5 F360.0 E31420.278
G1 X45.43 Y14.99 Z1.5 F360.0 E31420.805
G1 X14.99 Y45.43 Z1.5 F360.0 E31474.666
G1 X14.71 Y45.12 Z1.5 F360.0 E31475.191
G1 X45.12 Y14.71 Z1.5 F360.0 E31528.994
G1 X44.86 Y14.38 Z1.5 F360.0 E31529.522
G1 X14.38 Y44.86 Z1.5 F360.0 E31583.463
G1 X13.99 Y44.65 Z1.5 F360.0 E31584.008
G1 X44.65 Y13.99 Z1.5 F360.0 E31638.248
G1 X44.48 Y13.57 Z1.5 F360.0 E31638.816
G1 X13.57 Y44.48 Z1.5 F360.0 E31693.493
G1 X13.06 Y44.4 Z1.5 F360.0 E31694.144
G1 X44.4 Y13.06 Z1.5 F360.0 E31749.595
G1 X44.42 Y12.45 Z1.5 F360.0 E31750.358
G1 X12.45 Y44.42 Z1.5 F360.0 E31806.917
G1 X11.61 Y44.66 Z1.5 F360.0 E31808.007
G1 X44.66 Y11.61 Z1.5 F360.0 E31866.479
;M103
G1 X10.7 Y10.03 Z1.5 F3600.0
;M101
G1 X10.03 Y10.7 Z1.5 F360.0 E31867.673
G1 X10.03 Y10.11 Z1.5 F360.0 E31868.413
G1 X10.11 Y10.03 Z1.5 F360.0 E31868.56
;M103
G1 X14.01 Y11.62 Z1.5 F3600.0
G1 X14.28 Y11.97 Z1.5 F3600.0
G1 X14.45 Y12.38 Z1.5 F3600.0
G1 X14.51 Y12.82 Z1.5 F3600.0
G1 X14.45 Y13.25 Z1.5 F3600.0
G1 X14.28 Y13.66 Z1.5 F3600.0
G1 X14.09 Y13.92 Z1.5 F3600.0
G1 X46.24 Y45.79 Z1.5 F3600.0
G1 X46.34 Y45.72 Z1.5 F3600.0
G1 X46.75 Y45.55 Z1.5 F3600.0
G1 X47.18 Y45.5 Z1.5 F3600.0
G1 X47.62 Y45.55 Z1.5 F3600.0
G1 X48.03 Y45.72 Z1.5 F3600.0
G1 X48.38 Y45.99 Z1.5 F3600.0
G1 X49.97 Y49.55 Z1.5 F3600.0
;M101
G1 X49.55 Y49.97 Z1.5 F360.0 E31869.305
G1 X48.96 Y49.97 Z1.5 F360.0 E31870.046
G1 X49.97 Y48.96 Z1.5 F360.0 E31871.838
G1 X49.97 Y48.37 Z1.5 F360.0 E31872.58
G1 X48.37 Y49.97 Z1.5 F360.0 E31875.421
G1 X47.83 Y49.91 Z1.5 F360.0 E31876.09
G1 X47.77 Y49.97 Z1.5 F360.0 E31876.199
G1 X46.64 Y49.92 Z1.5 F360.0 E31877.622
G1 X46.59 Y49.97 Z1.5 F360.0 E31877.707
G1 X46.18 Y49.79 Z1.5 F360.0 E31878.266
G1 X46.0 Y49.97 Z1.5 F360.0 E31878.594
G1 X45.77 Y49.61 Z1.5 F360.0 E31879.131
G1 X45.4 Y49.97 Z1.5 F360.0 E31879.771
G1 X44.81 Y49.97 Z1.5 F360.0 E31880.512
G1 X45.43 Y49.35 Z1.5 F360.0 E31881.606
G1 X45.12 Y49.07 Z1.5 F360.0 E31882.131
G1 X44.22 Y49.97 Z1.5 F360.0 E31883.721
G1 X43.63 Y49.97 Z1.5 F360.0 E31884.462
G1 X44.86 Y48.74 Z1.5 F360.0 E31886.645
G1 X44.65 Y48.36 Z1.5 F360.0 E31887.19
G1 X43.03 Y49.97 Z1.5 F360.0 E31890.049
G1 X42.44 Y49.97 Z1.5 F360.0 E31890.791
G1 X44.48 Y47.94 Z1.5 F360.0 E31894.393
G1 X44.4 Y47.42 Z1.5 F360.0 E31895.047
G1 X41.85 Y49.97 Z1.5 F360.0 E31899.563
G1 X41.26 Y49.97 Z1.5 F360.0 E31900.304
G1 X44.42 Y46.81 Z1.5 F360.0 E31905.901
G1 X44.67 Y45.97 Z1.5 F360.0 E31906.998
G1 X40.66 Y49.97 Z1.5 F360.0 E31914.084
G1 X40.07 Y49.97 Z1.5 F360.0 E31914.824
G1 X49.97 Y40.07 Z1.5 F360.0 E31932.337
G1 X49.97 Y40.66 Z1.5 F360.0 E31933.078
G1 X45.97 Y44.67 Z1.5 F360.0 E31940.163
G1 X46.81 Y44.42 Z1.5 F360.0 E31941.261
G1 X49.97 Y41.26 Z1.5 F360.0 E31946.858
G1 X49.97 Y41.85 Z1.5 F360.0 E31947.598
G1 X47.42 Y44.4 Z1.5 F360.0 E31952.115
G1 X47.94 Y44.48 Z1.5 F360.0 E31952.768
G1 X49.97 Y42.44 Z1.5 F360.0 E31956.37
G1 X49.97 Y43.03 Z1.5 F360.0 E31957.112
G1 X48.36 Y44.65 Z1.5 F360.0 E31959.971
G1 X48.74 Y44.86 Z1.5 F360.0 E31960.517
G1 X49.97 Y43.63 Z1.5 F360.0 E31962.7
G1 X49.97 Y44.22 Z1.5 F360.0 E31963.44
G1 X49.07 Y45.12 Z1.5 F360.0 E31965.031
G1 X49.35 Y45.43 Z1.5 F360.0 E31965.555
G1 X49.97 Y44.81 Z1.5 F360.0 E31966.65
G1 X49.97 Y45.4 Z1.5 F360.0 E31967.39
G1 X49.61 Y45.77 Z1.5 F360.0 E31968.031
G1 X49.97 Y46.0 Z1.5 F360.0 E31968.568
G1 X49.79 Y46.18 Z1.5 F360.0 E31968.894
G1 X49.97 Y46.59 Z1.5 F360.0 E31969.455
G1 X49.92 Y46.64 Z1.5 F360.0 E31969.538
G1 X49.97 Y47.77 Z1.5 F360.0 E31970.963
G1 X49.91 Y47.83 Z1.5 F360.0 E31971.069
;M103
G1 X49.14 Y47.73 Z1.5 F3600.0
;M101
G1 X49.15 Y47.71 Z1.5 F360.0 E31971.099
G1 X49.21 Y47.18 Z1.5 F360.0 E31971.762
G1 X49.15 Y46.66 Z1.5 F360.0 E31972.425
G1 X48.94 Y46.17 Z1.5 F360.0 E31973.088
G1 X48.62 Y45.75 Z1.5 F360.0 E31973.751
G1 X48.2 Y45.42 Z1.5 F360.0 E31974.415
G1 X47.71 Y45.22 Z1.5 F360.0 E31975.078
G1 X47.18 Y45.15 Z1.5 F360.0 E31975.742
G1 X46.66 Y45.22 Z1.5 F360.0 E31976.404
G1 X46.17 Y45.42 Z1.5 F360.0 E31977.066
G1 X45.75 Y45.75 Z1.5 F360.0 E31977.731
G1 X45.42 Y46.17 Z1.5 F360.0 E31978.396
G1 X45.22 Y46.66 Z1.5 F360.0 E31979.058
G1 X45.15 Y47.18 Z1.5 F360.0 E31979.72
G1 X45.22 Y47.71 Z1.5 F360.0 E31980.384
G1 X45.42 Y48.2 Z1.5 F360.0 E31981.047
G1 X45.75 Y48.62 Z1.5 F360.0 E31981.711
G1 X46.17 Y48.94 Z1.5 F360.0 E31982.375
G1 X46.66 Y49.14 Z1.5 F360.0 E31983.037
G1 X47.18 Y49.21 Z1.5 F360.0 E31983.7
G1 X47.71 Y49.14 Z1.5 F360.0 E31984.363
G1 X48.2 Y48.94 Z1.5 F360.0 E31985.026
G1 X48.62 Y48.62 Z1.5 F360.0 E31985.689
G1 X48.94 Y48.2 Z1.5 F360.0 E31986.352
G1 X49.14 Y47.73 Z1.5 F360.0 E31986.986
;M103
G1 X49.55 Y47.82 Z1.5 F3600.0
;M101
G1 X49.64 Y47.18 Z1.5 F360.0 E31987.787
G1 X49.55 Y46.55 Z1.5 F360.0 E31988.587
G1 X49.31 Y45.96 Z1.5 F360.0 E31989.389
G1 X48.92 Y45.45 Z1.5 F360.0 E31990.189
G1 X48.41 Y45.06 Z1.5 F360.0 E31990.992
G1 X47.82 Y44.81 Z1.5 F360.0 E31991.793
G1 X47.18 Y44.73 Z1.5 F360.0 E31992.595
G1 X46.55 Y44.81 Z1.5 F360.0 E31993.395
G1 X45.96 Y45.06 Z1.5 F360.0 E31994.194
G1 X45.45 Y45.45 Z1.5 F360.0 E31994.998
G1 X45.06 Y45.96 Z1.5 F360.0 E31995.802
G1 X44.81 Y46.55 Z1.5 F360.0 E31996.601
G1 X44.73 Y47.18 Z1.5 F360.0 E31997.402
G1 X44.81 Y47.82 Z1.5 F360.0 E31998.203
G1 X45.06 Y48.41 Z1.5 F360.0 E31999.004
G1 X45.45 Y48.92 Z1.5 F360.0 E31999.807
G1 X45.96 Y49.31 Z1.5 F360.0 E32000.609
G1 X46.55 Y49.55 Z1.5 F360.0 E32001.409
G1 X47.18 Y49.64 Z1.5 F360.0 E32002.209
G1 X47.82 Y49.55 Z1.5 F360.0 E32003.01
G1 X48.41 Y49.31 Z1.5 F360.0 E32003.811
G1 X48.92 Y48.92 Z1.5 F360.0 E32004.613
G1 X49.31 Y48.41 Z1.5 F360.0 E32005.412
G1 X49.55 Y47.82 Z1.5 F360.0 E32006.216
;M103
G1 X47.18 Y14.85 Z1.5 F3600.0
;M101
G1 X47.71 Y14.78 Z1.5 F360.0 E32006.879
G1 X48.2 Y14.58 Z1.5 F360.0 E32007.543
G1 X48.62 Y14.25 Z1.5 F360.0 E32008.206
G1 X48.94 Y13.83 Z1.5 F360.0 E32008.869
G1 X49.15 Y13.34 Z1.5 F360.0 E32009.533
G1 X49.21 Y12.82 Z1.5 F360.0 E32010.195
G1 X49.15 Y12.29 Z1.5 F360.0 E32010.859
G1 X48.94 Y11.8 Z1.5 F360.0 E32011.523
G1 X48.62 Y11.38 Z1.5 F360.0 E32012.185
G1 X48.2 Y11.06 Z1.5 F360.0 E32012.848
G1 X47.71 Y10.86 Z1.5 F360.0 E32013.512
G1 X47.18 Y10.79 Z1.5 F360.0 E32014.175
G1 X46.66 Y10.86 Z1.5 F360.0 E32014.838
G1 X46.17 Y11.06 Z1.5 F360.0 E32015.501
G1 X45.75 Y11.38 Z1.5 F360.0 E32016.164
G1 X45.42 Y11.8 Z1.5 F360.0 E32016.828
G1 X45.22 Y12.29 Z1.5 F360.0 E32017.491
G1 X45.15 Y12.82 Z1.5 F360.0 E32018.155
G1 X45.22 Y13.34 Z1.5 F360.0 E32018.818
G1 X45.42 Y13.83 Z1.5 F360.0 E32019.479
G1 X45.75 Y14.25 Z1.5 F360.0 E32020.144
G1 X46.17 Y14.58 Z1.5 F360.0 E32020.809
G1 X46.66 Y14.78 Z1.5 F360.0 E32021.471
G1 X47.18 Y14.85 Z1.5 F360.0 E32022.134
;M103
G1 X47.18 Y15.27 Z1.5 F3600.0
;M101
G1 X47.82 Y15.19 Z1.5 F360.0 E32022.935
G1 X48.41 Y14.94 Z1.5 F360.0 E32023.736
G1 X48.92 Y14.55 Z1.5 F360.0 E32024.539
G1 X49.31 Y14.04 Z1.5 F360.0 E32025.339
G1 X49.55 Y13.45 Z1.5 F360.0 E32026.141
G1 X49.64 Y12.82 Z1.5 F360.0 E32026.941
G1 X49.55 Y12.18 Z1.5 F360.0 E32027.742
G1 X49.31 Y11.59 Z1.5 F360.0 E32028.546
G1 X48.92 Y11.08 Z1.5 F360.0 E32029.345
G1 X48.41 Y10.69 Z1.5 F360.0 E32030.145
G1 X47.82 Y10.45 Z1.5 F360.0 E32030.948
G1 X47.18 Y10.36 Z1.5 F360.0 E32031.749
G1 X46.55 Y10.45 Z1.5 F360.0 E32032.549
G1 X45.96 Y10.69 Z1.5 F360.0 E32033.351
G1 X45.45 Y11.08 Z1.5 F360.0 E32034.151
G1 X45.06 Y11.59 Z1.5 F360.0 E32034.954
G1 X44.81 Y12.18 Z1.5 F360.0 E32035.755
G1 X44.73 Y12.82 Z1.5 F360.0 E32036.557
G1 X44.81 Y13.45 Z1.5 F360.0 E32037.357
G1 X45.06 Y14.04 Z1.5 F360.0 E32038.156
G1 X45.45 Y14.55 Z1.5 F360.0 E32038.96
G1 X45.96 Y14.94 Z1.5 F360.0 E32039.764
G1 X46.55 Y15.19 Z1.5 F360.0 E32040.564
G1 X47.18 Y15.27 Z1.5 F360.0 E32041.364
;M103
G1 X14.85 Y12.82 Z1.5 F3600.0
;M101
G1 X14.78 Y12.29 Z1.5 F360.0 E32042.028
G1 X14.58 Y11.8 Z1.5 F360.0 E32042.691
G1 X14.25 Y11.38 Z1.5 F360.0 E32043.355
G1 X13.83 Y11.06 Z1.5 F360.0 E32044.018
G1 X13.34 Y10.86 Z1.5 F360.0 E32044.681
G1 X12.82 Y10.79 Z1.5 F360.0 E32045.344
G1 X12.29 Y10.86 Z1.5 F360.0 E32046.007
G1 X11.8 Y11.06 Z1.5 F360.0 E32046.671
G1 X11.38 Y11.38 Z1.5 F360.0 E32047.334
G1 X11.06 Y11.8 Z1.5 F360.0 E32047.997
G1 X10.86 Y12.29 Z1.5 F360.0 E32048.66
G1 X10.79 Y12.82 Z1.5 F360.0 E32049.323
G1 X10.86 Y13.34 Z1.5 F360.0 E32049.986
G1 X11.06 Y13.83 Z1.5 F360.0 E32050.648
G1 X11.38 Y14.25 Z1.5 F360.0 E32051.312
G1 X11.8 Y14.58 Z1.5 F360.0 E32051.976
G1 X12.29 Y14.78 Z1.5 F360.0 E32052.639
G1 X12.82 Y14.85 Z1.5 F360.0 E32053.303
G1 X13.34 Y14.78 Z1.5 F360.0 E32053.965
G1 X13.83 Y14.58 Z1.5 F360.0 E32054.627
G1 X14.25 Y14.25 Z1.5 F360.0 E32055.292
G1 X14.58 Y13.83 Z1.5 F360.0 E32055.957
G1 X14.78 Y13.34 Z1.5 F360.0 E32056.619
G1 X14.85 Y12.82 Z1.5 F360.0 E32057.281
;M103
G1 X15.27 Y12.82 Z1.5 F3600.0
;M101
G1 X15.19 Y12.18 Z1.5 F360.0 E32058.083
G1 X14.94 Y11.59 Z1.5 F360.0 E32058.884
G1 X14.55 Y11.08 Z1.5 F360.0 E32059.687
G1 X14.04 Y10.69 Z1.5 F360.0 E32060.487
G1 X13.45 Y10.45 Z1.5 F360.0 E32061.289
G1 X12.82 Y10.36 Z1.5 F360.0 E32062.089
G1 X12.18 Y10.45 Z1.5 F360.0 E32062.89
G1 X11.59 Y10.69 Z1.5 F360.0 E32063.693
G1 X11.08 Y11.08 Z1.5 F360.0 E32064.493
G1 X10.69 Y11.59 Z1.5 F360.0 E32065.294
G1 X10.45 Y12.18 Z1.5 F360.0 E32066.095
G1 X10.36 Y12.82 Z1.5 F360.0 E32066.896
G1 X10.45 Y13.45 Z1.5 F360.0 E32067.697
G1 X10.69 Y14.04 Z1.5 F360.0 E32068.496
G1 X11.08 Y14.55 Z1.5 F360.0 E32069.298
G1 X11.59 Y14.94 Z1.5 F360.0 E32070.101
G1 X12.18 Y15.19 Z1.5 F360.0 E32070.902
G1 X12.82 Y15.27 Z1.5 F360.0 E32071.704
G1 X13.45 Y15.19 Z1.5 F360.0 E32072.504
G1 X14.04 Y14.94 Z1.5 F360.0 E32073.303
G1 X14.55 Y14.55 Z1.5 F360.0 E32074.107
G1 X14.94 Y14.04 Z1.5 F360.0 E32074.911
G1 X15.19 Y13.45 Z1.5 F360.0 E32075.711
G1 X15.27 Y12.82 Z1.5 F360.0 E32076.511
;M103
G1 X12.82 Y45.15 Z1.5 F3600.0
;M101
G1 X12.29 Y45.22 Z1.5 F360.0 E32077.175
G1 X11.8 Y45.42 Z1.5 F360.0 E32077.838
G1 X11.38 Y45.75 Z1.5 F360.0 E32078.502
G1 X11.06 Y46.17 Z1.5 F360.0 E32079.166
G1 X10.86 Y46.66 Z1.5 F360.0 E32079.827
G1 X10.79 Y47.18 Z1.5 F360.0 E32080.49
G1 X10.86 Y47.71 Z1.5 F360.0 E32081.154
G1 X11.06 Y48.2 Z1.5 F360.0 E32081.817
G1 X11.38 Y48.62 Z1.5 F360.0 E32082.48
G1 X11.8 Y48.94 Z1.5 F360.0 E32083.143
G1 X12.29 Y49.14 Z1.5 F360.0 E32083.806
G1 X12.82 Y49.21 Z1.5 F360.0 E32084.469
G1 X13.34 Y49.14 Z1.5 F360.0 E32085.132
G1 X13.83 Y48.94 Z1.5 F360.0 E32085.794
G1 X14.25 Y48.62 Z1.5 F360.0 E32086.458
G1 X14.58 Y48.2 Z1.5 F360.0 E32087.122
G1 X14.78 Y47.71 Z1.5 F360.0 E32087.785
G1 X14.85 Y47.18 Z1.5 F360.0 E32088.449
G1 X14.78 Y46.66 Z1.5 F360.0 E32089.111
G1 X14.58 Y46.17 Z1.5 F360.0 E32089.773
G1 X14.25 Y45.75 Z1.5 F360.0 E32090.438
G1 X13.83 Y45.42 Z1.5 F360.0 E32091.103
G1 X13.34 Y45.22 Z1.5 F360.0 E32091.765
G1 X12.82 Y45.15 Z1.5 F360.0 E32092.427
;M103
G1 X12.82 Y44.73 Z1.5 F3600.0
;M101
G1 X12.18 Y44.81 Z1.5 F360.0 E32093.229
G1 X11.59 Y45.06 Z1.5 F360.0 E32094.03
G1 X11.08 Y45.45 Z1.5 F360.0 E32094.833
G1 X10.69 Y45.96 Z1.5 F360.0 E32095.635
G1 X10.45 Y46.55 Z1.5 F360.0 E32096.434
G1 X10.36 Y47.18 Z1.5 F360.0 E32097.234
G1 X10.45 Y47.82 Z1.5 F360.0 E32098.036
G1 X10.69 Y48.41 Z1.5 F360.0 E32098.837
G1 X11.08 Y48.92 Z1.5 F360.0 E32099.638
G1 X11.59 Y49.31 Z1.5 F360.0 E32100.439
G1 X12.18 Y49.55 Z1.5 F360.0 E32101.24
G1 X12.82 Y49.64 Z1.5 F360.0 E32102.042
G1 X13.45 Y49.55 Z1.5 F360.0 E32102.842
G1 X14.04 Y49.31 Z1.5 F360.0 E32103.641
G1 X14.55 Y48.92 Z1.5 F360.0 E32104.444
G1 X14.94 Y48.41 Z1.5 F360.0 E32105.247
G1 X15.19 Y47.82 Z1.5 F360.0 E32106.048
G1 X15.27 Y47.18 Z1.5 F360.0 E32106.849
G1 X15.19 Y46.55 Z1.5 F360.0 E32107.649
G1 X14.94 Y45.96 Z1.5 F360.0 E32108.449
G1 X14.55 Y45.45 Z1.5 F360.0 E32109.253
G1 X14.04 Y45.06 Z1.5 F360.0 E32110.057
G1 X13.45 Y44.81 Z1.5 F360.0 E32110.856
G1 X12.82 Y44.73 Z1.5 F360.0 E32111.656
;M103
G1 X9.67 Y44.73 Z1.5 F3600.0
;M101
G1 X9.67 Y9.67 Z1.5 F360.0 E32155.511
G1 X50.33 Y9.67 Z1.5 F360.0 E32206.369
G1 X50.33 Y50.33 Z1.5 F360.0 E32257.228
G1 X9.67 Y50.33 Z1.5 F360.0 E32308.086
G1 X9.67 Y44.73 Z1.5 F360.0 E32315.089
;M103
G1 X9.25 Y44.73 Z1.5 F3600.0
;M101
G1 X9.25 Y9.25 Z1.5 F360.0 E32359.468
G1 X50.75 Y9.25 Z1.5 F360.0 E32411.375
G1 X50.75 Y50.75 Z1.5 F360.0 E32463.281
G1 X9.25 Y50.75 Z1.5 F360.0 E32515.188
G1 X9.25 Y44.73 Z1.5 F360.0 E32522.715
;M103
;M108 S5.629
G1 X8.84 Y44.73 Z1.5 F3600.0
;M101
G1 X8.84 Y8.84 Z1.5 F270.0 E32567.613
G1 X51.17 Y8.84 Z1.5 F270.0 E32620.562
G1 X51.17 Y51.17 Z1.5 F270.0 E32673.511
G1 X8.84 Y51.17 Z1.5 F270.0 E32726.46
G1 X8.84 Y44.73 Z1.5 F270.0 E32734.51
;M103
G1 X11.42 Y46.38 Z1.5 F3600.0
;M101
G1 X11.26 Y46.77 Z1.5 F270.0 E32735.034
G1 X11.21 Y47.18 Z1.5 F270.0 E32735.559
G1 X11.26 Y47.6 Z1.5 F270.0 E32736.085
G1 X11.42 Y47.99 Z1.5 F270.0 E32736.61
G1 X11.68 Y48.32 Z1.5 F270.0 E32737.135
G1 X12.01 Y48.58 Z1.5 F270.0 E32737.659
G1 X12.4 Y48.74 Z1.5 F270.0 E32738.184
G1 X12.82 Y48.79 Z1.5 F270.0 E32738.71
G1 X13.23 Y48.74 Z1.5 F270.0 E32739.235
G1 X13.62 Y48.58 Z1.5 F270.0 E32739.759
G1 X13.95 Y48.32 Z1.5 F270.0 E32740.285
G1 X14.21 Y47.99 Z1.5 F270.0 E32740.81
G1 X14.37 Y47.6 Z1.5 F270.0 E32741.335
G1 X14.43 Y47.18 Z1.5 F270.0 E32741.861
G1 X14.37 Y46.77 Z1.5 F270.0 E32742.386
G1 X14.21 Y46.38 Z1.5 F270.0 E32742.91
G1 X13.95 Y46.05 Z1.5 F270.0 E32743.436
G1 X13.62 Y45.79 Z1.5 F270.0 E32743.963
G1 X13.23 Y45.63 Z1.5 F270.0 E32744.486
G1 X12.82 Y45.58 Z1.5 F270.0 E32745.011
G1 X12.4 Y45.63 Z1.5 F270.0 E32745.537
G1 X12.01 Y45.79 Z1.5 F270.0 E32746.062
G1 X11.68 Y46.05 Z1.5 F270.0 E32746.588
G1 X11.42 Y46.38 Z1.5 F270.0 E32747.114
;M103
G1 X12.82 Y14.43 Z1.5 F3600.0
;M101
G1 X13.23 Y14.37 Z1.5 F270.0 E32747.638
G1 X13.62 Y14.21 Z1.5 F270.0 E32748.162
G1 X13.95 Y13.95 Z1.5 F270.0 E32748.689
G1 X14.21 Y13.62 Z1.5 F270.0 E32749.215
G1 X14.37 Y13.23 Z1.5 F270.0 E32749.739
G1 X14.43 Y12.82 Z1.5 F270.0 E32750.264
G1 X14.37 Y12.4 Z1.5 F270.0 E32750.79
G1 X14.21 Y12.01 Z1.5 F270.0 E32751.315
G1 X13.95 Y11.68 Z1.5 F270.0 E32751.84
G1 X13.62 Y11.42 Z1.5 F270.0 E32752.365
G1 X13.23 Y11.26 Z1.5 F270.0 E32752.89
G1 X12.82 Y11.21 Z1.5 F270.0 E32753.415
G1 X12.4 Y11.26 Z1.5 F270.0 E32753.941
G1 X12.01 Y11.42 Z1.5 F270.0 E32754.467
G1 X11.68 Y11.68 Z1.5 F270.0 E32754.991
G1 X11.42 Y12.01 Z1.5 F270.0 E32755.515
G1 X11.26 Y12.4 Z1.5 F270.0 E32756.04
G1 X11.21 Y12.82 Z1.5 F270.0 E32756.567
G1 X11.26 Y13.23 Z1.5 F270.0 E32757.092
G1 X11.42 Y13.62 Z1.5 F270.0 E32757.615
G1 X11.68 Y13.95 Z1.5 F270.0 E32758.141
G1 X12.01 Y14.21 Z1.5 F270.0 E32758.666
G1 X12.4 Y14.37 Z1.5 F270.0 E32759.191
G1 X12.82 Y14.43 Z1.5 F270.0 E32759.718
;M103
G1 X45.58 Y12.82 Z1.5 F3600.0
;M101
G1 X45.63 Y13.23 Z1.5 F270.0 E32760.242
G1 X45.79 Y13.62 Z1.5 F270.0 E32760.766
G1 X46.05 Y13.95 Z1.5 F270.0 E32761.293
G1 X46.38 Y14.21 Z1.5 F270.0 E32761.819
G1 X46.77 Y14.37 Z1.5 F270.0 E32762.343
G1 X47.18 Y14.43 Z1.5 F270.0 E32762.868
G1 X47.6 Y14.37 Z1.5 F270.0 E32763.394
G1 X47.99 Y14.21 Z1.5 F270.0 E32763.919
G1 X48.32 Y13.95 Z1.5 F270.0 E32764.444
G1 X48.58 Y13.62 Z1.5 F270.0 E32764.969
G1 X48.74 Y13.23 Z1.5 F270.0 E32765.494
G1 X48.79 Y12.82 Z1.5 F270.0 E32766.019
G1 X48.74 Y12.4 Z1.5 F270.0 E32766.545
G1 X48.58 Y12.01 Z1.5 F270.0 E32767.071
G1 X48.32 Y11.68 Z1.5 F270.0 E32767.595
G1 X47.99 Y11.42 Z1.5 F270.0 E32768.119
G1 X47.6 Y11.26 Z1.5 F270.0 E32768.645
G1 X47.18 Y11.21 Z1.5 F270.0 E32769.171
G1 X46.77 Y11.26 Z1.5 F270.0 E32769.696
G1 X46.38 Y11.42 Z1.5 F270.0 E32770.221
G1 X46.05 Y11.68 Z1.5 F270.0 E32770.746
G1 X45.79 Y12.01 Z1.5 F270.0 E32771.271
G1 X45.63 Y12.4 Z1.5 F270.0 E32771.796
G1 X45.58 Y12.82 Z1.5 F270.0 E32772.322
;M103
G1 X47.18 Y45.58 Z1.5 F3600.0
;M101
G1 X46.77 Y45.63 Z1.5 F270.0 E32772.847
G1 X46.38 Y45.79 Z1.5 F270.0 E32773.371
G1 X46.05 Y46.05 Z1.5 F270.0 E32773.897
G1 X45.79 Y46.38 Z1.5 F270.0 E32774.424
G1 X45.63 Y46.77 Z1.5 F270.0 E32774.948
G1 X45.58 Y47.18 Z1.5 F270.0 E32775.473
G1 X45.63 Y47.6 Z1.5 F270.0 E32775.999
G1 X45.79 Y47.99 Z1.5 F270.0 E32776.524
G1 X46.05 Y48.32 Z1.5 F270.0 E32777.049
G1 X46.38 Y48.58 Z1.5 F270.0 E32777.575
G1 X46.77 Y48.74 Z1.5 F270.0 E32778.099
G1 X47.18 Y48.79 Z1.5 F270.0 E32778.624
G1 X47.6 Y48.74 Z1.5 F270.0 E32779.15
G1 X47.99 Y48.58 Z1.5 F270.0 E32779.675
G1 X48.32 Y48.32 Z1.5 F270.0 E32780.199
G1 X48.58 Y47.99 Z1.5 F270.0 E32780.723
G1 X48.74 Y47.6 Z1.5 F270.0 E32781.249
G1 X48.79 Y47.18 Z1.5 F270.0 E32781.775
G1 X48.74 Y46.77 Z1.5 F270.0 E32782.3
G1 X48.58 Y46.38 Z1.5 F270.0 E32782.825
G1 X48.32 Y46.05 Z1.5 F270.0 E32783.35
G1 X47.99 Y45.79 Z1.5 F270.0 E32783.875
G1 X47.6 Y45.63 Z1.5 F270.0 E32784.4
G1 X47.18 Y45.58 Z1.5 F270.0 E32784.926
;M103
;M108 S7.506
G1 X47.86 Y44.9 Z1.8 F3600.0
;M101
G1 X15.1 Y12.14 Z1.8 F360.0 E32842.888
G1 X15.21 Y12.84 Z1.8 F360.0 E32843.77
G1 X47.17 Y44.8 Z1.8 F360.0 E32900.313
G1 X46.64 Y44.87 Z1.8 F360.0 E32900.973
G1 X15.14 Y13.36 Z1.8 F360.0 E32956.715
G1 X14.98 Y13.79 Z1.8 F360.0 E32957.294
G1 X46.21 Y45.02 Z1.8 F360.0 E33012.545
G1 X45.83 Y45.24 Z1.8 F360.0 E33013.089
G1 X14.76 Y14.17 Z1.8 F360.0 E33068.047
G1 X14.51 Y14.51 Z1.8 F360.0 E33068.575
G1 X45.49 Y45.49 Z1.8 F360.0 E33123.395
G1 X45.24 Y45.83 Z1.8 F360.0 E33123.923
G1 X14.17 Y14.76 Z1.8 F360.0 E33178.881
G1 X13.79 Y14.98 Z1.8 F360.0 E33179.425
G1 X45.02 Y46.21 Z1.8 F360.0 E33234.676
G1 X44.87 Y46.64 Z1.8 F360.0 E33235.255
G1 X13.36 Y15.14 Z1.8 F360.0 E33290.997
G1 X12.84 Y15.21 Z1.8 F360.0 E33291.657
G1 X44.8 Y47.17 Z1.8 F360.0 E33348.2
G1 X44.9 Y47.86 Z1.8 F360.0 E33349.082
G1 X12.14 Y15.1 Z1.8 F360.0 E33407.044
;M103
G1 X10.53 Y13.5 Z1.8 F3600.0
;M101
G1 X9.61 Y12.57 Z1.8 F360.0 E33408.679
G1 X9.61 Y11.98 Z1.8 F360.0 E33409.419
G1 X10.43 Y12.8 Z1.8 F360.0 E33410.868
G1 X10.5 Y12.28 Z1.8 F360.0 E33411.528
G1 X9.61 Y11.39 Z1.8 F360.0 E33413.1
G1 X9.61 Y10.8 Z1.8 F360.0 E33413.842
G1 X10.66 Y11.84 Z1.8 F360.0 E33415.693
G1 X10.87 Y11.46 Z1.8 F360.0 E33416.237
G1 X9.61 Y10.2 Z1.8 F360.0 E33418.465
G1 X9.61 Y9.61 Z1.8 F360.0 E33419.207
G1 X11.13 Y11.13 Z1.8 F360.0 E33421.891
G1 X11.46 Y10.87 Z1.8 F360.0 E33422.419
G1 X10.2 Y9.61 Z1.8 F360.0 E33424.648
G1 X10.8 Y9.61 Z1.8 F360.0 E33425.388
G1 X11.84 Y10.66 Z1.8 F360.0 E33427.239
G1 X12.28 Y10.5 Z1.8 F360.0 E33427.816
G1 X11.39 Y9.61 Z1.8 F360.0 E33429.387
G1 X11.98 Y9.61 Z1.8 F360.0 E33430.127
G1 X12.8 Y10.43 Z1.8 F360.0 E33431.577
G1 X13.49 Y10.53 Z1.8 F360.0 E33432.456
G1 X12.57 Y9.61 Z1.8 F360.0 E33434.087
;M103
G1 X40.41 Y9.61 Z1.8 F3600.0
;M101
G1 X50.39 Y19.59 Z1.8 F360.0 E33451.736
G1 X50.39 Y20.18 Z1.8 F360.0 E33452.477
G1 X39.82 Y9.61 Z1.8 F360.0 E33471.174
G1 X39.23 Y9.61 Z1.8 F360.0 E33471.914
G1 X50.39 Y20.77 Z1.8 F360.0 E33491.658
G1 X50.39 Y21.36 Z1.8 F360.0 E33492.4
G1 X38.64 Y9.61 Z1.8 F360.0 E33513.193
G1 X38.05 Y9.61 Z1.8 F360.0 E33513.934
G1 X50.39 Y21.96 Z1.8 F360.0 E33535.774
G1 X50.39 Y22.55 Z1.8 F360.0 E33536.515
G1 X37.45 Y9.61 Z1.8 F360.0 E33559.403
G1 X36.86 Y9.61 Z1.8 F360.0 E33560.145
G1 X50.39 Y23.14 Z1.8 F360.0 E33584.082
G1 X50.39 Y23.73 Z1.8 F360.0 E33584.822
G1 X36.27 Y9.61 Z1.8 F360.0 E33609.807
G1 X35.67 Y9.61 Z1.8 F360.0 E33610.549
G1 X50.39 Y24.33 Z1.8 F360.0 E33636.582
G1 X50.39 Y24.92 Z1.8 F360.0 E33637.323
G1 X35.08 Y9.61 Z1.8 F360.0 E33664.404
G1 X34.49 Y9.61 Z1.8 F360.0 E33665.144
G1 X50.39 Y25.51 Z1.8 F360.0 E33693.272
G1 X50.39 Y26.1 Z1.8 F360.0 E33694.014
G1 X33.9 Y9.61 Z1.8 F360.0 E33723.192
G1 X33.31 Y9.61 Z1.8 F360.0 E33723.932
G1 X50.39 Y26.69 Z1.8 F360.0 E33754.157
G1 X50.39 Y27.29 Z1.8 F360.0 E33754.899
G1 X32.71 Y9.61 Z1.8 F360.0 E33786.173
G1 X32.12 Y9.61 Z1.8 F360.0 E33786.913
G1 X50.39 Y27.88 Z1.8 F360.0 E33819.234
G1 X50.39 Y28.47 Z1.8 F360.0 E33819.975
G1 X31.53 Y9.61 Z1.8 F360.0 E33853.343
G1 X30.94 Y9.61 Z1.8 F360.0 E33854.085
G1 X50.39 Y29.06 Z1.8 F360.0 E33888.503
G1 X50.39 Y29.66 Z1.8 F360.0 E33889.243
G1 X30.34 Y9.61 Z1.8 F360.0 E33924.708
G1 X29.75 Y9.61 Z1.8 F360.0 E33925.449
G1 X50.39 Y30.25 Z1.8 F360.0 E33961.961
G1 X50.39 Y30.84 Z1.8 F360.0 E33962.703
G1 X29.16 Y9.61 Z1.8 F360.0 E34000.265
G1 X28.57 Y9.61 Z1.8 F360.0 E34001.005
G1 X50.39 Y31.43 Z1.8 F360.0 E34039.614
G1 X50.39 Y32.03 Z1.8 F360.0 E34040.356
G1 X27.97 Y9.61 Z1.8 F360.0 E34080.014
G1 X27.38 Y9.61 Z1.8 F360.0 E34080.755
G1 X50.39 Y32.62 Z1.8 F360.0 E34121.46
G1 X50.39 Y33.21 Z1.8 F360.0 E34122.2
G1 X26.79 Y9.61 Z1.8 F360.0 E34163.953
G1 X26.2 Y9.61 Z1.8 F360.0 E34164.695
G1 X50.39 Y33.8 Z1.8 F360.0 E34207.497
G1 X50.39 Y34.4 Z1.8 F360.0 E34208.237
G1 X25.61 Y9.61 Z1.8 F360.0 E34252.087
G1 X25.01 Y9.61 Z1.8 F360.0 E34252.828
G1 X50.39 Y34.99 Z1.8 F360.0 E34297.727
G1 X50.39 Y35.58 Z1.8 F360.0 E34298.467
G1 X24.42 Y9.61 Z1.8 F360.0 E34344.413
G1 X23.83 Y9.61 Z1.8 F360.0 E34345.154
G1 X50.39 Y36.17 Z1.8 F360.0 E34392.146
G1 X50.39 Y36.77 Z1.8 F360.0 E34392.888
G1 X23.24 Y9.61 Z1.8 F360.0 E34440.93
G1 X22.64 Y9.61 Z1.8 F360.0 E34441.671
G1 X50.39 Y37.36 Z1.8 F360.0 E34490.761
G1 X50.39 Y37.95 Z1.8 F360.0 E34491.501
G1 X22.05 Y9.61 Z1.8 F360.0 E34541.638
G1 X21.46 Y9.61 Z1.8 F360.0 E34542.38
G1 X50.39 Y38.54 Z1.8 F360.0 E34593.566
G1 X50.39 Y39.13 Z1.8 F360.0 E34594.306
G1 X20.87 Y9.61 Z1.8 F360.0 E34646.54
G1 X20.27 Y9.61 Z1.8 F360.0 E34647.281
G1 X50.39 Y39.73 Z1.8 F360.0 E34700.564
G1 X50.39 Y40.32 Z1.8 F360.0 E34701.304
G1 X19.68 Y9.61 Z1.8 F360.0 E34755.634
G1 X19.09 Y9.61 Z1.8 F360.0 E34756.375
G1 X50.39 Y40.91 Z1.8 F360.0 E34811.752
G1 X50.39 Y41.5 Z1.8 F360.0 E34812.494
G1 X18.5 Y9.61 Z1.8 F360.0 E34868.92
G1 X17.9 Y9.61 Z1.8 F360.0 E34869.661
G1 X50.39 Y42.1 Z1.8 F360.0 E34927.134
G1 X50.39 Y42.69 Z1.8 F360.0 E34927.876
G1 X17.31 Y9.61 Z1.8 F360.0 E34986.399
G1 X16.72 Y9.61 Z1.8 F360.0 E34987.139
G1 X50.39 Y43.28 Z1.8 F360.0 E35046.71
G1 X50.39 Y43.87 Z1.8 F360.0 E35047.45
G1 X16.13 Y9.61 Z1.8 F360.0 E35108.068
G1 X15.53 Y9.61 Z1.8 F360.0 E35108.809
G1 X50.39 Y44.47 Z1.8 F360.0 E35170.476
G1 X50.39 Y45.06 Z1.8 F360.0 E35171.217
G1 X14.94 Y9.61 Z1.8 F360.0 E35233.931
G1 X14.35 Y9.61 Z1.8 F360.0 E35234.671
G1 X50.39 Y45.65 Z1.8 F360.0 E35298.432
G1 X50.39 Y46.24 Z1.8 F360.0 E35299.174
G1 X13.76 Y9.61 Z1.8 F360.0 E35363.985
G1 X13.17 Y9.61 Z1.8 F360.0 E35364.725
G1 X50.39 Y46.84 Z1.8 F360.0 E35430.583
G1 X50.39 Y47.43 Z1.8 F360.0 E35431.325
G1 X49.47 Y46.51 Z1.8 F360.0 E35432.956
G1 X49.57 Y47.2 Z1.8 F360.0 E35433.835
G1 X50.39 Y48.02 Z1.8 F360.0 E35435.285
G1 X50.39 Y48.61 Z1.8 F360.0 E35436.025
G1 X49.5 Y47.73 Z1.8 F360.0 E35437.595
G1 X49.34 Y48.16 Z1.8 F360.0 E35438.173
G1 X50.39 Y49.21 Z1.8 F360.0 E35440.024
G1 X50.39 Y49.8 Z1.8 F360.0 E35440.764
G1 X49.13 Y48.54 Z1.8 F360.0 E35442.993
G1 X48.87 Y48.87 Z1.8 F360.0 E35443.521
G1 X50.39 Y50.39 Z1.8 F360.0 E35446.205
G1 X49.8 Y50.39 Z1.8 F360.0 E35446.947
G1 X48.54 Y49.13 Z1.8 F360.0 E35449.175
G1 X48.16 Y49.34 Z1.8 F360.0 E35449.719
G1 X49.21 Y50.39 Z1.8 F360.0 E35451.57
G1 X48.61 Y50.39 Z1.8 F360.0 E35452.312
G1 X47.72 Y49.5 Z1.8 F360.0 E35453.884
G1 X47.2 Y49.57 Z1.8 F360.0 E35454.544
G1 X48.02 Y50.39 Z1.8 F360.0 E35455.993
G1 X47.43 Y50.39 Z1.8 F360.0 E35456.733
G1 X46.5 Y49.47 Z1.8 F360.0 E35458.368
;M103
G1 X46.84 Y50.39 Z1.8 F3600.0
;M101
G1 X9.61 Y13.17 Z1.8 F360.0 E35524.226
G1 X9.61 Y13.76 Z1.8 F360.0 E35524.966
G1 X46.24 Y50.39 Z1.8 F360.0 E35589.777
G1 X45.65 Y50.39 Z1.8 F360.0 E35590.519
G1 X9.61 Y14.35 Z1.8 F360.0 E35654.28
G1 X9.61 Y14.94 Z1.8 F360.0 E35655.021
G1 X45.06 Y50.39 Z1.8 F360.0 E35717.735
G1 X44.47 Y50.39 Z1.8 F360.0 E35718.475
G1 X9.61 Y15.53 Z1.8 F360.0 E35780.142
G1 X9.61 Y16.13 Z1.8 F360.0 E35780.884
G1 X43.87 Y50.39 Z1.8 F360.0 E35841.501
G1 X43.28 Y50.39 Z1.8 F360.0 E35842.242
G1 X9.61 Y16.72 Z1.8 F360.0 E35901.812
G1 X9.61 Y17.31 Z1.8 F360.0 E35902.552
G1 X42.69 Y50.39 Z1.8 F360.0 E35961.075
G1 X42.1 Y50.39 Z1.8 F360.0 E35961.817
G1 X9.61 Y17.9 Z1.8 F360.0 E36019.29
G1 X9.61 Y18.5 Z1.8 F360.0 E36020.031
G1 X41.5 Y50.39 Z1.8 F360.0 E36076.457
G1 X40.91 Y50.39 Z1.8 F360.0 E36077.199
G1 X9.61 Y19.09 Z1.8 F360.0 E36132.576
G1 X9.61 Y19.68 Z1.8 F360.0 E36133.317
G1 X40.32 Y50.39 Z1.8 F360.0 E36187.647
G1 X39.73 Y50.39 Z1.8 F360.0 E36188.387
G1 X9.61 Y20.27 Z1.8 F360.0 E36241.67
G1 X9.61 Y20.87 Z1.8 F360.0 E36242.412
G1 X39.13 Y50.39 Z1.8 F360.0 E36294.645
G1 X38.54 Y50.39 Z1.8 F360.0 E36295.385
G1 X9.61 Y21.46 Z1.8 F360.0 E36346.571
G1 X9.61 Y22.05 Z1.8 F360.0 E36347.313
G1 X37.95 Y50.39 Z1.8 F360.0 E36397.45
G1 X37.36 Y50.39 Z1.8 F360.0 E36398.191
G1 X9.61 Y22.64 Z1.8 F360.0 E36447.28
G1 X9.61 Y23.24 Z1.8 F360.0 E36448.021
G1 X36.77 Y50.39 Z1.8 F360.0 E36496.063
G1 X36.17 Y50.39 Z1.8 F360.0 E36496.805
G1 X9.61 Y23.83 Z1.8 F360.0 E36543.798
G1 X9.61 Y24.42 Z1.8 F360.0 E36544.538
G1 X35.58 Y50.39 Z1.8 F360.0 E36590.484
G1 X34.99 Y50.39 Z1.8 F360.0 E36591.224
G1 X9.61 Y25.01 Z1.8 F360.0 E36636.123
G1 X9.61 Y25.61 Z1.8 F360.0 E36636.865
G1 X34.4 Y50.39 Z1.8 F360.0 E36680.714
G1 X33.8 Y50.39 Z1.8 F360.0 E36681.454
G1 X9.61 Y26.2 Z1.8 F360.0 E36724.256
G1 X9.61 Y26.79 Z1.8 F360.0 E36724.998
G1 X33.21 Y50.39 Z1.8 F360.0 E36766.751
G1 X32.62 Y50.39 Z1.8 F360.0 E36767.491
G1 X9.61 Y27.38 Z1.8 F360.0 E36808.197
G1 X9.61 Y27.97 Z1.8 F360.0 E36808.937
G1 X32.03 Y50.39 Z1.8 F360.0 E36848.595
G1 X31.43 Y50.39 Z1.8 F360.0 E36849.337
G1 X9.61 Y28.57 Z1.8 F360.0 E36887.946
G1 X9.61 Y29.16 Z1.8 F360.0 E36888.686
G1 X30.84 Y50.39 Z1.8 F360.0 E36926.248
G1 X30.25 Y50.39 Z1.8 F360.0 E36926.99
G1 X9.61 Y29.75 Z1.8 F360.0 E36963.502
G1 X9.61 Y30.34 Z1.8 F360.0 E36964.243
G1 X29.66 Y50.39 Z1.8 F360.0 E36999.708
G1 X29.06 Y50.39 Z1.8 F360.0 E37000.448
G1 X9.61 Y30.94 Z1.8 F360.0 E37034.866
G1 X9.61 Y31.53 Z1.8 F360.0 E37035.608
G1 X28.47 Y50.39 Z1.8 F360.0 E37068.976
G1 X27.88 Y50.39 Z1.8 F360.0 E37069.717
G1 X9.61 Y32.12 Z1.8 F360.0 E37102.038
G1 X9.61 Y32.71 Z1.8 F360.0 E37102.779
G1 X27.29 Y50.39 Z1.8 F360.0 E37134.052
G1 X26.69 Y50.39 Z1.8 F360.0 E37134.794
G1 X9.61 Y33.31 Z1.8 F360.0 E37165.019
G1 X9.61 Y33.9 Z1.8 F360.0 E37165.76
G1 X26.1 Y50.39 Z1.8 F360.0 E37194.937
G1 X25.51 Y50.39 Z1.8 F360.0 E37195.679
G1 X9.61 Y34.49 Z1.8 F360.0 E37223.807
G1 X9.61 Y35.08 Z1.8 F360.0 E37224.548
G1 X24.92 Y50.39 Z1.8 F360.0 E37251.628
G1 X24.33 Y50.39 Z1.8 F360.0 E37252.369
G1 X9.61 Y35.67 Z1.8 F360.0 E37278.403
G1 X9.61 Y36.27 Z1.8 F360.0 E37279.144
G1 X23.73 Y50.39 Z1.8 F360.0 E37304.129
G1 X23.14 Y50.39 Z1.8 F360.0 E37304.869
G1 X9.61 Y36.86 Z1.8 F360.0 E37328.806
G1 X9.61 Y37.45 Z1.8 F360.0 E37329.548
G1 X22.55 Y50.39 Z1.8 F360.0 E37352.436
G1 X21.96 Y50.39 Z1.8 F360.0 E37353.177
G1 X9.61 Y38.05 Z1.8 F360.0 E37375.017
G1 X9.61 Y38.64 Z1.8 F360.0 E37375.758
G1 X21.36 Y50.39 Z1.8 F360.0 E37396.551
G1 X20.77 Y50.39 Z1.8 F360.0 E37397.293
G1 X9.61 Y39.23 Z1.8 F360.0 E37417.037
G1 X9.61 Y39.82 Z1.8 F360.0 E37417.778
G1 X20.18 Y50.39 Z1.8 F360.0 E37436.474
G1 X19.59 Y50.39 Z1.8 F360.0 E37437.215
G1 X9.61 Y40.41 Z1.8 F360.0 E37454.864
G1 X9.61 Y41.01 Z1.8 F360.0 E37455.606
G1 X13.51 Y44.91 Z1.8 F360.0 E37462.504
G1 X12.81 Y44.79 Z1.8 F360.0 E37463.395
G1 X9.61 Y41.6 Z1.8 F360.0 E37469.048
G1 X9.61 Y42.19 Z1.8 F360.0 E37469.79
G1 X12.28 Y44.86 Z1.8 F360.0 E37474.518
G1 X11.85 Y45.02 Z1.8 F360.0 E37475.097
G1 X9.61 Y42.78 Z1.8 F360.0 E37479.054
G1 X9.61 Y43.38 Z1.8 F360.0 E37479.795
G1 X11.47 Y45.23 Z1.8 F360.0 E37483.078
G1 X11.13 Y45.49 Z1.8 F360.0 E37483.607
G1 X9.61 Y43.97 Z1.8 F360.0 E37486.298
G1 X9.61 Y44.56 Z1.8 F360.0 E37487.039
G1 X10.87 Y45.82 Z1.8 F360.0 E37489.273
G1 X10.66 Y46.2 Z1.8 F360.0 E37489.817
G1 X9.61 Y45.15 Z1.8 F360.0 E37491.672
G1 X9.61 Y45.75 Z1.8 F360.0 E37492.412
G1 X10.5 Y46.64 Z1.8 F360.0 E37493.986
G1 X10.43 Y47.16 Z1.8 F360.0 E37494.646
G1 X9.61 Y46.34 Z1.8 F360.0 E37496.097
G1 X9.61 Y46.93 Z1.8 F360.0 E37496.839
G1 X10.53 Y47.85 Z1.8 F360.0 E37498.462
;M103
G1 X9.61 Y48.12 Z1.8 F3600.0
;M101
G1 X11.89 Y50.39 Z1.8 F360.0 E37502.487
G1 X12.48 Y50.39 Z1.8 F360.0 E37503.227
G1 X9.61 Y47.52 Z1.8 F360.0 E37508.3
;M103
G1 X9.61 Y48.71 Z1.8 F3600.0
;M101
G1 X11.29 Y50.39 Z1.8 F360.0 E37511.275
G1 X10.7 Y50.39 Z1.8 F360.0 E37512.016
G1 X9.61 Y49.3 Z1.8 F360.0 E37513.944
G1 X9.61 Y49.89 Z1.8 F360.0 E37514.686
G1 X10.11 Y50.39 Z1.8 F360.0 E37515.565
;M103
G1 X12.15 Y49.47 Z1.8 F3600.0
;M101
G1 X13.07 Y50.39 Z1.8 F360.0 E37517.189
G1 X13.66 Y50.39 Z1.8 F360.0 E37517.93
G1 X12.84 Y49.57 Z1.8 F360.0 E37519.381
G1 X13.37 Y49.5 Z1.8 F360.0 E37520.041
G1 X14.25 Y50.39 Z1.8 F360.0 E37521.615
G1 X14.85 Y50.39 Z1.8 F360.0 E37522.356
G1 X13.8 Y49.34 Z1.8 F360.0 E37524.211
G1 X14.18 Y49.13 Z1.8 F360.0 E37524.754
G1 X15.44 Y50.39 Z1.8 F360.0 E37526.988
G1 X16.03 Y50.39 Z1.8 F360.0 E37527.729
G1 X14.51 Y48.87 Z1.8 F360.0 E37530.42
G1 X14.77 Y48.53 Z1.8 F360.0 E37530.949
G1 X16.62 Y50.39 Z1.8 F360.0 E37534.233
G1 X17.22 Y50.39 Z1.8 F360.0 E37534.973
G1 X14.98 Y48.15 Z1.8 F360.0 E37538.93
G1 X15.14 Y47.72 Z1.8 F360.0 E37539.509
G1 X17.81 Y50.39 Z1.8 F360.0 E37544.237
G1 X18.4 Y50.39 Z1.8 F360.0 E37544.979
G1 X15.21 Y47.19 Z1.8 F360.0 E37550.633
G1 X15.09 Y46.49 Z1.8 F360.0 E37551.523
G1 X18.99 Y50.39 Z1.8 F360.0 E37558.421
;M103
G1 X48.65 Y13.66 Z1.8 F3600.0
G1 X49.89 Y9.61 Z1.8 F3600.0
;M101
G1 X50.39 Y10.11 Z1.8 F360.0 E37559.3
G1 X50.39 Y10.7 Z1.8 F360.0 E37560.042
G1 X49.3 Y9.61 Z1.8 F360.0 E37561.971
G1 X48.71 Y9.61 Z1.8 F360.0 E37562.711
G1 X50.39 Y11.29 Z1.8 F360.0 E37565.687
G1 X50.39 Y11.89 Z1.8 F360.0 E37566.429
G1 X48.12 Y9.61 Z1.8 F360.0 E37570.454
G1 X47.52 Y9.61 Z1.8 F360.0 E37571.194
G1 X50.39 Y12.48 Z1.8 F360.0 E37576.267
G1 X50.39 Y13.07 Z1.8 F360.0 E37577.007
G1 X49.47 Y12.15 Z1.8 F360.0 E37578.627
G1 X49.57 Y12.84 Z1.8 F360.0 E37579.496
G1 X50.39 Y13.66 Z1.8 F360.0 E37580.947
G1 X50.39 Y14.25 Z1.8 F360.0 E37581.687
G1 X49.5 Y13.37 Z1.8 F360.0 E37583.259
G1 X49.34 Y13.8 Z1.8 F360.0 E37583.835
G1 X50.39 Y14.85 Z1.8 F360.0 E37585.69
G1 X50.39 Y15.44 Z1.8 F360.0 E37586.432
G1 X49.13 Y14.18 Z1.8 F360.0 E37588.667
G1 X48.87 Y14.51 Z1.8 F360.0 E37589.195
G1 X50.39 Y16.03 Z1.8 F360.0 E37591.886
G1 X50.39 Y16.62 Z1.8 F360.0 E37592.628
G1 X48.53 Y14.77 Z1.8 F360.0 E37595.911
G1 X48.15 Y14.98 Z1.8 F360.0 E37596.457
G1 X50.39 Y17.22 Z1.8 F360.0 E37600.413
G1 X50.39 Y17.81 Z1.8 F360.0 E37601.154
G1 X47.72 Y15.14 Z1.8 F360.0 E37605.882
G1 X47.19 Y15.21 Z1.8 F360.0 E37606.542
G1 X50.39 Y18.4 Z1.8 F360.0 E37612.196
G1 X50.39 Y18.99 Z1.8 F360.0 E37612.936
G1 X46.49 Y15.09 Z1.8 F360.0 E37619.834
;M103
G1 X44.91 Y13.51 Z1.8 F3600.0
;M101
G1 X41.01 Y9.61 Z1.8 F360.0 E37626.732
G1 X41.6 Y9.61 Z1.8 F360.0 E37627.473
G1 X44.79 Y12.81 Z1.8 F360.0 E37633.126
G1 X44.86 Y12.28 Z1.8 F360.0 E37633.786
G1 X42.19 Y9.61 Z1.8 F360.0 E37638.515
G1 X42.78 Y9.61 Z1.8 F360.0 E37639.255
G1 X45.02 Y11.85 Z1.8 F360.0 E37643.212
G1 X45.23 Y11.47 Z1.8 F360.0 E37643.757
G1 X43.38 Y9.61 Z1.8 F360.0 E37647.041
G1 X43.97 Y9.61 Z1.8 F360.0 E37647.783
G1 X45.49 Y11.13 Z1.8 F360.0 E37650.474
G1 X45.82 Y10.87 Z1.8 F360.0 E37651.002
G1 X44.56 Y9.61 Z1.8 F360.0 E37653.236
G1 X45.15 Y9.61 Z1.8 F360.0 E37653.978
G1 X46.2 Y10.66 Z1.8 F360.0 E37655.833
G1 X46.63 Y10.5 Z1.8 F360.0 E37656.409
G1 X45.75 Y9.61 Z1.8 F360.0 E37657.981
G1 X46.34 Y9.61 Z1.8 F360.0 E37658.722
G1 X47.16 Y10.43 Z1.8 F360.0 E37660.173
G1 X47.85 Y10.53 Z1.8 F360.0 E37661.042
G1 X46.93 Y9.61 Z1.8 F360.0 E37662.661
;M103
G1 X47.52 Y10.83 Z1.8 F3600.0
;M101
G1 X47.18 Y10.79 Z1.8 F360.0 E37663.092
G1 X46.66 Y10.86 Z1.8 F360.0 E37663.754
G1 X46.17 Y11.06 Z1.8 F360.0 E37664.417
G1 X45.75 Y11.38 Z1.8 F360.0 E37665.081
G1 X45.42 Y11.8 Z1.8 F360.0 E37665.744
G1 X45.22 Y12.29 Z1.8 F360.0 E37666.407
G1 X45.15 Y12.82 Z1.8 F360.0 E37667.071
G1 X45.22 Y13.34 Z1.8 F360.0 E37667.734
G1 X45.42 Y13.83 Z1.8 F360.0 E37668.396
G1 X45.75 Y14.25 Z1.8 F360.0 E37669.06
G1 X46.17 Y14.58 Z1.8 F360.0 E37669.725
G1 X46.66 Y14.78 Z1.8 F360.0 E37670.387
G1 X47.18 Y14.85 Z1.8 F360.0 E37671.05
G1 X47.71 Y14.78 Z1.8 F360.0 E37671.714
G1 X48.2 Y14.58 Z1.8 F360.0 E37672.377
G1 X48.62 Y14.25 Z1.8 F360.0 E37673.04
G1 X48.94 Y13.83 Z1.8 F360.0 E37673.703
G1 X49.15 Y13.34 Z1.8 F360.0 E37674.367
G1 X49.21 Y12.82 Z1.8 F360.0 E37675.029
G1 X49.15 Y12.29 Z1.8 F360.0 E37675.693
G1 X48.94 Y11.8 Z1.8 F360.0 E37676.357
G1 X48.62 Y11.38 Z1.8 F360.0 E37677.019
G1 X48.2 Y11.06 Z1.8 F360.0 E37677.682
G1 X47.71 Y10.86 Z1.8 F360.0 E37678.346
G1 X47.52 Y10.83 Z1.8 F360.0 E37678.579
;M103
G1 X14.85 Y12.82 Z1.8 F3600.0
;M101
G1 X14.78 Y12.29 Z1.8 F360.0 E37679.243
G1 X14.58 Y11.8 Z1.8 F360.0 E37679.906
G1 X14.25 Y11.38 Z1.8 F360.0 E37680.57
G1 X13.83 Y11.06 Z1.8 F360.0 E37681.233
G1 X13.34 Y10.86 Z1.8 F360.0 E37681.896
G1 X12.82 Y10.79 Z1.8 F360.0 E37682.559
G1 X12.29 Y10.86 Z1.8 F360.0 E37683.222
G1 X11.8 Y11.06 Z1.8 F360.0 E37683.886
G1 X11.38 Y11.38 Z1.8 F360.0 E37684.549
G1 X11.06 Y11.8 Z1.8 F360.0 E37685.212
G1 X10.86 Y12.29 Z1.8 F360.0 E37685.875
G1 X10.79 Y12.82 Z1.8 F360.0 E37686.539
G1 X10.86 Y13.34 Z1.8 F360.0 E37687.201
G1 X11.06 Y13.83 Z1.8 F360.0 E37687.863
G1 X11.38 Y14.25 Z1.8 F360.0 E37688.527
G1 X11.8 Y14.58 Z1.8 F360.0 E37689.191
G1 X12.29 Y14.78 Z1.8 F360.0 E37689.854
G1 X12.82 Y14.85 Z1.8 F360.0 E37690.518
G1 X13.34 Y14.78 Z1.8 F360.0 E37691.18
G1 X13.83 Y14.58 Z1.8 F360.0 E37691.842
G1 X14.25 Y14.25 Z1.8 F360.0 E37692.507
G1 X14.58 Y13.83 Z1.8 F360.0 E37693.172
G1 X14.78 Y13.34 Z1.8 F360.0 E37693.834
G1 X14.85 Y12.82 Z1.8 F360.0 E37694.496
;M103
G1 X45.75 Y45.75 Z1.8 F3600.0
;M101
G1 X45.42 Y46.17 Z1.8 F360.0 E37695.161
G1 X45.22 Y46.66 Z1.8 F360.0 E37695.823
G1 X45.15 Y47.18 Z1.8 F360.0 E37696.486
G1 X45.22 Y47.71 Z1.8 F360.0 E37697.149
G1 X45.42 Y48.2 Z1.8 F360.0 E37697.812
G1 X45.75 Y48.62 Z1.8 F360.0 E37698.476
G1 X46.17 Y48.94 Z1.8 F360.0 E37699.14
G1 X46.66 Y49.14 Z1.8 F360.0 E37699.802
G1 X47.18 Y49.21 Z1.8 F360.0 E37700.465
G1 X47.71 Y49.14 Z1.8 F360.0 E37701.129
G1 X48.2 Y48.94 Z1.8 F360.0 E37701.792
G1 X48.62 Y48.62 Z1.8 F360.0 E37702.454
G1 X48.94 Y48.2 Z1.8 F360.0 E37703.117
G1 X49.15 Y47.71 Z1.8 F360.0 E37703.781
G1 X49.21 Y47.18 Z1.8 F360.0 E37704.444
G1 X49.15 Y46.66 Z1.8 F360.0 E37705.107
G1 X48.94 Y46.17 Z1.8 F360.0 E37705.77
G1 X48.62 Y45.75 Z1.8 F360.0 E37706.433
G1 X48.2 Y45.42 Z1.8 F360.0 E37707.097
G1 X47.71 Y45.22 Z1.8 F360.0 E37707.76
G1 X47.18 Y45.15 Z1.8 F360.0 E37708.424
G1 X46.66 Y45.22 Z1.8 F360.0 E37709.087
G1 X46.17 Y45.42 Z1.8 F360.0 E37709.749
G1 X45.75 Y45.75 Z1.8 F360.0 E37710.413
;M103
G1 X14.85 Y47.18 Z1.8 F3600.0
;M101
G1 X14.78 Y46.66 Z1.8 F360.0 E37711.076
G1 X14.58 Y46.17 Z1.8 F360.0 E37711.738
G1 X14.25 Y45.75 Z1.8 F360.0 E37712.403
G1 X13.83 Y45.42 Z1.8 F360.0 E37713.068
G1 X13.34 Y45.22 Z1.8 F360.0 E37713.729
G1 X12.82 Y45.15 Z1.8 F360.0 E37714.392
G1 X12.29 Y45.22 Z1.8 F360.0 E37715.056
G1 X11.8 Y45.42 Z1.8 F360.0 E37715.719
G1 X11.38 Y45.75 Z1.8 F360.0 E37716.383
G1 X11.06 Y46.17 Z1.8 F360.0 E37717.047
G1 X10.86 Y46.66 Z1.8 F360.0 E37717.709
G1 X10.79 Y47.18 Z1.8 F360.0 E37718.371
G1 X10.86 Y47.71 Z1.8 F360.0 E37719.035
G1 X11.06 Y48.2 Z1.8 F360.0 E37719.698
G1 X11.38 Y48.62 Z1.8 F360.0 E37720.361
G1 X11.8 Y48.94 Z1.8 F360.0 E37721.024
G1 X12.29 Y49.14 Z1.8 F360.0 E37721.687
G1 X12.82 Y49.21 Z1.8 F360.0 E37722.351
G1 X13.34 Y49.14 Z1.8 F360.0 E37723.013
G1 X13.83 Y48.94 Z1.8 F360.0 E37723.675
G1 X14.25 Y48.62 Z1.8 F360.0 E37724.339
G1 X14.58 Y48.2 Z1.8 F360.0 E37725.003
G1 X14.78 Y47.71 Z1.8 F360.0 E37725.666
G1 X14.85 Y47.18 Z1.8 F360.0 E37726.33
;M103
G1 X14.85 Y50.75 Z1.8 F3600.0
;M101
G1 X9.25 Y50.75 Z1.8 F360.0 E37733.328
G1 X9.25 Y9.25 Z1.8 F360.0 E37785.234
G1 X50.75 Y9.25 Z1.8 F360.0 E37837.141
G1 X50.75 Y50.75 Z1.8 F360.0 E37889.047
G1 X14.85 Y50.75 Z1.8 F360.0 E37933.956
;M103
;M108 S5.629
G1 X14.85 Y51.17 Z1.8 F3600.0
;M101
G1 X8.84 Y51.17 Z1.8 F270.0 E37941.476
G1 X8.84 Y8.84 Z1.8 F270.0 E37994.425
G1 X51.17 Y8.84 Z1.8 F270.0 E38047.374
G1 X51.17 Y51.17 Z1.8 F270.0 E38100.323
G1 X14.85 Y51.17 Z1.8 F270.0 E38145.751
;M103
G1 X13.62 Y48.58 Z1.8 F3600.0
;M101
G1 X13.95 Y48.32 Z1.8 F270.0 E38146.277
G1 X14.21 Y47.99 Z1.8 F270.0 E38146.802
G1 X14.37 Y47.6 Z1.8 F270.0 E38147.327
G1 X14.43 Y47.18 Z1.8 F270.0 E38147.853
G1 X14.37 Y46.77 Z1.8 F270.0 E38148.378
G1 X14.21 Y46.38 Z1.8 F270.0 E38148.902
G1 X13.95 Y46.05 Z1.8 F270.0 E38149.429
G1 X13.62 Y45.79 Z1.8 F270.0 E38149.955
G1 X13.23 Y45.63 Z1.8 F270.0 E38150.479
G1 X12.82 Y45.58 Z1.8 F270.0 E38151.004
G1 X12.4 Y45.63 Z1.8 F270.0 E38151.53
G1 X12.01 Y45.79 Z1.8 F270.0 E38152.055
G1 X11.68 Y46.05 Z1.8 F270.0 E38152.58
G1 X11.42 Y46.38 Z1.8 F270.0 E38153.106
G1 X11.26 Y46.77 Z1.8 F270.0 E38153.63
G1 X11.21 Y47.18 Z1.8 F270.0 E38154.155
G1 X11.26 Y47.6 Z1.8 F270.0 E38154.681
G1 X11.42 Y47.99 Z1.8 F270.0 E38155.206
G1 X11.68 Y48.32 Z1.8 F270.0 E38155.73
G1 X12.01 Y48.58 Z1.8 F270.0 E38156.255
G1 X12.4 Y48.74 Z1.8 F270.0 E38156.78
G1 X12.82 Y48.79 Z1.8 F270.0 E38157.306
G1 X13.23 Y48.74 Z1.8 F270.0 E38157.831
G1 X13.62 Y48.58 Z1.8 F270.0 E38158.354
;M103
G1 X45.58 Y47.18 Z1.8 F3600.0
;M101
G1 X45.63 Y47.6 Z1.8 F270.0 E38158.881
G1 X45.79 Y47.99 Z1.8 F270.0 E38159.406
G1 X46.05 Y48.32 Z1.8 F270.0 E38159.931
G1 X46.38 Y48.58 Z1.8 F270.0 E38160.457
G1 X46.77 Y48.74 Z1.8 F270.0 E38160.98
G1 X47.18 Y48.79 Z1.8 F270.0 E38161.505
G1 X47.6 Y48.74 Z1.8 F270.0 E38162.031
G1 X47.99 Y48.58 Z1.8 F270.0 E38162.556
G1 X48.32 Y48.32 Z1.8 F270.0 E38163.081
G1 X48.58 Y47.99 Z1.8 F270.0 E38163.605
G1 X48.74 Y47.6 Z1.8 F270.0 E38164.131
G1 X48.79 Y47.18 Z1.8 F270.0 E38164.657
G1 X48.74 Y46.77 Z1.8 F270.0 E38165.182
G1 X48.58 Y46.38 Z1.8 F270.0 E38165.707
G1 X48.32 Y46.05 Z1.8 F270.0 E38166.232
G1 X47.99 Y45.79 Z1.8 F270.0 E38166.757
G1 X47.6 Y45.63 Z1.8 F270.0 E38167.282
G1 X47.18 Y45.58 Z1.8 F270.0 E38167.808
G1 X46.77 Y45.63 Z1.8 F270.0 E38168.333
G1 X46.38 Y45.79 Z1.8 F270.0 E38168.857
G1 X46.05 Y46.05 Z1.8 F270.0 E38169.383
G1 X45.79 Y46.38 Z1.8 F270.0 E38169.91
G1 X45.63 Y46.77 Z1.8 F270.0 E38170.434
G1 X45.58 Y47.18 Z1.8 F270.0 E38170.958
;M103
G1 X47.18 Y14.43 Z1.8 F3600.0
;M101
G1 X47.6 Y14.37 Z1.8 F270.0 E38171.485
G1 X47.99 Y14.21 Z1.8 F270.0 E38172.01
G1 X48.32 Y13.95 Z1.8 F270.0 E38172.535
G1 X48.58 Y13.62 Z1.8 F270.0 E38173.06
G1 X48.74 Y13.23 Z1.8 F270.0 E38173.585
G1 X48.79 Y12.82 Z1.8 F270.0 E38174.11
G1 X48.74 Y12.4 Z1.8 F270.0 E38174.636
G1 X48.58 Y12.01 Z1.8 F270.0 E38175.161
G1 X48.32 Y11.68 Z1.8 F270.0 E38175.686
G1 X47.99 Y11.42 Z1.8 F270.0 E38176.21
G1 X47.6 Y11.26 Z1.8 F270.0 E38176.736
G1 X47.18 Y11.21 Z1.8 F270.0 E38177.262
G1 X46.77 Y11.26 Z1.8 F270.0 E38177.786
G1 X46.38 Y11.42 Z1.8 F270.0 E38178.312
G1 X46.05 Y11.68 Z1.8 F270.0 E38178.836
G1 X45.79 Y12.01 Z1.8 F270.0 E38179.362
G1 X45.63 Y12.4 Z1.8 F270.0 E38179.887
G1 X45.58 Y12.82 Z1.8 F270.0 E38180.413
G1 X45.63 Y13.23 Z1.8 F270.0 E38180.938
G1 X45.79 Y13.62 Z1.8 F270.0 E38181.462
G1 X46.05 Y13.95 Z1.8 F270.0 E38181.988
G1 X46.38 Y14.21 Z1.8 F270.0 E38182.514
G1 X46.77 Y14.37 Z1.8 F270.0 E38183.038
G1 X47.18 Y14.43 Z1.8 F270.0 E38183.563
;M103
G1 X14.43 Y12.82 Z1.8 F3600.0
;M101
G1 X14.37 Y12.4 Z1.8 F270.0 E38184.089
G1 X14.21 Y12.01 Z1.8 F270.0 E38184.614
G1 X13.95 Y11.68 Z1.8 F270.0 E38185.14
G1 X13.62 Y11.42 Z1.8 F270.0 E38185.664
G1 X13.23 Y11.26 Z1.8 F270.0 E38186.19
G1 X12.82 Y11.21 Z1.8 F270.0 E38186.715
G1 X12.4 Y11.26 Z1.8 F270.0 E38187.241
G1 X12.01 Y11.42 Z1.8 F270.0 E38187.766
G1 X11.68 Y11.68 Z1.8 F270.0 E38188.29
G1 X11.42 Y12.01 Z1.8 F270.0 E38188.815
G1 X11.26 Y12.4 Z1.8 F270.0 E38189.34
G1 X11.21 Y12.82 Z1.8 F270.0 E38189.866
G1 X11.26 Y13.23 Z1.8 F270.0 E38190.391
G1 X11.42 Y13.62 Z1.8 F270.0 E38190.915
G1 X11.68 Y13.95 Z1.8 F270.0 E38191.44
G1 X12.01 Y14.21 Z1.8 F270.0 E38191.966
G1 X12.4 Y14.37 Z1.8 F270.0 E38192.491
G1 X12.82 Y14.43 Z1.8 F270.0 E38193.017
G1 X13.23 Y14.37 Z1.8 F270.0 E38193.542
G1 X13.62 Y14.21 Z1.8 F270.0 E38194.066
G1 X13.95 Y13.95 Z1.8 F270.0 E38194.592
G1 X14.21 Y13.62 Z1.8 F270.0 E38195.118
G1 X14.37 Y13.23 Z1.8 F270.0 E38195.642
G1 X14.43 Y12.82 Z1.8 F270.0 E38196.167
;M103
;M108 S7.506
G1 X14.28 Y11.97 Z2.1 F3600.0
G1 X14.01 Y11.62 Z2.1 F3600.0
G1 X10.7 Y10.03 Z2.1 F3600.0
;M101
G1 X10.03 Y10.7 Z2.1 F360.0 E38197.361
G1 X10.03 Y10.11 Z2.1 F360.0 E38198.102
G1 X10.11 Y10.03 Z2.1 F360.0 E38198.249
;M103
G1 X44.47 Y10.03 Z2.1 F3600.0
;M101
G1 X43.29 Y10.03 Z2.1 F360.0 E38199.731
G1 X10.03 Y44.47 Z2.1 F360.0 E38259.625
G1 X10.03 Y42.1 Z2.1 F360.0 E38262.589
G1 X42.69 Y10.03 Z2.1 F360.0 E38319.856
G1 X40.92 Y10.03 Z2.1 F360.0 E38322.079
G1 X10.03 Y41.51 Z2.1 F360.0 E38377.25
G1 X10.03 Y39.73 Z2.1 F360.0 E38379.473
G1 X40.32 Y10.03 Z2.1 F360.0 E38432.547
G1 X38.55 Y10.03 Z2.1 F360.0 E38434.77
G1 X10.03 Y39.14 Z2.1 F360.0 E38485.749
G1 X10.03 Y37.36 Z2.1 F360.0 E38487.974
G1 X37.95 Y10.03 Z2.1 F360.0 E38536.856
G1 X36.18 Y10.03 Z2.1 F360.0 E38539.079
G1 X10.03 Y36.77 Z2.1 F360.0 E38585.866
G1 X10.03 Y34.99 Z2.1 F360.0 E38588.089
G1 X35.58 Y10.03 Z2.1 F360.0 E38632.78
G1 X33.81 Y10.03 Z2.1 F360.0 E38635.003
G1 X10.03 Y34.4 Z2.1 F360.0 E38677.598
G1 X10.03 Y32.62 Z2.1 F360.0 E38679.821
G1 X33.22 Y10.03 Z2.1 F360.0 E38720.32
G1 X31.44 Y10.03 Z2.1 F360.0 E38722.543
G1 X10.03 Y32.03 Z2.1 F360.0 E38760.946
G1 X10.03 Y30.25 Z2.1 F360.0 E38763.17
G1 X30.85 Y10.03 Z2.1 F360.0 E38799.477
G1 X29.07 Y10.03 Z2.1 F360.0 E38801.7
G1 X10.03 Y29.66 Z2.1 F360.0 E38835.911
G1 X10.03 Y27.88 Z2.1 F360.0 E38838.134
G1 X28.48 Y10.03 Z2.1 F360.0 E38870.25
G1 X26.7 Y10.03 Z2.1 F360.0 E38872.474
G1 X10.03 Y27.29 Z2.1 F360.0 E38902.494
G1 X10.03 Y25.51 Z2.1 F360.0 E38904.717
G1 X26.11 Y10.03 Z2.1 F360.0 E38932.641
G1 X24.33 Y10.03 Z2.1 F360.0 E38934.864
G1 X10.03 Y24.92 Z2.1 F360.0 E38960.692
G1 X10.03 Y23.14 Z2.1 F360.0 E38962.916
G1 X23.74 Y10.03 Z2.1 F360.0 E38986.649
G1 X21.96 Y10.03 Z2.1 F360.0 E38988.873
G1 X10.03 Y22.55 Z2.1 F360.0 E39010.51
G1 X10.03 Y20.78 Z2.1 F360.0 E39012.733
G1 X21.37 Y10.03 Z2.1 F360.0 E39032.276
G1 X19.59 Y10.03 Z2.1 F360.0 E39034.499
G1 X10.03 Y20.18 Z2.1 F360.0 E39051.945
G1 X10.03 Y18.41 Z2.1 F360.0 E39054.168
G1 X13.49 Y15.54 Z2.1 F360.0 E39059.784
G1 X12.28 Y15.56 Z2.1 F360.0 E39061.289
G1 X11.83 Y15.42 Z2.1 F360.0 E39061.887
G1 X10.03 Y17.81 Z2.1 F360.0 E39065.626
G1 X10.03 Y16.04 Z2.1 F360.0 E39067.849
G1 X11.41 Y15.25 Z2.1 F360.0 E39069.833
G1 X10.76 Y14.72 Z2.1 F360.0 E39070.886
G1 X10.03 Y15.44 Z2.1 F360.0 E39072.174
G1 X10.03 Y14.85 Z2.1 F360.0 E39072.915
G1 X10.5 Y14.38 Z2.1 F360.0 E39073.75
G1 X10.29 Y14.0 Z2.1 F360.0 E39074.294
G1 X10.03 Y14.26 Z2.1 F360.0 E39074.754
G1 X10.03 Y13.67 Z2.1 F360.0 E39075.494
G1 X10.12 Y13.58 Z2.1 F360.0 E39075.647
G1 X10.03 Y13.07 Z2.1 F360.0 E39076.289
G1 X10.03 Y12.48 Z2.1 F360.0 E39077.031
G1 X10.05 Y12.46 Z2.1 F360.0 E39077.071
G1 X10.03 Y11.89 Z2.1 F360.0 E39077.785
G1 X10.29 Y11.63 Z2.1 F360.0 E39078.249
G1 X10.03 Y11.3 Z2.1 F360.0 E39078.778
G1 X11.3 Y10.03 Z2.1 F360.0 E39081.02
G1 X11.63 Y10.29 Z2.1 F360.0 E39081.548
G1 X11.89 Y10.03 Z2.1 F360.0 E39082.011
G1 X12.46 Y10.05 Z2.1 F360.0 E39082.725
G1 X12.48 Y10.03 Z2.1 F360.0 E39082.764
G1 X13.07 Y10.03 Z2.1 F360.0 E39083.506
G1 X13.58 Y10.12 Z2.1 F360.0 E39084.149
G1 X13.67 Y10.03 Z2.1 F360.0 E39084.3
G1 X14.0 Y10.29 Z2.1 F360.0 E39084.829
G1 X14.26 Y10.03 Z2.1 F360.0 E39085.288
G1 X14.38 Y10.5 Z2.1 F360.0 E39085.897
G1 X14.85 Y10.03 Z2.1 F360.0 E39086.732
G1 X15.44 Y10.03 Z2.1 F360.0 E39087.473
G1 X14.72 Y10.76 Z2.1 F360.0 E39088.762
G1 X15.25 Y11.41 Z2.1 F360.0 E39089.814
G1 X16.04 Y10.03 Z2.1 F360.0 E39091.799
G1 X17.81 Y10.03 Z2.1 F360.0 E39094.022
G1 X15.42 Y11.83 Z2.1 F360.0 E39097.761
G1 X15.56 Y12.28 Z2.1 F360.0 E39098.358
G1 X15.54 Y13.49 Z2.1 F360.0 E39099.863
G1 X18.41 Y10.03 Z2.1 F360.0 E39105.479
G1 X19.0 Y10.03 Z2.1 F360.0 E39106.22
;M103
G1 X15.54 Y47.84 Z2.1 F3600.0
;M101
G1 X15.63 Y47.17 Z2.1 F360.0 E39107.075
G1 X47.84 Y15.54 Z2.1 F360.0 E39163.548
G1 X46.64 Y15.56 Z2.1 F360.0 E39165.05
G1 X46.19 Y15.42 Z2.1 F360.0 E39165.646
G1 X15.56 Y46.64 Z2.1 F360.0 E39220.36
G1 X15.42 Y46.19 Z2.1 F360.0 E39220.956
G1 X15.25 Y45.77 Z2.1 F360.0 E39221.523
G1 X14.99 Y45.43 Z2.1 F360.0 E39222.05
G1 X45.77 Y15.25 Z2.1 F360.0 E39275.983
G1 X45.12 Y14.71 Z2.1 F360.0 E39277.035
G1 X14.71 Y45.12 Z2.1 F360.0 E39330.838
G1 X14.38 Y44.86 Z2.1 F360.0 E39331.366
G1 X13.99 Y44.65 Z2.1 F360.0 E39331.912
G1 X44.86 Y14.38 Z2.1 F360.0 E39386.004
G1 X44.65 Y13.99 Z2.1 F360.0 E39386.55
G1 X44.48 Y13.57 Z2.1 F360.0 E39387.118
G1 X44.4 Y13.06 Z2.1 F360.0 E39387.769
G1 X13.57 Y44.48 Z2.1 F360.0 E39442.836
G1 X13.06 Y44.4 Z2.1 F360.0 E39443.487
G1 X12.45 Y44.42 Z2.1 F360.0 E39444.249
G1 X11.61 Y44.66 Z2.1 F360.0 E39445.34
G1 X44.66 Y11.61 Z2.1 F360.0 E39503.811
;M103
G1 X49.97 Y39.48 Z2.1 F3600.0
;M101
G1 X39.48 Y49.97 Z2.1 F360.0 E39522.374
G1 X38.3 Y49.97 Z2.1 F360.0 E39523.855
G1 X49.97 Y38.89 Z2.1 F360.0 E39543.995
G1 X49.97 Y37.11 Z2.1 F360.0 E39546.218
G1 X37.7 Y49.97 Z2.1 F360.0 E39568.454
G1 X35.92 Y49.97 Z2.1 F360.0 E39570.677
G1 X49.97 Y36.52 Z2.1 F360.0 E39595.009
G1 X49.97 Y34.74 Z2.1 F360.0 E39597.232
G1 X35.33 Y49.97 Z2.1 F360.0 E39623.659
G1 X33.56 Y49.97 Z2.1 F360.0 E39625.882
G1 X49.97 Y34.15 Z2.1 F360.0 E39654.404
G1 X49.97 Y32.37 Z2.1 F360.0 E39656.627
G1 X32.96 Y49.97 Z2.1 F360.0 E39687.246
G1 X31.19 Y49.97 Z2.1 F360.0 E39689.469
G1 X49.97 Y31.78 Z2.1 F360.0 E39722.183
G1 X49.97 Y30.0 Z2.1 F360.0 E39724.406
G1 X30.59 Y49.97 Z2.1 F360.0 E39759.216
G1 X28.82 Y49.97 Z2.1 F360.0 E39761.44
G1 X49.97 Y29.41 Z2.1 F360.0 E39798.347
G1 X49.97 Y27.63 Z2.1 F360.0 E39800.57
G1 X28.22 Y49.97 Z2.1 F360.0 E39839.571
G1 X26.45 Y49.97 Z2.1 F360.0 E39841.794
G1 X49.97 Y27.04 Z2.1 F360.0 E39882.892
G1 X49.97 Y25.26 Z2.1 F360.0 E39885.115
G1 X25.86 Y49.97 Z2.1 F360.0 E39928.309
G1 X24.08 Y49.97 Z2.1 F360.0 E39930.533
G1 X49.97 Y24.67 Z2.1 F360.0 E39975.822
G1 X49.97 Y22.89 Z2.1 F360.0 E39978.045
G1 X23.49 Y49.97 Z2.1 F360.0 E40025.431
G1 X21.71 Y49.97 Z2.1 F360.0 E40027.654
G1 X49.97 Y22.3 Z2.1 F360.0 E40077.135
G1 X49.97 Y20.52 Z2.1 F360.0 E40079.358
G1 X21.12 Y49.97 Z2.1 F360.0 E40130.936
G1 X19.34 Y49.97 Z2.1 F360.0 E40133.159
G1 X49.97 Y19.93 Z2.1 F360.0 E40186.832
G1 X49.97 Y18.15 Z2.1 F360.0 E40189.055
G1 X18.75 Y49.97 Z2.1 F360.0 E40244.824
G1 X16.97 Y49.97 Z2.1 F360.0 E40247.047
G1 X49.97 Y17.56 Z2.1 F360.0 E40304.912
G1 X49.97 Y15.78 Z2.1 F360.0 E40307.135
G1 X16.38 Y49.97 Z2.1 F360.0 E40367.097
G1 X14.6 Y49.97 Z2.1 F360.0 E40369.32
G1 X49.97 Y15.19 Z2.1 F360.0 E40431.377
G1 X49.97 Y14.01 Z2.1 F360.0 E40432.86
G1 X14.01 Y49.97 Z2.1 F360.0 E40496.486
G1 X13.48 Y49.91 Z2.1 F360.0 E40497.154
G1 X13.41 Y49.97 Z2.1 F360.0 E40497.266
G1 X12.28 Y49.92 Z2.1 F360.0 E40498.69
G1 X12.23 Y49.97 Z2.1 F360.0 E40498.773
G1 X11.82 Y49.79 Z2.1 F360.0 E40499.334
G1 X11.64 Y49.97 Z2.1 F360.0 E40499.658
G1 X11.05 Y49.97 Z2.1 F360.0 E40500.399
G1 X11.4 Y49.61 Z2.1 F360.0 E40501.032
G1 X10.76 Y49.08 Z2.1 F360.0 E40502.085
G1 X10.45 Y49.97 Z2.1 F360.0 E40503.267
G1 X10.03 Y49.8 Z2.1 F360.0 E40503.838
G1 X10.03 Y49.21 Z2.1 F360.0 E40504.579
G1 X10.5 Y48.74 Z2.1 F360.0 E40505.407
G1 X10.03 Y48.62 Z2.1 F360.0 E40506.012
G1 X10.29 Y48.36 Z2.1 F360.0 E40506.467
G1 X10.03 Y48.02 Z2.1 F360.0 E40506.996
G1 X10.11 Y47.94 Z2.1 F360.0 E40507.144
G1 X10.03 Y47.43 Z2.1 F360.0 E40507.789
G1 X10.04 Y47.43 Z2.1 F360.0 E40507.802
G1 X10.03 Y46.84 Z2.1 F360.0 E40508.534
G1 X10.05 Y46.82 Z2.1 F360.0 E40508.576
G1 X10.03 Y46.25 Z2.1 F360.0 E40509.288
G1 X10.3 Y45.98 Z2.1 F360.0 E40509.763
G1 X10.03 Y45.66 Z2.1 F360.0 E40510.29
G1 X10.03 Y45.06 Z2.1 F360.0 E40511.032
G1 X45.06 Y10.03 Z2.1 F360.0 E40573.012
G1 X45.66 Y10.03 Z2.1 F360.0 E40573.754
G1 X45.98 Y10.3 Z2.1 F360.0 E40574.281
G1 X46.25 Y10.03 Z2.1 F360.0 E40574.756
G1 X46.82 Y10.05 Z2.1 F360.0 E40575.468
G1 X46.84 Y10.03 Z2.1 F360.0 E40575.51
G1 X47.43 Y10.04 Z2.1 F360.0 E40576.242
G1 X47.43 Y10.03 Z2.1 F360.0 E40576.255
G1 X47.94 Y10.11 Z2.1 F360.0 E40576.901
G1 X48.02 Y10.03 Z2.1 F360.0 E40577.047
G1 X48.62 Y10.03 Z2.1 F360.0 E40577.789
G1 X48.36 Y10.29 Z2.1 F360.0 E40578.244
G1 X48.74 Y10.5 Z2.1 F360.0 E40578.788
G1 X49.21 Y10.03 Z2.1 F360.0 E40579.616
G1 X49.8 Y10.03 Z2.1 F360.0 E40580.357
G1 X49.97 Y10.45 Z2.1 F360.0 E40580.928
G1 X49.08 Y10.76 Z2.1 F360.0 E40582.11
G1 X49.67 Y10.79 Z2.1 F360.0 E40582.852
G1 X49.97 Y11.05 Z2.1 F360.0 E40583.349
G1 X49.61 Y11.4 Z2.1 F360.0 E40583.982
G1 X49.97 Y11.64 Z2.1 F360.0 E40584.517
G1 X49.79 Y11.82 Z2.1 F360.0 E40584.839
G1 X49.97 Y12.23 Z2.1 F360.0 E40585.402
G1 X49.93 Y12.28 Z2.1 F360.0 E40585.483
G1 X49.97 Y13.41 Z2.1 F360.0 E40586.908
G1 X49.91 Y13.48 Z2.1 F360.0 E40587.018
;M103
G1 X45.97 Y44.67 Z2.1 F3600.0
;M101
G1 X46.81 Y44.42 Z2.1 F360.0 E40588.115
G1 X49.97 Y40.07 Z2.1 F360.0 E40594.842
G1 X49.97 Y42.44 Z2.1 F360.0 E40597.805
G1 X47.42 Y44.4 Z2.1 F360.0 E40601.833
G1 X47.94 Y44.48 Z2.1 F360.0 E40602.486
G1 X48.74 Y44.86 Z2.1 F360.0 E40603.598
G1 X49.97 Y43.03 Z2.1 F360.0 E40606.355
G1 X49.97 Y44.81 Z2.1 F360.0 E40608.578
G1 X49.07 Y45.12 Z2.1 F360.0 E40609.766
G1 X49.61 Y45.77 Z2.1 F360.0 E40610.819
G1 X49.97 Y45.4 Z2.1 F360.0 E40611.459
G1 X49.97 Y46.0 Z2.1 F360.0 E40612.201
G1 X49.79 Y46.18 Z2.1 F360.0 E40612.528
G1 X49.97 Y46.59 Z2.1 F360.0 E40613.088
G1 X49.92 Y46.64 Z2.1 F360.0 E40613.171
G1 X49.97 Y47.77 Z2.1 F360.0 E40614.596
G1 X49.91 Y47.83 Z2.1 F360.0 E40614.702
;M103
G1 X49.97 Y49.55 Z2.1 F3600.0
;M101
G1 X49.55 Y49.97 Z2.1 F360.0 E40615.447
G1 X48.96 Y49.97 Z2.1 F360.0 E40616.188
G1 X49.97 Y48.96 Z2.1 F360.0 E40617.98
G1 X49.97 Y48.37 Z2.1 F360.0 E40618.722
G1 X48.37 Y49.97 Z2.1 F360.0 E40621.563
G1 X47.83 Y49.91 Z2.1 F360.0 E40622.232
G1 X47.77 Y49.97 Z2.1 F360.0 E40622.341
G1 X46.64 Y49.92 Z2.1 F360.0 E40623.764
G1 X46.59 Y49.97 Z2.1 F360.0 E40623.849
G1 X46.18 Y49.79 Z2.1 F360.0 E40624.408
G1 X46.0 Y49.97 Z2.1 F360.0 E40624.736
G1 X45.77 Y49.61 Z2.1 F360.0 E40625.273
G1 X45.4 Y49.97 Z2.1 F360.0 E40625.913
G1 X45.15 Y49.66 Z2.1 F360.0 E40626.412
G1 X45.12 Y49.07 Z2.1 F360.0 E40627.154
G1 X44.22 Y49.97 Z2.1 F360.0 E40628.744
G1 X43.03 Y49.97 Z2.1 F360.0 E40630.225
G1 X44.86 Y48.74 Z2.1 F360.0 E40632.982
G1 X44.48 Y47.94 Z2.1 F360.0 E40634.094
G1 X44.4 Y47.42 Z2.1 F360.0 E40634.748
G1 X42.44 Y49.97 Z2.1 F360.0 E40638.775
G1 X40.07 Y49.97 Z2.1 F360.0 E40641.739
G1 X44.42 Y46.81 Z2.1 F360.0 E40648.466
G1 X44.67 Y45.97 Z2.1 F360.0 E40649.563
;M103
G1 X45.36 Y46.33 Z2.1 F3600.0
;M101
G1 X45.22 Y46.66 Z2.1 F360.0 E40650.007
G1 X45.15 Y47.18 Z2.1 F360.0 E40650.669
G1 X45.22 Y47.71 Z2.1 F360.0 E40651.333
G1 X45.42 Y48.2 Z2.1 F360.0 E40651.996
G1 X45.75 Y48.62 Z2.1 F360.0 E40652.66
G1 X46.17 Y48.94 Z2.1 F360.0 E40653.324
G1 X46.66 Y49.14 Z2.1 F360.0 E40653.986
G1 X47.18 Y49.21 Z2.1 F360.0 E40654.648
G1 X47.71 Y49.14 Z2.1 F360.0 E40655.312
G1 X48.2 Y48.94 Z2.1 F360.0 E40655.975
G1 X48.62 Y48.62 Z2.1 F360.0 E40656.638
G1 X48.94 Y48.2 Z2.1 F360.0 E40657.301
G1 X49.15 Y47.71 Z2.1 F360.0 E40657.964
G1 X49.21 Y47.18 Z2.1 F360.0 E40658.628
G1 X49.15 Y46.66 Z2.1 F360.0 E40659.29
G1 X48.94 Y46.17 Z2.1 F360.0 E40659.954
G1 X48.62 Y45.75 Z2.1 F360.0 E40660.617
G1 X48.2 Y45.42 Z2.1 F360.0 E40661.281
G1 X47.71 Y45.22 Z2.1 F360.0 E40661.944
G1 X47.18 Y45.15 Z2.1 F360.0 E40662.608
G1 X46.66 Y45.22 Z2.1 F360.0 E40663.27
G1 X46.17 Y45.42 Z2.1 F360.0 E40663.932
G1 X45.75 Y45.75 Z2.1 F360.0 E40664.597
G1 X45.42 Y46.17 Z2.1 F360.0 E40665.262
G1 X45.36 Y46.33 Z2.1 F360.0 E40665.48
;M103
G1 X44.97 Y46.17 Z2.1 F3600.0
;M101
G1 X44.81 Y46.55 Z2.1 F360.0 E40665.992
G1 X44.73 Y47.18 Z2.1 F360.0 E40666.792
G1 X44.81 Y47.82 Z2.1 F360.0 E40667.593
G1 X45.06 Y48.41 Z2.1 F360.0 E40668.394
G1 X45.45 Y48.92 Z2.1 F360.0 E40669.197
G1 X45.96 Y49.31 Z2.1 F360.0 E40669.999
G1 X46.55 Y49.55 Z2.1 F360.0 E40670.799
G1 X47.18 Y49.64 Z2.1 F360.0 E40671.599
G1 X47.82 Y49.55 Z2.1 F360.0 E40672.4
G1 X48.41 Y49.31 Z2.1 F360.0 E40673.202
G1 X48.92 Y48.92 Z2.1 F360.0 E40674.003
G1 X49.31 Y48.41 Z2.1 F360.0 E40674.802
G1 X49.55 Y47.82 Z2.1 F360.0 E40675.606
G1 X49.64 Y47.18 Z2.1 F360.0 E40676.407
G1 X49.55 Y46.55 Z2.1 F360.0 E40677.206
G1 X49.31 Y45.96 Z2.1 F360.0 E40678.008
G1 X48.92 Y45.45 Z2.1 F360.0 E40678.809
G1 X48.41 Y45.06 Z2.1 F360.0 E40679.612
G1 X47.82 Y44.81 Z2.1 F360.0 E40680.413
G1 X47.18 Y44.73 Z2.1 F360.0 E40681.214
G1 X46.55 Y44.81 Z2.1 F360.0 E40682.015
G1 X45.96 Y45.06 Z2.1 F360.0 E40682.814
G1 X45.45 Y45.45 Z2.1 F360.0 E40683.618
G1 X45.06 Y45.96 Z2.1 F360.0 E40684.422
G1 X44.97 Y46.17 Z2.1 F360.0 E40684.71
;M103
G1 X47.18 Y14.85 Z2.1 F3600.0
;M101
G1 X47.71 Y14.78 Z2.1 F360.0 E40685.374
G1 X48.2 Y14.58 Z2.1 F360.0 E40686.037
G1 X48.62 Y14.25 Z2.1 F360.0 E40686.7
G1 X48.94 Y13.83 Z2.1 F360.0 E40687.363
G1 X49.15 Y13.34 Z2.1 F360.0 E40688.027
G1 X49.21 Y12.82 Z2.1 F360.0 E40688.689
G1 X49.15 Y12.29 Z2.1 F360.0 E40689.353
G1 X48.94 Y11.8 Z2.1 F360.0 E40690.017
G1 X48.62 Y11.38 Z2.1 F360.0 E40690.679
G1 X48.2 Y11.06 Z2.1 F360.0 E40691.342
G1 X47.71 Y10.86 Z2.1 F360.0 E40692.006
G1 X47.18 Y10.79 Z2.1 F360.0 E40692.669
G1 X46.66 Y10.86 Z2.1 F360.0 E40693.332
G1 X46.17 Y11.06 Z2.1 F360.0 E40693.995
G1 X45.75 Y11.38 Z2.1 F360.0 E40694.658
G1 X45.42 Y11.8 Z2.1 F360.0 E40695.322
G1 X45.22 Y12.29 Z2.1 F360.0 E40695.985
G1 X45.15 Y12.82 Z2.1 F360.0 E40696.649
G1 X45.22 Y13.34 Z2.1 F360.0 E40697.312
G1 X45.42 Y13.83 Z2.1 F360.0 E40697.974
G1 X45.75 Y14.25 Z2.1 F360.0 E40698.638
G1 X46.17 Y14.58 Z2.1 F360.0 E40699.303
G1 X46.66 Y14.78 Z2.1 F360.0 E40699.965
G1 X47.18 Y14.85 Z2.1 F360.0 E40700.628
;M103
G1 X47.18 Y15.27 Z2.1 F3600.0
;M101
G1 X47.82 Y15.19 Z2.1 F360.0 E40701.429
G1 X48.41 Y14.94 Z2.1 F360.0 E40702.23
G1 X48.92 Y14.55 Z2.1 F360.0 E40703.033
G1 X49.31 Y14.04 Z2.1 F360.0 E40703.833
G1 X49.55 Y13.45 Z2.1 F360.0 E40704.635
G1 X49.64 Y12.82 Z2.1 F360.0 E40705.435
G1 X49.55 Y12.18 Z2.1 F360.0 E40706.236
G1 X49.31 Y11.59 Z2.1 F360.0 E40707.04
G1 X48.92 Y11.08 Z2.1 F360.0 E40707.839
G1 X48.41 Y10.69 Z2.1 F360.0 E40708.639
G1 X47.82 Y10.45 Z2.1 F360.0 E40709.442
G1 X47.18 Y10.36 Z2.1 F360.0 E40710.243
G1 X46.55 Y10.45 Z2.1 F360.0 E40711.043
G1 X45.96 Y10.69 Z2.1 F360.0 E40711.845
G1 X45.45 Y11.08 Z2.1 F360.0 E40712.645
G1 X45.06 Y11.59 Z2.1 F360.0 E40713.448
G1 X44.81 Y12.18 Z2.1 F360.0 E40714.249
G1 X44.73 Y12.82 Z2.1 F360.0 E40715.051
G1 X44.81 Y13.45 Z2.1 F360.0 E40715.851
G1 X45.06 Y14.04 Z2.1 F360.0 E40716.651
G1 X45.45 Y14.55 Z2.1 F360.0 E40717.454
G1 X45.96 Y14.94 Z2.1 F360.0 E40718.258
G1 X46.55 Y15.19 Z2.1 F360.0 E40719.058
G1 X47.18 Y15.27 Z2.1 F360.0 E40719.858
;M103
G1 X14.85 Y12.82 Z2.1 F3600.0
;M101
G1 X14.78 Y12.29 Z2.1 F360.0 E40720.522
G1 X14.58 Y11.8 Z2.1 F360.0 E40721.185
G1 X14.25 Y11.38 Z2.1 F360.0 E40721.849
G1 X13.83 Y11.06 Z2.1 F360.0 E40722.512
G1 X13.34 Y10.86 Z2.1 F360.0 E40723.175
G1 X12.82 Y10.79 Z2.1 F360.0 E40723.838
G1 X12.29 Y10.86 Z2.1 F360.0 E40724.501
G1 X11.8 Y11.06 Z2.1 F360.0 E40725.165
G1 X11.38 Y11.38 Z2.1 F360.0 E40725.828
G1 X11.06 Y11.8 Z2.1 F360.0 E40726.491
G1 X10.86 Y12.29 Z2.1 F360.0 E40727.154
G1 X10.79 Y12.82 Z2.1 F360.0 E40727.817
G1 X10.86 Y13.34 Z2.1 F360.0 E40728.48
G1 X11.06 Y13.83 Z2.1 F360.0 E40729.142
G1 X11.38 Y14.25 Z2.1 F360.0 E40729.806
G1 X11.8 Y14.58 Z2.1 F360.0 E40730.47
G1 X12.29 Y14.78 Z2.1 F360.0 E40731.133
G1 X12.82 Y14.85 Z2.1 F360.0 E40731.797
G1 X13.34 Y14.78 Z2.1 F360.0 E40732.459
G1 X13.83 Y14.58 Z2.1 F360.0 E40733.121
G1 X14.25 Y14.25 Z2.1 F360.0 E40733.786
G1 X14.58 Y13.83 Z2.1 F360.0 E40734.451
G1 X14.78 Y13.34 Z2.1 F360.0 E40735.113
G1 X14.85 Y12.82 Z2.1 F360.0 E40735.775
;M103
G1 X15.27 Y12.82 Z2.1 F3600.0
;M101
G1 X15.19 Y12.18 Z2.1 F360.0 E40736.577
G1 X14.94 Y11.59 Z2.1 F360.0 E40737.378
G1 X14.55 Y11.08 Z2.1 F360.0 E40738.181
G1 X14.04 Y10.69 Z2.1 F360.0 E40738.981
G1 X13.45 Y10.45 Z2.1 F360.0 E40739.783
G1 X12.82 Y10.36 Z2.1 F360.0 E40740.583
G1 X12.18 Y10.45 Z2.1 F360.0 E40741.384
G1 X11.59 Y10.69 Z2.1 F360.0 E40742.187
