G21 (This is GCode, generated with Skeinforge version 35 from ReplicatorG)
G21 (Ultimaker profile - Quality print - alterations/start-centered.gcode)
G21 (Metric: The unit is a millimeter)
G90 (Absolute Positioning)
G92 X0 Y0 Z0 E0 (set origin to current position)
G21 (end of start .gcode file)
G90
G21
;M103
M105
M106
M113 S1.0
;M108 S7.506
M104 S245.0
;M108 S7.881
G1 X-12.79 Y-22.79 Z0.3 F243.0
;M101
G1 X-12.79 Y22.79 Z0.3 F243.0 E88.699
G1 X12.79 Y22.79 Z0.3 F243.0 E138.48
G1 X12.79 Y-22.79 Z0.3 F243.0 E227.179
G1 X-12.79 Y-22.79 Z0.3 F243.0 E276.96
;M103
G1 X-6.61 Y14.13 Z0.3 F2880.0
;M101
G1 X-9.02 Y11.72 Z0.3 F288.0 E282.558
G1 X-9.02 Y11.13 Z0.3 F288.0 E283.53
G1 X-6.7 Y13.45 Z0.3 F288.0 E288.918
G1 X-6.69 Y12.86 Z0.3 F288.0 E289.888
G1 X-9.02 Y10.53 Z0.3 F288.0 E295.281
G1 X-9.02 Y9.94 Z0.3 F288.0 E296.253
G1 X-6.62 Y12.33 Z0.3 F288.0 E301.806
G1 X-6.51 Y11.85 Z0.3 F288.0 E302.617
G1 X-9.02 Y9.35 Z0.3 F288.0 E308.429
G1 X-9.02 Y8.76 Z0.3 F288.0 E309.401
G1 X-6.34 Y11.43 Z0.3 F288.0 E315.613
G1 X-6.17 Y11.01 Z0.3 F288.0 E316.357
G1 X-9.02 Y8.16 Z0.3 F288.0 E322.971
G1 X-9.02 Y7.57 Z0.3 F288.0 E323.945
G1 X-5.92 Y10.67 Z0.3 F288.0 E331.134
G1 X-5.66 Y10.33 Z0.3 F288.0 E331.828
G1 X-9.02 Y6.98 Z0.3 F288.0 E339.613
G1 X-9.02 Y6.39 Z0.3 F288.0 E340.586
G1 X-5.39 Y10.01 Z0.3 F288.0 E348.999
G1 X-5.06 Y9.75 Z0.3 F288.0 E349.693
G1 X-9.02 Y5.79 Z0.3 F288.0 E358.882
G1 X-9.02 Y5.2 Z0.3 F288.0 E359.854
G1 X-4.72 Y9.49 Z0.3 F288.0 E369.821
G1 X-4.35 Y9.28 Z0.3 F288.0 E370.531
G1 X-9.02 Y4.61 Z0.3 F288.0 E381.366
G1 X-9.02 Y4.02 Z0.3 F288.0 E382.338
G1 X-3.93 Y9.1 Z0.3 F288.0 E394.142
G1 X-3.51 Y8.93 Z0.3 F288.0 E394.887
G1 X-9.02 Y3.43 Z0.3 F288.0 E407.664
G1 X-9.02 Y2.83 Z0.3 F288.0 E408.638
G1 X-3.0 Y8.85 Z0.3 F288.0 E422.611
G1 X-2.47 Y8.78 Z0.3 F288.0 E423.479
G1 X-9.02 Y2.24 Z0.3 F288.0 E438.668
G1 X-9.02 Y1.65 Z0.3 F288.0 E439.642
G1 X-1.83 Y8.83 Z0.3 F288.0 E456.323
G1 X-1.13 Y8.95 Z0.3 F288.0 E457.499
G1 X-9.02 Y1.06 Z0.3 F288.0 E475.821
G1 X-9.02 Y0.46 Z0.3 F288.0 E476.793
G1 X-0.06 Y9.42 Z0.3 F288.0 E497.583
;M103
G1 X-9.02 Y-3.68 Z0.3 F2880.0
;M101
G1 X9.02 Y14.35 Z0.3 F288.0 E539.451
G1 X9.02 Y14.94 Z0.3 F288.0 E540.423
G1 X-9.02 Y-3.09 Z0.3 F288.0 E582.292
G1 X-9.02 Y-2.5 Z0.3 F288.0 E583.266
G1 X9.02 Y15.53 Z0.3 F288.0 E625.134
G1 X9.02 Y16.12 Z0.3 F288.0 E626.106
G1 X-9.02 Y-1.91 Z0.3 F288.0 E667.974
G1 X-9.02 Y-1.32 Z0.3 F288.0 E668.946
G1 X9.02 Y16.72 Z0.3 F288.0 E710.816
G1 X9.02 Y17.31 Z0.3 F288.0 E711.788
G1 X-9.02 Y-0.72 Z0.3 F288.0 E753.656
G1 X-9.02 Y-0.13 Z0.3 F288.0 E754.628
G1 X9.02 Y17.9 Z0.3 F288.0 E796.497
G1 X9.02 Y18.49 Z0.3 F288.0 E797.471
G1 X1.4 Y10.88 Z0.3 F288.0 E815.159
;M103
G1 X1.87 Y11.94 Z0.3 F2880.0
;M101
G1 X8.95 Y19.02 Z0.3 F288.0 E831.593
G1 X8.35 Y19.02 Z0.3 F288.0 E832.565
G1 X1.98 Y12.65 Z0.3 F288.0 E847.354
G1 X2.03 Y13.29 Z0.3 F288.0 E848.411
G1 X7.76 Y19.02 Z0.3 F288.0 E861.709
G1 X7.17 Y19.02 Z0.3 F288.0 E862.681
G1 X1.96 Y13.81 Z0.3 F288.0 E874.764
G1 X1.89 Y14.33 Z0.3 F288.0 E875.619
G1 X6.58 Y19.02 Z0.3 F288.0 E886.506
G1 X5.98 Y19.02 Z0.3 F288.0 E887.478
G1 X1.71 Y14.75 Z0.3 F288.0 E897.392
G1 X1.54 Y15.16 Z0.3 F288.0 E898.136
G1 X5.39 Y19.02 Z0.3 F288.0 E907.08
G1 X4.8 Y19.02 Z0.3 F288.0 E908.054
G1 X1.32 Y15.54 Z0.3 F288.0 E916.13
G1 X1.06 Y15.87 Z0.3 F288.0 E916.824
G1 X4.21 Y19.02 Z0.3 F288.0 E924.123
G1 X3.61 Y19.02 Z0.3 F288.0 E925.095
G1 X0.81 Y16.21 Z0.3 F288.0 E931.617
G1 X0.48 Y16.48 Z0.3 F288.0 E932.307
G1 X3.02 Y19.02 Z0.3 F288.0 E938.201
G1 X2.43 Y19.02 Z0.3 F288.0 E939.173
G1 X0.15 Y16.73 Z0.3 F288.0 E944.472
G1 X-0.2 Y16.98 Z0.3 F288.0 E945.169
G1 X1.84 Y19.02 Z0.3 F288.0 E949.893
G1 X1.24 Y19.02 Z0.3 F288.0 E950.865
G1 X-0.62 Y17.16 Z0.3 F288.0 E955.186
G1 X-1.04 Y17.33 Z0.3 F288.0 E955.93
G1 X0.65 Y19.02 Z0.3 F288.0 E959.85
G1 X0.06 Y19.02 Z0.3 F288.0 E960.823
G1 X-1.52 Y17.44 Z0.3 F288.0 E964.484
G1 X-2.04 Y17.51 Z0.3 F288.0 E965.352
G1 X-0.53 Y19.02 Z0.3 F288.0 E968.853
G1 X-1.13 Y19.02 Z0.3 F288.0 E969.827
G1 X-2.63 Y17.51 Z0.3 F288.0 E973.325
G1 X-3.31 Y17.42 Z0.3 F288.0 E974.454
G1 X-1.72 Y19.02 Z0.3 F288.0 E978.16
G1 X-2.31 Y19.02 Z0.3 F288.0 E979.132
G1 X-4.25 Y17.08 Z0.3 F288.0 E983.627
;M103
G1 X-4.09 Y19.02 Z0.3 F2880.0
;M101
G1 X-9.02 Y14.09 Z0.3 F288.0 E995.072
G1 X-9.02 Y13.5 Z0.3 F288.0 E996.044
G1 X-3.5 Y19.02 Z0.3 F288.0 E1008.864
G1 X-2.9 Y19.02 Z0.3 F288.0 E1009.836
G1 X-9.02 Y12.9 Z0.3 F288.0 E1024.03
G1 X-9.02 Y12.31 Z0.3 F288.0 E1025.004
G1 X-6.27 Y15.06 Z0.3 F288.0 E1031.39
;M103
G1 X-9.02 Y14.68 Z0.3 F2880.0
;M101
G1 X-4.68 Y19.02 Z0.3 F288.0 E1041.458
G1 X-5.27 Y19.02 Z0.3 F288.0 E1042.43
G1 X-9.02 Y15.27 Z0.3 F288.0 E1051.124
G1 X-9.02 Y15.87 Z0.3 F288.0 E1052.097
G1 X-5.87 Y19.02 Z0.3 F288.0 E1059.414
G1 X-6.46 Y19.02 Z0.3 F288.0 E1060.386
G1 X-9.02 Y16.46 Z0.3 F288.0 E1066.328
G1 X-9.02 Y17.05 Z0.3 F288.0 E1067.3
G1 X-7.05 Y19.02 Z0.3 F288.0 E1071.867
G1 X-7.64 Y19.02 Z0.3 F288.0 E1072.84
G1 X-9.02 Y17.64 Z0.3 F288.0 E1076.031
G1 X-9.02 Y18.23 Z0.3 F288.0 E1077.003
G1 X-8.23 Y19.02 Z0.3 F288.0 E1078.819
G1 X-8.83 Y19.02 Z0.3 F288.0 E1079.792
G1 X-9.02 Y18.83 Z0.3 F288.0 E1080.231
;M103
G1 X2.06 Y-5.29 Z0.3 F3600.0
G1 X2.21 Y-14.5 Z0.3 F3600.0
G1 X6.63 Y-14.64 Z0.3 F3600.0
G1 X8.83 Y-19.02 Z0.3 F2880.0
;M101
G1 X9.02 Y-18.83 Z0.3 F288.0 E1080.67
G1 X9.02 Y-18.23 Z0.3 F288.0 E1081.644
G1 X8.23 Y-19.02 Z0.3 F288.0 E1083.459
G1 X7.64 Y-19.02 Z0.3 F288.0 E1084.431
G1 X9.02 Y-17.64 Z0.3 F288.0 E1087.622
G1 X9.02 Y-17.05 Z0.3 F288.0 E1088.595
G1 X7.05 Y-19.02 Z0.3 F288.0 E1093.163
G1 X6.46 Y-19.02 Z0.3 F288.0 E1094.135
G1 X9.02 Y-16.46 Z0.3 F288.0 E1100.077
G1 X9.02 Y-15.87 Z0.3 F288.0 E1101.049
G1 X5.87 Y-19.02 Z0.3 F288.0 E1108.365
G1 X5.27 Y-19.02 Z0.3 F288.0 E1109.339
G1 X9.02 Y-15.27 Z0.3 F288.0 E1118.032
G1 X9.02 Y-14.68 Z0.3 F288.0 E1119.004
G1 X4.68 Y-19.02 Z0.3 F288.0 E1129.072
G1 X4.09 Y-19.02 Z0.3 F288.0 E1130.046
G1 X9.02 Y-14.09 Z0.3 F288.0 E1141.491
G1 X9.02 Y-13.5 Z0.3 F288.0 E1142.463
G1 X7.87 Y-14.64 Z0.3 F288.0 E1145.125
G1 X7.87 Y-14.05 Z0.3 F288.0 E1146.097
G1 X9.02 Y-12.9 Z0.3 F288.0 E1148.759
G1 X9.02 Y-12.31 Z0.3 F288.0 E1149.733
G1 X7.87 Y-13.46 Z0.3 F288.0 E1152.395
G1 X7.87 Y-12.86 Z0.3 F288.0 E1153.367
G1 X9.02 Y-11.72 Z0.3 F288.0 E1156.029
G1 X9.02 Y-11.13 Z0.3 F288.0 E1157.001
G1 X7.87 Y-12.27 Z0.3 F288.0 E1159.663
G1 X7.87 Y-11.68 Z0.3 F288.0 E1160.637
G1 X9.02 Y-10.53 Z0.3 F288.0 E1163.299
G1 X9.02 Y-9.94 Z0.3 F288.0 E1164.271
G1 X7.87 Y-11.09 Z0.3 F288.0 E1166.933
G1 X7.87 Y-10.49 Z0.3 F288.0 E1167.906
G1 X9.02 Y-9.35 Z0.3 F288.0 E1170.569
G1 X9.02 Y-8.76 Z0.3 F288.0 E1171.541
G1 X7.87 Y-9.9 Z0.3 F288.0 E1174.203
G1 X7.87 Y-9.31 Z0.3 F288.0 E1175.175
G1 X9.02 Y-8.16 Z0.3 F288.0 E1177.837
G1 X9.02 Y-7.57 Z0.3 F288.0 E1178.81
G1 X7.87 Y-8.72 Z0.3 F288.0 E1181.473
G1 X7.87 Y-8.13 Z0.3 F288.0 E1182.445
G1 X9.02 Y-6.98 Z0.3 F288.0 E1185.107
G1 X9.02 Y-6.39 Z0.3 F288.0 E1186.08
G1 X7.87 Y-7.53 Z0.3 F288.0 E1188.744
G1 X7.87 Y-6.94 Z0.3 F288.0 E1189.717
G1 X9.02 Y-5.79 Z0.3 F288.0 E1192.379
G1 X9.02 Y-5.2 Z0.3 F288.0 E1193.351
G1 X7.87 Y-6.35 Z0.3 F288.0 E1196.014
G1 X7.87 Y-5.76 Z0.3 F288.0 E1196.987
G1 X9.02 Y-4.61 Z0.3 F288.0 E1199.649
G1 X9.02 Y-4.02 Z0.3 F288.0 E1200.621
G1 X7.87 Y-5.16 Z0.3 F288.0 E1203.283
G1 X7.87 Y-4.57 Z0.3 F288.0 E1204.255
G1 X9.02 Y-3.43 Z0.3 F288.0 E1206.918
G1 X9.02 Y-2.83 Z0.3 F288.0 E1207.891
G1 X7.87 Y-3.98 Z0.3 F288.0 E1210.553
G1 X7.87 Y-3.39 Z0.3 F288.0 E1211.525
G1 X9.02 Y-2.24 Z0.3 F288.0 E1214.187
G1 X9.02 Y-1.65 Z0.3 F288.0 E1215.161
G1 X7.87 Y-2.79 Z0.3 F288.0 E1217.823
G1 X7.87 Y-2.2 Z0.3 F288.0 E1218.795
G1 X9.02 Y-1.06 Z0.3 F288.0 E1221.457
G1 X9.02 Y-0.46 Z0.3 F288.0 E1222.429
G1 X7.87 Y-1.61 Z0.3 F288.0 E1225.091
G1 X7.87 Y-1.02 Z0.3 F288.0 E1226.065
G1 X9.02 Y0.13 Z0.3 F288.0 E1228.727
G1 X9.02 Y0.72 Z0.3 F288.0 E1229.699
G1 X7.87 Y-0.42 Z0.3 F288.0 E1232.361
G1 X7.87 Y0.17 Z0.3 F288.0 E1233.333
G1 X9.02 Y1.32 Z0.3 F288.0 E1235.997
G1 X9.02 Y1.91 Z0.3 F288.0 E1236.969
G1 X7.87 Y0.76 Z0.3 F288.0 E1239.631
G1 X7.87 Y1.35 Z0.3 F288.0 E1240.603
G1 X9.02 Y2.5 Z0.3 F288.0 E1243.265
G1 X9.02 Y3.09 Z0.3 F288.0 E1244.238
G1 X7.87 Y1.95 Z0.3 F288.0 E1246.901
G1 X7.87 Y2.54 Z0.3 F288.0 E1247.873
G1 X9.02 Y3.68 Z0.3 F288.0 E1250.535
G1 X9.02 Y4.28 Z0.3 F288.0 E1251.507
G1 X7.87 Y3.13 Z0.3 F288.0 E1254.169
G1 X7.87 Y3.72 Z0.3 F288.0 E1255.142
G1 X9.02 Y4.87 Z0.3 F288.0 E1257.805
G1 X9.02 Y5.46 Z0.3 F288.0 E1258.777
G1 X7.87 Y4.32 Z0.3 F288.0 E1261.439
G1 X7.87 Y4.91 Z0.3 F288.0 E1262.412
G1 X9.02 Y6.05 Z0.3 F288.0 E1265.074
G1 X9.02 Y6.65 Z0.3 F288.0 E1266.046
G1 X7.87 Y5.5 Z0.3 F288.0 E1268.709
G1 X7.5 Y5.73 Z0.3 F288.0 E1269.413
G1 X9.02 Y7.24 Z0.3 F288.0 E1272.924
G1 X9.02 Y7.83 Z0.3 F288.0 E1273.898
G1 X6.91 Y5.73 Z0.3 F288.0 E1278.786
G1 X6.32 Y5.73 Z0.3 F288.0 E1279.758
G1 X9.02 Y8.42 Z0.3 F288.0 E1286.02
G1 X9.02 Y9.02 Z0.3 F288.0 E1286.994
G1 X5.73 Y5.73 Z0.3 F288.0 E1294.633
G1 X5.13 Y5.73 Z0.3 F288.0 E1295.605
G1 X9.02 Y9.61 Z0.3 F288.0 E1304.619
G1 X9.02 Y10.2 Z0.3 F288.0 E1305.591
G1 X4.54 Y5.73 Z0.3 F288.0 E1315.979
G1 X3.95 Y5.73 Z0.3 F288.0 E1316.953
G1 X9.02 Y10.79 Z0.3 F288.0 E1328.718
G1 X9.02 Y11.39 Z0.3 F288.0 E1329.69
G1 X3.36 Y5.73 Z0.3 F288.0 E1342.83
G1 X2.77 Y5.73 Z0.3 F288.0 E1343.802
G1 X9.02 Y11.98 Z0.3 F288.0 E1358.317
G1 X9.02 Y12.57 Z0.3 F288.0 E1359.29
G1 X2.17 Y5.73 Z0.3 F288.0 E1375.182
G1 X1.58 Y5.73 Z0.3 F288.0 E1376.154
G1 X9.02 Y13.16 Z0.3 F288.0 E1393.42
G1 X9.02 Y13.76 Z0.3 F288.0 E1394.394
G1 X-9.02 Y-4.28 Z0.3 F288.0 E1436.262
G1 X-9.02 Y-4.87 Z0.3 F288.0 E1437.236
G1 X1.37 Y5.52 Z0.3 F288.0 E1461.348
G1 X1.37 Y4.92 Z0.3 F288.0 E1462.32
G1 X-9.02 Y-5.46 Z0.3 F288.0 E1486.432
G1 X-9.02 Y-6.05 Z0.3 F288.0 E1487.406
G1 X1.37 Y4.33 Z0.3 F288.0 E1511.518
G1 X1.37 Y3.74 Z0.3 F288.0 E1512.49
G1 X-9.02 Y-6.65 Z0.3 F288.0 E1536.603
G1 X-9.02 Y-7.24 Z0.3 F288.0 E1537.575
G1 X1.37 Y3.15 Z0.3 F288.0 E1561.687
G1 X1.37 Y2.55 Z0.3 F288.0 E1562.661
G1 X-9.02 Y-7.83 Z0.3 F288.0 E1586.773
G1 X-9.02 Y-8.42 Z0.3 F288.0 E1587.745
G1 X1.37 Y1.96 Z0.3 F288.0 E1611.858
G1 X1.37 Y1.37 Z0.3 F288.0 E1612.83
G1 X-9.02 Y-9.02 Z0.3 F288.0 E1636.943
G1 X-9.02 Y-9.61 Z0.3 F288.0 E1637.915
G1 X1.37 Y0.78 Z0.3 F288.0 E1662.028
G1 X1.37 Y0.18 Z0.3 F288.0 E1663.0
G1 X-9.02 Y-10.2 Z0.3 F288.0 E1687.112
G1 X-9.02 Y-10.79 Z0.3 F288.0 E1688.086
G1 X1.37 Y-0.41 Z0.3 F288.0 E1712.198
G1 X1.37 Y-1.0 Z0.3 F288.0 E1713.17
G1 X-9.02 Y-11.39 Z0.3 F288.0 E1737.283
G1 X-9.02 Y-11.98 Z0.3 F288.0 E1738.255
G1 X1.37 Y-1.59 Z0.3 F288.0 E1762.367
G1 X1.37 Y-2.19 Z0.3 F288.0 E1763.341
G1 X-9.02 Y-12.57 Z0.3 F288.0 E1787.453
G1 X-9.02 Y-13.16 Z0.3 F288.0 E1788.425
G1 X1.37 Y-2.78 Z0.3 F288.0 E1812.537
G1 X1.37 Y-3.37 Z0.3 F288.0 E1813.511
G1 X-9.02 Y-13.76 Z0.3 F288.0 E1837.623
G1 X-9.02 Y-14.35 Z0.3 F288.0 E1838.595
G1 X1.37 Y-3.96 Z0.3 F288.0 E1862.708
G1 X1.37 Y-4.56 Z0.3 F288.0 E1863.68
G1 X-9.02 Y-14.94 Z0.3 F288.0 E1887.792
G1 X-9.02 Y-15.53 Z0.3 F288.0 E1888.766
G1 X1.37 Y-5.15 Z0.3 F288.0 E1912.878
G1 X1.37 Y-5.74 Z0.3 F288.0 E1913.85
G1 X-9.02 Y-16.12 Z0.3 F288.0 E1937.963
G1 X-9.02 Y-16.72 Z0.3 F288.0 E1938.936
G1 X1.37 Y-6.33 Z0.3 F288.0 E1963.05
G1 X1.37 Y-6.93 Z0.3 F288.0 E1964.024
G1 X-9.02 Y-17.31 Z0.3 F288.0 E1988.136
G1 X-9.02 Y-17.9 Z0.3 F288.0 E1989.108
G1 X1.37 Y-7.52 Z0.3 F288.0 E2013.22
G1 X1.37 Y-8.11 Z0.3 F288.0 E2014.194
G1 X-9.02 Y-18.49 Z0.3 F288.0 E2038.306
G1 X-8.95 Y-19.02 Z0.3 F288.0 E2039.171
G1 X1.37 Y-8.7 Z0.3 F288.0 E2063.12
G1 X1.37 Y-9.29 Z0.3 F288.0 E2064.092
G1 X-8.35 Y-19.02 Z0.3 F288.0 E2086.666
G1 X-7.76 Y-19.02 Z0.3 F288.0 E2087.64
G1 X1.37 Y-9.89 Z0.3 F288.0 E2108.837
G1 X1.37 Y-10.48 Z0.3 F288.0 E2109.809
G1 X-7.17 Y-19.02 Z0.3 F288.0 E2129.632
G1 X-6.58 Y-19.02 Z0.3 F288.0 E2130.605
G1 X1.37 Y-11.07 Z0.3 F288.0 E2149.051
G1 X1.37 Y-11.66 Z0.3 F288.0 E2150.023
G1 X-5.98 Y-19.02 Z0.3 F288.0 E2167.094
G1 X-5.39 Y-19.02 Z0.3 F288.0 E2168.066
G1 X1.37 Y-12.26 Z0.3 F288.0 E2183.762
G1 X1.37 Y-12.85 Z0.3 F288.0 E2184.736
G1 X-4.8 Y-19.02 Z0.3 F288.0 E2199.056
G1 X-4.21 Y-19.02 Z0.3 F288.0 E2200.028
G1 X1.37 Y-13.44 Z0.3 F288.0 E2212.972
G1 X1.37 Y-14.03 Z0.3 F288.0 E2213.944
G1 X-3.61 Y-19.02 Z0.3 F288.0 E2225.515
G1 X-3.02 Y-19.02 Z0.3 F288.0 E2226.488
G1 X1.37 Y-14.63 Z0.3 F288.0 E2236.682
G1 X1.37 Y-15.22 Z0.3 F288.0 E2237.654
G1 X-2.43 Y-19.02 Z0.3 F288.0 E2246.473
G1 X-1.84 Y-19.02 Z0.3 F288.0 E2247.446
G1 X1.85 Y-15.33 Z0.3 F288.0 E2255.995
G1 X2.44 Y-15.33 Z0.3 F288.0 E2256.967
G1 X-1.24 Y-19.02 Z0.3 F288.0 E2265.515
G1 X-0.65 Y-19.02 Z0.3 F288.0 E2266.487
G1 X3.03 Y-15.33 Z0.3 F288.0 E2275.035
G1 X3.62 Y-15.33 Z0.3 F288.0 E2276.009
G1 X-0.06 Y-19.02 Z0.3 F288.0 E2284.557
G1 X0.53 Y-19.02 Z0.3 F288.0 E2285.529
G1 X4.21 Y-15.33 Z0.3 F288.0 E2294.077
G1 X4.81 Y-15.33 Z0.3 F288.0 E2295.051
G1 X1.13 Y-19.02 Z0.3 F288.0 E2303.599
G1 X1.72 Y-19.02 Z0.3 F288.0 E2304.571
G1 X5.4 Y-15.33 Z0.3 F288.0 E2313.12
G1 X5.99 Y-15.33 Z0.3 F288.0 E2314.092
G1 X2.31 Y-19.02 Z0.3 F288.0 E2322.64
G1 X2.9 Y-19.02 Z0.3 F288.0 E2323.614
G1 X6.58 Y-15.33 Z0.3 F288.0 E2332.162
G1 X7.18 Y-15.33 Z0.3 F288.0 E2333.134
G1 X3.5 Y-19.02 Z0.3 F288.0 E2341.682
;M103
G1 X3.4 Y-14.98 Z0.3 F3600.0
;M101
G1 X1.73 Y-14.98 Z0.3 F288.0 E2344.426
G1 X1.73 Y5.37 Z0.3 F288.0 E2377.835
G1 X7.51 Y5.37 Z0.3 F288.0 E2387.338
G1 X7.51 Y-14.98 Z0.3 F288.0 E2420.747
G1 X3.5 Y-14.98 Z0.3 F288.0 E2427.344
G1 X3.4 Y-14.98 Z0.3 F288.0 E2427.506
;M103
G1 X3.27 Y-14.64 Z0.3 F3600.0
G1 X2.21 Y-14.5 Z0.3 F3600.0
G1 X2.06 Y-9.59 Z0.3 F3600.0
G1 X-1.3 Y9.26 Z0.3 F3600.0
;M101
G1 X-2.34 Y9.12 Z0.3 F288.0 E2429.235
G1 X-3.39 Y9.26 Z0.3 F288.0 E2430.964
G1 X-4.36 Y9.66 Z0.3 F288.0 E2432.693
G1 X-5.19 Y10.3 Z0.3 F288.0 E2434.421
G1 X-5.83 Y11.14 Z0.3 F288.0 E2436.15
G1 X-6.24 Y12.11 Z0.3 F288.0 E2437.878
G1 X-6.37 Y13.16 Z0.3 F288.0 E2439.606
G1 X-6.24 Y14.2 Z0.3 F288.0 E2441.335
G1 X-5.83 Y15.17 Z0.3 F288.0 E2443.063
G1 X-5.19 Y16.01 Z0.3 F288.0 E2444.792
G1 X-4.36 Y16.65 Z0.3 F288.0 E2446.52
G1 X-3.39 Y17.05 Z0.3 F288.0 E2448.249
G1 X-2.34 Y17.19 Z0.3 F288.0 E2449.978
G1 X-1.3 Y17.05 Z0.3 F288.0 E2451.707
G1 X-0.33 Y16.65 Z0.3 F288.0 E2453.434
G1 X0.51 Y16.01 Z0.3 F288.0 E2455.163
G1 X1.15 Y15.17 Z0.3 F288.0 E2456.891
G1 X1.55 Y14.2 Z0.3 F288.0 E2458.62
G1 X1.69 Y13.16 Z0.3 F288.0 E2460.349
G1 X1.55 Y12.11 Z0.3 F288.0 E2462.077
G1 X1.15 Y11.14 Z0.3 F288.0 E2463.806
G1 X0.51 Y10.3 Z0.3 F288.0 E2465.534
G1 X-0.33 Y9.66 Z0.3 F288.0 E2467.262
G1 X-1.3 Y9.26 Z0.3 F288.0 E2468.99
;M103
G1 X-9.37 Y9.26 Z0.3 F3600.0
;M101
G1 X-9.37 Y-19.37 Z0.3 F288.0 E2516.0
G1 X9.37 Y-19.37 Z0.3 F288.0 E2546.775
G1 X9.37 Y19.37 Z0.3 F288.0 E2610.388
G1 X-9.37 Y19.37 Z0.3 F288.0 E2641.164
G1 X-9.37 Y9.26 Z0.3 F288.0 E2657.766
;M103
;M108 S5.629
;M108 S5.91
G1 X-9.79 Y9.26 Z0.3 F3600.0
;M101
G1 X-9.79 Y-19.79 Z0.3 F243.0 E2700.159
G1 X9.79 Y-19.79 Z0.3 F243.0 E2728.734
G1 X9.79 Y19.79 Z0.3 F243.0 E2786.495
G1 X-9.79 Y19.79 Z0.3 F243.0 E2815.07
G1 X-9.79 Y9.26 Z0.3 F243.0 E2830.437
;M103
G1 X-5.47 Y11.35 Z0.3 F3600.0
;M101
G1 X-5.83 Y12.22 Z0.3 F243.0 E2831.813
G1 X-5.95 Y13.16 Z0.3 F243.0 E2833.187
G1 X-5.83 Y14.09 Z0.3 F243.0 E2834.564
G1 X-5.47 Y14.96 Z0.3 F243.0 E2835.939
G1 X-4.89 Y15.71 Z0.3 F243.0 E2837.314
G1 X-4.15 Y16.28 Z0.3 F243.0 E2838.688
G1 X-3.28 Y16.64 Z0.3 F243.0 E2840.064
G1 X-2.34 Y16.77 Z0.3 F243.0 E2841.44
G1 X-1.41 Y16.64 Z0.3 F243.0 E2842.816
G1 X-0.54 Y16.28 Z0.3 F243.0 E2844.191
G1 X0.21 Y15.71 Z0.3 F243.0 E2845.565
G1 X0.79 Y14.96 Z0.3 F243.0 E2846.94
G1 X1.15 Y14.09 Z0.3 F243.0 E2848.316
G1 X1.27 Y13.16 Z0.3 F243.0 E2849.692
G1 X1.15 Y12.22 Z0.3 F243.0 E2851.067
G1 X0.79 Y11.35 Z0.3 F243.0 E2852.443
G1 X0.21 Y10.6 Z0.3 F243.0 E2853.817
G1 X-0.54 Y10.03 Z0.3 F243.0 E2855.192
G1 X-1.41 Y9.67 Z0.3 F243.0 E2856.567
G1 X-2.34 Y9.55 Z0.3 F243.0 E2857.943
G1 X-3.28 Y9.67 Z0.3 F243.0 E2859.319
G1 X-4.15 Y10.03 Z0.3 F243.0 E2860.694
G1 X-4.89 Y10.6 Z0.3 F243.0 E2862.069
G1 X-5.47 Y11.35 Z0.3 F243.0 E2863.444
;M103
G1 X2.14 Y4.95 Z0.3 F3600.0
;M101
G1 X7.1 Y4.95 Z0.3 F243.0 E2870.669
G1 X7.1 Y-14.56 Z0.3 F243.0 E2899.142
G1 X2.14 Y-14.56 Z0.3 F243.0 E2906.367
G1 X2.14 Y4.95 Z0.3 F243.0 E2934.84
;M103
;M108 S7.506
G1 X7.31 Y5.73 Z0.6 F3600.0
;M101
G1 X1.64 Y11.39 Z0.6 F360.0 E2944.862
G1 X1.47 Y10.97 Z0.6 F360.0 E2945.428
G1 X6.71 Y5.73 Z0.6 F360.0 E2954.711
G1 X6.12 Y5.73 Z0.6 F360.0 E2955.453
G1 X1.21 Y10.64 Z0.6 F360.0 E2964.137
G1 X0.96 Y10.3 Z0.6 F360.0 E2964.665
G1 X5.53 Y5.73 Z0.6 F360.0 E2972.757
G1 X4.94 Y5.73 Z0.6 F360.0 E2973.499
G1 X0.68 Y9.98 Z0.6 F360.0 E2981.031
G1 X0.34 Y9.73 Z0.6 F360.0 E2981.56
G1 X4.34 Y5.73 Z0.6 F360.0 E2988.639
G1 X3.75 Y5.73 Z0.6 F360.0 E2989.379
G1 X0.01 Y9.47 Z0.6 F360.0 E2996.003
G1 X-0.37 Y9.26 Z0.6 F360.0 E2996.547
G1 X3.16 Y5.73 Z0.6 F360.0 E3002.795
G1 X2.57 Y5.73 Z0.6 F360.0 E3003.536
G1 X-0.79 Y9.08 Z0.6 F360.0 E3009.477
G1 X-1.21 Y8.91 Z0.6 F360.0 E3010.044
G1 X1.98 Y5.73 Z0.6 F360.0 E3015.681
G1 X1.38 Y5.73 Z0.6 F360.0 E3016.423
G1 X-1.74 Y8.84 Z0.6 F360.0 E3021.937
G1 X-2.26 Y8.78 Z0.6 F360.0 E3022.599
G1 X1.37 Y5.15 Z0.6 F360.0 E3029.016
G1 X1.37 Y4.56 Z0.6 F360.0 E3029.758
G1 X-2.92 Y8.84 Z0.6 F360.0 E3037.337
G1 X-3.66 Y8.99 Z0.6 F360.0 E3038.281
G1 X1.37 Y3.96 Z0.6 F360.0 E3047.169
;M103
G1 X1.71 Y-15.33 Z0.6 F3600.0
;M101
G1 X5.39 Y-19.02 Z0.6 F360.0 E3053.682
G1 X5.98 Y-19.02 Z0.6 F360.0 E3054.422
G1 X2.3 Y-15.33 Z0.6 F360.0 E3060.936
G1 X2.89 Y-15.33 Z0.6 F360.0 E3061.676
G1 X6.58 Y-19.02 Z0.6 F360.0 E3068.189
G1 X7.17 Y-19.02 Z0.6 F360.0 E3068.931
G1 X3.49 Y-15.33 Z0.6 F360.0 E3075.445
G1 X4.08 Y-15.33 Z0.6 F360.0 E3076.185
G1 X7.76 Y-19.02 Z0.6 F360.0 E3082.698
G1 X8.35 Y-19.02 Z0.6 F360.0 E3083.44
G1 X4.67 Y-15.33 Z0.6 F360.0 E3089.953
G1 X5.26 Y-15.33 Z0.6 F360.0 E3090.694
G1 X8.95 Y-19.02 Z0.6 F360.0 E3097.207
G1 X9.02 Y-18.49 Z0.6 F360.0 E3097.866
G1 X5.86 Y-15.33 Z0.6 F360.0 E3103.457
G1 X6.45 Y-15.33 Z0.6 F360.0 E3104.199
G1 X9.02 Y-17.9 Z0.6 F360.0 E3108.74
G1 X9.02 Y-17.31 Z0.6 F360.0 E3109.481
G1 X7.04 Y-15.33 Z0.6 F360.0 E3112.975
G1 X7.63 Y-15.33 Z0.6 F360.0 E3113.716
G1 X9.02 Y-16.72 Z0.6 F360.0 E3116.162
G1 X9.02 Y-16.12 Z0.6 F360.0 E3116.904
G1 X7.87 Y-14.98 Z0.6 F360.0 E3118.933
G1 X7.87 Y-14.39 Z0.6 F360.0 E3119.673
G1 X9.02 Y-15.53 Z0.6 F360.0 E3121.702
G1 X9.02 Y-14.94 Z0.6 F360.0 E3122.443
G1 X7.87 Y-13.79 Z0.6 F360.0 E3124.472
G1 X7.87 Y-13.2 Z0.6 F360.0 E3125.212
G1 X9.02 Y-14.35 Z0.6 F360.0 E3127.241
G1 X9.02 Y-13.76 Z0.6 F360.0 E3127.981
G1 X7.87 Y-12.61 Z0.6 F360.0 E3130.01
G1 X7.87 Y-12.02 Z0.6 F360.0 E3130.751
G1 X9.02 Y-13.16 Z0.6 F360.0 E3132.78
G1 X9.02 Y-12.57 Z0.6 F360.0 E3133.52
G1 X7.87 Y-11.42 Z0.6 F360.0 E3135.549
G1 X7.87 Y-10.83 Z0.6 F360.0 E3136.291
G1 X9.02 Y-11.98 Z0.6 F360.0 E3138.319
G1 X9.02 Y-11.39 Z0.6 F360.0 E3139.06
G1 X7.87 Y-10.24 Z0.6 F360.0 E3141.088
G1 X7.87 Y-9.65 Z0.6 F360.0 E3141.829
G1 X9.02 Y-10.79 Z0.6 F360.0 E3143.857
G1 X9.02 Y-10.2 Z0.6 F360.0 E3144.599
G1 X7.87 Y-9.05 Z0.6 F360.0 E3146.627
G1 X7.87 Y-8.46 Z0.6 F360.0 E3147.368
G1 X9.02 Y-9.61 Z0.6 F360.0 E3149.396
G1 X9.02 Y-9.02 Z0.6 F360.0 E3150.137
G1 X7.87 Y-7.87 Z0.6 F360.0 E3152.166
G1 X7.87 Y-7.28 Z0.6 F360.0 E3152.907
G1 X9.02 Y-8.42 Z0.6 F360.0 E3154.935
G1 X9.02 Y-7.83 Z0.6 F360.0 E3155.675
G1 X7.87 Y-6.69 Z0.6 F360.0 E3157.704
G1 X7.87 Y-6.09 Z0.6 F360.0 E3158.446
G1 X9.02 Y-7.24 Z0.6 F360.0 E3160.474
G1 X9.02 Y-6.65 Z0.6 F360.0 E3161.215
G1 X7.87 Y-5.5 Z0.6 F360.0 E3163.243
G1 X7.87 Y-4.91 Z0.6 F360.0 E3163.984
G1 X9.02 Y-6.05 Z0.6 F360.0 E3166.012
G1 X9.02 Y-5.46 Z0.6 F360.0 E3166.754
G1 X7.87 Y-4.32 Z0.6 F360.0 E3168.782
G1 X7.87 Y-3.72 Z0.6 F360.0 E3169.523
G1 X9.02 Y-4.87 Z0.6 F360.0 E3171.551
G1 X9.02 Y-4.28 Z0.6 F360.0 E3172.293
G1 X7.87 Y-3.13 Z0.6 F360.0 E3174.321
G1 X7.87 Y-2.54 Z0.6 F360.0 E3175.062
G1 X9.02 Y-3.68 Z0.6 F360.0 E3177.09
G1 X9.02 Y-3.09 Z0.6 F360.0 E3177.831
G1 X7.87 Y-1.95 Z0.6 F360.0 E3179.859
G1 X7.87 Y-1.35 Z0.6 F360.0 E3180.601
G1 X9.02 Y-2.5 Z0.6 F360.0 E3182.629
G1 X9.02 Y-1.91 Z0.6 F360.0 E3183.37
G1 X7.87 Y-0.76 Z0.6 F360.0 E3185.398
G1 X7.87 Y-0.17 Z0.6 F360.0 E3186.14
G1 X9.02 Y-1.32 Z0.6 F360.0 E3188.17
G1 X9.02 Y-0.72 Z0.6 F360.0 E3188.911
G1 X7.87 Y0.42 Z0.6 F360.0 E3190.94
G1 X7.87 Y1.02 Z0.6 F360.0 E3191.68
G1 X9.02 Y-0.13 Z0.6 F360.0 E3193.709
G1 X9.02 Y0.46 Z0.6 F360.0 E3194.451
G1 X7.87 Y1.61 Z0.6 F360.0 E3196.479
G1 X7.87 Y2.2 Z0.6 F360.0 E3197.22
G1 X9.02 Y1.06 Z0.6 F360.0 E3199.248
G1 X9.02 Y1.65 Z0.6 F360.0 E3199.988
G1 X7.87 Y2.79 Z0.6 F360.0 E3202.017
G1 X7.87 Y3.39 Z0.6 F360.0 E3202.759
G1 X9.02 Y2.24 Z0.6 F360.0 E3204.787
G1 X9.02 Y2.83 Z0.6 F360.0 E3205.528
G1 X7.87 Y3.98 Z0.6 F360.0 E3207.556
G1 X7.87 Y4.57 Z0.6 F360.0 E3208.298
G1 X9.02 Y3.43 Z0.6 F360.0 E3210.326
G1 X9.02 Y4.02 Z0.6 F360.0 E3211.067
G1 X7.87 Y5.16 Z0.6 F360.0 E3213.095
;M103
G1 X9.02 Y4.61 Z0.6 F3600.0
;M101
G1 X1.82 Y11.81 Z0.6 F360.0 E3225.835
G1 X1.94 Y12.28 Z0.6 F360.0 E3226.443
G1 X9.02 Y5.2 Z0.6 F360.0 E3238.968
G1 X9.02 Y5.79 Z0.6 F360.0 E3239.709
G1 X2.01 Y12.81 Z0.6 F360.0 E3252.113
G1 X2.02 Y13.38 Z0.6 F360.0 E3252.833
G1 X9.02 Y6.39 Z0.6 F360.0 E3265.209
G1 X9.02 Y6.98 Z0.6 F360.0 E3265.951
G1 X1.93 Y14.06 Z0.6 F360.0 E3278.485
G1 X1.62 Y14.96 Z0.6 F360.0 E3279.676
G1 X9.02 Y7.57 Z0.6 F360.0 E3292.757
;M103
G1 X9.02 Y18.83 Z0.6 F3600.0
;M101
G1 X8.83 Y19.02 Z0.6 F360.0 E3293.091
G1 X8.23 Y19.02 Z0.6 F360.0 E3293.833
G1 X9.02 Y18.23 Z0.6 F360.0 E3295.216
G1 X9.02 Y17.64 Z0.6 F360.0 E3295.957
G1 X7.64 Y19.02 Z0.6 F360.0 E3298.388
G1 X7.05 Y19.02 Z0.6 F360.0 E3299.13
G1 X9.02 Y17.05 Z0.6 F360.0 E3302.61
G1 X9.02 Y16.46 Z0.6 F360.0 E3303.35
G1 X6.46 Y19.02 Z0.6 F360.0 E3307.877
G1 X5.87 Y19.02 Z0.6 F360.0 E3308.618
G1 X9.02 Y15.87 Z0.6 F360.0 E3314.193
G1 X9.02 Y15.27 Z0.6 F360.0 E3314.935
G1 X5.27 Y19.02 Z0.6 F360.0 E3321.558
G1 X4.68 Y19.02 Z0.6 F360.0 E3322.299
G1 X9.02 Y14.68 Z0.6 F360.0 E3329.97
G1 X9.02 Y14.09 Z0.6 F360.0 E3330.712
G1 X4.09 Y19.02 Z0.6 F360.0 E3339.432
G1 X3.5 Y19.02 Z0.6 F360.0 E3340.173
G1 X9.02 Y13.5 Z0.6 F360.0 E3349.941
G1 X9.02 Y12.9 Z0.6 F360.0 E3350.681
G1 X2.9 Y19.02 Z0.6 F360.0 E3361.496
G1 X2.31 Y19.02 Z0.6 F360.0 E3362.238
G1 X9.02 Y12.31 Z0.6 F360.0 E3374.102
G1 X9.02 Y11.72 Z0.6 F360.0 E3374.843
G1 X1.72 Y19.02 Z0.6 F360.0 E3387.754
G1 X1.13 Y19.02 Z0.6 F360.0 E3388.495
G1 X9.02 Y11.13 Z0.6 F360.0 E3402.454
G1 X9.02 Y10.53 Z0.6 F360.0 E3403.195
G1 X0.53 Y19.02 Z0.6 F360.0 E3418.203
G1 X-0.06 Y19.02 Z0.6 F360.0 E3418.944
G1 X9.02 Y9.94 Z0.6 F360.0 E3434.999
G1 X9.02 Y9.35 Z0.6 F360.0 E3435.741
G1 X-0.65 Y19.02 Z0.6 F360.0 E3452.846
G1 X-1.24 Y19.02 Z0.6 F360.0 E3453.586
G1 X9.02 Y8.76 Z0.6 F360.0 E3471.738
G1 X9.02 Y8.16 Z0.6 F360.0 E3472.479
G1 X-1.84 Y19.02 Z0.6 F360.0 E3491.678
G1 X-2.43 Y19.02 Z0.6 F360.0 E3492.42
G1 X-0.53 Y17.12 Z0.6 F360.0 E3495.774
G1 X-1.43 Y17.43 Z0.6 F360.0 E3496.965
G1 X-3.02 Y19.02 Z0.6 F360.0 E3499.774
G1 X-3.61 Y19.02 Z0.6 F360.0 E3500.516
G1 X-2.12 Y17.52 Z0.6 F360.0 E3503.168
G1 X-2.69 Y17.5 Z0.6 F360.0 E3503.888
G1 X-4.21 Y19.02 Z0.6 F360.0 E3506.569
G1 X-4.8 Y19.02 Z0.6 F360.0 E3507.309
G1 X-3.22 Y17.43 Z0.6 F360.0 E3510.11
G1 X-3.69 Y17.31 Z0.6 F360.0 E3510.72
G1 X-5.39 Y19.02 Z0.6 F360.0 E3513.734
G1 X-5.98 Y19.02 Z0.6 F360.0 E3514.475
G1 X-4.11 Y17.14 Z0.6 F360.0 E3517.796
G1 X-4.52 Y16.96 Z0.6 F360.0 E3518.363
G1 X-6.58 Y19.02 Z0.6 F360.0 E3521.992
G1 X-7.17 Y19.02 Z0.6 F360.0 E3522.734
G1 X-4.86 Y16.71 Z0.6 F360.0 E3526.814
G1 X-5.2 Y16.45 Z0.6 F360.0 E3527.342
G1 X-7.76 Y19.02 Z0.6 F360.0 E3531.877
G1 X-8.35 Y19.02 Z0.6 F360.0 E3532.618
G1 X-5.51 Y16.18 Z0.6 F360.0 E3537.643
G1 X-5.77 Y15.84 Z0.6 F360.0 E3538.172
G1 X-8.95 Y19.02 Z0.6 F360.0 E3543.79
G1 X-9.02 Y18.49 Z0.6 F360.0 E3544.449
G1 X-6.03 Y15.51 Z0.6 F360.0 E3549.737
G1 X-6.24 Y15.13 Z0.6 F360.0 E3550.282
G1 X-9.02 Y17.9 Z0.6 F360.0 E3555.194
G1 X-9.02 Y17.31 Z0.6 F360.0 E3555.934
G1 X-6.41 Y14.71 Z0.6 F360.0 E3560.541
G1 X-6.58 Y14.29 Z0.6 F360.0 E3561.109
G1 X-9.02 Y16.72 Z0.6 F360.0 E3565.412
G1 X-9.02 Y16.12 Z0.6 F360.0 E3566.153
G1 X-6.65 Y13.76 Z0.6 F360.0 E3570.333
G1 X-6.72 Y13.24 Z0.6 F360.0 E3570.994
G1 X-9.02 Y15.53 Z0.6 F360.0 E3575.053
G1 X-9.02 Y14.94 Z0.6 F360.0 E3575.795
G1 X-6.66 Y12.58 Z0.6 F360.0 E3579.967
G1 X-6.51 Y11.84 Z0.6 F360.0 E3580.911
G1 X-9.02 Y14.35 Z0.6 F360.0 E3585.346
G1 X-9.02 Y13.76 Z0.6 F360.0 E3586.086
G1 X1.37 Y3.37 Z0.6 F360.0 E3604.458
G1 X1.37 Y2.78 Z0.6 F360.0 E3605.2
G1 X-9.02 Y13.16 Z0.6 F360.0 E3623.572
G1 X-9.02 Y12.57 Z0.6 F360.0 E3624.313
G1 X1.37 Y2.19 Z0.6 F360.0 E3642.685
G1 X1.37 Y1.59 Z0.6 F360.0 E3643.427
G1 X-9.02 Y11.98 Z0.6 F360.0 E3661.799
G1 X-9.02 Y11.39 Z0.6 F360.0 E3662.54
G1 X1.37 Y1.0 Z0.6 F360.0 E3680.912
G1 X1.37 Y0.41 Z0.6 F360.0 E3681.652
G1 X-9.02 Y10.79 Z0.6 F360.0 E3700.024
G1 X-9.02 Y10.2 Z0.6 F360.0 E3700.766
G1 X1.37 Y-0.18 Z0.6 F360.0 E3719.138
G1 X1.37 Y-0.78 Z0.6 F360.0 E3719.879
G1 X-9.02 Y9.61 Z0.6 F360.0 E3738.251
G1 X-9.02 Y9.02 Z0.6 F360.0 E3738.991
G1 X1.37 Y-1.37 Z0.6 F360.0 E3757.364
G1 X1.37 Y-1.96 Z0.6 F360.0 E3758.105
G1 X-9.02 Y8.42 Z0.6 F360.0 E3776.477
G1 X-9.02 Y7.83 Z0.6 F360.0 E3777.218
G1 X1.37 Y-2.55 Z0.6 F360.0 E3795.59
G1 X1.37 Y-3.15 Z0.6 F360.0 E3796.332
G1 X-9.02 Y7.24 Z0.6 F360.0 E3814.704
G1 X-9.02 Y6.65 Z0.6 F360.0 E3815.444
G1 X1.37 Y-3.74 Z0.6 F360.0 E3833.816
G1 X1.37 Y-4.33 Z0.6 F360.0 E3834.557
G1 X-9.02 Y6.05 Z0.6 F360.0 E3852.929
G1 X-9.02 Y5.46 Z0.6 F360.0 E3853.671
G1 X1.37 Y-4.92 Z0.6 F360.0 E3872.043
G1 X1.37 Y-5.52 Z0.6 F360.0 E3872.783
G1 X-9.02 Y4.87 Z0.6 F360.0 E3891.155
G1 X-9.02 Y4.28 Z0.6 F360.0 E3891.897
G1 X1.37 Y-6.11 Z0.6 F360.0 E3910.269
G1 X1.37 Y-6.7 Z0.6 F360.0 E3911.01
G1 X-9.02 Y3.68 Z0.6 F360.0 E3929.382
G1 X-9.02 Y3.09 Z0.6 F360.0 E3930.123
G1 X1.37 Y-7.29 Z0.6 F360.0 E3948.495
G1 X1.37 Y-7.89 Z0.6 F360.0 E3949.236
G1 X-9.02 Y2.5 Z0.6 F360.0 E3967.609
G1 X-9.02 Y1.91 Z0.6 F360.0 E3968.349
G1 X1.37 Y-8.48 Z0.6 F360.0 E3986.721
G1 X1.37 Y-9.07 Z0.6 F360.0 E3987.463
G1 X-9.02 Y1.32 Z0.6 F360.0 E4005.836
G1 X-9.02 Y0.72 Z0.6 F360.0 E4006.578
G1 X1.37 Y-9.66 Z0.6 F360.0 E4024.95
G1 X1.37 Y-10.25 Z0.6 F360.0 E4025.69
G1 X-9.02 Y0.13 Z0.6 F360.0 E4044.063
G1 X-9.02 Y-0.46 Z0.6 F360.0 E4044.804
G1 X1.37 Y-10.85 Z0.6 F360.0 E4063.176
G1 X1.37 Y-11.44 Z0.6 F360.0 E4063.917
G1 X-9.02 Y-1.06 Z0.6 F360.0 E4082.289
G1 X-9.02 Y-1.65 Z0.6 F360.0 E4083.03
G1 X1.37 Y-12.03 Z0.6 F360.0 E4101.402
G1 X1.37 Y-12.62 Z0.6 F360.0 E4102.144
G1 X-9.02 Y-2.24 Z0.6 F360.0 E4120.516
G1 X-9.02 Y-2.83 Z0.6 F360.0 E4121.256
G1 X1.37 Y-13.22 Z0.6 F360.0 E4139.628
G1 X1.37 Y-13.81 Z0.6 F360.0 E4140.37
G1 X-9.02 Y-3.43 Z0.6 F360.0 E4158.742
G1 X-9.02 Y-4.02 Z0.6 F360.0 E4159.483
G1 X1.37 Y-14.4 Z0.6 F360.0 E4177.855
G1 X1.37 Y-14.99 Z0.6 F360.0 E4178.595
G1 X-9.02 Y-4.61 Z0.6 F360.0 E4196.968
G1 X-9.02 Y-5.2 Z0.6 F360.0 E4197.709
G1 X4.8 Y-19.02 Z0.6 F360.0 E4222.149
G1 X4.21 Y-19.02 Z0.6 F360.0 E4222.889
G1 X-9.02 Y-5.79 Z0.6 F360.0 E4246.282
G1 X-9.02 Y-6.39 Z0.6 F360.0 E4247.022
G1 X3.61 Y-19.02 Z0.6 F360.0 E4269.367
G1 X3.02 Y-19.02 Z0.6 F360.0 E4270.109
G1 X-9.02 Y-6.98 Z0.6 F360.0 E4291.404
G1 X-9.02 Y-7.57 Z0.6 F360.0 E4292.145
G1 X2.43 Y-19.02 Z0.6 F360.0 E4312.393
G1 X1.84 Y-19.02 Z0.6 F360.0 E4313.135
G1 X-9.02 Y-8.16 Z0.6 F360.0 E4332.334
G1 X-9.02 Y-8.76 Z0.6 F360.0 E4333.075
G1 X1.24 Y-19.02 Z0.6 F360.0 E4351.227
G1 X0.65 Y-19.02 Z0.6 F360.0 E4351.967
G1 X-9.02 Y-9.35 Z0.6 F360.0 E4369.072
G1 X-9.02 Y-9.94 Z0.6 F360.0 E4369.814
G1 X0.06 Y-19.02 Z0.6 F360.0 E4385.869
G1 X-0.53 Y-19.02 Z0.6 F360.0 E4386.609
G1 X-9.02 Y-10.53 Z0.6 F360.0 E4401.617
G1 X-9.02 Y-11.13 Z0.6 F360.0 E4402.359
G1 X-1.13 Y-19.02 Z0.6 F360.0 E4416.318
G1 X-1.72 Y-19.02 Z0.6 F360.0 E4417.059
G1 X-9.02 Y-11.72 Z0.6 F360.0 E4429.97
G1 X-9.02 Y-12.31 Z0.6 F360.0 E4430.711
G1 X-2.31 Y-19.02 Z0.6 F360.0 E4442.575
G1 X-2.9 Y-19.02 Z0.6 F360.0 E4443.317
G1 X-9.02 Y-12.9 Z0.6 F360.0 E4454.132
G1 X-9.02 Y-13.5 Z0.6 F360.0 E4454.872
G1 X-3.5 Y-19.02 Z0.6 F360.0 E4464.64
G1 X-4.09 Y-19.02 Z0.6 F360.0 E4465.381
G1 X-9.02 Y-14.09 Z0.6 F360.0 E4474.101
G1 X-9.02 Y-14.68 Z0.6 F360.0 E4474.843
G1 X-4.68 Y-19.02 Z0.6 F360.0 E4482.514
G1 X-5.27 Y-19.02 Z0.6 F360.0 E4483.254
G1 X-9.02 Y-15.27 Z0.6 F360.0 E4489.878
G1 X-9.02 Y-15.87 Z0.6 F360.0 E4490.62
G1 X-5.87 Y-19.02 Z0.6 F360.0 E4496.195
G1 X-6.46 Y-19.02 Z0.6 F360.0 E4496.935
G1 X-9.02 Y-16.46 Z0.6 F360.0 E4501.463
G1 X-9.02 Y-17.05 Z0.6 F360.0 E4502.203
G1 X-7.05 Y-19.02 Z0.6 F360.0 E4505.683
G1 X-7.64 Y-19.02 Z0.6 F360.0 E4506.425
G1 X-9.02 Y-17.64 Z0.6 F360.0 E4508.856
G1 X-9.02 Y-18.23 Z0.6 F360.0 E4509.597
G1 X-8.23 Y-19.02 Z0.6 F360.0 E4510.98
G1 X-8.83 Y-19.02 Z0.6 F360.0 E4511.722
G1 X-9.02 Y-18.83 Z0.6 F360.0 E4512.056
;M103
G1 X1.95 Y-14.98 Z0.6 F3600.0
;M101
G1 X1.73 Y-14.98 Z0.6 F360.0 E4512.333
G1 X1.73 Y5.37 Z0.6 F360.0 E4537.788
G1 X7.51 Y5.37 Z0.6 F360.0 E4545.029
G1 X7.51 Y-14.98 Z0.6 F360.0 E4570.484
G1 X1.95 Y-14.98 Z0.6 F360.0 E4577.449
;M103
G1 X-1.3 Y9.26 Z0.6 F3600.0
;M101
G1 X-2.34 Y9.12 Z0.6 F360.0 E4578.766
G1 X-3.39 Y9.26 Z0.6 F360.0 E4580.083
G1 X-4.36 Y9.66 Z0.6 F360.0 E4581.401
G1 X-5.19 Y10.3 Z0.6 F360.0 E4582.717
G1 X-5.83 Y11.14 Z0.6 F360.0 E4584.034
G1 X-6.24 Y12.11 Z0.6 F360.0 E4585.351
G1 X-6.37 Y13.16 Z0.6 F360.0 E4586.668
G1 X-6.24 Y14.2 Z0.6 F360.0 E4587.985
G1 X-5.83 Y15.17 Z0.6 F360.0 E4589.302
G1 X-5.19 Y16.01 Z0.6 F360.0 E4590.619
G1 X-4.36 Y16.65 Z0.6 F360.0 E4591.936
G1 X-3.39 Y17.05 Z0.6 F360.0 E4593.253
G1 X-2.34 Y17.19 Z0.6 F360.0 E4594.57
G1 X-1.3 Y17.05 Z0.6 F360.0 E4595.888
G1 X-0.33 Y16.65 Z0.6 F360.0 E4597.204
G1 X0.51 Y16.01 Z0.6 F360.0 E4598.521
G1 X1.15 Y15.17 Z0.6 F360.0 E4599.838
G1 X1.55 Y14.2 Z0.6 F360.0 E4601.155
G1 X1.69 Y13.16 Z0.6 F360.0 E4602.473
G1 X1.55 Y12.11 Z0.6 F360.0 E4603.789
G1 X1.15 Y11.14 Z0.6 F360.0 E4605.106
G1 X0.51 Y10.3 Z0.6 F360.0 E4606.423
G1 X-0.33 Y9.66 Z0.6 F360.0 E4607.74
G1 X-1.3 Y9.26 Z0.6 F360.0 E4609.056
;M103
G1 X-9.37 Y9.26 Z0.6 F3600.0
;M101
G1 X-9.37 Y-19.37 Z0.6 F360.0 E4644.875
G1 X9.37 Y-19.37 Z0.6 F360.0 E4668.324
G1 X9.37 Y19.37 Z0.6 F360.0 E4716.793
G1 X-9.37 Y19.37 Z0.6 F360.0 E4740.241
G1 X-9.37 Y9.26 Z0.6 F360.0 E4752.891
;M103
;M108 S5.629
G1 X-9.79 Y9.26 Z0.6 F3600.0
;M101
G1 X-9.79 Y-19.79 Z0.6 F270.0 E4789.231
G1 X9.79 Y-19.79 Z0.6 F270.0 E4813.726
G1 X9.79 Y19.79 Z0.6 F270.0 E4863.239
G1 X-9.79 Y19.79 Z0.6 F270.0 E4887.734
G1 X-9.79 Y9.26 Z0.6 F270.0 E4900.907
;M103
G1 X-5.47 Y11.35 Z0.6 F3600.0
;M101
G1 X-5.83 Y12.22 Z0.6 F270.0 E4902.086
G1 X-5.95 Y13.16 Z0.6 F270.0 E4903.264
G1 X-5.83 Y14.09 Z0.6 F270.0 E4904.444
G1 X-5.47 Y14.96 Z0.6 F270.0 E4905.623
G1 X-4.89 Y15.71 Z0.6 F270.0 E4906.801
G1 X-4.15 Y16.28 Z0.6 F270.0 E4907.979
G1 X-3.28 Y16.64 Z0.6 F270.0 E4909.159
G1 X-2.34 Y16.77 Z0.6 F270.0 E4910.338
G1 X-1.41 Y16.64 Z0.6 F270.0 E4911.518
G1 X-0.54 Y16.28 Z0.6 F270.0 E4912.696
G1 X0.21 Y15.71 Z0.6 F270.0 E4913.874
G1 X0.79 Y14.96 Z0.6 F270.0 E4915.053
G1 X1.15 Y14.09 Z0.6 F270.0 E4916.232
G1 X1.27 Y13.16 Z0.6 F270.0 E4917.412
G1 X1.15 Y12.22 Z0.6 F270.0 E4918.59
G1 X0.79 Y11.35 Z0.6 F270.0 E4919.77
G1 X0.21 Y10.6 Z0.6 F270.0 E4920.948
G1 X-0.54 Y10.03 Z0.6 F270.0 E4922.127
G1 X-1.41 Y9.67 Z0.6 F270.0 E4923.305
G1 X-2.34 Y9.55 Z0.6 F270.0 E4924.484
G1 X-3.28 Y9.67 Z0.6 F270.0 E4925.664
G1 X-4.15 Y10.03 Z0.6 F270.0 E4926.843
G1 X-4.89 Y10.6 Z0.6 F270.0 E4928.022
G1 X-5.47 Y11.35 Z0.6 F270.0 E4929.2
;M103
G1 X2.14 Y4.95 Z0.6 F3600.0
;M101
G1 X7.1 Y4.95 Z0.6 F270.0 E4935.393
G1 X7.1 Y-14.56 Z0.6 F270.0 E4959.801
G1 X2.14 Y-14.56 Z0.6 F270.0 E4965.994
G1 X2.14 Y4.95 Z0.6 F270.0 E4990.401
;M103
;M108 S7.506
G1 X-4.95 Y10.55 Z0.9 F3600.0
G1 X-5.54 Y11.31 Z0.9 F3600.0
G1 X-6.61 Y14.13 Z0.9 F3600.0
;M101
G1 X-9.02 Y11.72 Z0.9 F360.0 E4994.667
G1 X-9.02 Y11.13 Z0.9 F360.0 E4995.407
G1 X-6.7 Y13.45 Z0.9 F360.0 E4999.512
G1 X-6.69 Y12.86 Z0.9 F360.0 E5000.252
G1 X-9.02 Y10.53 Z0.9 F360.0 E5004.361
G1 X-9.02 Y9.94 Z0.9 F360.0 E5005.101
G1 X-6.62 Y12.33 Z0.9 F360.0 E5009.332
G1 X-6.51 Y11.85 Z0.9 F360.0 E5009.95
G1 X-9.02 Y9.35 Z0.9 F360.0 E5014.378
G1 X-9.02 Y8.76 Z0.9 F360.0 E5015.119
G1 X-6.34 Y11.43 Z0.9 F360.0 E5019.852
G1 X-6.17 Y11.01 Z0.9 F360.0 E5020.419
G1 X-9.02 Y8.16 Z0.9 F360.0 E5025.459
G1 X-9.02 Y7.57 Z0.9 F360.0 E5026.201
G1 X-5.92 Y10.67 Z0.9 F360.0 E5031.678
G1 X-5.66 Y10.33 Z0.9 F360.0 E5032.207
G1 X-9.02 Y6.98 Z0.9 F360.0 E5038.138
G1 X-9.02 Y6.39 Z0.9 F360.0 E5038.88
G1 X-5.39 Y10.01 Z0.9 F360.0 E5045.29
G1 X-5.06 Y9.75 Z0.9 F360.0 E5045.819
G1 X-9.02 Y5.79 Z0.9 F360.0 E5052.82
G1 X-9.02 Y5.2 Z0.9 F360.0 E5053.561
G1 X-4.72 Y9.49 Z0.9 F360.0 E5061.155
G1 X-4.35 Y9.28 Z0.9 F360.0 E5061.696
G1 X-9.02 Y4.61 Z0.9 F360.0 E5069.951
G1 X-9.02 Y4.02 Z0.9 F360.0 E5070.692
G1 X-3.93 Y9.1 Z0.9 F360.0 E5079.687
G1 X-3.51 Y8.93 Z0.9 F360.0 E5080.254
G1 X-9.02 Y3.43 Z0.9 F360.0 E5089.989
G1 X-9.02 Y2.83 Z0.9 F360.0 E5090.731
G1 X-3.0 Y8.85 Z0.9 F360.0 E5101.378
G1 X-2.47 Y8.78 Z0.9 F360.0 E5102.039
G1 X-9.02 Y2.24 Z0.9 F360.0 E5113.612
G1 X-9.02 Y1.65 Z0.9 F360.0 E5114.354
G1 X-1.83 Y8.83 Z0.9 F360.0 E5127.064
G1 X-1.13 Y8.95 Z0.9 F360.0 E5127.96
G1 X-9.02 Y1.06 Z0.9 F360.0 E5141.92
G1 X-9.02 Y0.46 Z0.9 F360.0 E5142.661
G1 X-0.06 Y9.42 Z0.9 F360.0 E5158.501
;M103
G1 X-9.02 Y-3.68 Z0.9 F3600.0
;M101
G1 X9.02 Y14.35 Z0.9 F360.0 E5190.402
G1 X9.02 Y14.94 Z0.9 F360.0 E5191.143
G1 X-9.02 Y-3.09 Z0.9 F360.0 E5223.044
G1 X-9.02 Y-2.5 Z0.9 F360.0 E5223.786
G1 X9.02 Y15.53 Z0.9 F360.0 E5255.687
G1 X9.02 Y16.12 Z0.9 F360.0 E5256.427
G1 X-9.02 Y-1.91 Z0.9 F360.0 E5288.328
G1 X-9.02 Y-1.32 Z0.9 F360.0 E5289.069
G1 X9.02 Y16.72 Z0.9 F360.0 E5320.971
G1 X9.02 Y17.31 Z0.9 F360.0 E5321.711
G1 X-9.02 Y-0.72 Z0.9 F360.0 E5353.612
G1 X-9.02 Y-0.13 Z0.9 F360.0 E5354.353
G1 X9.02 Y17.9 Z0.9 F360.0 E5386.254
G1 X9.02 Y18.49 Z0.9 F360.0 E5386.996
G1 X1.4 Y10.88 Z0.9 F360.0 E5400.473
;M103
G1 X1.87 Y11.94 Z0.9 F3600.0
;M101
G1 X8.95 Y19.02 Z0.9 F360.0 E5412.995
G1 X8.35 Y19.02 Z0.9 F360.0 E5413.735
G1 X1.98 Y12.65 Z0.9 F360.0 E5425.003
G1 X2.03 Y13.29 Z0.9 F360.0 E5425.809
G1 X7.76 Y19.02 Z0.9 F360.0 E5435.941
G1 X7.17 Y19.02 Z0.9 F360.0 E5436.681
G1 X1.96 Y13.81 Z0.9 F360.0 E5445.888
G1 X1.89 Y14.33 Z0.9 F360.0 E5446.54
G1 X6.58 Y19.02 Z0.9 F360.0 E5454.835
G1 X5.98 Y19.02 Z0.9 F360.0 E5455.575
G1 X1.71 Y14.75 Z0.9 F360.0 E5463.13
G1 X1.54 Y15.16 Z0.9 F360.0 E5463.696
G1 X5.39 Y19.02 Z0.9 F360.0 E5470.511
G1 X4.8 Y19.02 Z0.9 F360.0 E5471.253
G1 X1.32 Y15.54 Z0.9 F360.0 E5477.407
G1 X1.06 Y15.87 Z0.9 F360.0 E5477.935
G1 X4.21 Y19.02 Z0.9 F360.0 E5483.496
G1 X3.61 Y19.02 Z0.9 F360.0 E5484.237
G1 X0.81 Y16.21 Z0.9 F360.0 E5489.207
G1 X0.48 Y16.48 Z0.9 F360.0 E5489.732
G1 X3.02 Y19.02 Z0.9 F360.0 E5494.223
G1 X2.43 Y19.02 Z0.9 F360.0 E5494.964
G1 X0.15 Y16.73 Z0.9 F360.0 E5499.001
G1 X-0.2 Y16.98 Z0.9 F360.0 E5499.532
G1 X1.84 Y19.02 Z0.9 F360.0 E5503.131
G1 X1.24 Y19.02 Z0.9 F360.0 E5503.872
G1 X-0.62 Y17.16 Z0.9 F360.0 E5507.164
G1 X-1.04 Y17.33 Z0.9 F360.0 E5507.732
G1 X0.65 Y19.02 Z0.9 F360.0 E5510.718
G1 X0.06 Y19.02 Z0.9 F360.0 E5511.46
G1 X-1.52 Y17.44 Z0.9 F360.0 E5514.249
G1 X-2.04 Y17.51 Z0.9 F360.0 E5514.91
G1 X-0.53 Y19.02 Z0.9 F360.0 E5517.578
G1 X-1.13 Y19.02 Z0.9 F360.0 E5518.32
G1 X-2.63 Y17.51 Z0.9 F360.0 E5520.985
G1 X-3.31 Y17.42 Z0.9 F360.0 E5521.846
G1 X-1.72 Y19.02 Z0.9 F360.0 E5524.669
G1 X-2.31 Y19.02 Z0.9 F360.0 E5525.41
G1 X-4.25 Y17.08 Z0.9 F360.0 E5528.835
;M103
G1 X-4.09 Y19.02 Z0.9 F3600.0
;M101
G1 X-9.02 Y14.09 Z0.9 F360.0 E5537.555
G1 X-9.02 Y13.5 Z0.9 F360.0 E5538.296
G1 X-3.5 Y19.02 Z0.9 F360.0 E5548.063
G1 X-2.9 Y19.02 Z0.9 F360.0 E5548.804
G1 X-9.02 Y12.9 Z0.9 F360.0 E5559.619
G1 X-9.02 Y12.31 Z0.9 F360.0 E5560.361
G1 X-6.27 Y15.06 Z0.9 F360.0 E5565.227
;M103
G1 X-9.02 Y14.68 Z0.9 F3600.0
;M101
G1 X-4.68 Y19.02 Z0.9 F360.0 E5572.898
G1 X-5.27 Y19.02 Z0.9 F360.0 E5573.639
G1 X-9.02 Y15.27 Z0.9 F360.0 E5580.263
G1 X-9.02 Y15.87 Z0.9 F360.0 E5581.004
G1 X-5.87 Y19.02 Z0.9 F360.0 E5586.579
G1 X-6.46 Y19.02 Z0.9 F360.0 E5587.32
G1 X-9.02 Y16.46 Z0.9 F360.0 E5591.847
G1 X-9.02 Y17.05 Z0.9 F360.0 E5592.588
G1 X-7.05 Y19.02 Z0.9 F360.0 E5596.068
G1 X-7.64 Y19.02 Z0.9 F360.0 E5596.809
G1 X-9.02 Y17.64 Z0.9 F360.0 E5599.24
G1 X-9.02 Y18.23 Z0.9 F360.0 E5599.981
G1 X-8.23 Y19.02 Z0.9 F360.0 E5601.364
G1 X-8.83 Y19.02 Z0.9 F360.0 E5602.106
G1 X-9.02 Y18.83 Z0.9 F360.0 E5602.441
;M103
G1 X2.06 Y-5.29 Z0.9 F3600.0
G1 X2.21 Y-14.5 Z0.9 F3600.0
G1 X6.63 Y-14.64 Z0.9 F3600.0
G1 X8.83 Y-19.02 Z0.9 F3600.0
;M101
G1 X9.02 Y-18.83 Z0.9 F360.0 E5602.775
G1 X9.02 Y-18.23 Z0.9 F360.0 E5603.517
G1 X8.23 Y-19.02 Z0.9 F360.0 E5604.9
G1 X7.64 Y-19.02 Z0.9 F360.0 E5605.641
G1 X9.02 Y-17.64 Z0.9 F360.0 E5608.072
G1 X9.02 Y-17.05 Z0.9 F360.0 E5608.814
G1 X7.05 Y-19.02 Z0.9 F360.0 E5612.294
G1 X6.46 Y-19.02 Z0.9 F360.0 E5613.034
G1 X9.02 Y-16.46 Z0.9 F360.0 E5617.562
G1 X9.02 Y-15.87 Z0.9 F360.0 E5618.302
G1 X5.87 Y-19.02 Z0.9 F360.0 E5623.877
G1 X5.27 Y-19.02 Z0.9 F360.0 E5624.619
G1 X9.02 Y-15.27 Z0.9 F360.0 E5631.242
G1 X9.02 Y-14.68 Z0.9 F360.0 E5631.983
G1 X4.68 Y-19.02 Z0.9 F360.0 E5639.654
G1 X4.09 Y-19.02 Z0.9 F360.0 E5640.396
G1 X9.02 Y-14.09 Z0.9 F360.0 E5649.116
G1 X9.02 Y-13.5 Z0.9 F360.0 E5649.857
G1 X7.87 Y-14.64 Z0.9 F360.0 E5651.885
G1 X7.87 Y-14.05 Z0.9 F360.0 E5652.626
G1 X9.02 Y-12.9 Z0.9 F360.0 E5654.654
G1 X9.02 Y-12.31 Z0.9 F360.0 E5655.396
G1 X7.87 Y-13.46 Z0.9 F360.0 E5657.424
G1 X7.87 Y-12.86 Z0.9 F360.0 E5658.165
G1 X9.02 Y-11.72 Z0.9 F360.0 E5660.193
G1 X9.02 Y-11.13 Z0.9 F360.0 E5660.934
G1 X7.87 Y-12.27 Z0.9 F360.0 E5662.962
G1 X7.87 Y-11.68 Z0.9 F360.0 E5663.704
G1 X9.02 Y-10.53 Z0.9 F360.0 E5665.733
G1 X9.02 Y-9.94 Z0.9 F360.0 E5666.473
G1 X7.87 Y-11.09 Z0.9 F360.0 E5668.502
G1 X7.87 Y-10.49 Z0.9 F360.0 E5669.243
G1 X9.02 Y-9.35 Z0.9 F360.0 E5671.272
G1 X9.02 Y-8.76 Z0.9 F360.0 E5672.012
G1 X7.87 Y-9.9 Z0.9 F360.0 E5674.041
G1 X7.87 Y-9.31 Z0.9 F360.0 E5674.781
G1 X9.02 Y-8.16 Z0.9 F360.0 E5676.81
G1 X9.02 Y-7.57 Z0.9 F360.0 E5677.552
G1 X7.87 Y-8.72 Z0.9 F360.0 E5679.58
G1 X7.87 Y-8.13 Z0.9 F360.0 E5680.32
G1 X9.02 Y-6.98 Z0.9 F360.0 E5682.349
G1 X9.02 Y-6.39 Z0.9 F360.0 E5683.091
G1 X7.87 Y-7.53 Z0.9 F360.0 E5685.12
G1 X7.87 Y-6.94 Z0.9 F360.0 E5685.862
G1 X9.02 Y-5.79 Z0.9 F360.0 E5687.89
G1 X9.02 Y-5.2 Z0.9 F360.0 E5688.631
G1 X7.87 Y-6.35 Z0.9 F360.0 E5690.659
G1 X7.87 Y-5.76 Z0.9 F360.0 E5691.401
G1 X9.02 Y-4.61 Z0.9 F360.0 E5693.429
G1 X9.02 Y-4.02 Z0.9 F360.0 E5694.17
G1 X7.87 Y-5.16 Z0.9 F360.0 E5696.198
G1 X7.87 Y-4.57 Z0.9 F360.0 E5696.939
G1 X9.02 Y-3.43 Z0.9 F360.0 E5698.967
G1 X9.02 Y-2.83 Z0.9 F360.0 E5699.709
G1 X7.87 Y-3.98 Z0.9 F360.0 E5701.737
G1 X7.87 Y-3.39 Z0.9 F360.0 E5702.478
G1 X9.02 Y-2.24 Z0.9 F360.0 E5704.506
G1 X9.02 Y-1.65 Z0.9 F360.0 E5705.248
G1 X7.87 Y-2.79 Z0.9 F360.0 E5707.277
G1 X7.87 Y-2.2 Z0.9 F360.0 E5708.017
G1 X9.02 Y-1.06 Z0.9 F360.0 E5710.046
G1 X9.02 Y-0.46 Z0.9 F360.0 E5710.786
G1 X7.87 Y-1.61 Z0.9 F360.0 E5712.815
G1 X7.87 Y-1.02 Z0.9 F360.0 E5713.556
G1 X9.02 Y0.13 Z0.9 F360.0 E5715.585
G1 X9.02 Y0.72 Z0.9 F360.0 E5716.325
G1 X7.87 Y-0.42 Z0.9 F360.0 E5718.354
G1 X7.87 Y0.17 Z0.9 F360.0 E5719.094
G1 X9.02 Y1.32 Z0.9 F360.0 E5721.124
G1 X9.02 Y1.91 Z0.9 F360.0 E5721.864
G1 X7.87 Y0.76 Z0.9 F360.0 E5723.893
G1 X7.87 Y1.35 Z0.9 F360.0 E5724.633
G1 X9.02 Y2.5 Z0.9 F360.0 E5726.661
G1 X9.02 Y3.09 Z0.9 F360.0 E5727.403
G1 X7.87 Y1.95 Z0.9 F360.0 E5729.432
G1 X7.87 Y2.54 Z0.9 F360.0 E5730.172
G1 X9.02 Y3.68 Z0.9 F360.0 E5732.201
G1 X9.02 Y4.28 Z0.9 F360.0 E5732.941
G1 X7.87 Y3.13 Z0.9 F360.0 E5734.97
G1 X7.87 Y3.72 Z0.9 F360.0 E5735.711
G1 X9.02 Y4.87 Z0.9 F360.0 E5737.74
G1 X9.02 Y5.46 Z0.9 F360.0 E5738.48
G1 X7.87 Y4.32 Z0.9 F360.0 E5740.509
G1 X7.87 Y4.91 Z0.9 F360.0 E5741.251
G1 X9.02 Y6.05 Z0.9 F360.0 E5743.279
G1 X9.02 Y6.65 Z0.9 F360.0 E5744.02
G1 X7.87 Y5.5 Z0.9 F360.0 E5746.048
G1 X7.5 Y5.73 Z0.9 F360.0 E5746.585
G1 X9.02 Y7.24 Z0.9 F360.0 E5749.26
G1 X9.02 Y7.83 Z0.9 F360.0 E5750.002
G1 X6.91 Y5.73 Z0.9 F360.0 E5753.726
G1 X6.32 Y5.73 Z0.9 F360.0 E5754.467
G1 X9.02 Y8.42 Z0.9 F360.0 E5759.238
G1 X9.02 Y9.02 Z0.9 F360.0 E5759.98
G1 X5.73 Y5.73 Z0.9 F360.0 E5765.8
G1 X5.13 Y5.73 Z0.9 F360.0 E5766.541
G1 X9.02 Y9.61 Z0.9 F360.0 E5773.409
G1 X9.02 Y10.2 Z0.9 F360.0 E5774.15
G1 X4.54 Y5.73 Z0.9 F360.0 E5782.065
G1 X3.95 Y5.73 Z0.9 F360.0 E5782.807
G1 X9.02 Y10.79 Z0.9 F360.0 E5791.771
G1 X9.02 Y11.39 Z0.9 F360.0 E5792.512
G1 X3.36 Y5.73 Z0.9 F360.0 E5802.524
G1 X2.77 Y5.73 Z0.9 F360.0 E5803.264
G1 X9.02 Y11.98 Z0.9 F360.0 E5814.323
G1 X9.02 Y12.57 Z0.9 F360.0 E5815.065
G1 X2.17 Y5.73 Z0.9 F360.0 E5827.173
G1 X1.58 Y5.73 Z0.9 F360.0 E5827.914
G1 X9.02 Y13.16 Z0.9 F360.0 E5841.07
G1 X9.02 Y13.76 Z0.9 F360.0 E5841.812
G1 X-9.02 Y-4.28 Z0.9 F360.0 E5873.713
G1 X-9.02 Y-4.87 Z0.9 F360.0 E5874.454
G1 X1.37 Y5.52 Z0.9 F360.0 E5892.826
G1 X1.37 Y4.92 Z0.9 F360.0 E5893.567
G1 X-9.02 Y-5.46 Z0.9 F360.0 E5911.939
G1 X-9.02 Y-6.05 Z0.9 F360.0 E5912.681
G1 X1.37 Y4.33 Z0.9 F360.0 E5931.053
G1 X1.37 Y3.74 Z0.9 F360.0 E5931.794
G1 X-9.02 Y-6.65 Z0.9 F360.0 E5950.166
G1 X-9.02 Y-7.24 Z0.9 F360.0 E5950.906
G1 X1.37 Y3.15 Z0.9 F360.0 E5969.278
G1 X1.37 Y2.55 Z0.9 F360.0 E5970.02
G1 X-9.02 Y-7.83 Z0.9 F360.0 E5988.392
G1 X-9.02 Y-8.42 Z0.9 F360.0 E5989.133
G1 X1.37 Y1.96 Z0.9 F360.0 E6007.505
G1 X1.37 Y1.37 Z0.9 F360.0 E6008.245
G1 X-9.02 Y-9.02 Z0.9 F360.0 E6026.618
G1 X-9.02 Y-9.61 Z0.9 F360.0 E6027.359
G1 X1.37 Y0.78 Z0.9 F360.0 E6045.731
G1 X1.37 Y0.18 Z0.9 F360.0 E6046.472
G1 X-9.02 Y-10.2 Z0.9 F360.0 E6064.844
G1 X-9.02 Y-10.79 Z0.9 F360.0 E6065.586
G1 X1.37 Y-0.41 Z0.9 F360.0 E6083.958
G1 X1.37 Y-1.0 Z0.9 F360.0 E6084.698
G1 X-9.02 Y-11.39 Z0.9 F360.0 E6103.07
G1 X-9.02 Y-11.98 Z0.9 F360.0 E6103.811
G1 X1.37 Y-1.59 Z0.9 F360.0 E6122.183
G1 X1.37 Y-2.19 Z0.9 F360.0 E6122.925
G1 X-9.02 Y-12.57 Z0.9 F360.0 E6141.297
G1 X-9.02 Y-13.16 Z0.9 F360.0 E6142.037
G1 X1.37 Y-2.78 Z0.9 F360.0 E6160.409
G1 X1.37 Y-3.37 Z0.9 F360.0 E6161.151
G1 X-9.02 Y-13.76 Z0.9 F360.0 E6179.523
G1 X-9.02 Y-14.35 Z0.9 F360.0 E6180.264
G1 X1.37 Y-3.96 Z0.9 F360.0 E6198.636
G1 X1.37 Y-4.56 Z0.9 F360.0 E6199.377
G1 X-9.02 Y-14.94 Z0.9 F360.0 E6217.749
G1 X-9.02 Y-15.53 Z0.9 F360.0 E6218.491
G1 X1.37 Y-5.15 Z0.9 F360.0 E6236.863
G1 X1.37 Y-5.74 Z0.9 F360.0 E6237.603
G1 X-9.02 Y-16.12 Z0.9 F360.0 E6255.975
G1 X-9.02 Y-16.72 Z0.9 F360.0 E6256.717
G1 X1.37 Y-6.33 Z0.9 F360.0 E6275.09
G1 X1.37 Y-6.93 Z0.9 F360.0 E6275.832
G1 X-9.02 Y-17.31 Z0.9 F360.0 E6294.204
G1 X-9.02 Y-17.9 Z0.9 F360.0 E6294.945
G1 X1.37 Y-7.52 Z0.9 F360.0 E6313.317
G1 X1.37 Y-8.11 Z0.9 F360.0 E6314.058
G1 X-9.02 Y-18.49 Z0.9 F360.0 E6332.431
G1 X-8.95 Y-19.02 Z0.9 F360.0 E6333.09
G1 X1.37 Y-8.7 Z0.9 F360.0 E6351.337
G1 X1.37 Y-9.29 Z0.9 F360.0 E6352.077
G1 X-8.35 Y-19.02 Z0.9 F360.0 E6369.277
G1 X-7.76 Y-19.02 Z0.9 F360.0 E6370.019
G1 X1.37 Y-9.89 Z0.9 F360.0 E6386.17
G1 X1.37 Y-10.48 Z0.9 F360.0 E6386.911
G1 X-7.17 Y-19.02 Z0.9 F360.0 E6402.014
G1 X-6.58 Y-19.02 Z0.9 F360.0 E6402.756
G1 X1.37 Y-11.07 Z0.9 F360.0 E6416.81
G1 X1.37 Y-11.66 Z0.9 F360.0 E6417.551
G1 X-5.98 Y-19.02 Z0.9 F360.0 E6430.558
G1 X-5.39 Y-19.02 Z0.9 F360.0 E6431.299
G1 X1.37 Y-12.26 Z0.9 F360.0 E6443.258
G1 X1.37 Y-12.85 Z0.9 F360.0 E6444.0
G1 X-4.8 Y-19.02 Z0.9 F360.0 E6454.911
G1 X-4.21 Y-19.02 Z0.9 F360.0 E6455.651
G1 X1.37 Y-13.44 Z0.9 F360.0 E6465.514
G1 X1.37 Y-14.03 Z0.9 F360.0 E6466.255
G1 X-3.61 Y-19.02 Z0.9 F360.0 E6475.071
G1 X-3.02 Y-19.02 Z0.9 F360.0 E6475.813
G1 X1.37 Y-14.63 Z0.9 F360.0 E6483.579
G1 X1.37 Y-15.22 Z0.9 F360.0 E6484.32
G1 X-2.43 Y-19.02 Z0.9 F360.0 E6491.039
G1 X-1.84 Y-19.02 Z0.9 F360.0 E6491.781
G1 X1.85 Y-15.33 Z0.9 F360.0 E6498.294
G1 X2.44 Y-15.33 Z0.9 F360.0 E6499.035
G1 X-1.24 Y-19.02 Z0.9 F360.0 E6505.548
G1 X-0.65 Y-19.02 Z0.9 F360.0 E6506.289
G1 X3.03 Y-15.33 Z0.9 F360.0 E6512.802
G1 X3.62 Y-15.33 Z0.9 F360.0 E6513.544
G1 X-0.06 Y-19.02 Z0.9 F360.0 E6520.057
G1 X0.53 Y-19.02 Z0.9 F360.0 E6520.798
G1 X4.21 Y-15.33 Z0.9 F360.0 E6527.311
G1 X4.81 Y-15.33 Z0.9 F360.0 E6528.053
G1 X1.13 Y-19.02 Z0.9 F360.0 E6534.566
G1 X1.72 Y-19.02 Z0.9 F360.0 E6535.307
G1 X5.4 Y-15.33 Z0.9 F360.0 E6541.82
G1 X5.99 Y-15.33 Z0.9 F360.0 E6542.561
G1 X2.31 Y-19.02 Z0.9 F360.0 E6549.074
G1 X2.9 Y-19.02 Z0.9 F360.0 E6549.816
G1 X6.58 Y-15.33 Z0.9 F360.0 E6556.329
G1 X7.18 Y-15.33 Z0.9 F360.0 E6557.069
G1 X3.5 Y-19.02 Z0.9 F360.0 E6563.583
;M103
G1 X3.2 Y-14.98 Z0.9 F3600.0
;M101
G1 X1.73 Y-14.98 Z0.9 F360.0 E6565.425
G1 X1.73 Y5.37 Z0.9 F360.0 E6590.881
G1 X7.51 Y5.37 Z0.9 F360.0 E6598.122
G1 X7.51 Y-14.98 Z0.9 F360.0 E6623.577
G1 X3.5 Y-14.98 Z0.9 F360.0 E6628.603
G1 X3.2 Y-14.98 Z0.9 F360.0 E6628.975
;M103
G1 X3.08 Y-14.64 Z0.9 F3600.0
G1 X2.21 Y-14.5 Z0.9 F3600.0
G1 X2.06 Y-10.42 Z0.9 F3600.0
G1 X-1.3 Y9.26 Z0.9 F3600.0
;M101
G1 X-2.34 Y9.12 Z0.9 F360.0 E6630.292
G1 X-3.39 Y9.26 Z0.9 F360.0 E6631.609
G1 X-4.36 Y9.66 Z0.9 F360.0 E6632.927
G1 X-5.19 Y10.3 Z0.9 F360.0 E6634.244
G1 X-5.83 Y11.14 Z0.9 F360.0 E6635.561
G1 X-6.24 Y12.11 Z0.9 F360.0 E6636.878
G1 X-6.37 Y13.16 Z0.9 F360.0 E6638.194
G1 X-6.24 Y14.2 Z0.9 F360.0 E6639.511
G1 X-5.83 Y15.17 Z0.9 F360.0 E6640.828
G1 X-5.19 Y16.01 Z0.9 F360.0 E6642.145
G1 X-4.36 Y16.65 Z0.9 F360.0 E6643.462
G1 X-3.39 Y17.05 Z0.9 F360.0 E6644.78
G1 X-2.34 Y17.19 Z0.9 F360.0 E6646.097
G1 X-1.3 Y17.05 Z0.9 F360.0 E6647.414
G1 X-0.33 Y16.65 Z0.9 F360.0 E6648.73
G1 X0.51 Y16.01 Z0.9 F360.0 E6650.047
G1 X1.15 Y15.17 Z0.9 F360.0 E6651.364
G1 X1.55 Y14.2 Z0.9 F360.0 E6652.682
G1 X1.69 Y13.16 Z0.9 F360.0 E6653.999
G1 X1.55 Y12.11 Z0.9 F360.0 E6655.315
G1 X1.15 Y11.14 Z0.9 F360.0 E6656.633
G1 X0.51 Y10.3 Z0.9 F360.0 E6657.95
G1 X-0.33 Y9.66 Z0.9 F360.0 E6659.267
G1 X-1.3 Y9.26 Z0.9 F360.0 E6660.583
;M103
G1 X-9.37 Y9.26 Z0.9 F3600.0
;M101
G1 X-9.37 Y-19.37 Z0.9 F360.0 E6696.402
G1 X9.37 Y-19.37 Z0.9 F360.0 E6719.85
G1 X9.37 Y19.37 Z0.9 F360.0 E6768.319
G1 X-9.37 Y19.37 Z0.9 F360.0 E6791.768
G1 X-9.37 Y9.26 Z0.9 F360.0 E6804.418
;M103
;M108 S5.629
G1 X-9.79 Y9.26 Z0.9 F3600.0
;M101
G1 X-9.79 Y-19.79 Z0.9 F270.0 E6840.757
G1 X9.79 Y-19.79 Z0.9 F270.0 E6865.252
G1 X9.79 Y19.79 Z0.9 F270.0 E6914.765
G1 X-9.79 Y19.79 Z0.9 F270.0 E6939.26
G1 X-9.79 Y9.26 Z0.9 F270.0 E6952.433
;M103
G1 X-5.47 Y11.35 Z0.9 F3600.0
;M101
G1 X-5.83 Y12.22 Z0.9 F270.0 E6953.612
G1 X-5.95 Y13.16 Z0.9 F270.0 E6954.79
G1 X-5.83 Y14.09 Z0.9 F270.0 E6955.97
G1 X-5.47 Y14.96 Z0.9 F270.0 E6957.149
G1 X-4.89 Y15.71 Z0.9 F270.0 E6958.327
G1 X-4.15 Y16.28 Z0.9 F270.0 E6959.506
G1 X-3.28 Y16.64 Z0.9 F270.0 E6960.685
G1 X-2.34 Y16.77 Z0.9 F270.0 E6961.865
G1 X-1.41 Y16.64 Z0.9 F270.0 E6963.044
G1 X-0.54 Y16.28 Z0.9 F270.0 E6964.222
G1 X0.21 Y15.71 Z0.9 F270.0 E6965.401
G1 X0.79 Y14.96 Z0.9 F270.0 E6966.579
G1 X1.15 Y14.09 Z0.9 F270.0 E6967.759
G1 X1.27 Y13.16 Z0.9 F270.0 E6968.938
G1 X1.15 Y12.22 Z0.9 F270.0 E6970.117
G1 X0.79 Y11.35 Z0.9 F270.0 E6971.296
G1 X0.21 Y10.6 Z0.9 F270.0 E6972.475
G1 X-0.54 Y10.03 Z0.9 F270.0 E6973.653
G1 X-1.41 Y9.67 Z0.9 F270.0 E6974.831
G1 X-2.34 Y9.55 Z0.9 F270.0 E6976.011
G1 X-3.28 Y9.67 Z0.9 F270.0 E6977.19
G1 X-4.15 Y10.03 Z0.9 F270.0 E6978.37
G1 X-4.89 Y10.6 Z0.9 F270.0 E6979.548
G1 X-5.47 Y11.35 Z0.9 F270.0 E6980.726
;M103
G1 X2.14 Y4.95 Z0.9 F3600.0
;M101
G1 X7.1 Y4.95 Z0.9 F270.0 E6986.92
G1 X7.1 Y-14.56 Z0.9 F270.0 E7011.327
G1 X2.14 Y-14.56 Z0.9 F270.0 E7017.52
G1 X2.14 Y4.95 Z0.9 F270.0 E7041.927
;M103
;M108 S7.506
G1 X7.31 Y5.73 Z1.2 F3600.0
;M101
G1 X1.64 Y11.39 Z1.2 F360.0 E7051.95
G1 X1.47 Y10.97 Z1.2 F360.0 E7052.516
G1 X6.71 Y5.73 Z1.2 F360.0 E7061.799
G1 X6.12 Y5.73 Z1.2 F360.0 E7062.541
G1 X1.21 Y10.64 Z1.2 F360.0 E7071.225
G1 X0.96 Y10.3 Z1.2 F360.0 E7071.753
G1 X5.53 Y5.73 Z1.2 F360.0 E7079.845
G1 X4.94 Y5.73 Z1.2 F360.0 E7080.586
G1 X0.68 Y9.98 Z1.2 F360.0 E7088.119
G1 X0.34 Y9.73 Z1.2 F360.0 E7088.648
G1 X4.34 Y5.73 Z1.2 F360.0 E7095.726
G1 X3.75 Y5.73 Z1.2 F360.0 E7096.467
G1 X0.01 Y9.47 Z1.2 F360.0 E7103.091
G1 X-0.37 Y9.26 Z1.2 F360.0 E7103.635
G1 X3.16 Y5.73 Z1.2 F360.0 E7109.883
G1 X2.57 Y5.73 Z1.2 F360.0 E7110.624
G1 X-0.79 Y9.08 Z1.2 F360.0 E7116.565
G1 X-1.21 Y8.91 Z1.2 F360.0 E7117.132
G1 X1.98 Y5.73 Z1.2 F360.0 E7122.769
G1 X1.38 Y5.73 Z1.2 F360.0 E7123.511
G1 X-1.74 Y8.84 Z1.2 F360.0 E7129.025
G1 X-2.26 Y8.78 Z1.2 F360.0 E7129.686
G1 X1.37 Y5.15 Z1.2 F360.0 E7136.104
G1 X1.37 Y4.56 Z1.2 F360.0 E7136.846
G1 X-2.92 Y8.84 Z1.2 F360.0 E7144.425
G1 X-3.66 Y8.99 Z1.2 F360.0 E7145.369
G1 X1.37 Y3.96 Z1.2 F360.0 E7154.256
;M103
G1 X1.71 Y-15.33 Z1.2 F3600.0
;M101
G1 X5.39 Y-19.02 Z1.2 F360.0 E7160.77
G1 X5.98 Y-19.02 Z1.2 F360.0 E7161.51
G1 X2.3 Y-15.33 Z1.2 F360.0 E7168.023
G1 X2.89 Y-15.33 Z1.2 F360.0 E7168.764
G1 X6.58 Y-19.02 Z1.2 F360.0 E7175.277
G1 X7.17 Y-19.02 Z1.2 F360.0 E7176.019
G1 X3.49 Y-15.33 Z1.2 F360.0 E7182.532
G1 X4.08 Y-15.33 Z1.2 F360.0 E7183.273
G1 X7.76 Y-19.02 Z1.2 F360.0 E7189.786
G1 X8.35 Y-19.02 Z1.2 F360.0 E7190.528
G1 X4.67 Y-15.33 Z1.2 F360.0 E7197.041
G1 X5.26 Y-15.33 Z1.2 F360.0 E7197.782
G1 X8.95 Y-19.02 Z1.2 F360.0 E7204.295
G1 X9.02 Y-18.49 Z1.2 F360.0 E7204.954
G1 X5.86 Y-15.33 Z1.2 F360.0 E7210.545
G1 X6.45 Y-15.33 Z1.2 F360.0 E7211.287
G1 X9.02 Y-17.9 Z1.2 F360.0 E7215.828
G1 X9.02 Y-17.31 Z1.2 F360.0 E7216.569
G1 X7.04 Y-15.33 Z1.2 F360.0 E7220.063
G1 X7.63 Y-15.33 Z1.2 F360.0 E7220.803
G1 X9.02 Y-16.72 Z1.2 F360.0 E7223.25
G1 X9.02 Y-16.12 Z1.2 F360.0 E7223.992
G1 X7.87 Y-14.98 Z1.2 F360.0 E7226.02
G1 X7.87 Y-14.39 Z1.2 F360.0 E7226.761
G1 X9.02 Y-15.53 Z1.2 F360.0 E7228.789
G1 X9.02 Y-14.94 Z1.2 F360.0 E7229.531
G1 X7.87 Y-13.79 Z1.2 F360.0 E7231.56
G1 X7.87 Y-13.2 Z1.2 F360.0 E7232.3
G1 X9.02 Y-14.35 Z1.2 F360.0 E7234.328
G1 X9.02 Y-13.76 Z1.2 F360.0 E7235.069
G1 X7.87 Y-12.61 Z1.2 F360.0 E7237.097
G1 X7.87 Y-12.02 Z1.2 F360.0 E7237.839
G1 X9.02 Y-13.16 Z1.2 F360.0 E7239.868
G1 X9.02 Y-12.57 Z1.2 F360.0 E7240.608
G1 X7.87 Y-11.42 Z1.2 F360.0 E7242.637
G1 X7.87 Y-10.83 Z1.2 F360.0 E7243.378
G1 X9.02 Y-11.98 Z1.2 F360.0 E7245.407
G1 X9.02 Y-11.39 Z1.2 F360.0 E7246.147
G1 X7.87 Y-10.24 Z1.2 F360.0 E7248.176
G1 X7.87 Y-9.65 Z1.2 F360.0 E7248.916
G1 X9.02 Y-10.79 Z1.2 F360.0 E7250.945
G1 X9.02 Y-10.2 Z1.2 F360.0 E7251.687
G1 X7.87 Y-9.05 Z1.2 F360.0 E7253.715
G1 X7.87 Y-8.46 Z1.2 F360.0 E7254.456
G1 X9.02 Y-9.61 Z1.2 F360.0 E7256.484
G1 X9.02 Y-9.02 Z1.2 F360.0 E7257.224
G1 X7.87 Y-7.87 Z1.2 F360.0 E7259.254
G1 X7.87 Y-7.28 Z1.2 F360.0 E7259.994
G1 X9.02 Y-8.42 Z1.2 F360.0 E7262.023
G1 X9.02 Y-7.83 Z1.2 F360.0 E7262.763
G1 X7.87 Y-6.69 Z1.2 F360.0 E7264.792
G1 X7.87 Y-6.09 Z1.2 F360.0 E7265.534
G1 X9.02 Y-7.24 Z1.2 F360.0 E7267.562
G1 X9.02 Y-6.65 Z1.2 F360.0 E7268.302
G1 X7.87 Y-5.5 Z1.2 F360.0 E7270.331
G1 X7.87 Y-4.91 Z1.2 F360.0 E7271.071
G1 X9.02 Y-6.05 Z1.2 F360.0 E7273.1
G1 X9.02 Y-5.46 Z1.2 F360.0 E7273.842
G1 X7.87 Y-4.32 Z1.2 F360.0 E7275.87
G1 X7.87 Y-3.72 Z1.2 F360.0 E7276.611
G1 X9.02 Y-4.87 Z1.2 F360.0 E7278.639
G1 X9.02 Y-4.28 Z1.2 F360.0 E7279.381
G1 X7.87 Y-3.13 Z1.2 F360.0 E7281.409
G1 X7.87 Y-2.54 Z1.2 F360.0 E7282.15
G1 X9.02 Y-3.68 Z1.2 F360.0 E7284.178
G1 X9.02 Y-3.09 Z1.2 F360.0 E7284.919
G1 X7.87 Y-1.95 Z1.2 F360.0 E7286.947
G1 X7.87 Y-1.35 Z1.2 F360.0 E7287.689
G1 X9.02 Y-2.5 Z1.2 F360.0 E7289.717
G1 X9.02 Y-1.91 Z1.2 F360.0 E7290.458
G1 X7.87 Y-0.76 Z1.2 F360.0 E7292.486
G1 X7.87 Y-0.17 Z1.2 F360.0 E7293.228
G1 X9.02 Y-1.32 Z1.2 F360.0 E7295.257
G1 X9.02 Y-0.72 Z1.2 F360.0 E7295.999
G1 X7.87 Y0.42 Z1.2 F360.0 E7298.028
G1 X7.87 Y1.02 Z1.2 F360.0 E7298.768
G1 X9.02 Y-0.13 Z1.2 F360.0 E7300.797
G1 X9.02 Y0.46 Z1.2 F360.0 E7301.538
G1 X7.87 Y1.61 Z1.2 F360.0 E7303.567
G1 X7.87 Y2.2 Z1.2 F360.0 E7304.307
G1 X9.02 Y1.06 Z1.2 F360.0 E7306.336
G1 X9.02 Y1.65 Z1.2 F360.0 E7307.076
G1 X7.87 Y2.79 Z1.2 F360.0 E7309.105
G1 X7.87 Y3.39 Z1.2 F360.0 E7309.846
G1 X9.02 Y2.24 Z1.2 F360.0 E7311.875
G1 X9.02 Y2.83 Z1.2 F360.0 E7312.615
G1 X7.87 Y3.98 Z1.2 F360.0 E7314.644
G1 X7.87 Y4.57 Z1.2 F360.0 E7315.386
G1 X9.02 Y3.43 Z1.2 F360.0 E7317.414
G1 X9.02 Y4.02 Z1.2 F360.0 E7318.155
G1 X7.87 Y5.16 Z1.2 F360.0 E7320.183
;M103
G1 X9.02 Y4.61 Z1.2 F3600.0
;M101
G1 X1.82 Y11.81 Z1.2 F360.0 E7332.923
G1 X1.94 Y12.28 Z1.2 F360.0 E7333.531
G1 X9.02 Y5.2 Z1.2 F360.0 E7346.056
G1 X9.02 Y5.79 Z1.2 F360.0 E7346.797
G1 X2.01 Y12.81 Z1.2 F360.0 E7359.2
G1 X2.02 Y13.38 Z1.2 F360.0 E7359.921
G1 X9.02 Y6.39 Z1.2 F360.0 E7372.297
G1 X9.02 Y6.98 Z1.2 F360.0 E7373.039
G1 X1.93 Y14.06 Z1.2 F360.0 E7385.572
G1 X1.62 Y14.96 Z1.2 F360.0 E7386.764
G1 X9.02 Y7.57 Z1.2 F360.0 E7399.844
;M103
G1 X9.02 Y18.83 Z1.2 F3600.0
;M101
G1 X8.83 Y19.02 Z1.2 F360.0 E7400.179
G1 X8.23 Y19.02 Z1.2 F360.0 E7400.921
G1 X9.02 Y18.23 Z1.2 F360.0 E7402.304
G1 X9.02 Y17.64 Z1.2 F360.0 E7403.045
G1 X7.64 Y19.02 Z1.2 F360.0 E7405.476
G1 X7.05 Y19.02 Z1.2 F360.0 E7406.217
G1 X9.02 Y17.05 Z1.2 F360.0 E7409.697
G1 X9.02 Y16.46 Z1.2 F360.0 E7410.438
G1 X6.46 Y19.02 Z1.2 F360.0 E7414.965
G1 X5.87 Y19.02 Z1.2 F360.0 E7415.706
G1 X9.02 Y15.87 Z1.2 F360.0 E7421.281
G1 X9.02 Y15.27 Z1.2 F360.0 E7422.022
G1 X5.27 Y19.02 Z1.2 F360.0 E7428.646
G1 X4.68 Y19.02 Z1.2 F360.0 E7429.387
G1 X9.02 Y14.68 Z1.2 F360.0 E7437.058
G1 X9.02 Y14.09 Z1.2 F360.0 E7437.8
G1 X4.09 Y19.02 Z1.2 F360.0 E7446.52
G1 X3.5 Y19.02 Z1.2 F360.0 E7447.261
G1 X9.02 Y13.5 Z1.2 F360.0 E7457.028
G1 X9.02 Y12.9 Z1.2 F360.0 E7457.769
G1 X2.9 Y19.02 Z1.2 F360.0 E7468.584
G1 X2.31 Y19.02 Z1.2 F360.0 E7469.326
G1 X9.02 Y12.31 Z1.2 F360.0 E7481.19
G1 X9.02 Y11.72 Z1.2 F360.0 E7481.931
G1 X1.72 Y19.02 Z1.2 F360.0 E7494.842
G1 X1.13 Y19.02 Z1.2 F360.0 E7495.583
G1 X9.02 Y11.13 Z1.2 F360.0 E7509.541
G1 X9.02 Y10.53 Z1.2 F360.0 E7510.283
G1 X0.53 Y19.02 Z1.2 F360.0 E7525.291
G1 X-0.06 Y19.02 Z1.2 F360.0 E7526.032
G1 X9.02 Y9.94 Z1.2 F360.0 E7542.087
G1 X9.02 Y9.35 Z1.2 F360.0 E7542.829
G1 X-0.65 Y19.02 Z1.2 F360.0 E7559.933
G1 X-1.24 Y19.02 Z1.2 F360.0 E7560.674
G1 X9.02 Y8.76 Z1.2 F360.0 E7578.826
G1 X9.02 Y8.16 Z1.2 F360.0 E7579.566
G1 X-1.84 Y19.02 Z1.2 F360.0 E7598.766
G1 X-2.43 Y19.02 Z1.2 F360.0 E7599.507
G1 X-0.53 Y17.12 Z1.2 F360.0 E7602.862
G1 X-1.43 Y17.43 Z1.2 F360.0 E7604.053
G1 X-3.02 Y19.02 Z1.2 F360.0 E7606.862
G1 X-3.61 Y19.02 Z1.2 F360.0 E7607.603
G1 X-2.12 Y17.52 Z1.2 F360.0 E7610.255
G1 X-2.69 Y17.5 Z1.2 F360.0 E7610.976
G1 X-4.21 Y19.02 Z1.2 F360.0 E7613.657
G1 X-4.8 Y19.02 Z1.2 F360.0 E7614.397
G1 X-3.22 Y17.43 Z1.2 F360.0 E7617.198
G1 X-3.69 Y17.31 Z1.2 F360.0 E7617.807
G1 X-5.39 Y19.02 Z1.2 F360.0 E7620.822
G1 X-5.98 Y19.02 Z1.2 F360.0 E7621.563
G1 X-4.11 Y17.14 Z1.2 F360.0 E7624.884
G1 X-4.52 Y16.96 Z1.2 F360.0 E7625.451
G1 X-6.58 Y19.02 Z1.2 F360.0 E7629.08
G1 X-7.17 Y19.02 Z1.2 F360.0 E7629.822
G1 X-4.86 Y16.71 Z1.2 F360.0 E7633.902
G1 X-5.2 Y16.45 Z1.2 F360.0 E7634.43
G1 X-7.76 Y19.02 Z1.2 F360.0 E7638.964
G1 X-8.35 Y19.02 Z1.2 F360.0 E7639.706
G1 X-5.51 Y16.18 Z1.2 F360.0 E7644.731
G1 X-5.77 Y15.84 Z1.2 F360.0 E7645.26
G1 X-8.95 Y19.02 Z1.2 F360.0 E7650.878
G1 X-9.02 Y18.49 Z1.2 F360.0 E7651.537
G1 X-6.03 Y15.51 Z1.2 F360.0 E7656.825
G1 X-6.24 Y15.13 Z1.2 F360.0 E7657.369
G1 X-9.02 Y17.9 Z1.2 F360.0 E7662.281
G1 X-9.02 Y17.31 Z1.2 F360.0 E7663.022
G1 X-6.41 Y14.71 Z1.2 F360.0 E7667.629
G1 X-6.58 Y14.29 Z1.2 F360.0 E7668.197
G1 X-9.02 Y16.72 Z1.2 F360.0 E7672.499
G1 X-9.02 Y16.12 Z1.2 F360.0 E7673.241
G1 X-6.65 Y13.76 Z1.2 F360.0 E7677.421
G1 X-6.72 Y13.24 Z1.2 F360.0 E7678.082
G1 X-9.02 Y15.53 Z1.2 F360.0 E7682.141
G1 X-9.02 Y14.94 Z1.2 F360.0 E7682.882
G1 X-6.66 Y12.58 Z1.2 F360.0 E7687.055
G1 X-6.51 Y11.84 Z1.2 F360.0 E7687.999
G1 X-9.02 Y14.35 Z1.2 F360.0 E7692.434
G1 X-9.02 Y13.76 Z1.2 F360.0 E7693.174
G1 X1.37 Y3.37 Z1.2 F360.0 E7711.546
G1 X1.37 Y2.78 Z1.2 F360.0 E7712.288
G1 X-9.02 Y13.16 Z1.2 F360.0 E7730.66
G1 X-9.02 Y12.57 Z1.2 F360.0 E7731.401
G1 X1.37 Y2.19 Z1.2 F360.0 E7749.773
G1 X1.37 Y1.59 Z1.2 F360.0 E7750.515
G1 X-9.02 Y11.98 Z1.2 F360.0 E7768.887
G1 X-9.02 Y11.39 Z1.2 F360.0 E7769.627
G1 X1.37 Y1.0 Z1.2 F360.0 E7787.999
G1 X1.37 Y0.41 Z1.2 F360.0 E7788.74
G1 X-9.02 Y10.79 Z1.2 F360.0 E7807.112
G1 X-9.02 Y10.2 Z1.2 F360.0 E7807.854
G1 X1.37 Y-0.18 Z1.2 F360.0 E7826.226
G1 X1.37 Y-0.78 Z1.2 F360.0 E7826.967
G1 X-9.02 Y9.61 Z1.2 F360.0 E7845.339
G1 X-9.02 Y9.02 Z1.2 F360.0 E7846.079
G1 X1.37 Y-1.37 Z1.2 F360.0 E7864.452
G1 X1.37 Y-1.96 Z1.2 F360.0 E7865.193
G1 X-9.02 Y8.42 Z1.2 F360.0 E7883.565
G1 X-9.02 Y7.83 Z1.2 F360.0 E7884.305
G1 X1.37 Y-2.55 Z1.2 F360.0 E7902.677
G1 X1.37 Y-3.15 Z1.2 F360.0 E7903.419
G1 X-9.02 Y7.24 Z1.2 F360.0 E7921.791
G1 X-9.02 Y6.65 Z1.2 F360.0 E7922.532
G1 X1.37 Y-3.74 Z1.2 F360.0 E7940.904
G1 X1.37 Y-4.33 Z1.2 F360.0 E7941.645
G1 X-9.02 Y6.05 Z1.2 F360.0 E7960.017
G1 X-9.02 Y5.46 Z1.2 F360.0 E7960.759
G1 X1.37 Y-4.92 Z1.2 F360.0 E7979.131
G1 X1.37 Y-5.52 Z1.2 F360.0 E7979.871
G1 X-9.02 Y4.87 Z1.2 F360.0 E7998.243
G1 X-9.02 Y4.28 Z1.2 F360.0 E7998.985
G1 X1.37 Y-6.11 Z1.2 F360.0 E8017.357
G1 X1.37 Y-6.7 Z1.2 F360.0 E8018.098
G1 X-9.02 Y3.68 Z1.2 F360.0 E8036.47
G1 X-9.02 Y3.09 Z1.2 F360.0 E8037.21
G1 X1.37 Y-7.29 Z1.2 F360.0 E8055.582
G1 X1.37 Y-7.89 Z1.2 F360.0 E8056.324
G1 X-9.02 Y2.5 Z1.2 F360.0 E8074.696
G1 X-9.02 Y1.91 Z1.2 F360.0 E8075.437
G1 X1.37 Y-8.48 Z1.2 F360.0 E8093.809
G1 X1.37 Y-9.07 Z1.2 F360.0 E8094.551
G1 X-9.02 Y1.32 Z1.2 F360.0 E8112.924
G1 X-9.02 Y0.72 Z1.2 F360.0 E8113.666
G1 X1.37 Y-9.66 Z1.2 F360.0 E8132.038
G1 X1.37 Y-10.25 Z1.2 F360.0 E8132.778
G1 X-9.02 Y0.13 Z1.2 F360.0 E8151.15
G1 X-9.02 Y-0.46 Z1.2 F360.0 E8151.892
G1 X1.37 Y-10.85 Z1.2 F360.0 E8170.264
G1 X1.37 Y-11.44 Z1.2 F360.0 E8171.005
G1 X-9.02 Y-1.06 Z1.2 F360.0 E8189.377
G1 X-9.02 Y-1.65 Z1.2 F360.0 E8190.118
G1 X1.37 Y-12.03 Z1.2 F360.0 E8208.49
G1 X1.37 Y-12.62 Z1.2 F360.0 E8209.231
G1 X-9.02 Y-2.24 Z1.2 F360.0 E8227.603
G1 X-9.02 Y-2.83 Z1.2 F360.0 E8228.344
G1 X1.37 Y-13.22 Z1.2 F360.0 E8246.716
G1 X1.37 Y-13.81 Z1.2 F360.0 E8247.458
G1 X-9.02 Y-3.43 Z1.2 F360.0 E8265.83
G1 X-9.02 Y-4.02 Z1.2 F360.0 E8266.571
G1 X1.37 Y-14.4 Z1.2 F360.0 E8284.943
G1 X1.37 Y-14.99 Z1.2 F360.0 E8285.683
G1 X-9.02 Y-4.61 Z1.2 F360.0 E8304.055
G1 X-9.02 Y-5.2 Z1.2 F360.0 E8304.797
G1 X4.8 Y-19.02 Z1.2 F360.0 E8329.237
G1 X4.21 Y-19.02 Z1.2 F360.0 E8329.977
G1 X-9.02 Y-5.79 Z1.2 F360.0 E8353.369
G1 X-9.02 Y-6.39 Z1.2 F360.0 E8354.11
G1 X3.61 Y-19.02 Z1.2 F360.0 E8376.455
G1 X3.02 Y-19.02 Z1.2 F360.0 E8377.197
G1 X-9.02 Y-6.98 Z1.2 F360.0 E8398.492
G1 X-9.02 Y-7.57 Z1.2 F360.0 E8399.233
G1 X2.43 Y-19.02 Z1.2 F360.0 E8419.481
G1 X1.84 Y-19.02 Z1.2 F360.0 E8420.223
G1 X-9.02 Y-8.16 Z1.2 F360.0 E8439.422
G1 X-9.02 Y-8.76 Z1.2 F360.0 E8440.163
G1 X1.24 Y-19.02 Z1.2 F360.0 E8458.314
G1 X0.65 Y-19.02 Z1.2 F360.0 E8459.055
G1 X-9.02 Y-9.35 Z1.2 F360.0 E8476.159
G1 X-9.02 Y-9.94 Z1.2 F360.0 E8476.901
G1 X0.06 Y-19.02 Z1.2 F360.0 E8492.957
G1 X-0.53 Y-19.02 Z1.2 F360.0 E8493.697
G1 X-9.02 Y-10.53 Z1.2 F360.0 E8508.705
G1 X-9.02 Y-11.13 Z1.2 F360.0 E8509.447
G1 X-1.13 Y-19.02 Z1.2 F360.0 E8523.406
G1 X-1.72 Y-19.02 Z1.2 F360.0 E8524.146
G1 X-9.02 Y-11.72 Z1.2 F360.0 E8537.058
G1 X-9.02 Y-12.31 Z1.2 F360.0 E8537.799
G1 X-2.31 Y-19.02 Z1.2 F360.0 E8549.663
G1 X-2.9 Y-19.02 Z1.2 F360.0 E8550.405
G1 X-9.02 Y-12.9 Z1.2 F360.0 E8561.22
G1 X-9.02 Y-13.5 Z1.2 F360.0 E8561.96
G1 X-3.5 Y-19.02 Z1.2 F360.0 E8571.728
G1 X-4.09 Y-19.02 Z1.2 F360.0 E8572.468
G1 X-9.02 Y-14.09 Z1.2 F360.0 E8581.189
G1 X-9.02 Y-14.68 Z1.2 F360.0 E8581.93
G1 X-4.68 Y-19.02 Z1.2 F360.0 E8589.602
G1 X-5.27 Y-19.02 Z1.2 F360.0 E8590.342
G1 X-9.02 Y-15.27 Z1.2 F360.0 E8596.966
G1 X-9.02 Y-15.87 Z1.2 F360.0 E8597.708
G1 X-5.87 Y-19.02 Z1.2 F360.0 E8603.283
G1 X-6.46 Y-19.02 Z1.2 F360.0 E8604.023
G1 X-9.02 Y-16.46 Z1.2 F360.0 E8608.551
G1 X-9.02 Y-17.05 Z1.2 F360.0 E8609.291
G1 X-7.05 Y-19.02 Z1.2 F360.0 E8612.771
G1 X-7.64 Y-19.02 Z1.2 F360.0 E8613.513
G1 X-9.02 Y-17.64 Z1.2 F360.0 E8615.944
G1 X-9.02 Y-18.23 Z1.2 F360.0 E8616.684
G1 X-8.23 Y-19.02 Z1.2 F360.0 E8618.068
G1 X-8.83 Y-19.02 Z1.2 F360.0 E8618.81
G1 X-9.02 Y-18.83 Z1.2 F360.0 E8619.144
;M103
G1 X1.75 Y-14.98 Z1.2 F3600.0
;M101
G1 X1.73 Y-14.98 Z1.2 F360.0 E8619.173
G1 X1.73 Y5.37 Z1.2 F360.0 E8644.628
G1 X7.51 Y5.37 Z1.2 F360.0 E8651.869
G1 X7.51 Y-14.98 Z1.2 F360.0 E8677.324
G1 X1.75 Y-14.98 Z1.2 F360.0 E8684.536
;M103
G1 X-1.3 Y9.26 Z1.2 F3600.0
;M101
G1 X-2.34 Y9.12 Z1.2 F360.0 E8685.854
G1 X-3.39 Y9.26 Z1.2 F360.0 E8687.171
G1 X-4.36 Y9.66 Z1.2 F360.0 E8688.488
G1 X-5.19 Y10.3 Z1.2 F360.0 E8689.805
G1 X-5.83 Y11.14 Z1.2 F360.0 E8691.122
G1 X-6.24 Y12.11 Z1.2 F360.0 E8692.439
G1 X-6.37 Y13.16 Z1.2 F360.0 E8693.755
G1 X-6.24 Y14.2 Z1.2 F360.0 E8695.073
G1 X-5.83 Y15.17 Z1.2 F360.0 E8696.39
G1 X-5.19 Y16.01 Z1.2 F360.0 E8697.707
G1 X-4.36 Y16.65 Z1.2 F360.0 E8699.024
G1 X-3.39 Y17.05 Z1.2 F360.0 E8700.341
G1 X-2.34 Y17.19 Z1.2 F360.0 E8701.658
G1 X-1.3 Y17.05 Z1.2 F360.0 E8702.975
G1 X-0.33 Y16.65 Z1.2 F360.0 E8704.292
G1 X0.51 Y16.01 Z1.2 F360.0 E8705.609
G1 X1.15 Y15.17 Z1.2 F360.0 E8706.926
G1 X1.55 Y14.2 Z1.2 F360.0 E8708.243
G1 X1.69 Y13.16 Z1.2 F360.0 E8709.561
G1 X1.55 Y12.11 Z1.2 F360.0 E8710.877
G1 X1.15 Y11.14 Z1.2 F360.0 E8712.194
G1 X0.51 Y10.3 Z1.2 F360.0 E8713.511
G1 X-0.33 Y9.66 Z1.2 F360.0 E8714.828
G1 X-1.3 Y9.26 Z1.2 F360.0 E8716.144
;M103
G1 X-9.37 Y9.26 Z1.2 F3600.0
;M101
G1 X-9.37 Y-19.37 Z1.2 F360.0 E8751.963
G1 X9.37 Y-19.37 Z1.2 F360.0 E8775.412
G1 X9.37 Y19.37 Z1.2 F360.0 E8823.88
G1 X-9.37 Y19.37 Z1.2 F360.0 E8847.329
G1 X-9.37 Y9.26 Z1.2 F360.0 E8859.979
;M103
;M108 S5.629
G1 X-9.79 Y9.26 Z1.2 F3600.0
;M101
G1 X-9.79 Y-19.79 Z1.2 F270.0 E8896.319
G1 X9.79 Y-19.79 Z1.2 F270.0 E8920.814
G1 X9.79 Y19.79 Z1.2 F270.0 E8970.326
G1 X-9.79 Y19.79 Z1.2 F270.0 E8994.821
G1 X-9.79 Y9.26 Z1.2 F270.0 E9007.994
;M103
G1 X-5.47 Y11.35 Z1.2 F3600.0
;M101
G1 X-5.83 Y12.22 Z1.2 F270.0 E9009.173
G1 X-5.95 Y13.16 Z1.2 F270.0 E9010.352
G1 X-5.83 Y14.09 Z1.2 F270.0 E9011.531
G1 X-5.47 Y14.96 Z1.2 F270.0 E9012.71
G1 X-4.89 Y15.71 Z1.2 F270.0 E9013.889
G1 X-4.15 Y16.28 Z1.2 F270.0 E9015.067
G1 X-3.28 Y16.64 Z1.2 F270.0 E9016.247
G1 X-2.34 Y16.77 Z1.2 F270.0 E9017.426
G1 X-1.41 Y16.64 Z1.2 F270.0 E9018.606
G1 X-0.54 Y16.28 Z1.2 F270.0 E9019.784
G1 X0.21 Y15.71 Z1.2 F270.0 E9020.962
G1 X0.79 Y14.96 Z1.2 F270.0 E9022.141
G1 X1.15 Y14.09 Z1.2 F270.0 E9023.32
G1 X1.27 Y13.16 Z1.2 F270.0 E9024.5
G1 X1.15 Y12.22 Z1.2 F270.0 E9025.678
G1 X0.79 Y11.35 Z1.2 F270.0 E9026.858
G1 X0.21 Y10.6 Z1.2 F270.0 E9028.036
G1 X-0.54 Y10.03 Z1.2 F270.0 E9029.214
G1 X-1.41 Y9.67 Z1.2 F270.0 E9030.393
G1 X-2.34 Y9.55 Z1.2 F270.0 E9031.572
G1 X-3.28 Y9.67 Z1.2 F270.0 E9032.752
G1 X-4.15 Y10.03 Z1.2 F270.0 E9033.931
G1 X-4.89 Y10.6 Z1.2 F270.0 E9035.109
G1 X-5.47 Y11.35 Z1.2 F270.0 E9036.288
;M103
G1 X2.14 Y4.95 Z1.2 F3600.0
;M101
G1 X7.1 Y4.95 Z1.2 F270.0 E9042.481
G1 X7.1 Y-14.56 Z1.2 F270.0 E9066.888
G1 X2.14 Y-14.56 Z1.2 F270.0 E9073.081
G1 X2.14 Y4.95 Z1.2 F270.0 E9097.489
;M103
;M108 S7.506
G1 X-4.95 Y10.55 Z1.5 F3600.0
G1 X-5.54 Y11.31 Z1.5 F3600.0
G1 X-6.61 Y14.13 Z1.5 F3600.0
;M101
G1 X-9.02 Y11.72 Z1.5 F360.0 E9101.754
G1 X-9.02 Y11.13 Z1.5 F360.0 E9102.495
G1 X-6.7 Y13.45 Z1.5 F360.0 E9106.6
G1 X-6.69 Y12.86 Z1.5 F360.0 E9107.34
G1 X-9.02 Y10.53 Z1.5 F360.0 E9111.449
G1 X-9.02 Y9.94 Z1.5 F360.0 E9112.189
G1 X-6.62 Y12.33 Z1.5 F360.0 E9116.42
G1 X-6.51 Y11.85 Z1.5 F360.0 E9117.038
G1 X-9.02 Y9.35 Z1.5 F360.0 E9121.466
G1 X-9.02 Y8.76 Z1.5 F360.0 E9122.207
G1 X-6.34 Y11.43 Z1.5 F360.0 E9126.94
G1 X-6.17 Y11.01 Z1.5 F360.0 E9127.507
G1 X-9.02 Y8.16 Z1.5 F360.0 E9132.547
G1 X-9.02 Y7.57 Z1.5 F360.0 E9133.288
G1 X-5.92 Y10.67 Z1.5 F360.0 E9138.766
G1 X-5.66 Y10.33 Z1.5 F360.0 E9139.295
G1 X-9.02 Y6.98 Z1.5 F360.0 E9145.226
G1 X-9.02 Y6.39 Z1.5 F360.0 E9145.968
G1 X-5.39 Y10.01 Z1.5 F360.0 E9152.378
G1 X-5.06 Y9.75 Z1.5 F360.0 E9152.907
G1 X-9.02 Y5.79 Z1.5 F360.0 E9159.908
G1 X-9.02 Y5.2 Z1.5 F360.0 E9160.649
G1 X-4.72 Y9.49 Z1.5 F360.0 E9168.243
G1 X-4.35 Y9.28 Z1.5 F360.0 E9168.784
G1 X-9.02 Y4.61 Z1.5 F360.0 E9177.039
G1 X-9.02 Y4.02 Z1.5 F360.0 E9177.78
G1 X-3.93 Y9.1 Z1.5 F360.0 E9186.774
G1 X-3.51 Y8.93 Z1.5 F360.0 E9187.342
G1 X-9.02 Y3.43 Z1.5 F360.0 E9197.077
G1 X-9.02 Y2.83 Z1.5 F360.0 E9197.819
G1 X-3.0 Y8.85 Z1.5 F360.0 E9208.466
G1 X-2.47 Y8.78 Z1.5 F360.0 E9209.127
G1 X-9.02 Y2.24 Z1.5 F360.0 E9220.7
G1 X-9.02 Y1.65 Z1.5 F360.0 E9221.442
G1 X-1.83 Y8.83 Z1.5 F360.0 E9234.151
G1 X-1.13 Y8.95 Z1.5 F360.0 E9235.048
G1 X-9.02 Y1.06 Z1.5 F360.0 E9249.008
G1 X-9.02 Y0.46 Z1.5 F360.0 E9249.749
G1 X-0.06 Y9.42 Z1.5 F360.0 E9265.589
;M103
G1 X-9.02 Y-3.68 Z1.5 F3600.0
;M101
G1 X9.02 Y14.35 Z1.5 F360.0 E9297.49
G1 X9.02 Y14.94 Z1.5 F360.0 E9298.231
G1 X-9.02 Y-3.09 Z1.5 F360.0 E9330.132
G1 X-9.02 Y-2.5 Z1.5 F360.0 E9330.874
G1 X9.02 Y15.53 Z1.5 F360.0 E9362.775
G1 X9.02 Y16.12 Z1.5 F360.0 E9363.515
G1 X-9.02 Y-1.91 Z1.5 F360.0 E9395.416
G1 X-9.02 Y-1.32 Z1.5 F360.0 E9396.157
G1 X9.02 Y16.72 Z1.5 F360.0 E9428.059
G1 X9.02 Y17.31 Z1.5 F360.0 E9428.799
G1 X-9.02 Y-0.72 Z1.5 F360.0 E9460.7
G1 X-9.02 Y-0.13 Z1.5 F360.0 E9461.441
G1 X9.02 Y17.9 Z1.5 F360.0 E9493.342
G1 X9.02 Y18.49 Z1.5 F360.0 E9494.084
G1 X1.4 Y10.88 Z1.5 F360.0 E9507.561
;M103
G1 X1.87 Y11.94 Z1.5 F3600.0
;M101
G1 X8.95 Y19.02 Z1.5 F360.0 E9520.083
G1 X8.35 Y19.02 Z1.5 F360.0 E9520.823
G1 X1.98 Y12.65 Z1.5 F360.0 E9532.091
G1 X2.03 Y13.29 Z1.5 F360.0 E9532.897
G1 X7.76 Y19.02 Z1.5 F360.0 E9543.029
G1 X7.17 Y19.02 Z1.5 F360.0 E9543.769
G1 X1.96 Y13.81 Z1.5 F360.0 E9552.976
G1 X1.89 Y14.33 Z1.5 F360.0 E9553.628
G1 X6.58 Y19.02 Z1.5 F360.0 E9561.922
G1 X5.98 Y19.02 Z1.5 F360.0 E9562.663
G1 X1.71 Y14.75 Z1.5 F360.0 E9570.217
G1 X1.54 Y15.16 Z1.5 F360.0 E9570.784
G1 X5.39 Y19.02 Z1.5 F360.0 E9577.599
G1 X4.8 Y19.02 Z1.5 F360.0 E9578.34
G1 X1.32 Y15.54 Z1.5 F360.0 E9584.495
G1 X1.06 Y15.87 Z1.5 F360.0 E9585.023
G1 X4.21 Y19.02 Z1.5 F360.0 E9590.584
G1 X3.61 Y19.02 Z1.5 F360.0 E9591.325
G1 X0.81 Y16.21 Z1.5 F360.0 E9596.294
G1 X0.48 Y16.48 Z1.5 F360.0 E9596.82
G1 X3.02 Y19.02 Z1.5 F360.0 E9601.311
G1 X2.43 Y19.02 Z1.5 F360.0 E9602.052
G1 X0.15 Y16.73 Z1.5 F360.0 E9606.089
G1 X-0.2 Y16.98 Z1.5 F360.0 E9606.62
G1 X1.84 Y19.02 Z1.5 F360.0 E9610.219
G1 X1.24 Y19.02 Z1.5 F360.0 E9610.96
G1 X-0.62 Y17.16 Z1.5 F360.0 E9614.252
G1 X-1.04 Y17.33 Z1.5 F360.0 E9614.819
G1 X0.65 Y19.02 Z1.5 F360.0 E9617.806
G1 X0.06 Y19.02 Z1.5 F360.0 E9618.548
G1 X-1.52 Y17.44 Z1.5 F360.0 E9621.337
G1 X-2.04 Y17.51 Z1.5 F360.0 E9621.998
G1 X-0.53 Y19.02 Z1.5 F360.0 E9624.666
G1 X-1.13 Y19.02 Z1.5 F360.0 E9625.408
G1 X-2.63 Y17.51 Z1.5 F360.0 E9628.073
G1 X-3.31 Y17.42 Z1.5 F360.0 E9628.933
G1 X-1.72 Y19.02 Z1.5 F360.0 E9631.757
G1 X-2.31 Y19.02 Z1.5 F360.0 E9632.498
G1 X-4.25 Y17.08 Z1.5 F360.0 E9635.923
;M103
G1 X-4.09 Y19.02 Z1.5 F3600.0
;M101
G1 X-9.02 Y14.09 Z1.5 F360.0 E9644.643
G1 X-9.02 Y13.5 Z1.5 F360.0 E9645.384
G1 X-3.5 Y19.02 Z1.5 F360.0 E9655.151
G1 X-2.9 Y19.02 Z1.5 F360.0 E9655.892
G1 X-9.02 Y12.9 Z1.5 F360.0 E9666.707
G1 X-9.02 Y12.31 Z1.5 F360.0 E9667.449
G1 X-6.27 Y15.06 Z1.5 F360.0 E9672.315
;M103
G1 X-9.02 Y14.68 Z1.5 F3600.0
;M101
G1 X-4.68 Y19.02 Z1.5 F360.0 E9679.986
G1 X-5.27 Y19.02 Z1.5 F360.0 E9680.727
G1 X-9.02 Y15.27 Z1.5 F360.0 E9687.35
G1 X-9.02 Y15.87 Z1.5 F360.0 E9688.092
G1 X-5.87 Y19.02 Z1.5 F360.0 E9693.667
G1 X-6.46 Y19.02 Z1.5 F360.0 E9694.407
G1 X-9.02 Y16.46 Z1.5 F360.0 E9698.935
G1 X-9.02 Y17.05 Z1.5 F360.0 E9699.675
G1 X-7.05 Y19.02 Z1.5 F360.0 E9703.155
G1 X-7.64 Y19.02 Z1.5 F360.0 E9703.897
G1 X-9.02 Y17.64 Z1.5 F360.0 E9706.328
G1 X-9.02 Y18.23 Z1.5 F360.0 E9707.069
G1 X-8.23 Y19.02 Z1.5 F360.0 E9708.452
G1 X-8.83 Y19.02 Z1.5 F360.0 E9709.194
G1 X-9.02 Y18.83 Z1.5 F360.0 E9709.528
;M103
G1 X2.06 Y-5.29 Z1.5 F3600.0
G1 X2.21 Y-14.5 Z1.5 F3600.0
G1 X6.63 Y-14.64 Z1.5 F3600.0
G1 X8.83 Y-19.02 Z1.5 F3600.0
;M101
G1 X9.02 Y-18.83 Z1.5 F360.0 E9709.863
G1 X9.02 Y-18.23 Z1.5 F360.0 E9710.605
G1 X8.23 Y-19.02 Z1.5 F360.0 E9711.988
G1 X7.64 Y-19.02 Z1.5 F360.0 E9712.729
G1 X9.02 Y-17.64 Z1.5 F360.0 E9715.16
G1 X9.02 Y-17.05 Z1.5 F360.0 E9715.901
G1 X7.05 Y-19.02 Z1.5 F360.0 E9719.381
G1 X6.46 Y-19.02 Z1.5 F360.0 E9720.122
G1 X9.02 Y-16.46 Z1.5 F360.0 E9724.649
G1 X9.02 Y-15.87 Z1.5 F360.0 E9725.39
G1 X5.87 Y-19.02 Z1.5 F360.0 E9730.965
G1 X5.27 Y-19.02 Z1.5 F360.0 E9731.706
G1 X9.02 Y-15.27 Z1.5 F360.0 E9738.33
G1 X9.02 Y-14.68 Z1.5 F360.0 E9739.071
G1 X4.68 Y-19.02 Z1.5 F360.0 E9746.742
G1 X4.09 Y-19.02 Z1.5 F360.0 E9747.484
G1 X9.02 Y-14.09 Z1.5 F360.0 E9756.204
G1 X9.02 Y-13.5 Z1.5 F360.0 E9756.945
G1 X7.87 Y-14.64 Z1.5 F360.0 E9758.973
G1 X7.87 Y-14.05 Z1.5 F360.0 E9759.714
G1 X9.02 Y-12.9 Z1.5 F360.0 E9761.742
G1 X9.02 Y-12.31 Z1.5 F360.0 E9762.484
G1 X7.87 Y-13.46 Z1.5 F360.0 E9764.512
G1 X7.87 Y-12.86 Z1.5 F360.0 E9765.253
G1 X9.02 Y-11.72 Z1.5 F360.0 E9767.281
G1 X9.02 Y-11.13 Z1.5 F360.0 E9768.022
G1 X7.87 Y-12.27 Z1.5 F360.0 E9770.05
G1 X7.87 Y-11.68 Z1.5 F360.0 E9770.792
G1 X9.02 Y-10.53 Z1.5 F360.0 E9772.82
G1 X9.02 Y-9.94 Z1.5 F360.0 E9773.561
G1 X7.87 Y-11.09 Z1.5 F360.0 E9775.589
G1 X7.87 Y-10.49 Z1.5 F360.0 E9776.331
G1 X9.02 Y-9.35 Z1.5 F360.0 E9778.36
G1 X9.02 Y-8.76 Z1.5 F360.0 E9779.1
G1 X7.87 Y-9.9 Z1.5 F360.0 E9781.129
G1 X7.87 Y-9.31 Z1.5 F360.0 E9781.869
G1 X9.02 Y-8.16 Z1.5 F360.0 E9783.897
G1 X9.02 Y-7.57 Z1.5 F360.0 E9784.639
G1 X7.87 Y-8.72 Z1.5 F360.0 E9786.668
G1 X7.87 Y-8.13 Z1.5 F360.0 E9787.408
G1 X9.02 Y-6.98 Z1.5 F360.0 E9789.437
G1 X9.02 Y-6.39 Z1.5 F360.0 E9790.179
G1 X7.87 Y-7.53 Z1.5 F360.0 E9792.208
G1 X7.87 Y-6.94 Z1.5 F360.0 E9792.95
G1 X9.02 Y-5.79 Z1.5 F360.0 E9794.978
G1 X9.02 Y-5.2 Z1.5 F360.0 E9795.719
G1 X7.87 Y-6.35 Z1.5 F360.0 E9797.747
G1 X7.87 Y-5.76 Z1.5 F360.0 E9798.489
G1 X9.02 Y-4.61 Z1.5 F360.0 E9800.517
G1 X9.02 Y-4.02 Z1.5 F360.0 E9801.258
G1 X7.87 Y-5.16 Z1.5 F360.0 E9803.286
G1 X7.87 Y-4.57 Z1.5 F360.0 E9804.027
G1 X9.02 Y-3.43 Z1.5 F360.0 E9806.055
G1 X9.02 Y-2.83 Z1.5 F360.0 E9806.797
G1 X7.87 Y-3.98 Z1.5 F360.0 E9808.825
G1 X7.87 Y-3.39 Z1.5 F360.0 E9809.566
G1 X9.02 Y-2.24 Z1.5 F360.0 E9811.594
G1 X9.02 Y-1.65 Z1.5 F360.0 E9812.336
G1 X7.87 Y-2.79 Z1.5 F360.0 E9814.364
G1 X7.87 Y-2.2 Z1.5 F360.0 E9815.105
G1 X9.02 Y-1.06 Z1.5 F360.0 E9817.133
G1 X9.02 Y-0.46 Z1.5 F360.0 E9817.874
G1 X7.87 Y-1.61 Z1.5 F360.0 E9819.902
G1 X7.87 Y-1.02 Z1.5 F360.0 E9820.644
G1 X9.02 Y0.13 Z1.5 F360.0 E9822.673
G1 X9.02 Y0.72 Z1.5 F360.0 E9823.413
G1 X7.87 Y-0.42 Z1.5 F360.0 E9825.442
G1 X7.87 Y0.17 Z1.5 F360.0 E9826.182
G1 X9.02 Y1.32 Z1.5 F360.0 E9828.211
G1 X9.02 Y1.91 Z1.5 F360.0 E9828.952
G1 X7.87 Y0.76 Z1.5 F360.0 E9830.98
G1 X7.87 Y1.35 Z1.5 F360.0 E9831.721
G1 X9.02 Y2.5 Z1.5 F360.0 E9833.749
G1 X9.02 Y3.09 Z1.5 F360.0 E9834.491
G1 X7.87 Y1.95 Z1.5 F360.0 E9836.519
G1 X7.87 Y2.54 Z1.5 F360.0 E9837.26
G1 X9.02 Y3.68 Z1.5 F360.0 E9839.288
G1 X9.02 Y4.28 Z1.5 F360.0 E9840.029
G1 X7.87 Y3.13 Z1.5 F360.0 E9842.057
G1 X7.87 Y3.72 Z1.5 F360.0 E9842.799
G1 X9.02 Y4.87 Z1.5 F360.0 E9844.828
G1 X9.02 Y5.46 Z1.5 F360.0 E9845.568
G1 X7.87 Y4.32 Z1.5 F360.0 E9847.597
G1 X7.87 Y4.91 Z1.5 F360.0 E9848.338
G1 X9.02 Y6.05 Z1.5 F360.0 E9850.367
G1 X9.02 Y6.65 Z1.5 F360.0 E9851.107
G1 X7.87 Y5.5 Z1.5 F360.0 E9853.136
G1 X7.5 Y5.73 Z1.5 F360.0 E9853.673
G1 X9.02 Y7.24 Z1.5 F360.0 E9856.348
G1 X9.02 Y7.83 Z1.5 F360.0 E9857.09
G1 X6.91 Y5.73 Z1.5 F360.0 E9860.814
G1 X6.32 Y5.73 Z1.5 F360.0 E9861.554
G1 X9.02 Y8.42 Z1.5 F360.0 E9866.326
G1 X9.02 Y9.02 Z1.5 F360.0 E9867.068
G1 X5.73 Y5.73 Z1.5 F360.0 E9872.888
G1 X5.13 Y5.73 Z1.5 F360.0 E9873.629
G1 X9.02 Y9.61 Z1.5 F360.0 E9880.497
G1 X9.02 Y10.2 Z1.5 F360.0 E9881.237
G1 X4.54 Y5.73 Z1.5 F360.0 E9889.153
G1 X3.95 Y5.73 Z1.5 F360.0 E9889.895
G1 X9.02 Y10.79 Z1.5 F360.0 E9898.859
G1 X9.02 Y11.39 Z1.5 F360.0 E9899.6
G1 X3.36 Y5.73 Z1.5 F360.0 E9909.611
G1 X2.77 Y5.73 Z1.5 F360.0 E9910.352
G1 X9.02 Y11.98 Z1.5 F360.0 E9921.411
G1 X9.02 Y12.57 Z1.5 F360.0 E9922.153
G1 X2.17 Y5.73 Z1.5 F360.0 E9934.261
G1 X1.58 Y5.73 Z1.5 F360.0 E9935.002
G1 X9.02 Y13.16 Z1.5 F360.0 E9948.158
G1 X9.02 Y13.76 Z1.5 F360.0 E9948.899
G1 X-9.02 Y-4.28 Z1.5 F360.0 E9980.8
G1 X-9.02 Y-4.87 Z1.5 F360.0 E9981.542
G1 X1.37 Y5.52 Z1.5 F360.0 E9999.914
G1 X1.37 Y4.92 Z1.5 F360.0 E10000.655
G1 X-9.02 Y-5.46 Z1.5 F360.0 E10019.027
G1 X-9.02 Y-6.05 Z1.5 F360.0 E10019.769
G1 X1.37 Y4.33 Z1.5 F360.0 E10038.141
G1 X1.37 Y3.74 Z1.5 F360.0 E10038.881
G1 X-9.02 Y-6.65 Z1.5 F360.0 E10057.253
G1 X-9.02 Y-7.24 Z1.5 F360.0 E10057.994
G1 X1.37 Y3.15 Z1.5 F360.0 E10076.366
G1 X1.37 Y2.55 Z1.5 F360.0 E10077.108
G1 X-9.02 Y-7.83 Z1.5 F360.0 E10095.48
G1 X-9.02 Y-8.42 Z1.5 F360.0 E10096.221
G1 X1.37 Y1.96 Z1.5 F360.0 E10114.593
G1 X1.37 Y1.37 Z1.5 F360.0 E10115.333
G1 X-9.02 Y-9.02 Z1.5 F360.0 E10133.706
G1 X-9.02 Y-9.61 Z1.5 F360.0 E10134.447
G1 X1.37 Y0.78 Z1.5 F360.0 E10152.819
G1 X1.37 Y0.18 Z1.5 F360.0 E10153.559
G1 X-9.02 Y-10.2 Z1.5 F360.0 E10171.932
G1 X-9.02 Y-10.79 Z1.5 F360.0 E10172.673
G1 X1.37 Y-0.41 Z1.5 F360.0 E10191.045
G1 X1.37 Y-1.0 Z1.5 F360.0 E10191.786
G1 X-9.02 Y-11.39 Z1.5 F360.0 E10210.158
G1 X-9.02 Y-11.98 Z1.5 F360.0 E10210.899
G1 X1.37 Y-1.59 Z1.5 F360.0 E10229.271
G1 X1.37 Y-2.19 Z1.5 F360.0 E10230.013
G1 X-9.02 Y-12.57 Z1.5 F360.0 E10248.385
G1 X-9.02 Y-13.16 Z1.5 F360.0 E10249.125
G1 X1.37 Y-2.78 Z1.5 F360.0 E10267.497
G1 X1.37 Y-3.37 Z1.5 F360.0 E10268.239
G1 X-9.02 Y-13.76 Z1.5 F360.0 E10286.611
G1 X-9.02 Y-14.35 Z1.5 F360.0 E10287.352
G1 X1.37 Y-3.96 Z1.5 F360.0 E10305.724
G1 X1.37 Y-4.56 Z1.5 F360.0 E10306.464
G1 X-9.02 Y-14.94 Z1.5 F360.0 E10324.836
G1 X-9.02 Y-15.53 Z1.5 F360.0 E10325.578
G1 X1.37 Y-5.15 Z1.5 F360.0 E10343.95
G1 X1.37 Y-5.74 Z1.5 F360.0 E10344.691
G1 X-9.02 Y-16.12 Z1.5 F360.0 E10363.063
G1 X-9.02 Y-16.72 Z1.5 F360.0 E10363.805
G1 X1.37 Y-6.33 Z1.5 F360.0 E10382.178
G1 X1.37 Y-6.93 Z1.5 F360.0 E10382.92
G1 X-9.02 Y-17.31 Z1.5 F360.0 E10401.292
G1 X-9.02 Y-17.9 Z1.5 F360.0 E10402.032
G1 X1.37 Y-7.52 Z1.5 F360.0 E10420.404
G1 X1.37 Y-8.11 Z1.5 F360.0 E10421.146
G1 X-9.02 Y-18.49 Z1.5 F360.0 E10439.518
G1 X-8.95 Y-19.02 Z1.5 F360.0 E10440.177
G1 X1.37 Y-8.7 Z1.5 F360.0 E10458.425
G1 X1.37 Y-9.29 Z1.5 F360.0 E10459.165
G1 X-8.35 Y-19.02 Z1.5 F360.0 E10476.365
G1 X-7.76 Y-19.02 Z1.5 F360.0 E10477.107
G1 X1.37 Y-9.89 Z1.5 F360.0 E10493.258
G1 X1.37 Y-10.48 Z1.5 F360.0 E10493.999
G1 X-7.17 Y-19.02 Z1.5 F360.0 E10509.102
G1 X-6.58 Y-19.02 Z1.5 F360.0 E10509.844
G1 X1.37 Y-11.07 Z1.5 F360.0 E10523.898
G1 X1.37 Y-11.66 Z1.5 F360.0 E10524.639
G1 X-5.98 Y-19.02 Z1.5 F360.0 E10537.646
G1 X-5.39 Y-19.02 Z1.5 F360.0 E10538.386
G1 X1.37 Y-12.26 Z1.5 F360.0 E10550.346
G1 X1.37 Y-12.85 Z1.5 F360.0 E10551.088
G1 X-4.8 Y-19.02 Z1.5 F360.0 E10561.999
G1 X-4.21 Y-19.02 Z1.5 F360.0 E10562.739
G1 X1.37 Y-13.44 Z1.5 F360.0 E10572.602
G1 X1.37 Y-14.03 Z1.5 F360.0 E10573.343
G1 X-3.61 Y-19.02 Z1.5 F360.0 E10582.159
G1 X-3.02 Y-19.02 Z1.5 F360.0 E10582.901
G1 X1.37 Y-14.63 Z1.5 F360.0 E10590.667
G1 X1.37 Y-15.22 Z1.5 F360.0 E10591.408
G1 X-2.43 Y-19.02 Z1.5 F360.0 E10598.127
G1 X-1.84 Y-19.02 Z1.5 F360.0 E10598.869
G1 X1.85 Y-15.33 Z1.5 F360.0 E10605.382
G1 X2.44 Y-15.33 Z1.5 F360.0 E10606.123
G1 X-1.24 Y-19.02 Z1.5 F360.0 E10612.636
G1 X-0.65 Y-19.02 Z1.5 F360.0 E10613.377
G1 X3.03 Y-15.33 Z1.5 F360.0 E10619.89
G1 X3.62 Y-15.33 Z1.5 F360.0 E10620.632
G1 X-0.06 Y-19.02 Z1.5 F360.0 E10627.145
G1 X0.53 Y-19.02 Z1.5 F360.0 E10627.886
G1 X4.21 Y-15.33 Z1.5 F360.0 E10634.399
G1 X4.81 Y-15.33 Z1.5 F360.0 E10635.141
G1 X1.13 Y-19.02 Z1.5 F360.0 E10641.654
G1 X1.72 Y-19.02 Z1.5 F360.0 E10642.395
G1 X5.4 Y-15.33 Z1.5 F360.0 E10648.908
G1 X5.99 Y-15.33 Z1.5 F360.0 E10649.648
G1 X2.31 Y-19.02 Z1.5 F360.0 E10656.162
G1 X2.9 Y-19.02 Z1.5 F360.0 E10656.903
G1 X6.58 Y-15.33 Z1.5 F360.0 E10663.417
G1 X7.18 Y-15.33 Z1.5 F360.0 E10664.157
G1 X3.5 Y-19.02 Z1.5 F360.0 E10670.671
;M103
G1 X3.84 Y-14.98 Z1.5 F3600.0
;M101
G1 X3.5 Y-14.98 Z1.5 F360.0 E10671.1
G1 X1.73 Y-14.98 Z1.5 F360.0 E10673.314
G1 X1.73 Y5.37 Z1.5 F360.0 E10698.769
G1 X7.51 Y5.37 Z1.5 F360.0 E10706.01
G1 X7.51 Y-14.98 Z1.5 F360.0 E10731.465
G1 X3.84 Y-14.98 Z1.5 F360.0 E10736.063
;M103
G1 X3.71 Y-14.64 Z1.5 F3600.0
G1 X2.21 Y-14.5 Z1.5 F3600.0
G1 X2.06 Y-7.97 Z1.5 F3600.0
G1 X-1.3 Y9.26 Z1.5 F3600.0
;M101
G1 X-2.34 Y9.12 Z1.5 F360.0 E10737.38
G1 X-3.39 Y9.26 Z1.5 F360.0 E10738.697
G1 X-4.36 Y9.66 Z1.5 F360.0 E10740.015
G1 X-5.19 Y10.3 Z1.5 F360.0 E10741.332
G1 X-5.83 Y11.14 Z1.5 F360.0 E10742.649
G1 X-6.24 Y12.11 Z1.5 F360.0 E10743.966
G1 X-6.37 Y13.16 Z1.5 F360.0 E10745.282
G1 X-6.24 Y14.2 Z1.5 F360.0 E10746.599
G1 X-5.83 Y15.17 Z1.5 F360.0 E10747.916
G1 X-5.19 Y16.01 Z1.5 F360.0 E10749.233
G1 X-4.36 Y16.65 Z1.5 F360.0 E10750.55
G1 X-3.39 Y17.05 Z1.5 F360.0 E10751.867
G1 X-2.34 Y17.19 Z1.5 F360.0 E10753.185
G1 X-1.3 Y17.05 Z1.5 F360.0 E10754.502
G1 X-0.33 Y16.65 Z1.5 F360.0 E10755.818
G1 X0.51 Y16.01 Z1.5 F360.0 E10757.135
G1 X1.15 Y15.17 Z1.5 F360.0 E10758.452
G1 X1.55 Y14.2 Z1.5 F360.0 E10759.77
G1 X1.69 Y13.16 Z1.5 F360.0 E10761.087
G1 X1.55 Y12.11 Z1.5 F360.0 E10762.403
G1 X1.15 Y11.14 Z1.5 F360.0 E10763.721
G1 X0.51 Y10.3 Z1.5 F360.0 E10765.037
G1 X-0.33 Y9.66 Z1.5 F360.0 E10766.354
G1 X-1.3 Y9.26 Z1.5 F360.0 E10767.671
;M103
G1 X-9.37 Y9.26 Z1.5 F3600.0
;M101
G1 X-9.37 Y-19.37 Z1.5 F360.0 E10803.489
G1 X9.37 Y-19.37 Z1.5 F360.0 E10826.938
G1 X9.37 Y19.37 Z1.5 F360.0 E10875.407
G1 X-9.37 Y19.37 Z1.5 F360.0 E10898.856
G1 X-9.37 Y9.26 Z1.5 F360.0 E10911.506
;M103
;M108 S5.629
G1 X-9.79 Y9.26 Z1.5 F3600.0
;M101
G1 X-9.79 Y-19.79 Z1.5 F270.0 E10947.845
G1 X9.79 Y-19.79 Z1.5 F270.0 E10972.34
G1 X9.79 Y19.79 Z1.5 F270.0 E11021.853
G1 X-9.79 Y19.79 Z1.5 F270.0 E11046.348
G1 X-9.79 Y9.26 Z1.5 F270.0 E11059.521
;M103
G1 X-5.47 Y11.35 Z1.5 F3600.0
;M101
G1 X-5.83 Y12.22 Z1.5 F270.0 E11060.7
G1 X-5.95 Y13.16 Z1.5 F270.0 E11061.878
G1 X-5.83 Y14.09 Z1.5 F270.0 E11063.058
G1 X-5.47 Y14.96 Z1.5 F270.0 E11064.237
G1 X-4.89 Y15.71 Z1.5 F270.0 E11065.415
G1 X-4.15 Y16.28 Z1.5 F270.0 E11066.594
G1 X-3.28 Y16.64 Z1.5 F270.0 E11067.773
G1 X-2.34 Y16.77 Z1.5 F270.0 E11068.953
G1 X-1.41 Y16.64 Z1.5 F270.0 E11070.132
G1 X-0.54 Y16.28 Z1.5 F270.0 E11071.31
G1 X0.21 Y15.71 Z1.5 F270.0 E11072.489
G1 X0.79 Y14.96 Z1.5 F270.0 E11073.667
G1 X1.15 Y14.09 Z1.5 F270.0 E11074.846
G1 X1.27 Y13.16 Z1.5 F270.0 E11076.026
G1 X1.15 Y12.22 Z1.5 F270.0 E11077.205
G1 X0.79 Y11.35 Z1.5 F270.0 E11078.384
G1 X0.21 Y10.6 Z1.5 F270.0 E11079.562
G1 X-0.54 Y10.03 Z1.5 F270.0 E11080.741
G1 X-1.41 Y9.67 Z1.5 F270.0 E11081.919
G1 X-2.34 Y9.55 Z1.5 F270.0 E11083.099
G1 X-3.28 Y9.67 Z1.5 F270.0 E11084.278
G1 X-4.15 Y10.03 Z1.5 F270.0 E11085.457
G1 X-4.89 Y10.6 Z1.5 F270.0 E11086.636
G1 X-5.47 Y11.35 Z1.5 F270.0 E11087.814
;M103
G1 X2.14 Y4.95 Z1.5 F3600.0
;M101
G1 X7.1 Y4.95 Z1.5 F270.0 E11094.007
G1 X7.1 Y-14.56 Z1.5 F270.0 E11118.415
G1 X2.14 Y-14.56 Z1.5 F270.0 E11124.608
G1 X2.14 Y4.95 Z1.5 F270.0 E11149.015
;M103
;M108 S7.506
G1 X7.31 Y5.73 Z1.8 F3600.0
;M101
G1 X1.64 Y11.39 Z1.8 F360.0 E11159.038
G1 X1.47 Y10.97 Z1.8 F360.0 E11159.604
G1 X6.71 Y5.73 Z1.8 F360.0 E11168.887
G1 X6.12 Y5.73 Z1.8 F360.0 E11169.629
G1 X1.21 Y10.64 Z1.8 F360.0 E11178.313
G1 X0.96 Y10.3 Z1.8 F360.0 E11178.841
G1 X5.53 Y5.73 Z1.8 F360.0 E11186.932
G1 X4.94 Y5.73 Z1.8 F360.0 E11187.674
G1 X0.68 Y9.98 Z1.8 F360.0 E11195.207
G1 X0.34 Y9.73 Z1.8 F360.0 E11195.736
G1 X4.34 Y5.73 Z1.8 F360.0 E11202.814
G1 X3.75 Y5.73 Z1.8 F360.0 E11203.555
G1 X0.01 Y9.47 Z1.8 F360.0 E11210.179
G1 X-0.37 Y9.26 Z1.8 F360.0 E11210.723
G1 X3.16 Y5.73 Z1.8 F360.0 E11216.971
G1 X2.57 Y5.73 Z1.8 F360.0 E11217.711
G1 X-0.79 Y9.08 Z1.8 F360.0 E11223.652
G1 X-1.21 Y8.91 Z1.8 F360.0 E11224.22
G1 X1.98 Y5.73 Z1.8 F360.0 E11229.857
G1 X1.38 Y5.73 Z1.8 F360.0 E11230.599
G1 X-1.74 Y8.84 Z1.8 F360.0 E11236.113
G1 X-2.26 Y8.78 Z1.8 F360.0 E11236.774
G1 X1.37 Y5.15 Z1.8 F360.0 E11243.192
G1 X1.37 Y4.56 Z1.8 F360.0 E11243.934
G1 X-2.92 Y8.84 Z1.8 F360.0 E11251.513
G1 X-3.66 Y8.99 Z1.8 F360.0 E11252.457
G1 X1.37 Y3.96 Z1.8 F360.0 E11261.344
;M103
G1 X1.71 Y-15.33 Z1.8 F3600.0
;M101
G1 X5.39 Y-19.02 Z1.8 F360.0 E11267.857
G1 X5.98 Y-19.02 Z1.8 F360.0 E11268.598
G1 X2.3 Y-15.33 Z1.8 F360.0 E11275.111
G1 X2.89 Y-15.33 Z1.8 F360.0 E11275.852
G1 X6.58 Y-19.02 Z1.8 F360.0 E11282.365
G1 X7.17 Y-19.02 Z1.8 F360.0 E11283.107
G1 X3.49 Y-15.33 Z1.8 F360.0 E11289.62
G1 X4.08 Y-15.33 Z1.8 F360.0 E11290.361
G1 X7.76 Y-19.02 Z1.8 F360.0 E11296.874
G1 X8.35 Y-19.02 Z1.8 F360.0 E11297.616
G1 X4.67 Y-15.33 Z1.8 F360.0 E11304.129
G1 X5.26 Y-15.33 Z1.8 F360.0 E11304.87
G1 X8.95 Y-19.02 Z1.8 F360.0 E11311.383
G1 X9.02 Y-18.49 Z1.8 F360.0 E11312.042
G1 X5.86 Y-15.33 Z1.8 F360.0 E11317.633
G1 X6.45 Y-15.33 Z1.8 F360.0 E11318.374
G1 X9.02 Y-17.9 Z1.8 F360.0 E11322.916
G1 X9.02 Y-17.31 Z1.8 F360.0 E11323.656
G1 X7.04 Y-15.33 Z1.8 F360.0 E11327.151
G1 X7.63 Y-15.33 Z1.8 F360.0 E11327.891
G1 X9.02 Y-16.72 Z1.8 F360.0 E11330.338
G1 X9.02 Y-16.12 Z1.8 F360.0 E11331.08
G1 X7.87 Y-14.98 Z1.8 F360.0 E11333.108
G1 X7.87 Y-14.39 Z1.8 F360.0 E11333.849
G1 X9.02 Y-15.53 Z1.8 F360.0 E11335.877
G1 X9.02 Y-14.94 Z1.8 F360.0 E11336.619
G1 X7.87 Y-13.79 Z1.8 F360.0 E11338.647
G1 X7.87 Y-13.2 Z1.8 F360.0 E11339.388
G1 X9.02 Y-14.35 Z1.8 F360.0 E11341.416
G1 X9.02 Y-13.76 Z1.8 F360.0 E11342.157
G1 X7.87 Y-12.61 Z1.8 F360.0 E11344.185
G1 X7.87 Y-12.02 Z1.8 F360.0 E11344.927
G1 X9.02 Y-13.16 Z1.8 F360.0 E11346.955
G1 X9.02 Y-12.57 Z1.8 F360.0 E11347.696
G1 X7.87 Y-11.42 Z1.8 F360.0 E11349.724
G1 X7.87 Y-10.83 Z1.8 F360.0 E11350.466
G1 X9.02 Y-11.98 Z1.8 F360.0 E11352.495
G1 X9.02 Y-11.39 Z1.8 F360.0 E11353.235
G1 X7.87 Y-10.24 Z1.8 F360.0 E11355.264
G1 X7.87 Y-9.65 Z1.8 F360.0 E11356.004
G1 X9.02 Y-10.79 Z1.8 F360.0 E11358.033
G1 X9.02 Y-10.2 Z1.8 F360.0 E11358.774
G1 X7.87 Y-9.05 Z1.8 F360.0 E11360.803
G1 X7.87 Y-8.46 Z1.8 F360.0 E11361.543
G1 X9.02 Y-9.61 Z1.8 F360.0 E11363.572
G1 X9.02 Y-9.02 Z1.8 F360.0 E11364.312
G1 X7.87 Y-7.87 Z1.8 F360.0 E11366.342
G1 X7.87 Y-7.28 Z1.8 F360.0 E11367.082
G1 X9.02 Y-8.42 Z1.8 F360.0 E11369.111
G1 X9.02 Y-7.83 Z1.8 F360.0 E11369.851
G1 X7.87 Y-6.69 Z1.8 F360.0 E11371.879
G1 X7.87 Y-6.09 Z1.8 F360.0 E11372.621
G1 X9.02 Y-7.24 Z1.8 F360.0 E11374.65
G1 X9.02 Y-6.65 Z1.8 F360.0 E11375.39
G1 X7.87 Y-5.5 Z1.8 F360.0 E11377.419
G1 X7.87 Y-4.91 Z1.8 F360.0 E11378.159
G1 X9.02 Y-6.05 Z1.8 F360.0 E11380.188
G1 X9.02 Y-5.46 Z1.8 F360.0 E11380.929
G1 X7.87 Y-4.32 Z1.8 F360.0 E11382.958
G1 X7.87 Y-3.72 Z1.8 F360.0 E11383.698
G1 X9.02 Y-4.87 Z1.8 F360.0 E11385.727
G1 X9.02 Y-4.28 Z1.8 F360.0 E11386.469
G1 X7.87 Y-3.13 Z1.8 F360.0 E11388.497
G1 X7.87 Y-2.54 Z1.8 F360.0 E11389.238
G1 X9.02 Y-3.68 Z1.8 F360.0 E11391.266
G1 X9.02 Y-3.09 Z1.8 F360.0 E11392.007
G1 X7.87 Y-1.95 Z1.8 F360.0 E11394.035
G1 X7.87 Y-1.35 Z1.8 F360.0 E11394.777
G1 X9.02 Y-2.5 Z1.8 F360.0 E11396.805
G1 X9.02 Y-1.91 Z1.8 F360.0 E11397.546
G1 X7.87 Y-0.76 Z1.8 F360.0 E11399.574
G1 X7.87 Y-0.17 Z1.8 F360.0 E11400.316
G1 X9.02 Y-1.32 Z1.8 F360.0 E11402.345
G1 X9.02 Y-0.72 Z1.8 F360.0 E11403.087
G1 X7.87 Y0.42 Z1.8 F360.0 E11405.115
G1 X7.87 Y1.02 Z1.8 F360.0 E11405.856
G1 X9.02 Y-0.13 Z1.8 F360.0 E11407.884
G1 X9.02 Y0.46 Z1.8 F360.0 E11408.626
G1 X7.87 Y1.61 Z1.8 F360.0 E11410.655
G1 X7.87 Y2.2 Z1.8 F360.0 E11411.395
G1 X9.02 Y1.06 Z1.8 F360.0 E11413.423
G1 X9.02 Y1.65 Z1.8 F360.0 E11414.164
G1 X7.87 Y2.79 Z1.8 F360.0 E11416.192
G1 X7.87 Y3.39 Z1.8 F360.0 E11416.934
G1 X9.02 Y2.24 Z1.8 F360.0 E11418.963
G1 X9.02 Y2.83 Z1.8 F360.0 E11419.703
G1 X7.87 Y3.98 Z1.8 F360.0 E11421.732
G1 X7.87 Y4.57 Z1.8 F360.0 E11422.473
G1 X9.02 Y3.43 Z1.8 F360.0 E11424.502
G1 X9.02 Y4.02 Z1.8 F360.0 E11425.242
G1 X7.87 Y5.16 Z1.8 F360.0 E11427.271
;M103
G1 X9.02 Y4.61 Z1.8 F3600.0
;M101
G1 X1.82 Y11.81 Z1.8 F360.0 E11440.011
G1 X1.94 Y12.28 Z1.8 F360.0 E11440.619
G1 X9.02 Y5.2 Z1.8 F360.0 E11453.144
G1 X9.02 Y5.79 Z1.8 F360.0 E11453.885
G1 X2.01 Y12.81 Z1.8 F360.0 E11466.288
G1 X2.02 Y13.38 Z1.8 F360.0 E11467.009
G1 X9.02 Y6.39 Z1.8 F360.0 E11479.385
G1 X9.02 Y6.98 Z1.8 F360.0 E11480.126
G1 X1.93 Y14.06 Z1.8 F360.0 E11492.66
G1 X1.62 Y14.96 Z1.8 F360.0 E11493.852
G1 X9.02 Y7.57 Z1.8 F360.0 E11506.932
;M103
G1 X9.02 Y18.83 Z1.8 F3600.0
;M101
G1 X8.83 Y19.02 Z1.8 F360.0 E11507.267
G1 X8.23 Y19.02 Z1.8 F360.0 E11508.008
G1 X9.02 Y18.23 Z1.8 F360.0 E11509.392
G1 X9.02 Y17.64 Z1.8 F360.0 E11510.132
G1 X7.64 Y19.02 Z1.8 F360.0 E11512.563
G1 X7.05 Y19.02 Z1.8 F360.0 E11513.305
G1 X9.02 Y17.05 Z1.8 F360.0 E11516.785
G1 X9.02 Y16.46 Z1.8 F360.0 E11517.526
G1 X6.46 Y19.02 Z1.8 F360.0 E11522.053
G1 X5.87 Y19.02 Z1.8 F360.0 E11522.794
G1 X9.02 Y15.87 Z1.8 F360.0 E11528.368
G1 X9.02 Y15.27 Z1.8 F360.0 E11529.11
G1 X5.27 Y19.02 Z1.8 F360.0 E11535.734
G1 X4.68 Y19.02 Z1.8 F360.0 E11536.475
G1 X9.02 Y14.68 Z1.8 F360.0 E11544.146
G1 X9.02 Y14.09 Z1.8 F360.0 E11544.888
G1 X4.09 Y19.02 Z1.8 F360.0 E11553.608
G1 X3.5 Y19.02 Z1.8 F360.0 E11554.349
G1 X9.02 Y13.5 Z1.8 F360.0 E11564.116
G1 X9.02 Y12.9 Z1.8 F360.0 E11564.857
G1 X2.9 Y19.02 Z1.8 F360.0 E11575.672
G1 X2.31 Y19.02 Z1.8 F360.0 E11576.414
G1 X9.02 Y12.31 Z1.8 F360.0 E11588.278
G1 X9.02 Y11.72 Z1.8 F360.0 E11589.018
G1 X1.72 Y19.02 Z1.8 F360.0 E11601.93
G1 X1.13 Y19.02 Z1.8 F360.0 E11602.67
G1 X9.02 Y11.13 Z1.8 F360.0 E11616.629
G1 X9.02 Y10.53 Z1.8 F360.0 E11617.371
G1 X0.53 Y19.02 Z1.8 F360.0 E11632.379
G1 X-0.06 Y19.02 Z1.8 F360.0 E11633.12
G1 X9.02 Y9.94 Z1.8 F360.0 E11649.175
G1 X9.02 Y9.35 Z1.8 F360.0 E11649.917
G1 X-0.65 Y19.02 Z1.8 F360.0 E11667.021
G1 X-1.24 Y19.02 Z1.8 F360.0 E11667.762
G1 X9.02 Y8.76 Z1.8 F360.0 E11685.914
G1 X9.02 Y8.16 Z1.8 F360.0 E11686.654
G1 X-1.84 Y19.02 Z1.8 F360.0 E11705.853
G1 X-2.43 Y19.02 Z1.8 F360.0 E11706.595
G1 X-0.53 Y17.12 Z1.8 F360.0 E11709.95
G1 X-1.43 Y17.43 Z1.8 F360.0 E11711.141
G1 X-3.02 Y19.02 Z1.8 F360.0 E11713.949
G1 X-3.61 Y19.02 Z1.8 F360.0 E11714.691
G1 X-2.12 Y17.52 Z1.8 F360.0 E11717.343
G1 X-2.69 Y17.5 Z1.8 F360.0 E11718.064
G1 X-4.21 Y19.02 Z1.8 F360.0 E11720.744
G1 X-4.8 Y19.02 Z1.8 F360.0 E11721.485
G1 X-3.22 Y17.43 Z1.8 F360.0 E11724.286
G1 X-3.69 Y17.31 Z1.8 F360.0 E11724.895
G1 X-5.39 Y19.02 Z1.8 F360.0 E11727.91
G1 X-5.98 Y19.02 Z1.8 F360.0 E11728.65
G1 X-4.11 Y17.14 Z1.8 F360.0 E11731.972
G1 X-4.52 Y16.96 Z1.8 F360.0 E11732.538
G1 X-6.58 Y19.02 Z1.8 F360.0 E11736.168
G1 X-7.17 Y19.02 Z1.8 F360.0 E11736.91
G1 X-4.86 Y16.71 Z1.8 F360.0 E11740.99
G1 X-5.2 Y16.45 Z1.8 F360.0 E11741.518
G1 X-7.76 Y19.02 Z1.8 F360.0 E11746.052
G1 X-8.35 Y19.02 Z1.8 F360.0 E11746.794
G1 X-5.51 Y16.18 Z1.8 F360.0 E11751.818
G1 X-5.77 Y15.84 Z1.8 F360.0 E11752.348
G1 X-8.95 Y19.02 Z1.8 F360.0 E11757.966
G1 X-9.02 Y18.49 Z1.8 F360.0 E11758.625
G1 X-6.03 Y15.51 Z1.8 F360.0 E11763.913
G1 X-6.24 Y15.13 Z1.8 F360.0 E11764.457
G1 X-9.02 Y17.9 Z1.8 F360.0 E11769.369
G1 X-9.02 Y17.31 Z1.8 F360.0 E11770.11
G1 X-6.41 Y14.71 Z1.8 F360.0 E11774.717
G1 X-6.58 Y14.29 Z1.8 F360.0 E11775.285
G1 X-9.02 Y16.72 Z1.8 F360.0 E11779.587
G1 X-9.02 Y16.12 Z1.8 F360.0 E11780.329
G1 X-6.65 Y13.76 Z1.8 F360.0 E11784.509
G1 X-6.72 Y13.24 Z1.8 F360.0 E11785.17
G1 X-9.02 Y15.53 Z1.8 F360.0 E11789.228
G1 X-9.02 Y14.94 Z1.8 F360.0 E11789.97
G1 X-6.66 Y12.58 Z1.8 F360.0 E11794.143
G1 X-6.51 Y11.84 Z1.8 F360.0 E11795.087
G1 X-9.02 Y14.35 Z1.8 F360.0 E11799.521
G1 X-9.02 Y13.76 Z1.8 F360.0 E11800.262
G1 X1.37 Y3.37 Z1.8 F360.0 E11818.634
G1 X1.37 Y2.78 Z1.8 F360.0 E11819.376
G1 X-9.02 Y13.16 Z1.8 F360.0 E11837.748
G1 X-9.02 Y12.57 Z1.8 F360.0 E11838.489
G1 X1.37 Y2.19 Z1.8 F360.0 E11856.861
G1 X1.37 Y1.59 Z1.8 F360.0 E11857.602
G1 X-9.02 Y11.98 Z1.8 F360.0 E11875.975
G1 X-9.02 Y11.39 Z1.8 F360.0 E11876.715
G1 X1.37 Y1.0 Z1.8 F360.0 E11895.087
G1 X1.37 Y0.41 Z1.8 F360.0 E11895.828
G1 X-9.02 Y10.79 Z1.8 F360.0 E11914.2
G1 X-9.02 Y10.2 Z1.8 F360.0 E11914.942
G1 X1.37 Y-0.18 Z1.8 F360.0 E11933.314
G1 X1.37 Y-0.78 Z1.8 F360.0 E11934.054
G1 X-9.02 Y9.61 Z1.8 F360.0 E11952.426
G1 X-9.02 Y9.02 Z1.8 F360.0 E11953.167
G1 X1.37 Y-1.37 Z1.8 F360.0 E11971.54
G1 X1.37 Y-1.96 Z1.8 F360.0 E11972.281
G1 X-9.02 Y8.42 Z1.8 F360.0 E11990.653
G1 X-9.02 Y7.83 Z1.8 F360.0 E11991.393
G1 X1.37 Y-2.55 Z1.8 F360.0 E12009.765
G1 X1.37 Y-3.15 Z1.8 F360.0 E12010.507
G1 X-9.02 Y7.24 Z1.8 F360.0 E12028.879
G1 X-9.02 Y6.65 Z1.8 F360.0 E12029.62
G1 X1.37 Y-3.74 Z1.8 F360.0 E12047.992
G1 X1.37 Y-4.33 Z1.8 F360.0 E12048.732
G1 X-9.02 Y6.05 Z1.8 F360.0 E12067.104
G1 X-9.02 Y5.46 Z1.8 F360.0 E12067.846
G1 X1.37 Y-4.92 Z1.8 F360.0 E12086.218
G1 X1.37 Y-5.52 Z1.8 F360.0 E12086.959
G1 X-9.02 Y4.87 Z1.8 F360.0 E12105.331
G1 X-9.02 Y4.28 Z1.8 F360.0 E12106.073
G1 X1.37 Y-6.11 Z1.8 F360.0 E12124.445
G1 X1.37 Y-6.7 Z1.8 F360.0 E12125.186
G1 X-9.02 Y3.68 Z1.8 F360.0 E12143.558
G1 X-9.02 Y3.09 Z1.8 F360.0 E12144.298
G1 X1.37 Y-7.29 Z1.8 F360.0 E12162.67
G1 X1.37 Y-7.89 Z1.8 F360.0 E12163.412
G1 X-9.02 Y2.5 Z1.8 F360.0 E12181.784
G1 X-9.02 Y1.91 Z1.8 F360.0 E12182.525
G1 X1.37 Y-8.48 Z1.8 F360.0 E12200.897
G1 X1.37 Y-9.07 Z1.8 F360.0 E12201.639
G1 X-9.02 Y1.32 Z1.8 F360.0 E12220.012
G1 X-9.02 Y0.72 Z1.8 F360.0 E12220.753
G1 X1.37 Y-9.66 Z1.8 F360.0 E12239.126
G1 X1.37 Y-10.25 Z1.8 F360.0 E12239.866
G1 X-9.02 Y0.13 Z1.8 F360.0 E12258.238
G1 X-9.02 Y-0.46 Z1.8 F360.0 E12258.98
G1 X1.37 Y-10.85 Z1.8 F360.0 E12277.352
G1 X1.37 Y-11.44 Z1.8 F360.0 E12278.093
G1 X-9.02 Y-1.06 Z1.8 F360.0 E12296.465
G1 X-9.02 Y-1.65 Z1.8 F360.0 E12297.205
G1 X1.37 Y-12.03 Z1.8 F360.0 E12315.577
G1 X1.37 Y-12.62 Z1.8 F360.0 E12316.319
G1 X-9.02 Y-2.24 Z1.8 F360.0 E12334.691
G1 X-9.02 Y-2.83 Z1.8 F360.0 E12335.432
G1 X1.37 Y-13.22 Z1.8 F360.0 E12353.804
G1 X1.37 Y-13.81 Z1.8 F360.0 E12354.546
G1 X-9.02 Y-3.43 Z1.8 F360.0 E12372.918
G1 X-9.02 Y-4.02 Z1.8 F360.0 E12373.658
G1 X1.37 Y-14.4 Z1.8 F360.0 E12392.03
G1 X1.37 Y-14.99 Z1.8 F360.0 E12392.771
G1 X-9.02 Y-4.61 Z1.8 F360.0 E12411.143
G1 X-9.02 Y-5.2 Z1.8 F360.0 E12411.885
G1 X4.8 Y-19.02 Z1.8 F360.0 E12436.324
G1 X4.21 Y-19.02 Z1.8 F360.0 E12437.065
G1 X-9.02 Y-5.79 Z1.8 F360.0 E12460.457
G1 X-9.02 Y-6.39 Z1.8 F360.0 E12461.198
G1 X3.61 Y-19.02 Z1.8 F360.0 E12483.543
G1 X3.02 Y-19.02 Z1.8 F360.0 E12484.284
G1 X-9.02 Y-6.98 Z1.8 F360.0 E12505.58
G1 X-9.02 Y-7.57 Z1.8 F360.0 E12506.321
G1 X2.43 Y-19.02 Z1.8 F360.0 E12526.569
G1 X1.84 Y-19.02 Z1.8 F360.0 E12527.311
G1 X-9.02 Y-8.16 Z1.8 F360.0 E12546.51
G1 X-9.02 Y-8.76 Z1.8 F360.0 E12547.25
G1 X1.24 Y-19.02 Z1.8 F360.0 E12565.402
G1 X0.65 Y-19.02 Z1.8 F360.0 E12566.143
G1 X-9.02 Y-9.35 Z1.8 F360.0 E12583.247
G1 X-9.02 Y-9.94 Z1.8 F360.0 E12583.989
G1 X0.06 Y-19.02 Z1.8 F360.0 E12600.044
G1 X-0.53 Y-19.02 Z1.8 F360.0 E12600.785
G1 X-9.02 Y-10.53 Z1.8 F360.0 E12615.793
G1 X-9.02 Y-11.13 Z1.8 F360.0 E12616.535
G1 X-1.13 Y-19.02 Z1.8 F360.0 E12630.494
G1 X-1.72 Y-19.02 Z1.8 F360.0 E12631.234
G1 X-9.02 Y-11.72 Z1.8 F360.0 E12644.146
G1 X-9.02 Y-12.31 Z1.8 F360.0 E12644.886
G1 X-2.31 Y-19.02 Z1.8 F360.0 E12656.75
G1 X-2.9 Y-19.02 Z1.8 F360.0 E12657.492
G1 X-9.02 Y-12.9 Z1.8 F360.0 E12668.307
G1 X-9.02 Y-13.5 Z1.8 F360.0 E12669.048
G1 X-3.5 Y-19.02 Z1.8 F360.0 E12678.816
G1 X-4.09 Y-19.02 Z1.8 F360.0 E12679.556
G1 X-9.02 Y-14.09 Z1.8 F360.0 E12688.276
G1 X-9.02 Y-14.68 Z1.8 F360.0 E12689.018
G1 X-4.68 Y-19.02 Z1.8 F360.0 E12696.689
G1 X-5.27 Y-19.02 Z1.8 F360.0 E12697.43
G1 X-9.02 Y-15.27 Z1.8 F360.0 E12704.054
G1 X-9.02 Y-15.87 Z1.8 F360.0 E12704.796
G1 X-5.87 Y-19.02 Z1.8 F360.0 E12710.37
G1 X-6.46 Y-19.02 Z1.8 F360.0 E12711.111
G1 X-9.02 Y-16.46 Z1.8 F360.0 E12715.638
G1 X-9.02 Y-17.05 Z1.8 F360.0 E12716.379
G1 X-7.05 Y-19.02 Z1.8 F360.0 E12719.859
G1 X-7.64 Y-19.02 Z1.8 F360.0 E12720.601
G1 X-9.02 Y-17.64 Z1.8 F360.0 E12723.032
G1 X-9.02 Y-18.23 Z1.8 F360.0 E12723.772
G1 X-8.23 Y-19.02 Z1.8 F360.0 E12725.156
G1 X-8.83 Y-19.02 Z1.8 F360.0 E12725.898
G1 X-9.02 Y-18.83 Z1.8 F360.0 E12726.232
;M103
G1 X1.73 Y-14.8 Z1.8 F3600.0
;M101
G1 X1.73 Y5.37 Z1.8 F360.0 E12751.47
G1 X7.51 Y5.37 Z1.8 F360.0 E12758.71
G1 X7.51 Y-14.98 Z1.8 F360.0 E12784.166
G1 X1.73 Y-14.98 Z1.8 F360.0 E12791.407
G1 X1.73 Y-14.8 Z1.8 F360.0 E12791.624
;M103
G1 X-1.3 Y9.26 Z1.8 F3600.0
;M101
G1 X-2.34 Y9.12 Z1.8 F360.0 E12792.941
G1 X-3.39 Y9.26 Z1.8 F360.0 E12794.259
G1 X-4.36 Y9.66 Z1.8 F360.0 E12795.576
G1 X-5.19 Y10.3 Z1.8 F360.0 E12796.893
G1 X-5.83 Y11.14 Z1.8 F360.0 E12798.21
G1 X-6.24 Y12.11 Z1.8 F360.0 E12799.527
G1 X-6.37 Y13.16 Z1.8 F360.0 E12800.843
G1 X-6.24 Y14.2 Z1.8 F360.0 E12802.161
G1 X-5.83 Y15.17 Z1.8 F360.0 E12803.478
G1 X-5.19 Y16.01 Z1.8 F360.0 E12804.794
G1 X-4.36 Y16.65 Z1.8 F360.0 E12806.111
G1 X-3.39 Y17.05 Z1.8 F360.0 E12807.429
G1 X-2.34 Y17.19 Z1.8 F360.0 E12808.746
G1 X-1.3 Y17.05 Z1.8 F360.0 E12810.063
G1 X-0.33 Y16.65 Z1.8 F360.0 E12811.38
G1 X0.51 Y16.01 Z1.8 F360.0 E12812.697
G1 X1.15 Y15.17 Z1.8 F360.0 E12814.013
G1 X1.55 Y14.2 Z1.8 F360.0 E12815.331
G1 X1.69 Y13.16 Z1.8 F360.0 E12816.648
G1 X1.55 Y12.11 Z1.8 F360.0 E12817.964
G1 X1.15 Y11.14 Z1.8 F360.0 E12819.282
G1 X0.51 Y10.3 Z1.8 F360.0 E12820.599
G1 X-0.33 Y9.66 Z1.8 F360.0 E12821.916
G1 X-1.3 Y9.26 Z1.8 F360.0 E12823.232
;M103
G1 X-9.37 Y9.26 Z1.8 F3600.0
;M101
G1 X-9.37 Y-19.37 Z1.8 F360.0 E12859.051
G1 X9.37 Y-19.37 Z1.8 F360.0 E12882.499
G1 X9.37 Y19.37 Z1.8 F360.0 E12930.968
G1 X-9.37 Y19.37 Z1.8 F360.0 E12954.417
G1 X-9.37 Y9.26 Z1.8 F360.0 E12967.067
;M103
;M108 S5.629
G1 X-9.79 Y9.26 Z1.8 F3600.0
;M101
G1 X-9.79 Y-19.79 Z1.8 F270.0 E13003.407
G1 X9.79 Y-19.79 Z1.8 F270.0 E13027.902
G1 X9.79 Y19.79 Z1.8 F270.0 E13077.414
G1 X-9.79 Y19.79 Z1.8 F270.0 E13101.909
G1 X-9.79 Y9.26 Z1.8 F270.0 E13115.082
;M103
G1 X-5.47 Y11.35 Z1.8 F3600.0
;M101
G1 X-5.83 Y12.22 Z1.8 F270.0 E13116.261
G1 X-5.95 Y13.16 Z1.8 F270.0 E13117.44
G1 X-5.83 Y14.09 Z1.8 F270.0 E13118.619
G1 X-5.47 Y14.96 Z1.8 F270.0 E13119.798
G1 X-4.89 Y15.71 Z1.8 F270.0 E13120.977
G1 X-4.15 Y16.28 Z1.8 F270.0 E13122.155
G1 X-3.28 Y16.64 Z1.8 F270.0 E13123.334
G1 X-2.34 Y16.77 Z1.8 F270.0 E13124.514
G1 X-1.41 Y16.64 Z1.8 F270.0 E13125.693
G1 X-0.54 Y16.28 Z1.8 F270.0 E13126.872
G1 X0.21 Y15.71 Z1.8 F270.0 E13128.05
G1 X0.79 Y14.96 Z1.8 F270.0 E13129.228
G1 X1.15 Y14.09 Z1.8 F270.0 E13130.408
G1 X1.27 Y13.16 Z1.8 F270.0 E13131.588
G1 X1.15 Y12.22 Z1.8 F270.0 E13132.766
G1 X0.79 Y11.35 Z1.8 F270.0 E13133.945
G1 X0.21 Y10.6 Z1.8 F270.0 E13135.124
G1 X-0.54 Y10.03 Z1.8 F270.0 E13136.302
G1 X-1.41 Y9.67 Z1.8 F270.0 E13137.48
G1 X-2.34 Y9.55 Z1.8 F270.0 E13138.66
G1 X-3.28 Y9.67 Z1.8 F270.0 E13139.839
G1 X-4.15 Y10.03 Z1.8 F270.0 E13141.019
G1 X-4.89 Y10.6 Z1.8 F270.0 E13142.197
G1 X-5.47 Y11.35 Z1.8 F270.0 E13143.376
;M103
G1 X2.14 Y4.95 Z1.8 F3600.0
;M101
G1 X7.1 Y4.95 Z1.8 F270.0 E13149.569
G1 X7.1 Y-14.56 Z1.8 F270.0 E13173.976
G1 X2.14 Y-14.56 Z1.8 F270.0 E13180.169
G1 X2.14 Y4.95 Z1.8 F270.0 E13204.577
;M103
;M108 S7.506
G1 X-4.95 Y10.55 Z2.1 F3600.0
G1 X-5.54 Y11.31 Z2.1 F3600.0
G1 X-6.61 Y14.13 Z2.1 F3600.0
;M101
G1 X-9.02 Y11.72 Z2.1 F360.0 E13208.842
G1 X-9.02 Y11.13 Z2.1 F360.0 E13209.583
G1 X-6.7 Y13.45 Z2.1 F360.0 E13213.688
G1 X-6.69 Y12.86 Z2.1 F360.0 E13214.427
G1 X-9.02 Y10.53 Z2.1 F360.0 E13218.536
G1 X-9.02 Y9.94 Z2.1 F360.0 E13219.277
G1 X-6.62 Y12.33 Z2.1 F360.0 E13223.508
G1 X-6.51 Y11.85 Z2.1 F360.0 E13224.126
G1 X-9.02 Y9.35 Z2.1 F360.0 E13228.554
G1 X-9.02 Y8.76 Z2.1 F360.0 E13229.294
G1 X-6.34 Y11.43 Z2.1 F360.0 E13234.028
G1 X-6.17 Y11.01 Z2.1 F360.0 E13234.595
G1 X-9.02 Y8.16 Z2.1 F360.0 E13239.634
G1 X-9.02 Y7.57 Z2.1 F360.0 E13240.376
G1 X-5.92 Y10.67 Z2.1 F360.0 E13245.854
G1 X-5.66 Y10.33 Z2.1 F360.0 E13246.383
G1 X-9.02 Y6.98 Z2.1 F360.0 E13252.314
G1 X-9.02 Y6.39 Z2.1 F360.0 E13253.056
G1 X-5.39 Y10.01 Z2.1 F360.0 E13259.466
G1 X-5.06 Y9.75 Z2.1 F360.0 E13259.995
G1 X-9.02 Y5.79 Z2.1 F360.0 E13266.996
G1 X-9.02 Y5.2 Z2.1 F360.0 E13267.737
G1 X-4.72 Y9.49 Z2.1 F360.0 E13275.331
G1 X-4.35 Y9.28 Z2.1 F360.0 E13275.872
G1 X-9.02 Y4.61 Z2.1 F360.0 E13284.127
G1 X-9.02 Y4.02 Z2.1 F360.0 E13284.868
G1 X-3.93 Y9.1 Z2.1 F360.0 E13293.862
G1 X-3.51 Y8.93 Z2.1 F360.0 E13294.43
G1 X-9.02 Y3.43 Z2.1 F360.0 E13304.165
G1 X-9.02 Y2.83 Z2.1 F360.0 E13304.906
G1 X-3.0 Y8.85 Z2.1 F360.0 E13315.553
G1 X-2.47 Y8.78 Z2.1 F360.0 E13316.215
G1 X-9.02 Y2.24 Z2.1 F360.0 E13327.788
G1 X-9.02 Y1.65 Z2.1 F360.0 E13328.529
G1 X-1.83 Y8.83 Z2.1 F360.0 E13341.239
G1 X-1.13 Y8.95 Z2.1 F360.0 E13342.135
G1 X-9.02 Y1.06 Z2.1 F360.0 E13356.096
G1 X-9.02 Y0.46 Z2.1 F360.0 E13356.837
G1 X-0.06 Y9.42 Z2.1 F360.0 E13372.677
;M103
G1 X-9.02 Y-3.68 Z2.1 F3600.0
;M101
G1 X9.02 Y14.35 Z2.1 F360.0 E13404.578
G1 X9.02 Y14.94 Z2.1 F360.0 E13405.319
G1 X-9.02 Y-3.09 Z2.1 F360.0 E13437.22
G1 X-9.02 Y-2.5 Z2.1 F360.0 E13437.961
G1 X9.02 Y15.53 Z2.1 F360.0 E13469.862
G1 X9.02 Y16.12 Z2.1 F360.0 E13470.603
G1 X-9.02 Y-1.91 Z2.1 F360.0 E13502.504
G1 X-9.02 Y-1.32 Z2.1 F360.0 E13503.245
G1 X9.02 Y16.72 Z2.1 F360.0 E13535.146
G1 X9.02 Y17.31 Z2.1 F360.0 E13535.887
G1 X-9.02 Y-0.72 Z2.1 F360.0 E13567.788
G1 X-9.02 Y-0.13 Z2.1 F360.0 E13568.529
G1 X9.02 Y17.9 Z2.1 F360.0 E13600.43
G1 X9.02 Y18.49 Z2.1 F360.0 E13601.171
G1 X1.4 Y10.88 Z2.1 F360.0 E13614.649
;M103
G1 X1.87 Y11.94 Z2.1 F3600.0
;M101
G1 X8.95 Y19.02 Z2.1 F360.0 E13627.17
G1 X8.35 Y19.02 Z2.1 F360.0 E13627.911
G1 X1.98 Y12.65 Z2.1 F360.0 E13639.179
G1 X2.03 Y13.29 Z2.1 F360.0 E13639.984
G1 X7.76 Y19.02 Z2.1 F360.0 E13650.116
G1 X7.17 Y19.02 Z2.1 F360.0 E13650.857
G1 X1.96 Y13.81 Z2.1 F360.0 E13660.064
G1 X1.89 Y14.33 Z2.1 F360.0 E13660.715
G1 X6.58 Y19.02 Z2.1 F360.0 E13669.01
G1 X5.98 Y19.02 Z2.1 F360.0 E13669.751
G1 X1.71 Y14.75 Z2.1 F360.0 E13677.305
G1 X1.54 Y15.16 Z2.1 F360.0 E13677.872
G1 X5.39 Y19.02 Z2.1 F360.0 E13684.686
G1 X4.8 Y19.02 Z2.1 F360.0 E13685.428
G1 X1.32 Y15.54 Z2.1 F360.0 E13691.582
G1 X1.06 Y15.87 Z2.1 F360.0 E13692.111
G1 X4.21 Y19.02 Z2.1 F360.0 E13697.672
G1 X3.61 Y19.02 Z2.1 F360.0 E13698.413
G1 X0.81 Y16.21 Z2.1 F360.0 E13703.382
G1 X0.48 Y16.48 Z2.1 F360.0 E13703.908
G1 X3.02 Y19.02 Z2.1 F360.0 E13708.399
G1 X2.43 Y19.02 Z2.1 F360.0 E13709.14
G1 X0.15 Y16.73 Z2.1 F360.0 E13713.177
G1 X-0.2 Y16.98 Z2.1 F360.0 E13713.708
G1 X1.84 Y19.02 Z2.1 F360.0 E13717.307
G1 X1.24 Y19.02 Z2.1 F360.0 E13718.048
G1 X-0.62 Y17.16 Z2.1 F360.0 E13721.34
G1 X-1.04 Y17.33 Z2.1 F360.0 E13721.907
G1 X0.65 Y19.02 Z2.1 F360.0 E13724.894
G1 X0.06 Y19.02 Z2.1 F360.0 E13725.635
G1 X-1.52 Y17.44 Z2.1 F360.0 E13728.425
G1 X-2.04 Y17.51 Z2.1 F360.0 E13729.086
G1 X-0.53 Y19.02 Z2.1 F360.0 E13731.754
G1 X-1.13 Y19.02 Z2.1 F360.0 E13732.495
G1 X-2.63 Y17.51 Z2.1 F360.0 E13735.161
G1 X-3.31 Y17.42 Z2.1 F360.0 E13736.021
G1 X-1.72 Y19.02 Z2.1 F360.0 E13738.845
G1 X-2.31 Y19.02 Z2.1 F360.0 E13739.585
G1 X-4.25 Y17.08 Z2.1 F360.0 E13743.01
;M103
G1 X-4.09 Y19.02 Z2.1 F3600.0
;M101
G1 X-9.02 Y14.09 Z2.1 F360.0 E13751.731
G1 X-9.02 Y13.5 Z2.1 F360.0 E13752.471
G1 X-3.5 Y19.02 Z2.1 F360.0 E13762.239
G1 X-2.9 Y19.02 Z2.1 F360.0 E13762.98
G1 X-9.02 Y12.9 Z2.1 F360.0 E13773.795
G1 X-9.02 Y12.31 Z2.1 F360.0 E13774.536
G1 X-6.27 Y15.06 Z2.1 F360.0 E13779.403
;M103
G1 X-9.02 Y14.68 Z2.1 F3600.0
;M101
G1 X-4.68 Y19.02 Z2.1 F360.0 E13787.074
G1 X-5.27 Y19.02 Z2.1 F360.0 E13787.814
G1 X-9.02 Y15.27 Z2.1 F360.0 E13794.438
G1 X-9.02 Y15.87 Z2.1 F360.0 E13795.18
G1 X-5.87 Y19.02 Z2.1 F360.0 E13800.755
G1 X-6.46 Y19.02 Z2.1 F360.0 E13801.495
G1 X-9.02 Y16.46 Z2.1 F360.0 E13806.023
G1 X-9.02 Y17.05 Z2.1 F360.0 E13806.763
G1 X-7.05 Y19.02 Z2.1 F360.0 E13810.243
G1 X-7.64 Y19.02 Z2.1 F360.0 E13810.985
G1 X-9.02 Y17.64 Z2.1 F360.0 E13813.416
G1 X-9.02 Y18.23 Z2.1 F360.0 E13814.156
G1 X-8.23 Y19.02 Z2.1 F360.0 E13815.54
G1 X-8.83 Y19.02 Z2.1 F360.0 E13816.282
G1 X-9.02 Y18.83 Z2.1 F360.0 E13816.616
;M103
G1 X2.06 Y-5.29 Z2.1 F3600.0
G1 X2.21 Y-14.5 Z2.1 F3600.0
G1 X6.63 Y-14.64 Z2.1 F3600.0
G1 X8.83 Y-19.02 Z2.1 F3600.0
;M101
G1 X9.02 Y-18.83 Z2.1 F360.0 E13816.951
G1 X9.02 Y-18.23 Z2.1 F360.0 E13817.692
G1 X8.23 Y-19.02 Z2.1 F360.0 E13819.076
G1 X7.64 Y-19.02 Z2.1 F360.0 E13819.817
G1 X9.02 Y-17.64 Z2.1 F360.0 E13822.247
G1 X9.02 Y-17.05 Z2.1 F360.0 E13822.989
G1 X7.05 Y-19.02 Z2.1 F360.0 E13826.469
G1 X6.46 Y-19.02 Z2.1 F360.0 E13827.21
G1 X9.02 Y-16.46 Z2.1 F360.0 E13831.737
G1 X9.02 Y-15.87 Z2.1 F360.0 E13832.478
G1 X5.87 Y-19.02 Z2.1 F360.0 E13838.052
G1 X5.27 Y-19.02 Z2.1 F360.0 E13838.794
G1 X9.02 Y-15.27 Z2.1 F360.0 E13845.418
G1 X9.02 Y-14.68 Z2.1 F360.0 E13846.159
G1 X4.68 Y-19.02 Z2.1 F360.0 E13853.83
G1 X4.09 Y-19.02 Z2.1 F360.0 E13854.572
G1 X9.02 Y-14.09 Z2.1 F360.0 E13863.292
G1 X9.02 Y-13.5 Z2.1 F360.0 E13864.033
G1 X7.87 Y-14.64 Z2.1 F360.0 E13866.061
G1 X7.87 Y-14.05 Z2.1 F360.0 E13866.802
G1 X9.02 Y-12.9 Z2.1 F360.0 E13868.83
G1 X9.02 Y-12.31 Z2.1 F360.0 E13869.572
G1 X7.87 Y-13.46 Z2.1 F360.0 E13871.6
G1 X7.87 Y-12.86 Z2.1 F360.0 E13872.341
G1 X9.02 Y-11.72 Z2.1 F360.0 E13874.369
G1 X9.02 Y-11.13 Z2.1 F360.0 E13875.11
G1 X7.87 Y-12.27 Z2.1 F360.0 E13877.138
G1 X7.87 Y-11.68 Z2.1 F360.0 E13877.88
G1 X9.02 Y-10.53 Z2.1 F360.0 E13879.908
G1 X9.02 Y-9.94 Z2.1 F360.0 E13880.649
G1 X7.87 Y-11.09 Z2.1 F360.0 E13882.677
G1 X7.87 Y-10.49 Z2.1 F360.0 E13883.419
G1 X9.02 Y-9.35 Z2.1 F360.0 E13885.447
G1 X9.02 Y-8.76 Z2.1 F360.0 E13886.188
G1 X7.87 Y-9.9 Z2.1 F360.0 E13888.216
G1 X7.87 Y-9.31 Z2.1 F360.0 E13888.957
G1 X9.02 Y-8.16 Z2.1 F360.0 E13890.985
G1 X9.02 Y-7.57 Z2.1 F360.0 E13891.727
G1 X7.87 Y-8.72 Z2.1 F360.0 E13893.756
G1 X7.87 Y-8.13 Z2.1 F360.0 E13894.496
G1 X9.02 Y-6.98 Z2.1 F360.0 E13896.524
G1 X9.02 Y-6.39 Z2.1 F360.0 E13897.266
G1 X7.87 Y-7.53 Z2.1 F360.0 E13899.296
G1 X7.87 Y-6.94 Z2.1 F360.0 E13900.037
G1 X9.02 Y-5.79 Z2.1 F360.0 E13902.066
G1 X9.02 Y-5.2 Z2.1 F360.0 E13902.806
G1 X7.87 Y-6.35 Z2.1 F360.0 E13904.835
G1 X7.87 Y-5.76 Z2.1 F360.0 E13905.577
G1 X9.02 Y-4.61 Z2.1 F360.0 E13907.605
G1 X9.02 Y-4.02 Z2.1 F360.0 E13908.346
G1 X7.87 Y-5.16 Z2.1 F360.0 E13910.374
G1 X7.87 Y-4.57 Z2.1 F360.0 E13911.114
G1 X9.02 Y-3.43 Z2.1 F360.0 E13913.143
G1 X9.02 Y-2.83 Z2.1 F360.0 E13913.885
