G21 (This is GCode, generated with Skeinforge version 35 from ReplicatorG)
G21 (Ultimaker profile - Quality print - alterations/start-centered.gcode)
G21 (Metric: The unit is a millimeter)
M18 (Disable motors for now, to allow manual moving of the head)
G90 (Absolute Positioning)
G92 X0 Y0 Z0 E0 (set origin to current position)
;M1 (Check if the platform is empty before continuing)
;G1 X-220.0 Y-220.0 F2000 (ensure you're in the front left corner)
;G92 X-110 Y-110 Z220 E0 (make the center the origin)
;G1 X0.0 Y0.0 F3000 (go back to the center)
;G1 Z210.0 F100 (let the platform go up slightly, start slowly)
;G1 Z0.0 F400 (we don't have all day...)
;G92 X0 Y0 Z0 E0 (make the center the origin)
;G91 (Relative positioning)
;G1 Z35.0 F400 (lower platform for cleaning nozzle)
;G92 E0 (zero the extruded length)
;G1 E260 F1000 (extrude some to get the flow going)
;G1 E-20 F3000 (reverse a little)
;G92 E0 (zero the extruded length)
;M1 (Clean the nozzle and press YES to continue...)
;G1 Z-1.0 F100 (rise platform again)
;G1 Z-34.0 F400 (rise platform again)
;G90 
;G1 Z0.4
;G92 E0 (zero the extruded length)
G21 (end of start .gcode file)
G90
G21
;M103
M105
M106
M113 S1.0
;M108 S7.506
M104 S245.0
;M108 S7.881
G1 X-12.79 Y-22.79 Z0.3 F243.0
;M101
G1 X-12.79 Y22.79 Z0.3 F243.0 E88.699
G1 X12.79 Y22.79 Z0.3 F243.0 E138.48
G1 X12.79 Y-22.79 Z0.3 F243.0 E227.179
G1 X-12.79 Y-22.79 Z0.3 F243.0 E276.96
;M103
G1 X-6.61 Y14.13 Z0.3 F2880.0
;M101
G1 X-9.02 Y11.72 Z0.3 F288.0 E282.558
G1 X-9.02 Y11.13 Z0.3 F288.0 E283.53
G1 X-6.7 Y13.45 Z0.3 F288.0 E288.918
G1 X-6.69 Y12.86 Z0.3 F288.0 E289.888
G1 X-9.02 Y10.53 Z0.3 F288.0 E295.281
G1 X-9.02 Y9.94 Z0.3 F288.0 E296.253
G1 X-6.62 Y12.33 Z0.3 F288.0 E301.806
G1 X-6.51 Y11.85 Z0.3 F288.0 E302.617
G1 X-9.02 Y9.35 Z0.3 F288.0 E308.429
G1 X-9.02 Y8.76 Z0.3 F288.0 E309.401
G1 X-6.34 Y11.43 Z0.3 F288.0 E315.613
G1 X-6.17 Y11.01 Z0.3 F288.0 E316.357
G1 X-9.02 Y8.16 Z0.3 F288.0 E322.971
G1 X-9.02 Y7.57 Z0.3 F288.0 E323.945
G1 X-5.92 Y10.67 Z0.3 F288.0 E331.134
G1 X-5.66 Y10.33 Z0.3 F288.0 E331.828
G1 X-9.02 Y6.98 Z0.3 F288.0 E339.613
G1 X-9.02 Y6.39 Z0.3 F288.0 E340.586
G1 X-5.39 Y10.01 Z0.3 F288.0 E348.999
G1 X-5.06 Y9.75 Z0.3 F288.0 E349.693
G1 X-9.02 Y5.79 Z0.3 F288.0 E358.882
G1 X-9.02 Y5.2 Z0.3 F288.0 E359.854
G1 X-4.72 Y9.49 Z0.3 F288.0 E369.821
G1 X-4.35 Y9.28 Z0.3 F288.0 E370.531
G1 X-9.02 Y4.61 Z0.3 F288.0 E381.366
G1 X-9.02 Y4.02 Z0.3 F288.0 E382.338
G1 X-3.93 Y9.1 Z0.3 F288.0 E394.142
G1 X-3.51 Y8.93 Z0.3 F288.0 E394.887
G1 X-9.02 Y3.43 Z0.3 F288.0 E407.664
G1 X-9.02 Y2.83 Z0.3 F288.0 E408.638
G1 X-3.0 Y8.85 Z0.3 F288.0 E422.611
G1 X-2.47 Y8.78 Z0.3 F288.0 E423.479
G1 X-9.02 Y2.24 Z0.3 F288.0 E438.668
G1 X-9.02 Y1.65 Z0.3 F288.0 E439.642
G1 X-1.83 Y8.83 Z0.3 F288.0 E456.323
G1 X-1.13 Y8.95 Z0.3 F288.0 E457.499
G1 X-9.02 Y1.06 Z0.3 F288.0 E475.821
G1 X-9.02 Y0.46 Z0.3 F288.0 E476.793
G1 X-0.06 Y9.42 Z0.3 F288.0 E497.583
;M103
G1 X-9.02 Y-3.68 Z0.3 F2880.0
;M101
G1 X9.02 Y14.35 Z0.3 F288.0 E539.451
G1 X9.02 Y14.94 Z0.3 F288.0 E540.423
G1 X-9.02 Y-3.09 Z0.3 F288.0 E582.292
G1 X-9.02 Y-2.5 Z0.3 F288.0 E583.266
G1 X9.02 Y15.53 Z0.3 F288.0 E625.134
G1 X9.02 Y16.12 Z0.3 F288.0 E626.106
G1 X-9.02 Y-1.91 Z0.3 F288.0 E667.974
G1 X-9.02 Y-1.32 Z0.3 F288.0 E668.946
G1 X9.02 Y16.72 Z0.3 F288.0 E710.816
G1 X9.02 Y17.31 Z0.3 F288.0 E711.788
G1 X-9.02 Y-0.72 Z0.3 F288.0 E753.656
G1 X-9.02 Y-0.13 Z0.3 F288.0 E754.628
G1 X9.02 Y17.9 Z0.3 F288.0 E796.497
G1 X9.02 Y18.49 Z0.3 F288.0 E797.471
G1 X1.4 Y10.88 Z0.3 F288.0 E815.159
;M103
G1 X1.87 Y11.94 Z0.3 F2880.0
;M101
G1 X8.95 Y19.02 Z0.3 F288.0 E831.593
G1 X8.35 Y19.02 Z0.3 F288.0 E832.565
G1 X1.98 Y12.65 Z0.3 F288.0 E847.354
G1 X2.03 Y13.29 Z0.3 F288.0 E848.411
G1 X7.76 Y19.02 Z0.3 F288.0 E861.709
G1 X7.17 Y19.02 Z0.3 F288.0 E862.681
G1 X1.96 Y13.81 Z0.3 F288.0 E874.764
G1 X1.89 Y14.33 Z0.3 F288.0 E875.619
G1 X6.58 Y19.02 Z0.3 F288.0 E886.506
G1 X5.98 Y19.02 Z0.3 F288.0 E887.478
G1 X1.71 Y14.75 Z0.3 F288.0 E897.392
G1 X1.54 Y15.16 Z0.3 F288.0 E898.136
G1 X5.39 Y19.02 Z0.3 F288.0 E907.08
G1 X4.8 Y19.02 Z0.3 F288.0 E908.054
G1 X1.32 Y15.54 Z0.3 F288.0 E916.13
G1 X1.06 Y15.87 Z0.3 F288.0 E916.824
G1 X4.21 Y19.02 Z0.3 F288.0 E924.123
G1 X3.61 Y19.02 Z0.3 F288.0 E925.095
G1 X0.81 Y16.21 Z0.3 F288.0 E931.617
G1 X0.48 Y16.48 Z0.3 F288.0 E932.307
G1 X3.02 Y19.02 Z0.3 F288.0 E938.201
G1 X2.43 Y19.02 Z0.3 F288.0 E939.173
G1 X0.15 Y16.73 Z0.3 F288.0 E944.472
G1 X-0.2 Y16.98 Z0.3 F288.0 E945.169
G1 X1.84 Y19.02 Z0.3 F288.0 E949.893
G1 X1.24 Y19.02 Z0.3 F288.0 E950.865
G1 X-0.62 Y17.16 Z0.3 F288.0 E955.186
G1 X-1.04 Y17.33 Z0.3 F288.0 E955.93
G1 X0.65 Y19.02 Z0.3 F288.0 E959.85
G1 X0.06 Y19.02 Z0.3 F288.0 E960.823
G1 X-1.52 Y17.44 Z0.3 F288.0 E964.484
G1 X-2.04 Y17.51 Z0.3 F288.0 E965.352
G1 X-0.53 Y19.02 Z0.3 F288.0 E968.853
G1 X-1.13 Y19.02 Z0.3 F288.0 E969.827
G1 X-2.63 Y17.51 Z0.3 F288.0 E973.325
G1 X-3.31 Y17.42 Z0.3 F288.0 E974.454
G1 X-1.72 Y19.02 Z0.3 F288.0 E978.16
G1 X-2.31 Y19.02 Z0.3 F288.0 E979.132
G1 X-4.25 Y17.08 Z0.3 F288.0 E983.627
;M103
G1 X-4.09 Y19.02 Z0.3 F2880.0
;M101
G1 X-9.02 Y14.09 Z0.3 F288.0 E995.072
G1 X-9.02 Y13.5 Z0.3 F288.0 E996.044
G1 X-3.5 Y19.02 Z0.3 F288.0 E1008.864
G1 X-2.9 Y19.02 Z0.3 F288.0 E1009.836
G1 X-9.02 Y12.9 Z0.3 F288.0 E1024.03
G1 X-9.02 Y12.31 Z0.3 F288.0 E1025.004
G1 X-6.27 Y15.06 Z0.3 F288.0 E1031.39
;M103
G1 X-9.02 Y14.68 Z0.3 F2880.0
;M101
G1 X-4.68 Y19.02 Z0.3 F288.0 E1041.458
G1 X-5.27 Y19.02 Z0.3 F288.0 E1042.43
G1 X-9.02 Y15.27 Z0.3 F288.0 E1051.124
G1 X-9.02 Y15.87 Z0.3 F288.0 E1052.097
G1 X-5.87 Y19.02 Z0.3 F288.0 E1059.414
G1 X-6.46 Y19.02 Z0.3 F288.0 E1060.386
G1 X-9.02 Y16.46 Z0.3 F288.0 E1066.328
G1 X-9.02 Y17.05 Z0.3 F288.0 E1067.3
G1 X-7.05 Y19.02 Z0.3 F288.0 E1071.867
G1 X-7.64 Y19.02 Z0.3 F288.0 E1072.84
G1 X-9.02 Y17.64 Z0.3 F288.0 E1076.031
G1 X-9.02 Y18.23 Z0.3 F288.0 E1077.003
G1 X-8.23 Y19.02 Z0.3 F288.0 E1078.819
G1 X-8.83 Y19.02 Z0.3 F288.0 E1079.792
G1 X-9.02 Y18.83 Z0.3 F288.0 E1080.231
;M103
G1 X2.06 Y-5.29 Z0.3 F3600.0
G1 X2.21 Y-14.5 Z0.3 F3600.0
G1 X6.63 Y-14.64 Z0.3 F3600.0
G1 X8.83 Y-19.02 Z0.3 F2880.0
;M101
G1 X9.02 Y-18.83 Z0.3 F288.0 E1080.67
G1 X9.02 Y-18.23 Z0.3 F288.0 E1081.644
G1 X8.23 Y-19.02 Z0.3 F288.0 E1083.459
G1 X7.64 Y-19.02 Z0.3 F288.0 E1084.431
G1 X9.02 Y-17.64 Z0.3 F288.0 E1087.622
G1 X9.02 Y-17.05 Z0.3 F288.0 E1088.595
G1 X7.05 Y-19.02 Z0.3 F288.0 E1093.163
G1 X6.46 Y-19.02 Z0.3 F288.0 E1094.135
G1 X9.02 Y-16.46 Z0.3 F288.0 E1100.077
G1 X9.02 Y-15.87 Z0.3 F288.0 E1101.049
G1 X5.87 Y-19.02 Z0.3 F288.0 E1108.365
G1 X5.27 Y-19.02 Z0.3 F288.0 E1109.339
G1 X9.02 Y-15.27 Z0.3 F288.0 E1118.032
G1 X9.02 Y-14.68 Z0.3 F288.0 E1119.004
G1 X4.68 Y-19.02 Z0.3 F288.0 E1129.072
G1 X4.09 Y-19.02 Z0.3 F288.0 E1130.046
G1 X9.02 Y-14.09 Z0.3 F288.0 E1141.491
G1 X9.02 Y-13.5 Z0.3 F288.0 E1142.463
G1 X7.87 Y-14.64 Z0.3 F288.0 E1145.125
G1 X7.87 Y-14.05 Z0.3 F288.0 E1146.097
G1 X9.02 Y-12.9 Z0.3 F288.0 E1148.759
G1 X9.02 Y-12.31 Z0.3 F288.0 E1149.733
G1 X7.87 Y-13.46 Z0.3 F288.0 E1152.395
G1 X7.87 Y-12.86 Z0.3 F288.0 E1153.367
G1 X9.02 Y-11.72 Z0.3 F288.0 E1156.029
G1 X9.02 Y-11.13 Z0.3 F288.0 E1157.001
G1 X7.87 Y-12.27 Z0.3 F288.0 E1159.663
G1 X7.87 Y-11.68 Z0.3 F288.0 E1160.637
G1 X9.02 Y-10.53 Z0.3 F288.0 E1163.299
G1 X9.02 Y-9.94 Z0.3 F288.0 E1164.271
G1 X7.87 Y-11.09 Z0.3 F288.0 E1166.933
G1 X7.87 Y-10.49 Z0.3 F288.0 E1167.906
G1 X9.02 Y-9.35 Z0.3 F288.0 E1170.569
G1 X9.02 Y-8.76 Z0.3 F288.0 E1171.541
G1 X7.87 Y-9.9 Z0.3 F288.0 E1174.203
G1 X7.87 Y-9.31 Z0.3 F288.0 E1175.175
G1 X9.02 Y-8.16 Z0.3 F288.0 E1177.837
G1 X9.02 Y-7.57 Z0.3 F288.0 E1178.81
G1 X7.87 Y-8.72 Z0.3 F288.0 E1181.473
G1 X7.87 Y-8.13 Z0.3 F288.0 E1182.445
G1 X9.02 Y-6.98 Z0.3 F288.0 E1185.107
G1 X9.02 Y-6.39 Z0.3 F288.0 E1186.08
G1 X7.87 Y-7.53 Z0.3 F288.0 E1188.744
G1 X7.87 Y-6.94 Z0.3 F288.0 E1189.717
G1 X9.02 Y-5.79 Z0.3 F288.0 E1192.379
G1 X9.02 Y-5.2 Z0.3 F288.0 E1193.351
G1 X7.87 Y-6.35 Z0.3 F288.0 E1196.014
G1 X7.87 Y-5.76 Z0.3 F288.0 E1196.987
G1 X9.02 Y-4.61 Z0.3 F288.0 E1199.649
G1 X9.02 Y-4.02 Z0.3 F288.0 E1200.621
G1 X7.87 Y-5.16 Z0.3 F288.0 E1203.283
G1 X7.87 Y-4.57 Z0.3 F288.0 E1204.255
G1 X9.02 Y-3.43 Z0.3 F288.0 E1206.918
G1 X9.02 Y-2.83 Z0.3 F288.0 E1207.891
G1 X7.87 Y-3.98 Z0.3 F288.0 E1210.553
G1 X7.87 Y-3.39 Z0.3 F288.0 E1211.525
G1 X9.02 Y-2.24 Z0.3 F288.0 E1214.187
G1 X9.02 Y-1.65 Z0.3 F288.0 E1215.161
G1 X7.87 Y-2.79 Z0.3 F288.0 E1217.823
G1 X7.87 Y-2.2 Z0.3 F288.0 E1218.795
G1 X9.02 Y-1.06 Z0.3 F288.0 E1221.457
G1 X9.02 Y-0.46 Z0.3 F288.0 E1222.429
G1 X7.87 Y-1.61 Z0.3 F288.0 E1225.091
G1 X7.87 Y-1.02 Z0.3 F288.0 E1226.065
G1 X9.02 Y0.13 Z0.3 F288.0 E1228.727
G1 X9.02 Y0.72 Z0.3 F288.0 E1229.699
G1 X7.87 Y-0.42 Z0.3 F288.0 E1232.361
G1 X7.87 Y0.17 Z0.3 F288.0 E1233.333
G1 X9.02 Y1.32 Z0.3 F288.0 E1235.997
G1 X9.02 Y1.91 Z0.3 F288.0 E1236.969
G1 X7.87 Y0.76 Z0.3 F288.0 E1239.631
G1 X7.87 Y1.35 Z0.3 F288.0 E1240.603
G1 X9.02 Y2.5 Z0.3 F288.0 E1243.265
G1 X9.02 Y3.09 Z0.3 F288.0 E1244.238
G1 X7.87 Y1.95 Z0.3 F288.0 E1246.901
G1 X7.87 Y2.54 Z0.3 F288.0 E1247.873
G1 X9.02 Y3.68 Z0.3 F288.0 E1250.535
G1 X9.02 Y4.28 Z0.3 F288.0 E1251.507
G1 X7.87 Y3.13 Z0.3 F288.0 E1254.169
G1 X7.87 Y3.72 Z0.3 F288.0 E1255.142
G1 X9.02 Y4.87 Z0.3 F288.0 E1257.805
G1 X9.02 Y5.46 Z0.3 F288.0 E1258.777
G1 X7.87 Y4.32 Z0.3 F288.0 E1261.439
G1 X7.87 Y4.91 Z0.3 F288.0 E1262.412
G1 X9.02 Y6.05 Z0.3 F288.0 E1265.074
G1 X9.02 Y6.65 Z0.3 F288.0 E1266.046
G1 X7.87 Y5.5 Z0.3 F288.0 E1268.709
G1 X7.5 Y5.73 Z0.3 F288.0 E1269.413
G1 X9.02 Y7.24 Z0.3 F288.0 E1272.924
G1 X9.02 Y7.83 Z0.3 F288.0 E1273.898
G1 X6.91 Y5.73 Z0.3 F288.0 E1278.786
G1 X6.32 Y5.73 Z0.3 F288.0 E1279.758
G1 X9.02 Y8.42 Z0.3 F288.0 E1286.02
G1 X9.02 Y9.02 Z0.3 F288.0 E1286.994
G1 X5.73 Y5.73 Z0.3 F288.0 E1294.633
G1 X5.13 Y5.73 Z0.3 F288.0 E1295.605
G1 X9.02 Y9.61 Z0.3 F288.0 E1304.619
G1 X9.02 Y10.2 Z0.3 F288.0 E1305.591
G1 X4.54 Y5.73 Z0.3 F288.0 E1315.979
G1 X3.95 Y5.73 Z0.3 F288.0 E1316.953
G1 X9.02 Y10.79 Z0.3 F288.0 E1328.718
G1 X9.02 Y11.39 Z0.3 F288.0 E1329.69
G1 X3.36 Y5.73 Z0.3 F288.0 E1342.83
G1 X2.77 Y5.73 Z0.3 F288.0 E1343.802
G1 X9.02 Y11.98 Z0.3 F288.0 E1358.317
G1 X9.02 Y12.57 Z0.3 F288.0 E1359.29
G1 X2.17 Y5.73 Z0.3 F288.0 E1375.182
G1 X1.58 Y5.73 Z0.3 F288.0 E1376.154
G1 X9.02 Y13.16 Z0.3 F288.0 E1393.42
G1 X9.02 Y13.76 Z0.3 F288.0 E1394.394
G1 X-9.02 Y-4.28 Z0.3 F288.0 E1436.262
G1 X-9.02 Y-4.87 Z0.3 F288.0 E1437.236
G1 X1.37 Y5.52 Z0.3 F288.0 E1461.348
G1 X1.37 Y4.92 Z0.3 F288.0 E1462.32
G1 X-9.02 Y-5.46 Z0.3 F288.0 E1486.432
G1 X-9.02 Y-6.05 Z0.3 F288.0 E1487.406
G1 X1.37 Y4.33 Z0.3 F288.0 E1511.518
G1 X1.37 Y3.74 Z0.3 F288.0 E1512.49
G1 X-9.02 Y-6.65 Z0.3 F288.0 E1536.603
G1 X-9.02 Y-7.24 Z0.3 F288.0 E1537.575
G1 X1.37 Y3.15 Z0.3 F288.0 E1561.687
G1 X1.37 Y2.55 Z0.3 F288.0 E1562.661
G1 X-9.02 Y-7.83 Z0.3 F288.0 E1586.773
G1 X-9.02 Y-8.42 Z0.3 F288.0 E1587.745
G1 X1.37 Y1.96 Z0.3 F288.0 E1611.858
G1 X1.37 Y1.37 Z0.3 F288.0 E1612.83
G1 X-9.02 Y-9.02 Z0.3 F288.0 E1636.943
G1 X-9.02 Y-9.61 Z0.3 F288.0 E1637.915
G1 X1.37 Y0.78 Z0.3 F288.0 E1662.028
G1 X1.37 Y0.18 Z0.3 F288.0 E1663.0
G1 X-9.02 Y-10.2 Z0.3 F288.0 E1687.112
G1 X-9.02 Y-10.79 Z0.3 F288.0 E1688.086
G1 X1.37 Y-0.41 Z0.3 F288.0 E1712.198
G1 X1.37 Y-1.0 Z0.3 F288.0 E1713.17
G1 X-9.02 Y-11.39 Z0.3 F288.0 E1737.283
G1 X-9.02 Y-11.98 Z0.3 F288.0 E1738.255
G1 X1.37 Y-1.59 Z0.3 F288.0 E1762.367
G1 X1.37 Y-2.19 Z0.3 F288.0 E1763.341
G1 X-9.02 Y-12.57 Z0.3 F288.0 E1787.453
G1 X-9.02 Y-13.16 Z0.3 F288.0 E1788.425
G1 X1.37 Y-2.78 Z0.3 F288.0 E1812.537
G1 X1.37 Y-3.37 Z0.3 F288.0 E1813.511
G1 X-9.02 Y-13.76 Z0.3 F288.0 E1837.623
G1 X-9.02 Y-14.35 Z0.3 F288.0 E1838.595
G1 X1.37 Y-3.96 Z0.3 F288.0 E1862.708
G1 X1.37 Y-4.56 Z0.3 F288.0 E1863.68
G1 X-9.02 Y-14.94 Z0.3 F288.0 E1887.792
G1 X-9.02 Y-15.53 Z0.3 F288.0 E1888.766
G1 X1.37 Y-5.15 Z0.3 F288.0 E1912.878
G1 X1.37 Y-5.74 Z0.3 F288.0 E1913.85
G1 X-9.02 Y-16.12 Z0.3 F288.0 E1937.963
G1 X-9.02 Y-16.72 Z0.3 F288.0 E1938.936
G1 X1.37 Y-6.33 Z0.3 F288.0 E1963.05
G1 X1.37 Y-6.93 Z0.3 F288.0 E1964.024
G1 X-9.02 Y-17.31 Z0.3 F288.0 E1988.136
G1 X-9.02 Y-17.9 Z0.3 F288.0 E1989.108
G1 X1.37 Y-7.52 Z0.3 F288.0 E2013.22
G1 X1.37 Y-8.11 Z0.3 F288.0 E2014.194
G1 X-9.02 Y-18.49 Z0.3 F288.0 E2038.306
G1 X-8.95 Y-19.02 Z0.3 F288.0 E2039.171
G1 X1.37 Y-8.7 Z0.3 F288.0 E2063.12
G1 X1.37 Y-9.29 Z0.3 F288.0 E2064.092
G1 X-8.35 Y-19.02 Z0.3 F288.0 E2086.666
G1 X-7.76 Y-19.02 Z0.3 F288.0 E2087.64
G1 X1.37 Y-9.89 Z0.3 F288.0 E2108.837
G1 X1.37 Y-10.48 Z0.3 F288.0 E2109.809
G1 X-7.17 Y-19.02 Z0.3 F288.0 E2129.632
G1 X-6.58 Y-19.02 Z0.3 F288.0 E2130.605
G1 X1.37 Y-11.07 Z0.3 F288.0 E2149.051
G1 X1.37 Y-11.66 Z0.3 F288.0 E2150.023
G1 X-5.98 Y-19.02 Z0.3 F288.0 E2167.094
G1 X-5.39 Y-19.02 Z0.3 F288.0 E2168.066
G1 X1.37 Y-12.26 Z0.3 F288.0 E2183.762
G1 X1.37 Y-12.85 Z0.3 F288.0 E2184.736
G1 X-4.8 Y-19.02 Z0.3 F288.0 E2199.056
G1 X-4.21 Y-19.02 Z0.3 F288.0 E2200.028
G1 X1.37 Y-13.44 Z0.3 F288.0 E2212.972
G1 X1.37 Y-14.03 Z0.3 F288.0 E2213.944
G1 X-3.61 Y-19.02 Z0.3 F288.0 E2225.515
G1 X-3.02 Y-19.02 Z0.3 F288.0 E2226.488
G1 X1.37 Y-14.63 Z0.3 F288.0 E2236.682
G1 X1.37 Y-15.22 Z0.3 F288.0 E2237.654
G1 X-2.43 Y-19.02 Z0.3 F288.0 E2246.473
G1 X-1.84 Y-19.02 Z0.3 F288.0 E2247.446
G1 X1.85 Y-15.33 Z0.3 F288.0 E2255.995
G1 X2.44 Y-15.33 Z0.3 F288.0 E2256.967
G1 X-1.24 Y-19.02 Z0.3 F288.0 E2265.515
G1 X-0.65 Y-19.02 Z0.3 F288.0 E2266.487
G1 X3.03 Y-15.33 Z0.3 F288.0 E2275.035
G1 X3.62 Y-15.33 Z0.3 F288.0 E2276.009
G1 X-0.06 Y-19.02 Z0.3 F288.0 E2284.557
G1 X0.53 Y-19.02 Z0.3 F288.0 E2285.529
G1 X4.21 Y-15.33 Z0.3 F288.0 E2294.077
G1 X4.81 Y-15.33 Z0.3 F288.0 E2295.051
G1 X1.13 Y-19.02 Z0.3 F288.0 E2303.599
G1 X1.72 Y-19.02 Z0.3 F288.0 E2304.571
G1 X5.4 Y-15.33 Z0.3 F288.0 E2313.12
G1 X5.99 Y-15.33 Z0.3 F288.0 E2314.092
G1 X2.31 Y-19.02 Z0.3 F288.0 E2322.64
G1 X2.9 Y-19.02 Z0.3 F288.0 E2323.614
G1 X6.58 Y-15.33 Z0.3 F288.0 E2332.162
G1 X7.18 Y-15.33 Z0.3 F288.0 E2333.134
G1 X3.5 Y-19.02 Z0.3 F288.0 E2341.682
;M103
G1 X3.4 Y-14.98 Z0.3 F3600.0
;M101
G1 X1.73 Y-14.98 Z0.3 F288.0 E2344.426
G1 X1.73 Y5.37 Z0.3 F288.0 E2377.835
G1 X7.51 Y5.37 Z0.3 F288.0 E2387.338
G1 X7.51 Y-14.98 Z0.3 F288.0 E2420.747
G1 X3.5 Y-14.98 Z0.3 F288.0 E2427.344
G1 X3.4 Y-14.98 Z0.3 F288.0 E2427.506
;M103
G1 X3.27 Y-14.64 Z0.3 F3600.0
G1 X2.21 Y-14.5 Z0.3 F3600.0
G1 X2.06 Y-9.59 Z0.3 F3600.0
G1 X-1.3 Y9.26 Z0.3 F3600.0
;M101
G1 X-2.34 Y9.12 Z0.3 F288.0 E2429.235
G1 X-3.39 Y9.26 Z0.3 F288.0 E2430.964
G1 X-4.36 Y9.66 Z0.3 F288.0 E2432.693
G1 X-5.19 Y10.3 Z0.3 F288.0 E2434.421
G1 X-5.83 Y11.14 Z0.3 F288.0 E2436.15
G1 X-6.24 Y12.11 Z0.3 F288.0 E2437.878
G1 X-6.37 Y13.16 Z0.3 F288.0 E2439.606
G1 X-6.24 Y14.2 Z0.3 F288.0 E2441.335
G1 X-5.83 Y15.17 Z0.3 F288.0 E2443.063
G1 X-5.19 Y16.01 Z0.3 F288.0 E2444.792
G1 X-4.36 Y16.65 Z0.3 F288.0 E2446.52
G1 X-3.39 Y17.05 Z0.3 F288.0 E2448.249
G1 X-2.34 Y17.19 Z0.3 F288.0 E2449.978
G1 X-1.3 Y17.05 Z0.3 F288.0 E2451.707
G1 X-0.33 Y16.65 Z0.3 F288.0 E2453.434
G1 X0.51 Y16.01 Z0.3 F288.0 E2455.163
G1 X1.15 Y15.17 Z0.3 F288.0 E2456.891
G1 X1.55 Y14.2 Z0.3 F288.0 E2458.62
G1 X1.69 Y13.16 Z0.3 F288.0 E2460.349
G1 X1.55 Y12.11 Z0.3 F288.0 E2462.077
G1 X1.15 Y11.14 Z0.3 F288.0 E2463.806
G1 X0.51 Y10.3 Z0.3 F288.0 E2465.534
G1 X-0.33 Y9.66 Z0.3 F288.0 E2467.262
G1 X-1.3 Y9.26 Z0.3 F288.0 E2468.99
;M103
G1 X-9.37 Y9.26 Z0.3 F3600.0
;M101
G1 X-9.37 Y-19.37 Z0.3 F288.0 E2516.0
G1 X9.37 Y-19.37 Z0.3 F288.0 E2546.775
G1 X9.37 Y19.37 Z0.3 F288.0 E2610.388
G1 X-9.37 Y19.37 Z0.3 F288.0 E2641.164
G1 X-9.37 Y9.26 Z0.3 F288.0 E2657.766
;M103
;M108 S5.629
;M108 S5.91
G1 X-9.79 Y9.26 Z0.3 F3600.0
;M101
G1 X-9.79 Y-19.79 Z0.3 F243.0 E2700.159
G1 X9.79 Y-19.79 Z0.3 F243.0 E2728.734
G1 X9.79 Y19.79 Z0.3 F243.0 E2786.495
G1 X-9.79 Y19.79 Z0.3 F243.0 E2815.07
G1 X-9.79 Y9.26 Z0.3 F243.0 E2830.437
;M103
G1 X-5.47 Y11.35 Z0.3 F3600.0
;M101
G1 X-5.83 Y12.22 Z0.3 F243.0 E2831.813
G1 X-5.95 Y13.16 Z0.3 F243.0 E2833.187
G1 X-5.83 Y14.09 Z0.3 F243.0 E2834.564
G1 X-5.47 Y14.96 Z0.3 F243.0 E2835.939
G1 X-4.89 Y15.71 Z0.3 F243.0 E2837.314
G1 X-4.15 Y16.28 Z0.3 F243.0 E2838.688
G1 X-3.28 Y16.64 Z0.3 F243.0 E2840.064
G1 X-2.34 Y16.77 Z0.3 F243.0 E2841.44
G1 X-1.41 Y16.64 Z0.3 F243.0 E2842.816
G1 X-0.54 Y16.28 Z0.3 F243.0 E2844.191
G1 X0.21 Y15.71 Z0.3 F243.0 E2845.565
G1 X0.79 Y14.96 Z0.3 F243.0 E2846.94
G1 X1.15 Y14.09 Z0.3 F243.0 E2848.316
G1 X1.27 Y13.16 Z0.3 F243.0 E2849.692
G1 X1.15 Y12.22 Z0.3 F243.0 E2851.067
G1 X0.79 Y11.35 Z0.3 F243.0 E2852.443
G1 X0.21 Y10.6 Z0.3 F243.0 E2853.817
G1 X-0.54 Y10.03 Z0.3 F243.0 E2855.192
G1 X-1.41 Y9.67 Z0.3 F243.0 E2856.567
G1 X-2.34 Y9.55 Z0.3 F243.0 E2857.943
G1 X-3.28 Y9.67 Z0.3 F243.0 E2859.319
G1 X-4.15 Y10.03 Z0.3 F243.0 E2860.694
G1 X-4.89 Y10.6 Z0.3 F243.0 E2862.069
G1 X-5.47 Y11.35 Z0.3 F243.0 E2863.444
;M103
G1 X2.14 Y4.95 Z0.3 F3600.0
;M101
G1 X7.1 Y4.95 Z0.3 F243.0 E2870.669
G1 X7.1 Y-14.56 Z0.3 F243.0 E2899.142
G1 X2.14 Y-14.56 Z0.3 F243.0 E2906.367
G1 X2.14 Y4.95 Z0.3 F243.0 E2934.84
;M103
;M108 S7.506
G1 X-5.14 Y9.29 Z0.6 F3600.0
;M101
G1 X0.95 Y3.2 Z0.6 F360.0 E2945.61
;M103
G1 X2.13 Y11.49 Z0.6 F3600.0
;M101
G1 X7.48 Y6.15 Z0.6 F360.0 E2955.066
G1 X6.89 Y6.15 Z0.6 F360.0 E2955.806
G1 X1.96 Y11.07 Z0.6 F360.0 E2964.52
G1 X1.77 Y10.67 Z0.6 F360.0 E2965.076
G1 X6.3 Y6.15 Z0.6 F360.0 E2973.083
G1 X5.7 Y6.15 Z0.6 F360.0 E2973.825
G1 X1.51 Y10.34 Z0.6 F360.0 E2981.239
G1 X1.25 Y10.0 Z0.6 F360.0 E2981.768
G1 X5.11 Y6.15 Z0.6 F360.0 E2988.59
G1 X4.52 Y6.15 Z0.6 F360.0 E2989.331
G1 X0.98 Y9.69 Z0.6 F360.0 E2995.595
G1 X0.64 Y9.43 Z0.6 F360.0 E2996.124
G1 X3.93 Y6.15 Z0.6 F360.0 E3001.932
G1 X3.33 Y6.15 Z0.6 F360.0 E3002.673
G1 X0.31 Y9.17 Z0.6 F360.0 E3008.027
G1 X-0.05 Y8.94 Z0.6 F360.0 E3008.562
G1 X2.74 Y6.15 Z0.6 F360.0 E3013.502
G1 X2.15 Y6.15 Z0.6 F360.0 E3014.243
G1 X-0.47 Y8.76 Z0.6 F360.0 E3018.876
G1 X-0.89 Y8.59 Z0.6 F360.0 E3019.443
G1 X1.56 Y6.15 Z0.6 F360.0 E3023.769
G1 X0.96 Y6.15 Z0.6 F360.0 E3024.511
G1 X-1.36 Y8.47 Z0.6 F360.0 E3028.623
G1 X-1.89 Y8.4 Z0.6 F360.0 E3029.284
G1 X0.95 Y5.57 Z0.6 F360.0 E3034.299
G1 X0.95 Y4.97 Z0.6 F360.0 E3035.041
G1 X-2.43 Y8.35 Z0.6 F360.0 E3041.019
G1 X-3.11 Y8.44 Z0.6 F360.0 E3041.879
G1 X0.95 Y4.38 Z0.6 F360.0 E3049.063
G1 X0.95 Y3.79 Z0.6 F360.0 E3049.805
G1 X-3.89 Y8.63 Z0.6 F360.0 E3058.371
;M103
G1 X0.95 Y-15.17 Z0.6 F3600.0
;M101
G1 X-8.6 Y-5.62 Z0.6 F360.0 E3075.261
G1 X-8.6 Y-5.03 Z0.6 F360.0 E3076.003
G1 X0.95 Y-14.57 Z0.6 F360.0 E3092.892
G1 X0.95 Y-13.98 Z0.6 F360.0 E3093.633
G1 X-8.6 Y-4.44 Z0.6 F360.0 E3110.522
G1 X-8.6 Y-3.84 Z0.6 F360.0 E3111.264
G1 X0.95 Y-13.39 Z0.6 F360.0 E3128.154
G1 X0.95 Y-12.8 Z0.6 F360.0 E3128.896
G1 X-8.6 Y-3.25 Z0.6 F360.0 E3145.786
G1 X-8.6 Y-2.66 Z0.6 F360.0 E3146.526
G1 X0.95 Y-12.21 Z0.6 F360.0 E3163.416
G1 X0.95 Y-11.61 Z0.6 F360.0 E3164.156
G1 X-8.6 Y-2.07 Z0.6 F360.0 E3181.047
G1 X-8.6 Y-1.47 Z0.6 F360.0 E3181.787
G1 X0.95 Y-11.02 Z0.6 F360.0 E3198.677
G1 X0.95 Y-10.43 Z0.6 F360.0 E3199.417
G1 X-8.6 Y-0.88 Z0.6 F360.0 E3216.307
G1 X-8.6 Y-0.29 Z0.6 F360.0 E3217.049
G1 X0.95 Y-9.84 Z0.6 F360.0 E3233.938
G1 X0.95 Y-9.24 Z0.6 F360.0 E3234.679
G1 X-8.6 Y0.3 Z0.6 F360.0 E3251.568
G1 X-8.6 Y0.9 Z0.6 F360.0 E3252.31
G1 X0.95 Y-8.65 Z0.6 F360.0 E3269.201
G1 X0.95 Y-8.06 Z0.6 F360.0 E3269.942
G1 X-8.6 Y1.49 Z0.6 F360.0 E3286.832
G1 X-8.6 Y2.08 Z0.6 F360.0 E3287.573
G1 X0.95 Y-7.47 Z0.6 F360.0 E3304.462
G1 X0.95 Y-6.87 Z0.6 F360.0 E3305.204
G1 X-8.6 Y2.67 Z0.6 F360.0 E3322.093
G1 X-8.6 Y3.27 Z0.6 F360.0 E3322.834
G1 X0.95 Y-6.28 Z0.6 F360.0 E3339.723
G1 X0.95 Y-5.69 Z0.6 F360.0 E3340.464
G1 X-8.6 Y3.86 Z0.6 F360.0 E3357.354
G1 X-8.6 Y4.45 Z0.6 F360.0 E3358.095
G1 X0.95 Y-5.1 Z0.6 F360.0 E3374.984
G1 X0.95 Y-4.5 Z0.6 F360.0 E3375.725
G1 X-8.6 Y5.04 Z0.6 F360.0 E3392.615
G1 X-8.6 Y5.64 Z0.6 F360.0 E3393.356
G1 X0.95 Y-3.91 Z0.6 F360.0 E3410.247
G1 X0.95 Y-3.32 Z0.6 F360.0 E3410.989
G1 X-8.6 Y6.23 Z0.6 F360.0 E3427.878
G1 X-8.6 Y6.82 Z0.6 F360.0 E3428.619
G1 X0.95 Y-2.73 Z0.6 F360.0 E3445.508
G1 X0.95 Y-2.13 Z0.6 F360.0 E3446.25
G1 X-8.6 Y7.41 Z0.6 F360.0 E3463.139
G1 X-8.6 Y8.0 Z0.6 F360.0 E3463.88
G1 X0.95 Y-1.54 Z0.6 F360.0 E3480.77
G1 X0.95 Y-0.95 Z0.6 F360.0 E3481.51
G1 X-8.6 Y8.6 Z0.6 F360.0 E3498.401
G1 X-8.6 Y9.19 Z0.6 F360.0 E3499.141
G1 X0.95 Y-0.36 Z0.6 F360.0 E3516.031
G1 X0.95 Y0.24 Z0.6 F360.0 E3516.771
G1 X-8.6 Y9.78 Z0.6 F360.0 E3533.661
G1 X-8.6 Y10.37 Z0.6 F360.0 E3534.403
G1 X0.95 Y0.83 Z0.6 F360.0 E3551.292
G1 X0.95 Y1.42 Z0.6 F360.0 E3552.033
G1 X-8.6 Y10.97 Z0.6 F360.0 E3568.922
G1 X-8.6 Y11.56 Z0.6 F360.0 E3569.664
G1 X0.95 Y2.01 Z0.6 F360.0 E3586.554
G1 X0.95 Y2.61 Z0.6 F360.0 E3587.296
G1 X-8.6 Y12.15 Z0.6 F360.0 E3604.186
G1 X-8.6 Y12.74 Z0.6 F360.0 E3604.926
G1 X-6.21 Y10.36 Z0.6 F360.0 E3609.145
;M103
G1 X-6.87 Y11.6 Z0.6 F3600.0
;M101
G1 X-8.6 Y13.34 Z0.6 F360.0 E3612.209
G1 X-8.6 Y13.93 Z0.6 F360.0 E3612.95
G1 X-7.05 Y12.39 Z0.6 F360.0 E3615.68
G1 X-7.14 Y13.07 Z0.6 F360.0 E3616.541
G1 X-8.6 Y14.52 Z0.6 F360.0 E3619.111
G1 X-8.6 Y15.11 Z0.6 F360.0 E3619.853
G1 X-7.1 Y13.61 Z0.6 F360.0 E3622.509
G1 X-7.03 Y14.14 Z0.6 F360.0 E3623.169
G1 X-8.6 Y15.71 Z0.6 F360.0 E3625.948
G1 X-8.6 Y16.3 Z0.6 F360.0 E3626.69
G1 X-6.91 Y14.61 Z0.6 F360.0 E3629.681
G1 X-6.73 Y15.03 Z0.6 F360.0 E3630.248
G1 X-8.6 Y16.89 Z0.6 F360.0 E3633.546
G1 X-8.6 Y17.48 Z0.6 F360.0 E3634.287
G1 X-6.56 Y15.45 Z0.6 F360.0 E3637.891
G1 X-6.33 Y15.8 Z0.6 F360.0 E3638.427
G1 X-8.6 Y18.08 Z0.6 F360.0 E3642.444
G1 X-8.53 Y18.6 Z0.6 F360.0 E3643.103
G1 X-6.07 Y16.14 Z0.6 F360.0 E3647.451
G1 X-5.81 Y16.47 Z0.6 F360.0 E3647.98
G1 X-7.93 Y18.6 Z0.6 F360.0 E3651.736
G1 X-7.34 Y18.6 Z0.6 F360.0 E3652.478
G1 X-5.5 Y16.75 Z0.6 F360.0 E3655.743
G1 X-5.16 Y17.01 Z0.6 F360.0 E3656.272
G1 X-6.75 Y18.6 Z0.6 F360.0 E3659.081
G1 X-6.16 Y18.6 Z0.6 F360.0 E3659.822
G1 X-4.83 Y17.27 Z0.6 F360.0 E3662.177
G1 X-4.43 Y17.46 Z0.6 F360.0 E3662.732
G1 X-5.56 Y18.6 Z0.6 F360.0 E3664.746
G1 X-4.97 Y18.6 Z0.6 F360.0 E3665.486
G1 X-4.01 Y17.63 Z0.6 F360.0 E3667.194
G1 X-3.59 Y17.81 Z0.6 F360.0 E3667.76
G1 X-4.38 Y18.6 Z0.6 F360.0 E3669.159
G1 X-3.79 Y18.6 Z0.6 F360.0 E3669.899
G1 X-3.07 Y17.88 Z0.6 F360.0 E3671.177
G1 X-2.54 Y17.94 Z0.6 F360.0 E3671.838
G1 X-3.2 Y18.6 Z0.6 F360.0 E3672.995
G1 X-2.6 Y18.6 Z0.6 F360.0 E3673.736
G1 X-1.92 Y17.91 Z0.6 F360.0 E3674.944
G1 X-1.24 Y17.83 Z0.6 F360.0 E3675.804
G1 X-2.01 Y18.6 Z0.6 F360.0 E3677.17
G1 X-1.42 Y18.6 Z0.6 F360.0 E3677.912
G1 X-0.3 Y17.48 Z0.6 F360.0 E3679.897
;M103
G1 X8.6 Y18.06 Z0.6 F3600.0
;M101
G1 X8.06 Y18.6 Z0.6 F360.0 E3680.845
G1 X7.47 Y18.6 Z0.6 F360.0 E3681.587
G1 X8.6 Y17.47 Z0.6 F360.0 E3683.585
G1 X8.6 Y16.88 Z0.6 F360.0 E3684.325
G1 X6.88 Y18.6 Z0.6 F360.0 E3687.37
G1 X6.28 Y18.6 Z0.6 F360.0 E3688.11
G1 X8.6 Y16.28 Z0.6 F360.0 E3692.203
G1 X8.6 Y15.69 Z0.6 F360.0 E3692.944
G1 X5.69 Y18.6 Z0.6 F360.0 E3698.086
G1 X5.1 Y18.6 Z0.6 F360.0 E3698.826
G1 X8.6 Y15.1 Z0.6 F360.0 E3705.015
G1 X8.6 Y14.51 Z0.6 F360.0 E3705.757
G1 X4.51 Y18.6 Z0.6 F360.0 E3712.994
G1 X3.91 Y18.6 Z0.6 F360.0 E3713.735
G1 X8.6 Y13.91 Z0.6 F360.0 E3722.02
G1 X8.6 Y13.32 Z0.6 F360.0 E3722.761
G1 X3.32 Y18.6 Z0.6 F360.0 E3732.093
G1 X2.73 Y18.6 Z0.6 F360.0 E3732.835
G1 X8.6 Y12.73 Z0.6 F360.0 E3743.217
G1 X8.6 Y12.14 Z0.6 F360.0 E3743.957
G1 X2.14 Y18.6 Z0.6 F360.0 E3755.386
G1 X1.54 Y18.6 Z0.6 F360.0 E3756.128
G1 X8.6 Y11.54 Z0.6 F360.0 E3768.606
G1 X8.6 Y10.95 Z0.6 F360.0 E3769.346
G1 X0.95 Y18.6 Z0.6 F360.0 E3782.872
G1 X0.36 Y18.6 Z0.6 F360.0 E3783.612
G1 X8.6 Y10.36 Z0.6 F360.0 E3798.185
G1 X8.6 Y9.77 Z0.6 F360.0 E3798.927
G1 X-0.23 Y18.6 Z0.6 F360.0 E3814.549
G1 X-0.83 Y18.6 Z0.6 F360.0 E3815.29
G1 X8.6 Y9.18 Z0.6 F360.0 E3831.959
G1 X8.6 Y8.58 Z0.6 F360.0 E3832.699
G1 X1.98 Y15.2 Z0.6 F360.0 E3844.41
;M103
G1 X2.33 Y14.26 Z0.6 F3600.0
;M101
G1 X8.6 Y7.99 Z0.6 F360.0 E3855.501
G1 X8.6 Y7.4 Z0.6 F360.0 E3856.242
G1 X2.42 Y13.58 Z0.6 F360.0 E3867.173
G1 X2.45 Y12.96 Z0.6 F360.0 E3867.951
G1 X8.6 Y6.81 Z0.6 F360.0 E3878.831
G1 X8.6 Y6.21 Z0.6 F360.0 E3879.572
G1 X2.38 Y12.43 Z0.6 F360.0 E3890.574
G1 X2.31 Y11.91 Z0.6 F360.0 E3891.235
G1 X8.6 Y5.62 Z0.6 F360.0 E3902.359
G1 X8.29 Y5.34 Z0.6 F360.0 E3902.885
G1 X8.6 Y5.03 Z0.6 F360.0 E3903.431
G1 X8.29 Y4.74 Z0.6 F360.0 E3903.956
G1 X8.6 Y4.44 Z0.6 F360.0 E3904.502
G1 X8.29 Y4.15 Z0.6 F360.0 E3905.027
G1 X8.6 Y3.84 Z0.6 F360.0 E3905.573
G1 X8.29 Y3.56 Z0.6 F360.0 E3906.098
G1 X8.6 Y3.25 Z0.6 F360.0 E3906.644
G1 X8.29 Y2.97 Z0.6 F360.0 E3907.169
G1 X8.6 Y2.66 Z0.6 F360.0 E3907.715
G1 X8.29 Y2.38 Z0.6 F360.0 E3908.24
G1 X8.6 Y2.07 Z0.6 F360.0 E3908.787
G1 X8.29 Y1.78 Z0.6 F360.0 E3909.312
G1 X8.6 Y1.47 Z0.6 F360.0 E3909.857
G1 X8.29 Y1.19 Z0.6 F360.0 E3910.383
G1 X8.6 Y0.88 Z0.6 F360.0 E3910.928
G1 X8.29 Y0.6 Z0.6 F360.0 E3911.454
G1 X8.6 Y0.29 Z0.6 F360.0 E3912.0
G1 X8.29 Y0.01 Z0.6 F360.0 E3912.525
G1 X8.6 Y-0.3 Z0.6 F360.0 E3913.071
G1 X8.29 Y-0.59 Z0.6 F360.0 E3913.596
G1 X8.6 Y-0.9 Z0.6 F360.0 E3914.143
G1 X8.29 Y-1.18 Z0.6 F360.0 E3914.668
G1 X8.6 Y-1.49 Z0.6 F360.0 E3915.213
G1 X8.29 Y-1.77 Z0.6 F360.0 E3915.738
G1 X8.6 Y-2.08 Z0.6 F360.0 E3916.284
G1 X8.29 Y-2.37 Z0.6 F360.0 E3916.81
G1 X8.6 Y-2.67 Z0.6 F360.0 E3917.356
G1 X8.29 Y-2.96 Z0.6 F360.0 E3917.881
G1 X8.6 Y-3.27 Z0.6 F360.0 E3918.427
G1 X8.29 Y-3.55 Z0.6 F360.0 E3918.952
G1 X8.6 Y-3.86 Z0.6 F360.0 E3919.498
G1 X8.29 Y-4.14 Z0.6 F360.0 E3920.023
G1 X8.6 Y-4.45 Z0.6 F360.0 E3920.569
G1 X8.29 Y-4.73 Z0.6 F360.0 E3921.094
G1 X8.6 Y-5.04 Z0.6 F360.0 E3921.64
G1 X8.29 Y-5.33 Z0.6 F360.0 E3922.165
G1 X8.6 Y-5.64 Z0.6 F360.0 E3922.712
G1 X8.29 Y-5.92 Z0.6 F360.0 E3923.237
G1 X8.6 Y-6.23 Z0.6 F360.0 E3923.783
G1 X8.29 Y-6.51 Z0.6 F360.0 E3924.308
G1 X8.6 Y-6.82 Z0.6 F360.0 E3924.853
G1 X8.29 Y-7.1 Z0.6 F360.0 E3925.379
G1 X8.6 Y-7.41 Z0.6 F360.0 E3925.925
G1 X8.29 Y-7.7 Z0.6 F360.0 E3926.45
G1 X8.6 Y-8.0 Z0.6 F360.0 E3926.996
G1 X8.29 Y-8.29 Z0.6 F360.0 E3927.521
G1 X8.6 Y-8.6 Z0.6 F360.0 E3928.068
G1 X8.29 Y-8.88 Z0.6 F360.0 E3928.593
G1 X8.6 Y-9.19 Z0.6 F360.0 E3929.138
G1 X8.29 Y-9.47 Z0.6 F360.0 E3929.663
G1 X8.6 Y-9.78 Z0.6 F360.0 E3930.209
G1 X8.29 Y-10.07 Z0.6 F360.0 E3930.735
G1 X8.6 Y-10.37 Z0.6 F360.0 E3931.281
G1 X8.29 Y-10.66 Z0.6 F360.0 E3931.806
G1 X8.6 Y-10.97 Z0.6 F360.0 E3932.352
G1 X8.29 Y-11.25 Z0.6 F360.0 E3932.877
G1 X8.6 Y-11.56 Z0.6 F360.0 E3933.423
G1 X8.29 Y-11.84 Z0.6 F360.0 E3933.948
G1 X8.6 Y-12.15 Z0.6 F360.0 E3934.494
G1 X8.29 Y-12.44 Z0.6 F360.0 E3935.019
G1 X8.6 Y-12.74 Z0.6 F360.0 E3935.565
G1 X8.29 Y-13.03 Z0.6 F360.0 E3936.09
G1 X8.6 Y-13.34 Z0.6 F360.0 E3936.637
G1 X8.29 Y-13.62 Z0.6 F360.0 E3937.162
G1 X8.6 Y-13.93 Z0.6 F360.0 E3937.708
G1 X8.29 Y-14.21 Z0.6 F360.0 E3938.233
G1 X8.6 Y-14.52 Z0.6 F360.0 E3938.778
G1 X8.29 Y-14.81 Z0.6 F360.0 E3939.304
G1 X8.6 Y-15.11 Z0.6 F360.0 E3939.85
G1 X8.29 Y-15.4 Z0.6 F360.0 E3940.375
G1 X8.6 Y-15.71 Z0.6 F360.0 E3940.921
G1 X8.05 Y-15.75 Z0.6 F360.0 E3941.605
G1 X8.6 Y-16.3 Z0.6 F360.0 E3942.569
G1 X8.6 Y-16.89 Z0.6 F360.0 E3943.31
G1 X7.46 Y-15.75 Z0.6 F360.0 E3945.322
G1 X6.87 Y-15.75 Z0.6 F360.0 E3946.062
G1 X8.6 Y-17.48 Z0.6 F360.0 E3949.121
G1 X8.6 Y-18.08 Z0.6 F360.0 E3949.863
G1 X6.28 Y-15.75 Z0.6 F360.0 E3953.971
G1 X5.68 Y-15.75 Z0.6 F360.0 E3954.712
G1 X8.53 Y-18.6 Z0.6 F360.0 E3959.742
G1 X7.93 Y-18.6 Z0.6 F360.0 E3960.483
G1 X5.09 Y-15.75 Z0.6 F360.0 E3965.514
G1 X4.5 Y-15.75 Z0.6 F360.0 E3966.255
G1 X7.34 Y-18.6 Z0.6 F360.0 E3971.286
G1 X6.75 Y-18.6 Z0.6 F360.0 E3972.026
G1 X3.91 Y-15.75 Z0.6 F360.0 E3977.057
G1 X3.31 Y-15.75 Z0.6 F360.0 E3977.799
G1 X6.16 Y-18.6 Z0.6 F360.0 E3982.83
G1 X5.56 Y-18.6 Z0.6 F360.0 E3983.572
G1 X2.72 Y-15.75 Z0.6 F360.0 E3988.603
G1 X2.13 Y-15.75 Z0.6 F360.0 E3989.343
G1 X4.97 Y-18.6 Z0.6 F360.0 E3994.374
G1 X4.38 Y-18.6 Z0.6 F360.0 E3995.116
G1 X1.54 Y-15.75 Z0.6 F360.0 E4000.147
;M103
G1 X-8.6 Y-6.21 Z0.6 F3600.0
;M101
G1 X3.79 Y-18.6 Z0.6 F360.0 E4022.056
G1 X3.2 Y-18.6 Z0.6 F360.0 E4022.797
G1 X-8.6 Y-6.81 Z0.6 F360.0 E4043.659
G1 X-8.6 Y-7.4 Z0.6 F360.0 E4044.401
G1 X2.6 Y-18.6 Z0.6 F360.0 E4064.214
G1 X2.01 Y-18.6 Z0.6 F360.0 E4064.954
G1 X-8.6 Y-7.99 Z0.6 F360.0 E4083.72
G1 X-8.6 Y-8.58 Z0.6 F360.0 E4084.462
G1 X1.42 Y-18.6 Z0.6 F360.0 E4102.179
G1 X0.83 Y-18.6 Z0.6 F360.0 E4102.919
G1 X-8.6 Y-9.18 Z0.6 F360.0 E4119.588
G1 X-8.6 Y-9.77 Z0.6 F360.0 E4120.329
G1 X0.23 Y-18.6 Z0.6 F360.0 E4135.951
G1 X-0.36 Y-18.6 Z0.6 F360.0 E4136.693
G1 X-8.6 Y-10.36 Z0.6 F360.0 E4151.265
G1 X-8.6 Y-10.95 Z0.6 F360.0 E4152.006
G1 X-0.95 Y-18.6 Z0.6 F360.0 E4165.531
G1 X-1.54 Y-18.6 Z0.6 F360.0 E4166.272
G1 X-8.6 Y-11.54 Z0.6 F360.0 E4178.75
G1 X-8.6 Y-12.14 Z0.6 F360.0 E4179.492
G1 X-2.14 Y-18.6 Z0.6 F360.0 E4190.921
G1 X-2.73 Y-18.6 Z0.6 F360.0 E4191.661
G1 X-8.6 Y-12.73 Z0.6 F360.0 E4202.043
G1 X-8.6 Y-13.32 Z0.6 F360.0 E4202.785
G1 X-3.32 Y-18.6 Z0.6 F360.0 E4212.117
G1 X-3.91 Y-18.6 Z0.6 F360.0 E4212.858
G1 X-8.6 Y-13.91 Z0.6 F360.0 E4221.143
G1 X-8.6 Y-14.51 Z0.6 F360.0 E4221.883
G1 X-4.51 Y-18.6 Z0.6 F360.0 E4229.121
G1 X-5.1 Y-18.6 Z0.6 F360.0 E4229.863
G1 X-8.6 Y-15.1 Z0.6 F360.0 E4236.052
G1 X-8.6 Y-15.69 Z0.6 F360.0 E4236.792
G1 X-5.69 Y-18.6 Z0.6 F360.0 E4241.933
G1 X-6.28 Y-18.6 Z0.6 F360.0 E4242.675
G1 X-8.6 Y-16.28 Z0.6 F360.0 E4246.767
G1 X-8.6 Y-16.88 Z0.6 F360.0 E4247.508
G1 X-6.88 Y-18.6 Z0.6 F360.0 E4250.553
G1 X-7.47 Y-18.6 Z0.6 F360.0 E4251.293
G1 X-8.6 Y-17.47 Z0.6 F360.0 E4253.291
G1 X-8.6 Y-18.06 Z0.6 F360.0 E4254.033
G1 X-8.06 Y-18.6 Z0.6 F360.0 E4254.981
;M103
G1 X1.95 Y-14.98 Z0.6 F3600.0
;M101
G1 X1.73 Y-14.98 Z0.6 F360.0 E4255.257
G1 X1.73 Y5.37 Z0.6 F360.0 E4280.713
G1 X7.51 Y5.37 Z0.6 F360.0 E4287.953
G1 X7.51 Y-14.98 Z0.6 F360.0 E4313.409
G1 X1.95 Y-14.98 Z0.6 F360.0 E4320.373
;M103
G1 X1.95 Y-15.4 Z0.6 F3600.0
;M101
G1 X1.73 Y-15.4 Z0.6 F360.0 E4320.65
G1 X1.31 Y-15.4 Z0.6 F360.0 E4321.174
G1 X1.31 Y5.79 Z0.6 F360.0 E4347.677
G1 X7.93 Y5.79 Z0.6 F360.0 E4355.967
G1 X7.93 Y-15.4 Z0.6 F360.0 E4382.47
G1 X1.95 Y-15.4 Z0.6 F360.0 E4389.959
;M103
G1 X-1.3 Y9.26 Z0.6 F3600.0
;M101
G1 X-2.34 Y9.12 Z0.6 F360.0 E4391.276
G1 X-3.39 Y9.26 Z0.6 F360.0 E4392.593
G1 X-4.36 Y9.66 Z0.6 F360.0 E4393.911
G1 X-5.19 Y10.3 Z0.6 F360.0 E4395.228
G1 X-5.83 Y11.14 Z0.6 F360.0 E4396.545
G1 X-6.24 Y12.11 Z0.6 F360.0 E4397.862
G1 X-6.37 Y13.16 Z0.6 F360.0 E4399.178
G1 X-6.24 Y14.2 Z0.6 F360.0 E4400.495
G1 X-5.83 Y15.17 Z0.6 F360.0 E4401.812
G1 X-5.19 Y16.01 Z0.6 F360.0 E4403.129
G1 X-4.36 Y16.65 Z0.6 F360.0 E4404.446
G1 X-3.39 Y17.05 Z0.6 F360.0 E4405.763
G1 X-2.34 Y17.19 Z0.6 F360.0 E4407.081
G1 X-1.3 Y17.05 Z0.6 F360.0 E4408.398
G1 X-0.33 Y16.65 Z0.6 F360.0 E4409.714
G1 X0.51 Y16.01 Z0.6 F360.0 E4411.031
G1 X1.15 Y15.17 Z0.6 F360.0 E4412.348
G1 X1.55 Y14.2 Z0.6 F360.0 E4413.666
G1 X1.69 Y13.16 Z0.6 F360.0 E4414.983
G1 X1.55 Y12.11 Z0.6 F360.0 E4416.299
G1 X1.15 Y11.14 Z0.6 F360.0 E4417.617
G1 X0.51 Y10.3 Z0.6 F360.0 E4418.933
G1 X-0.33 Y9.66 Z0.6 F360.0 E4420.25
G1 X-1.3 Y9.26 Z0.6 F360.0 E4421.567
;M103
G1 X-1.19 Y8.85 Z0.6 F3600.0
;M101
G1 X-2.34 Y8.7 Z0.6 F360.0 E4423.021
G1 X-3.49 Y8.85 Z0.6 F360.0 E4424.476
G1 X-4.57 Y9.3 Z0.6 F360.0 E4425.932
G1 X-5.49 Y10.01 Z0.6 F360.0 E4427.387
G1 X-6.2 Y10.93 Z0.6 F360.0 E4428.842
G1 X-6.64 Y12.0 Z0.6 F360.0 E4430.297
G1 X-6.8 Y13.16 Z0.6 F360.0 E4431.751
G1 X-6.64 Y14.31 Z0.6 F360.0 E4433.206
G1 X-6.2 Y15.38 Z0.6 F360.0 E4434.661
G1 X-5.49 Y16.31 Z0.6 F360.0 E4436.116
G1 X-4.57 Y17.01 Z0.6 F360.0 E4437.571
G1 X-3.49 Y17.46 Z0.6 F360.0 E4439.027
G1 X-2.34 Y17.61 Z0.6 F360.0 E4440.482
G1 X-1.19 Y17.46 Z0.6 F360.0 E4441.936
G1 X-0.11 Y17.01 Z0.6 F360.0 E4443.391
G1 X0.81 Y16.31 Z0.6 F360.0 E4444.846
G1 X1.52 Y15.38 Z0.6 F360.0 E4446.302
G1 X1.96 Y14.31 Z0.6 F360.0 E4447.756
G1 X2.11 Y13.16 Z0.6 F360.0 E4449.212
G1 X1.96 Y12.0 Z0.6 F360.0 E4450.667
G1 X1.52 Y10.93 Z0.6 F360.0 E4452.121
G1 X0.81 Y10.01 Z0.6 F360.0 E4453.577
G1 X-0.11 Y9.3 Z0.6 F360.0 E4455.032
G1 X-1.19 Y8.85 Z0.6 F360.0 E4456.487
;M103
G1 X-8.95 Y8.85 Z0.6 F3600.0
;M101
G1 X-8.95 Y-18.95 Z0.6 F360.0 E4491.27
G1 X8.95 Y-18.95 Z0.6 F360.0 E4513.67
G1 X8.95 Y18.95 Z0.6 F360.0 E4561.09
G1 X-8.95 Y18.95 Z0.6 F360.0 E4583.491
G1 X-8.95 Y8.85 Z0.6 F360.0 E4596.128
;M103
G1 X-9.37 Y8.85 Z0.6 F3600.0
;M101
G1 X-9.37 Y-19.37 Z0.6 F360.0 E4631.435
G1 X9.37 Y-19.37 Z0.6 F360.0 E4654.884
G1 X9.37 Y19.37 Z0.6 F360.0 E4703.353
G1 X-9.37 Y19.37 Z0.6 F360.0 E4726.802
G1 X-9.37 Y8.85 Z0.6 F360.0 E4739.963
;M103
;M108 S5.629
G1 X-9.79 Y8.85 Z0.6 F3600.0
;M101
G1 X-9.79 Y-19.79 Z0.6 F270.0 E4775.791
G1 X9.79 Y-19.79 Z0.6 F270.0 E4800.286
G1 X9.79 Y19.79 Z0.6 F270.0 E4849.799
G1 X-9.79 Y19.79 Z0.6 F270.0 E4874.294
G1 X-9.79 Y8.85 Z0.6 F270.0 E4887.979
;M103
G1 X-5.47 Y11.35 Z0.6 F3600.0
;M101
G1 X-5.83 Y12.22 Z0.6 F270.0 E4889.157
G1 X-5.95 Y13.16 Z0.6 F270.0 E4890.336
G1 X-5.83 Y14.09 Z0.6 F270.0 E4891.516
G1 X-5.47 Y14.96 Z0.6 F270.0 E4892.694
G1 X-4.89 Y15.71 Z0.6 F270.0 E4893.873
G1 X-4.15 Y16.28 Z0.6 F270.0 E4895.051
G1 X-3.28 Y16.64 Z0.6 F270.0 E4896.231
G1 X-2.34 Y16.77 Z0.6 F270.0 E4897.41
G1 X-1.41 Y16.64 Z0.6 F270.0 E4898.59
G1 X-0.54 Y16.28 Z0.6 F270.0 E4899.768
G1 X0.21 Y15.71 Z0.6 F270.0 E4900.946
G1 X0.79 Y14.96 Z0.6 F270.0 E4902.125
G1 X1.15 Y14.09 Z0.6 F270.0 E4903.304
G1 X1.27 Y13.16 Z0.6 F270.0 E4904.484
G1 X1.15 Y12.22 Z0.6 F270.0 E4905.662
G1 X0.79 Y11.35 Z0.6 F270.0 E4906.842
G1 X0.21 Y10.6 Z0.6 F270.0 E4908.02
G1 X-0.54 Y10.03 Z0.6 F270.0 E4909.198
G1 X-1.41 Y9.67 Z0.6 F270.0 E4910.377
G1 X-2.34 Y9.55 Z0.6 F270.0 E4911.556
G1 X-3.28 Y9.67 Z0.6 F270.0 E4912.736
G1 X-4.15 Y10.03 Z0.6 F270.0 E4913.915
G1 X-4.89 Y10.6 Z0.6 F270.0 E4915.093
G1 X-5.47 Y11.35 Z0.6 F270.0 E4916.272
;M103
G1 X2.14 Y4.95 Z0.6 F3600.0
;M101
G1 X7.1 Y4.95 Z0.6 F270.0 E4922.465
G1 X7.1 Y-14.56 Z0.6 F270.0 E4946.872
G1 X2.14 Y-14.56 Z0.6 F270.0 E4953.066
G1 X2.14 Y4.95 Z0.6 F270.0 E4977.473
;M103
;M108 S7.506
G1 X-4.95 Y10.55 Z0.9 F3600.0
G1 X-5.54 Y11.31 Z0.9 F3600.0
G1 X-6.61 Y14.13 Z0.9 F3600.0
;M101
G1 X-9.02 Y11.72 Z0.9 F360.0 E4981.738
G1 X-9.02 Y11.13 Z0.9 F360.0 E4982.479
G1 X-6.7 Y13.45 Z0.9 F360.0 E4986.584
G1 X-6.69 Y12.86 Z0.9 F360.0 E4987.324
G1 X-9.02 Y10.53 Z0.9 F360.0 E4991.433
G1 X-9.02 Y9.94 Z0.9 F360.0 E4992.173
G1 X-6.62 Y12.33 Z0.9 F360.0 E4996.404
G1 X-6.51 Y11.85 Z0.9 F360.0 E4997.022
G1 X-9.02 Y9.35 Z0.9 F360.0 E5001.45
G1 X-9.02 Y8.76 Z0.9 F360.0 E5002.191
G1 X-6.34 Y11.43 Z0.9 F360.0 E5006.924
G1 X-6.17 Y11.01 Z0.9 F360.0 E5007.491
G1 X-9.02 Y8.16 Z0.9 F360.0 E5012.531
G1 X-9.02 Y7.57 Z0.9 F360.0 E5013.273
G1 X-5.92 Y10.67 Z0.9 F360.0 E5018.75
G1 X-5.66 Y10.33 Z0.9 F360.0 E5019.279
G1 X-9.02 Y6.98 Z0.9 F360.0 E5025.21
G1 X-9.02 Y6.39 Z0.9 F360.0 E5025.952
G1 X-5.39 Y10.01 Z0.9 F360.0 E5032.362
G1 X-5.06 Y9.75 Z0.9 F360.0 E5032.891
G1 X-9.02 Y5.79 Z0.9 F360.0 E5039.892
G1 X-9.02 Y5.2 Z0.9 F360.0 E5040.633
G1 X-4.72 Y9.49 Z0.9 F360.0 E5048.227
G1 X-4.35 Y9.28 Z0.9 F360.0 E5048.768
G1 X-9.02 Y4.61 Z0.9 F360.0 E5057.023
G1 X-9.02 Y4.02 Z0.9 F360.0 E5057.764
G1 X-3.93 Y9.1 Z0.9 F360.0 E5066.758
G1 X-3.51 Y8.93 Z0.9 F360.0 E5067.326
G1 X-9.02 Y3.43 Z0.9 F360.0 E5077.061
G1 X-9.02 Y2.83 Z0.9 F360.0 E5077.803
G1 X-3.0 Y8.85 Z0.9 F360.0 E5088.45
G1 X-2.47 Y8.78 Z0.9 F360.0 E5089.111
G1 X-9.02 Y2.24 Z0.9 F360.0 E5100.684
G1 X-9.02 Y1.65 Z0.9 F360.0 E5101.426
G1 X-1.83 Y8.83 Z0.9 F360.0 E5114.136
G1 X-1.13 Y8.95 Z0.9 F360.0 E5115.032
G1 X-9.02 Y1.06 Z0.9 F360.0 E5128.992
G1 X-9.02 Y0.46 Z0.9 F360.0 E5129.733
G1 X-0.06 Y9.42 Z0.9 F360.0 E5145.573
;M103
G1 X-9.02 Y-3.68 Z0.9 F3600.0
;M101
G1 X9.02 Y14.35 Z0.9 F360.0 E5177.474
G1 X9.02 Y14.94 Z0.9 F360.0 E5178.215
G1 X-9.02 Y-3.09 Z0.9 F360.0 E5210.116
G1 X-9.02 Y-2.5 Z0.9 F360.0 E5210.858
G1 X9.02 Y15.53 Z0.9 F360.0 E5242.759
G1 X9.02 Y16.12 Z0.9 F360.0 E5243.499
G1 X-9.02 Y-1.91 Z0.9 F360.0 E5275.4
G1 X-9.02 Y-1.32 Z0.9 F360.0 E5276.141
G1 X9.02 Y16.72 Z0.9 F360.0 E5308.043
G1 X9.02 Y17.31 Z0.9 F360.0 E5308.783
G1 X-9.02 Y-0.72 Z0.9 F360.0 E5340.684
G1 X-9.02 Y-0.13 Z0.9 F360.0 E5341.425
G1 X9.02 Y17.9 Z0.9 F360.0 E5373.326
G1 X9.02 Y18.49 Z0.9 F360.0 E5374.068
G1 X1.4 Y10.88 Z0.9 F360.0 E5387.545
;M103
G1 X1.87 Y11.94 Z0.9 F3600.0
;M101
G1 X8.95 Y19.02 Z0.9 F360.0 E5400.067
G1 X8.35 Y19.02 Z0.9 F360.0 E5400.807
G1 X1.98 Y12.65 Z0.9 F360.0 E5412.075
G1 X2.03 Y13.29 Z0.9 F360.0 E5412.881
G1 X7.76 Y19.02 Z0.9 F360.0 E5423.013
G1 X7.17 Y19.02 Z0.9 F360.0 E5423.753
G1 X1.96 Y13.81 Z0.9 F360.0 E5432.96
G1 X1.89 Y14.33 Z0.9 F360.0 E5433.612
G1 X6.58 Y19.02 Z0.9 F360.0 E5441.906
G1 X5.98 Y19.02 Z0.9 F360.0 E5442.647
G1 X1.71 Y14.75 Z0.9 F360.0 E5450.201
G1 X1.54 Y15.16 Z0.9 F360.0 E5450.768
G1 X5.39 Y19.02 Z0.9 F360.0 E5457.583
G1 X4.8 Y19.02 Z0.9 F360.0 E5458.325
G1 X1.32 Y15.54 Z0.9 F360.0 E5464.479
G1 X1.06 Y15.87 Z0.9 F360.0 E5465.007
G1 X4.21 Y19.02 Z0.9 F360.0 E5470.568
G1 X3.61 Y19.02 Z0.9 F360.0 E5471.309
G1 X0.81 Y16.21 Z0.9 F360.0 E5476.278
G1 X0.48 Y16.48 Z0.9 F360.0 E5476.804
G1 X3.02 Y19.02 Z0.9 F360.0 E5481.295
G1 X2.43 Y19.02 Z0.9 F360.0 E5482.036
G1 X0.15 Y16.73 Z0.9 F360.0 E5486.073
G1 X-0.2 Y16.98 Z0.9 F360.0 E5486.604
G1 X1.84 Y19.02 Z0.9 F360.0 E5490.203
G1 X1.24 Y19.02 Z0.9 F360.0 E5490.944
G1 X-0.62 Y17.16 Z0.9 F360.0 E5494.236
G1 X-1.04 Y17.33 Z0.9 F360.0 E5494.803
G1 X0.65 Y19.02 Z0.9 F360.0 E5497.79
G1 X0.06 Y19.02 Z0.9 F360.0 E5498.532
G1 X-1.52 Y17.44 Z0.9 F360.0 E5501.321
G1 X-2.04 Y17.51 Z0.9 F360.0 E5501.982
G1 X-0.53 Y19.02 Z0.9 F360.0 E5504.65
G1 X-1.13 Y19.02 Z0.9 F360.0 E5505.392
G1 X-2.63 Y17.51 Z0.9 F360.0 E5508.057
G1 X-3.31 Y17.42 Z0.9 F360.0 E5508.917
G1 X-1.72 Y19.02 Z0.9 F360.0 E5511.741
G1 X-2.31 Y19.02 Z0.9 F360.0 E5512.482
G1 X-4.25 Y17.08 Z0.9 F360.0 E5515.907
;M103
G1 X-4.09 Y19.02 Z0.9 F3600.0
;M101
G1 X-9.02 Y14.09 Z0.9 F360.0 E5524.627
G1 X-9.02 Y13.5 Z0.9 F360.0 E5525.368
G1 X-3.5 Y19.02 Z0.9 F360.0 E5535.135
G1 X-2.9 Y19.02 Z0.9 F360.0 E5535.876
G1 X-9.02 Y12.9 Z0.9 F360.0 E5546.691
G1 X-9.02 Y12.31 Z0.9 F360.0 E5547.433
G1 X-6.27 Y15.06 Z0.9 F360.0 E5552.299
;M103
G1 X-9.02 Y14.68 Z0.9 F3600.0
;M101
G1 X-4.68 Y19.02 Z0.9 F360.0 E5559.97
G1 X-5.27 Y19.02 Z0.9 F360.0 E5560.711
G1 X-9.02 Y15.27 Z0.9 F360.0 E5567.334
G1 X-9.02 Y15.87 Z0.9 F360.0 E5568.076
G1 X-5.87 Y19.02 Z0.9 F360.0 E5573.651
G1 X-6.46 Y19.02 Z0.9 F360.0 E5574.392
G1 X-9.02 Y16.46 Z0.9 F360.0 E5578.919
G1 X-9.02 Y17.05 Z0.9 F360.0 E5579.659
G1 X-7.05 Y19.02 Z0.9 F360.0 E5583.139
G1 X-7.64 Y19.02 Z0.9 F360.0 E5583.881
G1 X-9.02 Y17.64 Z0.9 F360.0 E5586.312
G1 X-9.02 Y18.23 Z0.9 F360.0 E5587.053
G1 X-8.23 Y19.02 Z0.9 F360.0 E5588.436
G1 X-8.83 Y19.02 Z0.9 F360.0 E5589.178
G1 X-9.02 Y18.83 Z0.9 F360.0 E5589.512
;M103
G1 X2.06 Y-5.29 Z0.9 F3600.0
G1 X2.21 Y-14.5 Z0.9 F3600.0
G1 X6.63 Y-14.64 Z0.9 F3600.0
G1 X8.83 Y-19.02 Z0.9 F3600.0
;M101
G1 X9.02 Y-18.83 Z0.9 F360.0 E5589.847
G1 X9.02 Y-18.23 Z0.9 F360.0 E5590.589
G1 X8.23 Y-19.02 Z0.9 F360.0 E5591.972
G1 X7.64 Y-19.02 Z0.9 F360.0 E5592.713
G1 X9.02 Y-17.64 Z0.9 F360.0 E5595.144
G1 X9.02 Y-17.05 Z0.9 F360.0 E5595.885
G1 X7.05 Y-19.02 Z0.9 F360.0 E5599.365
G1 X6.46 Y-19.02 Z0.9 F360.0 E5600.106
G1 X9.02 Y-16.46 Z0.9 F360.0 E5604.633
G1 X9.02 Y-15.87 Z0.9 F360.0 E5605.374
G1 X5.87 Y-19.02 Z0.9 F360.0 E5610.949
G1 X5.27 Y-19.02 Z0.9 F360.0 E5611.691
G1 X9.02 Y-15.27 Z0.9 F360.0 E5618.314
G1 X9.02 Y-14.68 Z0.9 F360.0 E5619.055
G1 X4.68 Y-19.02 Z0.9 F360.0 E5626.726
G1 X4.09 Y-19.02 Z0.9 F360.0 E5627.468
G1 X9.02 Y-14.09 Z0.9 F360.0 E5636.188
G1 X9.02 Y-13.5 Z0.9 F360.0 E5636.929
G1 X7.87 Y-14.64 Z0.9 F360.0 E5638.957
G1 X7.87 Y-14.05 Z0.9 F360.0 E5639.698
G1 X9.02 Y-12.9 Z0.9 F360.0 E5641.726
G1 X9.02 Y-12.31 Z0.9 F360.0 E5642.468
G1 X7.87 Y-13.46 Z0.9 F360.0 E5644.496
G1 X7.87 Y-12.86 Z0.9 F360.0 E5645.237
G1 X9.02 Y-11.72 Z0.9 F360.0 E5647.265
G1 X9.02 Y-11.13 Z0.9 F360.0 E5648.006
G1 X7.87 Y-12.27 Z0.9 F360.0 E5650.034
G1 X7.87 Y-11.68 Z0.9 F360.0 E5650.776
G1 X9.02 Y-10.53 Z0.9 F360.0 E5652.804
G1 X9.02 Y-9.94 Z0.9 F360.0 E5653.545
G1 X7.87 Y-11.09 Z0.9 F360.0 E5655.573
G1 X7.87 Y-10.49 Z0.9 F360.0 E5656.315
G1 X9.02 Y-9.35 Z0.9 F360.0 E5658.344
G1 X9.02 Y-8.76 Z0.9 F360.0 E5659.084
G1 X7.87 Y-9.9 Z0.9 F360.0 E5661.113
G1 X7.87 Y-9.31 Z0.9 F360.0 E5661.853
G1 X9.02 Y-8.16 Z0.9 F360.0 E5663.882
G1 X9.02 Y-7.57 Z0.9 F360.0 E5664.623
G1 X7.87 Y-8.72 Z0.9 F360.0 E5666.652
G1 X7.87 Y-8.13 Z0.9 F360.0 E5667.392
G1 X9.02 Y-6.98 Z0.9 F360.0 E5669.421
G1 X9.02 Y-6.39 Z0.9 F360.0 E5670.163
G1 X7.87 Y-7.53 Z0.9 F360.0 E5672.192
G1 X7.87 Y-6.94 Z0.9 F360.0 E5672.934
G1 X9.02 Y-5.79 Z0.9 F360.0 E5674.962
G1 X9.02 Y-5.2 Z0.9 F360.0 E5675.703
G1 X7.87 Y-6.35 Z0.9 F360.0 E5677.731
G1 X7.87 Y-5.76 Z0.9 F360.0 E5678.473
G1 X9.02 Y-4.61 Z0.9 F360.0 E5680.501
G1 X9.02 Y-4.02 Z0.9 F360.0 E5681.242
G1 X7.87 Y-5.16 Z0.9 F360.0 E5683.27
G1 X7.87 Y-4.57 Z0.9 F360.0 E5684.011
G1 X9.02 Y-3.43 Z0.9 F360.0 E5686.039
G1 X9.02 Y-2.83 Z0.9 F360.0 E5686.781
G1 X7.87 Y-3.98 Z0.9 F360.0 E5688.809
G1 X7.87 Y-3.39 Z0.9 F360.0 E5689.55
G1 X9.02 Y-2.24 Z0.9 F360.0 E5691.578
G1 X9.02 Y-1.65 Z0.9 F360.0 E5692.32
G1 X7.87 Y-2.79 Z0.9 F360.0 E5694.348
G1 X7.87 Y-2.2 Z0.9 F360.0 E5695.089
G1 X9.02 Y-1.06 Z0.9 F360.0 E5697.117
G1 X9.02 Y-0.46 Z0.9 F360.0 E5697.858
G1 X7.87 Y-1.61 Z0.9 F360.0 E5699.886
G1 X7.87 Y-1.02 Z0.9 F360.0 E5700.628
G1 X9.02 Y0.13 Z0.9 F360.0 E5702.657
G1 X9.02 Y0.72 Z0.9 F360.0 E5703.397
G1 X7.87 Y-0.42 Z0.9 F360.0 E5705.426
G1 X7.87 Y0.17 Z0.9 F360.0 E5706.166
G1 X9.02 Y1.32 Z0.9 F360.0 E5708.195
G1 X9.02 Y1.91 Z0.9 F360.0 E5708.936
G1 X7.87 Y0.76 Z0.9 F360.0 E5710.964
G1 X7.87 Y1.35 Z0.9 F360.0 E5711.705
G1 X9.02 Y2.5 Z0.9 F360.0 E5713.733
G1 X9.02 Y3.09 Z0.9 F360.0 E5714.475
G1 X7.87 Y1.95 Z0.9 F360.0 E5716.504
G1 X7.87 Y2.54 Z0.9 F360.0 E5717.244
G1 X9.02 Y3.68 Z0.9 F360.0 E5719.273
G1 X9.02 Y4.28 Z0.9 F360.0 E5720.013
G1 X7.87 Y3.13 Z0.9 F360.0 E5722.041
G1 X7.87 Y3.72 Z0.9 F360.0 E5722.783
G1 X9.02 Y4.87 Z0.9 F360.0 E5724.812
G1 X9.02 Y5.46 Z0.9 F360.0 E5725.552
G1 X7.87 Y4.32 Z0.9 F360.0 E5727.581
G1 X7.87 Y4.91 Z0.9 F360.0 E5728.322
G1 X9.02 Y6.05 Z0.9 F360.0 E5730.351
G1 X9.02 Y6.65 Z0.9 F360.0 E5731.091
G1 X7.87 Y5.5 Z0.9 F360.0 E5733.12
G1 X7.5 Y5.73 Z0.9 F360.0 E5733.657
G1 X9.02 Y7.24 Z0.9 F360.0 E5736.332
G1 X9.02 Y7.83 Z0.9 F360.0 E5737.074
G1 X6.91 Y5.73 Z0.9 F360.0 E5740.798
G1 X6.32 Y5.73 Z0.9 F360.0 E5741.538
G1 X9.02 Y8.42 Z0.9 F360.0 E5746.31
G1 X9.02 Y9.02 Z0.9 F360.0 E5747.052
G1 X5.73 Y5.73 Z0.9 F360.0 E5752.872
G1 X5.13 Y5.73 Z0.9 F360.0 E5753.613
G1 X9.02 Y9.61 Z0.9 F360.0 E5760.481
G1 X9.02 Y10.2 Z0.9 F360.0 E5761.222
G1 X4.54 Y5.73 Z0.9 F360.0 E5769.137
G1 X3.95 Y5.73 Z0.9 F360.0 E5769.879
G1 X9.02 Y10.79 Z0.9 F360.0 E5778.843
G1 X9.02 Y11.39 Z0.9 F360.0 E5779.584
G1 X3.36 Y5.73 Z0.9 F360.0 E5789.595
G1 X2.77 Y5.73 Z0.9 F360.0 E5790.336
G1 X9.02 Y11.98 Z0.9 F360.0 E5801.395
G1 X9.02 Y12.57 Z0.9 F360.0 E5802.137
G1 X2.17 Y5.73 Z0.9 F360.0 E5814.245
G1 X1.58 Y5.73 Z0.9 F360.0 E5814.986
G1 X9.02 Y13.16 Z0.9 F360.0 E5828.142
G1 X9.02 Y13.76 Z0.9 F360.0 E5828.883
G1 X-9.02 Y-4.28 Z0.9 F360.0 E5860.784
G1 X-9.02 Y-4.87 Z0.9 F360.0 E5861.526
G1 X1.37 Y5.52 Z0.9 F360.0 E5879.898
G1 X1.37 Y4.92 Z0.9 F360.0 E5880.639
G1 X-9.02 Y-5.46 Z0.9 F360.0 E5899.011
G1 X-9.02 Y-6.05 Z0.9 F360.0 E5899.753
G1 X1.37 Y4.33 Z0.9 F360.0 E5918.125
G1 X1.37 Y3.74 Z0.9 F360.0 E5918.865
G1 X-9.02 Y-6.65 Z0.9 F360.0 E5937.238
G1 X-9.02 Y-7.24 Z0.9 F360.0 E5937.978
G1 X1.37 Y3.15 Z0.9 F360.0 E5956.35
G1 X1.37 Y2.55 Z0.9 F360.0 E5957.092
G1 X-9.02 Y-7.83 Z0.9 F360.0 E5975.464
G1 X-9.02 Y-8.42 Z0.9 F360.0 E5976.205
G1 X1.37 Y1.96 Z0.9 F360.0 E5994.577
G1 X1.37 Y1.37 Z0.9 F360.0 E5995.317
G1 X-9.02 Y-9.02 Z0.9 F360.0 E6013.69
G1 X-9.02 Y-9.61 Z0.9 F360.0 E6014.431
G1 X1.37 Y0.78 Z0.9 F360.0 E6032.803
G1 X1.37 Y0.18 Z0.9 F360.0 E6033.544
G1 X-9.02 Y-10.2 Z0.9 F360.0 E6051.916
G1 X-9.02 Y-10.79 Z0.9 F360.0 E6052.657
G1 X1.37 Y-0.41 Z0.9 F360.0 E6071.029
G1 X1.37 Y-1.0 Z0.9 F360.0 E6071.77
G1 X-9.02 Y-11.39 Z0.9 F360.0 E6090.142
G1 X-9.02 Y-11.98 Z0.9 F360.0 E6090.883
G1 X1.37 Y-1.59 Z0.9 F360.0 E6109.255
G1 X1.37 Y-2.19 Z0.9 F360.0 E6109.997
G1 X-9.02 Y-12.57 Z0.9 F360.0 E6128.369
G1 X-9.02 Y-13.16 Z0.9 F360.0 E6129.109
G1 X1.37 Y-2.78 Z0.9 F360.0 E6147.481
G1 X1.37 Y-3.37 Z0.9 F360.0 E6148.223
G1 X-9.02 Y-13.76 Z0.9 F360.0 E6166.595
G1 X-9.02 Y-14.35 Z0.9 F360.0 E6167.336
G1 X1.37 Y-3.96 Z0.9 F360.0 E6185.708
G1 X1.37 Y-4.56 Z0.9 F360.0 E6186.449
G1 X-9.02 Y-14.94 Z0.9 F360.0 E6204.821
G1 X-9.02 Y-15.53 Z0.9 F360.0 E6205.562
G1 X1.37 Y-5.15 Z0.9 F360.0 E6223.934
G1 X1.37 Y-5.74 Z0.9 F360.0 E6224.675
G1 X-9.02 Y-16.12 Z0.9 F360.0 E6243.047
G1 X-9.02 Y-16.72 Z0.9 F360.0 E6243.789
G1 X1.37 Y-6.33 Z0.9 F360.0 E6262.162
G1 X1.37 Y-6.93 Z0.9 F360.0 E6262.904
G1 X-9.02 Y-17.31 Z0.9 F360.0 E6281.276
G1 X-9.02 Y-17.9 Z0.9 F360.0 E6282.016
G1 X1.37 Y-7.52 Z0.9 F360.0 E6300.388
G1 X1.37 Y-8.11 Z0.9 F360.0 E6301.13
G1 X-9.02 Y-18.49 Z0.9 F360.0 E6319.502
G1 X-8.95 Y-19.02 Z0.9 F360.0 E6320.161
G1 X1.37 Y-8.7 Z0.9 F360.0 E6338.409
G1 X1.37 Y-9.29 Z0.9 F360.0 E6339.149
G1 X-8.35 Y-19.02 Z0.9 F360.0 E6356.349
G1 X-7.76 Y-19.02 Z0.9 F360.0 E6357.091
G1 X1.37 Y-9.89 Z0.9 F360.0 E6373.242
G1 X1.37 Y-10.48 Z0.9 F360.0 E6373.983
G1 X-7.17 Y-19.02 Z0.9 F360.0 E6389.086
G1 X-6.58 Y-19.02 Z0.9 F360.0 E6389.828
G1 X1.37 Y-11.07 Z0.9 F360.0 E6403.882
G1 X1.37 Y-11.66 Z0.9 F360.0 E6404.623
G1 X-5.98 Y-19.02 Z0.9 F360.0 E6417.63
G1 X-5.39 Y-19.02 Z0.9 F360.0 E6418.371
G1 X1.37 Y-12.26 Z0.9 F360.0 E6430.33
G1 X1.37 Y-12.85 Z0.9 F360.0 E6431.072
G1 X-4.8 Y-19.02 Z0.9 F360.0 E6441.983
G1 X-4.21 Y-19.02 Z0.9 F360.0 E6442.723
G1 X1.37 Y-13.44 Z0.9 F360.0 E6452.586
G1 X1.37 Y-14.03 Z0.9 F360.0 E6453.327
G1 X-3.61 Y-19.02 Z0.9 F360.0 E6462.143
G1 X-3.02 Y-19.02 Z0.9 F360.0 E6462.885
G1 X1.37 Y-14.63 Z0.9 F360.0 E6470.651
G1 X1.37 Y-15.22 Z0.9 F360.0 E6471.392
G1 X-2.43 Y-19.02 Z0.9 F360.0 E6478.111
G1 X-1.84 Y-19.02 Z0.9 F360.0 E6478.853
G1 X1.85 Y-15.33 Z0.9 F360.0 E6485.366
G1 X2.44 Y-15.33 Z0.9 F360.0 E6486.107
G1 X-1.24 Y-19.02 Z0.9 F360.0 E6492.62
G1 X-0.65 Y-19.02 Z0.9 F360.0 E6493.361
G1 X3.03 Y-15.33 Z0.9 F360.0 E6499.874
G1 X3.62 Y-15.33 Z0.9 F360.0 E6500.616
G1 X-0.06 Y-19.02 Z0.9 F360.0 E6507.129
G1 X0.53 Y-19.02 Z0.9 F360.0 E6507.87
G1 X4.21 Y-15.33 Z0.9 F360.0 E6514.383
G1 X4.81 Y-15.33 Z0.9 F360.0 E6515.125
G1 X1.13 Y-19.02 Z0.9 F360.0 E6521.638
G1 X1.72 Y-19.02 Z0.9 F360.0 E6522.379
G1 X5.4 Y-15.33 Z0.9 F360.0 E6528.892
G1 X5.99 Y-15.33 Z0.9 F360.0 E6529.632
G1 X2.31 Y-19.02 Z0.9 F360.0 E6536.146
G1 X2.9 Y-19.02 Z0.9 F360.0 E6536.888
G1 X6.58 Y-15.33 Z0.9 F360.0 E6543.401
G1 X7.18 Y-15.33 Z0.9 F360.0 E6544.141
G1 X3.5 Y-19.02 Z0.9 F360.0 E6550.655
;M103
G1 X3.2 Y-14.98 Z0.9 F3600.0
;M101
G1 X1.73 Y-14.98 Z0.9 F360.0 E6552.497
G1 X1.73 Y5.37 Z0.9 F360.0 E6577.953
G1 X7.51 Y5.37 Z0.9 F360.0 E6585.193
G1 X7.51 Y-14.98 Z0.9 F360.0 E6610.649
G1 X3.5 Y-14.98 Z0.9 F360.0 E6615.675
G1 X3.2 Y-14.98 Z0.9 F360.0 E6616.047
;M103
G1 X3.08 Y-14.64 Z0.9 F3600.0
G1 X2.21 Y-14.5 Z0.9 F3600.0
G1 X2.06 Y-10.42 Z0.9 F3600.0
G1 X-1.3 Y9.26 Z0.9 F3600.0
;M101
G1 X-2.34 Y9.12 Z0.9 F360.0 E6617.364
G1 X-3.39 Y9.26 Z0.9 F360.0 E6618.681
G1 X-4.36 Y9.66 Z0.9 F360.0 E6619.999
G1 X-5.19 Y10.3 Z0.9 F360.0 E6621.316
G1 X-5.83 Y11.14 Z0.9 F360.0 E6622.633
G1 X-6.24 Y12.11 Z0.9 F360.0 E6623.95
G1 X-6.37 Y13.16 Z0.9 F360.0 E6625.266
G1 X-6.24 Y14.2 Z0.9 F360.0 E6626.583
G1 X-5.83 Y15.17 Z0.9 F360.0 E6627.9
G1 X-5.19 Y16.01 Z0.9 F360.0 E6629.217
G1 X-4.36 Y16.65 Z0.9 F360.0 E6630.534
G1 X-3.39 Y17.05 Z0.9 F360.0 E6631.852
G1 X-2.34 Y17.19 Z0.9 F360.0 E6633.169
G1 X-1.3 Y17.05 Z0.9 F360.0 E6634.486
G1 X-0.33 Y16.65 Z0.9 F360.0 E6635.802
G1 X0.51 Y16.01 Z0.9 F360.0 E6637.119
G1 X1.15 Y15.17 Z0.9 F360.0 E6638.436
G1 X1.55 Y14.2 Z0.9 F360.0 E6639.754
G1 X1.69 Y13.16 Z0.9 F360.0 E6641.071
G1 X1.55 Y12.11 Z0.9 F360.0 E6642.387
G1 X1.15 Y11.14 Z0.9 F360.0 E6643.705
G1 X0.51 Y10.3 Z0.9 F360.0 E6645.022
G1 X-0.33 Y9.66 Z0.9 F360.0 E6646.338
G1 X-1.3 Y9.26 Z0.9 F360.0 E6647.655
;M103
G1 X-9.37 Y9.26 Z0.9 F3600.0
;M101
G1 X-9.37 Y-19.37 Z0.9 F360.0 E6683.473
G1 X9.37 Y-19.37 Z0.9 F360.0 E6706.922
G1 X9.37 Y19.37 Z0.9 F360.0 E6755.391
G1 X-9.37 Y19.37 Z0.9 F360.0 E6778.84
G1 X-9.37 Y9.26 Z0.9 F360.0 E6791.49
;M103
;M108 S5.629
G1 X-9.79 Y9.26 Z0.9 F3600.0
;M101
G1 X-9.79 Y-19.79 Z0.9 F270.0 E6827.829
G1 X9.79 Y-19.79 Z0.9 F270.0 E6852.324
G1 X9.79 Y19.79 Z0.9 F270.0 E6901.837
G1 X-9.79 Y19.79 Z0.9 F270.0 E6926.332
G1 X-9.79 Y9.26 Z0.9 F270.0 E6939.505
;M103
G1 X-5.47 Y11.35 Z0.9 F3600.0
;M101
G1 X-5.83 Y12.22 Z0.9 F270.0 E6940.684
G1 X-5.95 Y13.16 Z0.9 F270.0 E6941.862
G1 X-5.83 Y14.09 Z0.9 F270.0 E6943.042
G1 X-5.47 Y14.96 Z0.9 F270.0 E6944.221
G1 X-4.89 Y15.71 Z0.9 F270.0 E6945.399
G1 X-4.15 Y16.28 Z0.9 F270.0 E6946.578
G1 X-3.28 Y16.64 Z0.9 F270.0 E6947.757
G1 X-2.34 Y16.77 Z0.9 F270.0 E6948.937
G1 X-1.41 Y16.64 Z0.9 F270.0 E6950.116
G1 X-0.54 Y16.28 Z0.9 F270.0 E6951.294
G1 X0.21 Y15.71 Z0.9 F270.0 E6952.473
G1 X0.79 Y14.96 Z0.9 F270.0 E6953.651
G1 X1.15 Y14.09 Z0.9 F270.0 E6954.831
G1 X1.27 Y13.16 Z0.9 F270.0 E6956.01
G1 X1.15 Y12.22 Z0.9 F270.0 E6957.189
G1 X0.79 Y11.35 Z0.9 F270.0 E6958.368
G1 X0.21 Y10.6 Z0.9 F270.0 E6959.546
G1 X-0.54 Y10.03 Z0.9 F270.0 E6960.725
G1 X-1.41 Y9.67 Z0.9 F270.0 E6961.903
G1 X-2.34 Y9.55 Z0.9 F270.0 E6963.083
G1 X-3.28 Y9.67 Z0.9 F270.0 E6964.262
G1 X-4.15 Y10.03 Z0.9 F270.0 E6965.441
G1 X-4.89 Y10.6 Z0.9 F270.0 E6966.62
G1 X-5.47 Y11.35 Z0.9 F270.0 E6967.798
;M103
G1 X2.14 Y4.95 Z0.9 F3600.0
;M101
G1 X7.1 Y4.95 Z0.9 F270.0 E6973.991
G1 X7.1 Y-14.56 Z0.9 F270.0 E6998.399
G1 X2.14 Y-14.56 Z0.9 F270.0 E7004.592
G1 X2.14 Y4.95 Z0.9 F270.0 E7028.999
;M103
;M108 S7.506
G1 X-3.89 Y8.63 Z1.2 F3600.0
;M101
G1 X-2.43 Y8.35 Z1.2 F360.0 E7030.862
G1 X-1.89 Y8.4 Z1.2 F360.0 E7031.545
G1 X0.96 Y6.15 Z1.2 F360.0 E7036.091
G1 X0.95 Y4.38 Z1.2 F360.0 E7038.296
;M103
G1 X8.6 Y18.06 Z1.2 F3600.0
;M101
G1 X8.06 Y18.6 Z1.2 F360.0 E7039.245
G1 X6.88 Y18.6 Z1.2 F360.0 E7040.727
G1 X8.6 Y17.47 Z1.2 F360.0 E7043.302
G1 X8.6 Y14.51 Z1.2 F360.0 E7047.007
G1 X6.28 Y18.6 Z1.2 F360.0 E7052.887
G1 X2.73 Y18.6 Z1.2 F360.0 E7057.334
G1 X8.6 Y13.91 Z1.2 F360.0 E7066.726
G1 X8.6 Y10.95 Z1.2 F360.0 E7070.431
G1 X2.14 Y18.6 Z1.2 F360.0 E7082.952
G1 X-0.23 Y18.6 Z1.2 F360.0 E7085.917
G1 X-0.3 Y17.48 Z1.2 F360.0 E7087.323
G1 X-1.24 Y17.83 Z1.2 F360.0 E7088.581
G1 X-0.83 Y18.6 Z1.2 F360.0 E7089.677
G1 X-1.42 Y18.6 Z1.2 F360.0 E7090.417
G1 X-1.92 Y17.91 Z1.2 F360.0 E7091.478
G1 X-2.01 Y18.6 Z1.2 F360.0 E7092.34
G1 X-2.6 Y18.6 Z1.2 F360.0 E7093.081
G1 X-2.54 Y17.94 Z1.2 F360.0 E7093.902
G1 X-3.07 Y17.88 Z1.2 F360.0 E7094.564
G1 X-3.2 Y18.6 Z1.2 F360.0 E7095.481
G1 X-3.79 Y18.6 Z1.2 F360.0 E7096.222
G1 X-3.59 Y17.81 Z1.2 F360.0 E7097.242
G1 X-4.43 Y17.46 Z1.2 F360.0 E7098.375
G1 X-4.38 Y18.6 Z1.2 F360.0 E7099.8
G1 X-4.97 Y18.6 Z1.2 F360.0 E7100.542
G1 X-5.16 Y17.01 Z1.2 F360.0 E7102.543
G1 X-5.81 Y16.47 Z1.2 F360.0 E7103.596
G1 X-5.56 Y18.6 Z1.2 F360.0 E7106.27
G1 X-8.53 Y18.6 Z1.2 F360.0 E7109.975
G1 X-8.6 Y18.08 Z1.2 F360.0 E7110.634
G1 X-8.6 Y16.89 Z1.2 F360.0 E7112.117
G1 X-6.07 Y16.14 Z1.2 F360.0 E7115.416
G1 X-6.56 Y15.45 Z1.2 F360.0 E7116.479
G1 X-6.91 Y14.61 Z1.2 F360.0 E7117.613
G1 X-7.03 Y14.14 Z1.2 F360.0 E7118.223
G1 X-8.6 Y16.3 Z1.2 F360.0 E7121.567
G1 X-8.6 Y12.74 Z1.2 F360.0 E7126.014
G1 X-7.1 Y13.61 Z1.2 F360.0 E7128.185
G1 X-7.14 Y13.07 Z1.2 F360.0 E7128.868
G1 X-7.05 Y12.39 Z1.2 F360.0 E7129.73
G1 X-8.6 Y12.15 Z1.2 F360.0 E7131.683
G1 X-8.6 Y10.97 Z1.2 F360.0 E7133.165
G1 X-6.87 Y11.6 Z1.2 F360.0 E7135.474
G1 X-5.44 Y8.99 Z1.2 F360.0 E7139.203
G1 X0.95 Y3.79 Z1.2 F360.0 E7149.504
G1 X0.95 Y0.83 Z1.2 F360.0 E7153.208
G1 X-8.6 Y10.37 Z1.2 F360.0 E7170.098
G1 X-8.6 Y6.82 Z1.2 F360.0 E7174.545
G1 X0.95 Y0.24 Z1.2 F360.0 E7189.053
G1 X0.95 Y-3.32 Z1.2 F360.0 E7193.499
G1 X-8.6 Y6.23 Z1.2 F360.0 E7210.389
G1 X-8.6 Y2.67 Z1.2 F360.0 E7214.835
G1 X0.95 Y-3.91 Z1.2 F360.0 E7229.344
G1 X0.95 Y-7.47 Z1.2 F360.0 E7233.79
G1 X-8.6 Y2.08 Z1.2 F360.0 E7250.679
G1 X-8.6 Y-0.88 Z1.2 F360.0 E7254.385
G1 X0.95 Y-8.06 Z1.2 F360.0 E7269.325
G1 X0.95 Y-11.02 Z1.2 F360.0 E7273.031
G1 X-8.6 Y-1.47 Z1.2 F360.0 E7289.92
G1 X-8.6 Y-5.03 Z1.2 F360.0 E7294.366
G1 X0.95 Y-11.61 Z1.2 F360.0 E7308.875
G1 X0.95 Y-15.17 Z1.2 F360.0 E7313.321
G1 X-8.6 Y-5.62 Z1.2 F360.0 E7330.211
G1 X-8.6 Y-7.99 Z1.2 F360.0 E7333.174
G1 X2.01 Y-18.6 Z1.2 F360.0 E7351.94
G1 X4.38 Y-18.6 Z1.2 F360.0 E7354.904
G1 X1.54 Y-15.75 Z1.2 F360.0 E7359.934
G1 X5.09 Y-15.75 Z1.2 F360.0 E7364.38
G1 X4.97 Y-18.6 Z1.2 F360.0 E7367.941
G1 X8.53 Y-18.6 Z1.2 F360.0 E7372.387
G1 X8.6 Y-18.08 Z1.2 F360.0 E7373.046
G1 X8.6 Y-17.48 Z1.2 F360.0 E7373.788
G1 X5.68 Y-15.75 Z1.2 F360.0 E7378.027
G1 X7.46 Y-15.75 Z1.2 F360.0 E7380.25
G1 X8.6 Y-16.89 Z1.2 F360.0 E7382.262
G1 X8.6 Y-16.3 Z1.2 F360.0 E7383.002
G1 X8.05 Y-15.75 Z1.2 F360.0 E7383.966
G1 X8.29 Y-15.4 Z1.2 F360.0 E7384.501
G1 X8.6 Y-15.71 Z1.2 F360.0 E7385.047
G1 X8.6 Y-15.11 Z1.2 F360.0 E7385.787
G1 X8.29 Y-14.81 Z1.2 F360.0 E7386.333
G1 X8.6 Y-14.52 Z1.2 F360.0 E7386.859
G1 X8.29 Y-14.21 Z1.2 F360.0 E7387.405
G1 X8.6 Y-13.93 Z1.2 F360.0 E7387.93
G1 X8.29 Y-13.62 Z1.2 F360.0 E7388.475
G1 X8.6 Y-13.34 Z1.2 F360.0 E7389.001
G1 X8.29 Y-13.03 Z1.2 F360.0 E7389.547
G1 X8.6 Y-12.74 Z1.2 F360.0 E7390.072
G1 X8.29 Y-12.44 Z1.2 F360.0 E7390.618
G1 X8.6 Y-12.15 Z1.2 F360.0 E7391.143
G1 X8.29 Y-11.84 Z1.2 F360.0 E7391.689
G1 X8.6 Y-11.56 Z1.2 F360.0 E7392.214
G1 X8.29 Y-11.25 Z1.2 F360.0 E7392.761
G1 X8.6 Y-10.97 Z1.2 F360.0 E7393.286
G1 X8.29 Y-10.66 Z1.2 F360.0 E7393.831
G1 X8.6 Y-10.37 Z1.2 F360.0 E7394.356
G1 X8.29 Y-10.07 Z1.2 F360.0 E7394.902
G1 X8.6 Y-9.78 Z1.2 F360.0 E7395.428
G1 X8.29 Y-9.47 Z1.2 F360.0 E7395.974
G1 X8.6 Y-9.19 Z1.2 F360.0 E7396.499
G1 X8.29 Y-8.88 Z1.2 F360.0 E7397.045
G1 X8.6 Y-8.6 Z1.2 F360.0 E7397.57
G1 X8.29 Y-8.29 Z1.2 F360.0 E7398.116
G1 X8.6 Y-8.0 Z1.2 F360.0 E7398.641
G1 X8.29 Y-7.7 Z1.2 F360.0 E7399.187
G1 X8.6 Y-7.41 Z1.2 F360.0 E7399.712
G1 X8.29 Y-7.1 Z1.2 F360.0 E7400.258
G1 X8.6 Y-6.82 Z1.2 F360.0 E7400.784
G1 X8.29 Y-6.51 Z1.2 F360.0 E7401.33
G1 X8.6 Y-6.23 Z1.2 F360.0 E7401.855
G1 X8.29 Y-5.92 Z1.2 F360.0 E7402.401
G1 X8.6 Y-5.64 Z1.2 F360.0 E7402.926
G1 X8.29 Y-5.33 Z1.2 F360.0 E7403.472
G1 X8.6 Y-5.04 Z1.2 F360.0 E7403.997
G1 X8.29 Y-4.73 Z1.2 F360.0 E7404.543
G1 X8.6 Y-4.45 Z1.2 F360.0 E7405.068
G1 X8.29 Y-4.14 Z1.2 F360.0 E7405.614
G1 X8.6 Y-3.86 Z1.2 F360.0 E7406.139
G1 X8.29 Y-3.55 Z1.2 F360.0 E7406.686
G1 X8.6 Y-3.27 Z1.2 F360.0 E7407.211
G1 X8.29 Y-2.96 Z1.2 F360.0 E7407.756
G1 X8.6 Y-2.67 Z1.2 F360.0 E7408.281
G1 X8.29 Y-2.37 Z1.2 F360.0 E7408.827
G1 X8.6 Y-2.08 Z1.2 F360.0 E7409.353
G1 X8.29 Y-1.77 Z1.2 F360.0 E7409.899
G1 X8.6 Y-1.49 Z1.2 F360.0 E7410.424
G1 X8.29 Y-1.18 Z1.2 F360.0 E7410.97
G1 X8.6 Y-0.9 Z1.2 F360.0 E7411.495
G1 X8.29 Y-0.59 Z1.2 F360.0 E7412.041
G1 X8.6 Y-0.3 Z1.2 F360.0 E7412.566
G1 X8.29 Y0.01 Z1.2 F360.0 E7413.112
G1 X8.6 Y0.29 Z1.2 F360.0 E7413.637
G1 X8.29 Y0.6 Z1.2 F360.0 E7414.183
G1 X8.6 Y0.88 Z1.2 F360.0 E7414.709
G1 X8.29 Y1.19 Z1.2 F360.0 E7415.255
G1 X8.6 Y1.47 Z1.2 F360.0 E7415.78
G1 X8.29 Y1.78 Z1.2 F360.0 E7416.326
G1 X8.6 Y2.07 Z1.2 F360.0 E7416.851
G1 X8.29 Y2.38 Z1.2 F360.0 E7417.397
G1 X8.6 Y2.66 Z1.2 F360.0 E7417.922
G1 X8.29 Y2.97 Z1.2 F360.0 E7418.468
G1 X8.6 Y3.25 Z1.2 F360.0 E7418.993
G1 X8.29 Y3.56 Z1.2 F360.0 E7419.539
G1 X8.6 Y3.84 Z1.2 F360.0 E7420.064
G1 X8.29 Y4.15 Z1.2 F360.0 E7420.611
G1 X8.6 Y4.44 Z1.2 F360.0 E7421.136
G1 X8.29 Y4.74 Z1.2 F360.0 E7421.681
G1 X8.6 Y5.03 Z1.2 F360.0 E7422.206
G1 X8.29 Y5.34 Z1.2 F360.0 E7422.752
G1 X8.6 Y5.62 Z1.2 F360.0 E7423.278
G1 X8.07 Y6.15 Z1.2 F360.0 E7424.206
G1 X8.6 Y6.21 Z1.2 F360.0 E7424.868
G1 X8.6 Y7.4 Z1.2 F360.0 E7426.351
G1 X2.33 Y14.26 Z1.2 F360.0 E7437.977
G1 X2.45 Y12.96 Z1.2 F360.0 E7439.615
G1 X2.31 Y11.91 Z1.2 F360.0 E7440.936
G1 X1.96 Y11.07 Z1.2 F360.0 E7442.07
G1 X7.48 Y6.15 Z1.2 F360.0 E7451.322
G1 X3.93 Y6.15 Z1.2 F360.0 E7455.769
G1 X1.77 Y10.67 Z1.2 F360.0 E7462.04
G1 X0.98 Y9.69 Z1.2 F360.0 E7463.621
G1 X0.31 Y9.17 Z1.2 F360.0 E7464.678
G1 X3.33 Y6.15 Z1.2 F360.0 E7470.032
G1 X1.56 Y6.15 Z1.2 F360.0 E7472.255
G1 X-0.05 Y8.94 Z1.2 F360.0 E7476.287
G1 X-0.89 Y8.59 Z1.2 F360.0 E7477.421
G1 X-1.36 Y8.47 Z1.2 F360.0 E7478.03
;M103
G1 X8.6 Y7.99 Z1.2 F3600.0
;M101
G1 X8.6 Y10.36 Z1.2 F360.0 E7480.995
G1 X1.98 Y15.2 Z1.2 F360.0 E7491.255
;M103
G1 X0.85 Y11.31 Z1.2 F3600.0
G1 X-8.6 Y-8.58 Z1.2 F3600.0
;M101
G1 X-8.6 Y-10.95 Z1.2 F360.0 E7494.219
G1 X1.42 Y-18.6 Z1.2 F360.0 E7509.98
G1 X-2.73 Y-18.6 Z1.2 F360.0 E7515.167
G1 X-8.6 Y-11.54 Z1.2 F360.0 E7526.644
G1 X-8.6 Y-15.1 Z1.2 F360.0 E7531.092
G1 X-3.32 Y-18.6 Z1.2 F360.0 E7539.01
G1 X-6.88 Y-18.6 Z1.2 F360.0 E7543.456
G1 X-8.6 Y-15.69 Z1.2 F360.0 E7547.681
G1 X-8.6 Y-17.47 Z1.2 F360.0 E7549.904
G1 X-7.47 Y-18.6 Z1.2 F360.0 E7551.901
G1 X-8.06 Y-18.6 Z1.2 F360.0 E7552.643
G1 X-8.6 Y-18.06 Z1.2 F360.0 E7553.591
;M103
G1 X1.75 Y-14.98 Z1.2 F3600.0
;M101
G1 X1.73 Y-14.98 Z1.2 F360.0 E7553.62
G1 X1.73 Y5.37 Z1.2 F360.0 E7579.076
G1 X7.51 Y5.37 Z1.2 F360.0 E7586.316
G1 X7.51 Y-14.98 Z1.2 F360.0 E7611.772
G1 X1.75 Y-14.98 Z1.2 F360.0 E7618.984
;M103
G1 X1.73 Y-15.4 Z1.2 F3600.0
;M101
G1 X1.31 Y-15.4 Z1.2 F360.0 E7619.508
G1 X1.31 Y5.79 Z1.2 F360.0 E7646.012
G1 X7.93 Y5.79 Z1.2 F360.0 E7654.301
G1 X7.93 Y-15.4 Z1.2 F360.0 E7680.804
G1 X1.73 Y-15.4 Z1.2 F360.0 E7688.569
;M103
G1 X-1.51 Y9.23 Z1.2 F3600.0
;M101
G1 X-2.34 Y9.12 Z1.2 F360.0 E7689.622
G1 X-3.39 Y9.26 Z1.2 F360.0 E7690.939
G1 X-4.36 Y9.66 Z1.2 F360.0 E7692.256
G1 X-5.19 Y10.3 Z1.2 F360.0 E7693.573
G1 X-5.83 Y11.14 Z1.2 F360.0 E7694.89
G1 X-6.24 Y12.11 Z1.2 F360.0 E7696.207
G1 X-6.37 Y13.16 Z1.2 F360.0 E7697.523
G1 X-6.24 Y14.2 Z1.2 F360.0 E7698.841
G1 X-5.83 Y15.17 Z1.2 F360.0 E7700.158
G1 X-5.19 Y16.01 Z1.2 F360.0 E7701.475
G1 X-4.36 Y16.65 Z1.2 F360.0 E7702.791
G1 X-3.39 Y17.05 Z1.2 F360.0 E7704.109
G1 X-2.34 Y17.19 Z1.2 F360.0 E7705.426
G1 X-1.3 Y17.05 Z1.2 F360.0 E7706.743
G1 X-0.33 Y16.65 Z1.2 F360.0 E7708.06
G1 X0.51 Y16.01 Z1.2 F360.0 E7709.377
G1 X1.15 Y15.17 Z1.2 F360.0 E7710.694
G1 X1.55 Y14.2 Z1.2 F360.0 E7712.011
G1 X1.69 Y13.16 Z1.2 F360.0 E7713.328
G1 X1.55 Y12.11 Z1.2 F360.0 E7714.645
G1 X1.15 Y11.14 Z1.2 F360.0 E7715.962
G1 X0.51 Y10.3 Z1.2 F360.0 E7717.279
G1 X-0.33 Y9.66 Z1.2 F360.0 E7718.596
G1 X-1.3 Y9.26 Z1.2 F360.0 E7719.912
G1 X-1.51 Y9.23 Z1.2 F360.0 E7720.177
;M103
G1 X-1.45 Y8.82 Z1.2 F3600.0
;M101
G1 X-2.34 Y8.7 Z1.2 F360.0 E7721.298
G1 X-3.49 Y8.85 Z1.2 F360.0 E7722.752
G1 X-4.57 Y9.3 Z1.2 F360.0 E7724.208
G1 X-5.49 Y10.01 Z1.2 F360.0 E7725.663
G1 X-6.2 Y10.93 Z1.2 F360.0 E7727.119
G1 X-6.64 Y12.0 Z1.2 F360.0 E7728.574
G1 X-6.8 Y13.16 Z1.2 F360.0 E7730.027
G1 X-6.64 Y14.31 Z1.2 F360.0 E7731.482
G1 X-6.2 Y15.38 Z1.2 F360.0 E7732.937
G1 X-5.49 Y16.31 Z1.2 F360.0 E7734.392
G1 X-4.57 Y17.01 Z1.2 F360.0 E7735.848
G1 X-3.49 Y17.46 Z1.2 F360.0 E7737.304
G1 X-2.34 Y17.61 Z1.2 F360.0 E7738.758
G1 X-1.19 Y17.46 Z1.2 F360.0 E7740.213
G1 X-0.11 Y17.01 Z1.2 F360.0 E7741.668
G1 X0.81 Y16.31 Z1.2 F360.0 E7743.123
G1 X1.52 Y15.38 Z1.2 F360.0 E7744.578
G1 X1.96 Y14.31 Z1.2 F360.0 E7746.032
G1 X2.11 Y13.16 Z1.2 F360.0 E7747.489
G1 X1.96 Y12.0 Z1.2 F360.0 E7748.943
G1 X1.52 Y10.93 Z1.2 F360.0 E7750.398
G1 X0.81 Y10.01 Z1.2 F360.0 E7751.853
G1 X-0.11 Y9.3 Z1.2 F360.0 E7753.308
G1 X-1.19 Y8.85 Z1.2 F360.0 E7754.763
G1 X-1.45 Y8.82 Z1.2 F360.0 E7755.097
;M103
G1 X-8.95 Y8.85 Z1.2 F3600.0
;M101
G1 X-8.95 Y-18.95 Z1.2 F360.0 E7789.88
G1 X8.95 Y-18.95 Z1.2 F360.0 E7812.28
G1 X8.95 Y18.95 Z1.2 F360.0 E7859.701
G1 X-8.95 Y18.95 Z1.2 F360.0 E7882.101
G1 X-8.95 Y8.85 Z1.2 F360.0 E7894.739
;M103
G1 X-9.37 Y8.85 Z1.2 F3600.0
;M101
G1 X-9.37 Y-19.37 Z1.2 F360.0 E7930.046
G1 X9.37 Y-19.37 Z1.2 F360.0 E7953.495
G1 X9.37 Y19.37 Z1.2 F360.0 E8001.963
G1 X-9.37 Y19.37 Z1.2 F360.0 E8025.412
G1 X-9.37 Y8.85 Z1.2 F360.0 E8038.574
;M103
;M108 S5.629
G1 X-9.79 Y8.85 Z1.2 F3600.0
;M101
G1 X-9.79 Y-19.79 Z1.2 F270.0 E8074.402
G1 X9.79 Y-19.79 Z1.2 F270.0 E8098.897
G1 X9.79 Y19.79 Z1.2 F270.0 E8148.409
G1 X-9.79 Y19.79 Z1.2 F270.0 E8172.904
G1 X-9.79 Y8.85 Z1.2 F270.0 E8186.589
;M103
G1 X-5.47 Y11.35 Z1.2 F3600.0
;M101
G1 X-5.83 Y12.22 Z1.2 F270.0 E8187.768
G1 X-5.95 Y13.16 Z1.2 F270.0 E8188.946
G1 X-5.83 Y14.09 Z1.2 F270.0 E8190.126
G1 X-5.47 Y14.96 Z1.2 F270.0 E8191.305
G1 X-4.89 Y15.71 Z1.2 F270.0 E8192.483
G1 X-4.15 Y16.28 Z1.2 F270.0 E8193.662
G1 X-3.28 Y16.64 Z1.2 F270.0 E8194.841
G1 X-2.34 Y16.77 Z1.2 F270.0 E8196.021
G1 X-1.41 Y16.64 Z1.2 F270.0 E8197.2
G1 X-0.54 Y16.28 Z1.2 F270.0 E8198.378
G1 X0.21 Y15.71 Z1.2 F270.0 E8199.557
G1 X0.79 Y14.96 Z1.2 F270.0 E8200.735
G1 X1.15 Y14.09 Z1.2 F270.0 E8201.915
G1 X1.27 Y13.16 Z1.2 F270.0 E8203.094
G1 X1.15 Y12.22 Z1.2 F270.0 E8204.273
G1 X0.79 Y11.35 Z1.2 F270.0 E8205.452
G1 X0.21 Y10.6 Z1.2 F270.0 E8206.631
G1 X-0.54 Y10.03 Z1.2 F270.0 E8207.809
G1 X-1.41 Y9.67 Z1.2 F270.0 E8208.987
G1 X-2.34 Y9.55 Z1.2 F270.0 E8210.167
G1 X-3.28 Y9.67 Z1.2 F270.0 E8211.346
G1 X-4.15 Y10.03 Z1.2 F270.0 E8212.526
G1 X-4.89 Y10.6 Z1.2 F270.0 E8213.704
G1 X-5.47 Y11.35 Z1.2 F270.0 E8214.882
;M103
G1 X2.14 Y4.95 Z1.2 F3600.0
;M101
G1 X7.1 Y4.95 Z1.2 F270.0 E8221.076
G1 X7.1 Y-14.56 Z1.2 F270.0 E8245.483
G1 X2.14 Y-14.56 Z1.2 F270.0 E8251.676
G1 X2.14 Y4.95 Z1.2 F270.0 E8276.083
;M103
;M108 S7.506
G1 X1.41 Y6.15 Z1.5 F3600.0
;M101
G1 X3.18 Y6.15 Z1.5 F360.0 E8278.306
G1 X8.6 Y12.74 Z1.5 F360.0 E8288.984
G1 X8.6 Y9.78 Z1.5 F360.0 E8292.689
G1 X3.78 Y6.15 Z1.5 F360.0 E8300.243
G1 X7.33 Y6.15 Z1.5 F360.0 E8304.689
G1 X8.6 Y9.19 Z1.5 F360.0 E8308.814
G1 X8.6 Y6.82 Z1.5 F360.0 E8311.779
G1 X7.92 Y6.15 Z1.5 F360.0 E8312.971
G1 X8.29 Y5.92 Z1.5 F360.0 E8313.508
G1 X8.6 Y6.23 Z1.5 F360.0 E8314.054
G1 X8.6 Y5.64 Z1.5 F360.0 E8314.795
G1 X8.29 Y5.33 Z1.5 F360.0 E8315.341
G1 X8.6 Y5.04 Z1.5 F360.0 E8315.866
G1 X8.29 Y4.73 Z1.5 F360.0 E8316.412
G1 X8.6 Y4.45 Z1.5 F360.0 E8316.937
G1 X8.29 Y4.14 Z1.5 F360.0 E8317.483
G1 X8.6 Y3.86 Z1.5 F360.0 E8318.008
G1 X8.29 Y3.55 Z1.5 F360.0 E8318.555
G1 X8.6 Y3.27 Z1.5 F360.0 E8319.08
G1 X8.29 Y2.96 Z1.5 F360.0 E8319.626
G1 X8.6 Y2.67 Z1.5 F360.0 E8320.151
G1 X8.29 Y2.37 Z1.5 F360.0 E8320.696
G1 X8.6 Y2.08 Z1.5 F360.0 E8321.222
G1 X8.29 Y1.77 Z1.5 F360.0 E8321.768
G1 X8.6 Y1.49 Z1.5 F360.0 E8322.293
G1 X8.29 Y1.18 Z1.5 F360.0 E8322.839
G1 X8.6 Y0.9 Z1.5 F360.0 E8323.364
G1 X8.29 Y0.59 Z1.5 F360.0 E8323.911
G1 X8.6 Y0.3 Z1.5 F360.0 E8324.436
G1 X8.29 Y-0.01 Z1.5 F360.0 E8324.981
G1 X8.6 Y-0.29 Z1.5 F360.0 E8325.506
G1 X8.29 Y-0.6 Z1.5 F360.0 E8326.052
G1 X8.6 Y-0.88 Z1.5 F360.0 E8326.578
G1 X8.29 Y-1.19 Z1.5 F360.0 E8327.124
G1 X8.6 Y-1.47 Z1.5 F360.0 E8327.649
G1 X8.29 Y-1.78 Z1.5 F360.0 E8328.195
G1 X8.6 Y-2.07 Z1.5 F360.0 E8328.72
G1 X8.29 Y-2.38 Z1.5 F360.0 E8329.266
G1 X8.6 Y-2.66 Z1.5 F360.0 E8329.791
G1 X8.29 Y-2.97 Z1.5 F360.0 E8330.337
G1 X8.6 Y-3.25 Z1.5 F360.0 E8330.862
G1 X8.29 Y-3.56 Z1.5 F360.0 E8331.408
G1 X8.6 Y-3.84 Z1.5 F360.0 E8331.933
G1 X8.29 Y-4.15 Z1.5 F360.0 E8332.48
G1 X8.6 Y-4.44 Z1.5 F360.0 E8333.005
G1 X8.29 Y-4.74 Z1.5 F360.0 E8333.551
G1 X8.6 Y-5.03 Z1.5 F360.0 E8334.076
G1 X8.29 Y-5.34 Z1.5 F360.0 E8334.621
G1 X8.6 Y-5.62 Z1.5 F360.0 E8335.147
G1 X8.29 Y-5.93 Z1.5 F360.0 E8335.693
G1 X8.6 Y-6.21 Z1.5 F360.0 E8336.218
G1 X8.29 Y-6.52 Z1.5 F360.0 E8336.764
G1 X8.6 Y-6.81 Z1.5 F360.0 E8337.289
G1 X8.29 Y-7.11 Z1.5 F360.0 E8337.836
G1 X8.6 Y-7.4 Z1.5 F360.0 E8338.361
G1 X8.29 Y-7.71 Z1.5 F360.0 E8338.906
G1 X8.6 Y-7.99 Z1.5 F360.0 E8339.431
G1 X8.29 Y-8.3 Z1.5 F360.0 E8339.977
G1 X8.6 Y-8.58 Z1.5 F360.0 E8340.503
G1 X8.29 Y-8.89 Z1.5 F360.0 E8341.049
G1 X8.6 Y-9.18 Z1.5 F360.0 E8341.574
G1 X8.29 Y-9.48 Z1.5 F360.0 E8342.12
G1 X8.6 Y-9.77 Z1.5 F360.0 E8342.645
G1 X8.29 Y-10.08 Z1.5 F360.0 E8343.191
G1 X8.6 Y-10.36 Z1.5 F360.0 E8343.716
G1 X8.29 Y-10.67 Z1.5 F360.0 E8344.262
G1 X8.6 Y-10.95 Z1.5 F360.0 E8344.787
G1 X8.29 Y-11.26 Z1.5 F360.0 E8345.333
G1 X8.6 Y-11.54 Z1.5 F360.0 E8345.858
G1 X8.29 Y-11.85 Z1.5 F360.0 E8346.405
G1 X8.6 Y-12.14 Z1.5 F360.0 E8346.93
G1 X8.29 Y-12.45 Z1.5 F360.0 E8347.476
G1 X8.6 Y-12.73 Z1.5 F360.0 E8348.001
G1 X8.29 Y-13.04 Z1.5 F360.0 E8348.546
G1 X8.6 Y-13.32 Z1.5 F360.0 E8349.072
G1 X8.29 Y-13.63 Z1.5 F360.0 E8349.618
G1 X8.6 Y-13.91 Z1.5 F360.0 E8350.143
G1 X8.29 Y-14.22 Z1.5 F360.0 E8350.689
G1 X8.6 Y-14.51 Z1.5 F360.0 E8351.214
G1 X8.29 Y-14.82 Z1.5 F360.0 E8351.761
G1 X8.6 Y-15.1 Z1.5 F360.0 E8352.286
G1 X8.29 Y-15.41 Z1.5 F360.0 E8352.831
G1 X8.6 Y-15.69 Z1.5 F360.0 E8353.356
G1 X7.94 Y-15.75 Z1.5 F360.0 E8354.18
;M103
G1 X8.06 Y-18.6 Z1.5 F3600.0
;M101
G1 X8.6 Y-18.06 Z1.5 F360.0 E8355.128
G1 X8.6 Y-16.28 Z1.5 F360.0 E8357.351
G1 X7.47 Y-18.6 Z1.5 F360.0 E8360.571
G1 X4.51 Y-18.6 Z1.5 F360.0 E8364.276
G1 X7.35 Y-15.75 Z1.5 F360.0 E8369.308
G1 X4.39 Y-15.75 Z1.5 F360.0 E8373.013
G1 X3.91 Y-18.6 Z1.5 F360.0 E8376.62
G1 X0.95 Y-18.6 Z1.5 F360.0 E8380.326
G1 X3.8 Y-15.75 Z1.5 F360.0 E8385.356
G1 X1.43 Y-15.75 Z1.5 F360.0 E8388.32
G1 X0.36 Y-18.6 Z1.5 F360.0 E8392.119
G1 X-3.2 Y-18.6 Z1.5 F360.0 E8396.567
G1 X0.95 Y-15.64 Z1.5 F360.0 E8402.939
G1 X0.95 Y-12.68 Z1.5 F360.0 E8406.644
G1 X-3.79 Y-18.6 Z1.5 F360.0 E8416.131
G1 X-7.34 Y-18.6 Z1.5 F360.0 E8420.577
G1 X0.95 Y-12.08 Z1.5 F360.0 E8433.767
G1 X0.95 Y-8.53 Z1.5 F360.0 E8438.213
G1 X-7.93 Y-18.6 Z1.5 F360.0 E8455.011
G1 X-8.53 Y-18.6 Z1.5 F360.0 E8455.751
G1 X-8.6 Y-18.08 Z1.5 F360.0 E8456.41
G1 X-8.6 Y-14.52 Z1.5 F360.0 E8460.858
G1 X0.95 Y-7.94 Z1.5 F360.0 E8475.366
G1 X0.95 Y-4.38 Z1.5 F360.0 E8479.812
G1 X-8.6 Y-13.93 Z1.5 F360.0 E8496.701
G1 X-8.6 Y-10.97 Z1.5 F360.0 E8500.407
G1 X0.95 Y-3.79 Z1.5 F360.0 E8515.349
G1 X0.95 Y-0.83 Z1.5 F360.0 E8519.053
G1 X-8.6 Y-10.37 Z1.5 F360.0 E8535.942
G1 X-8.6 Y-6.82 Z1.5 F360.0 E8540.39
G1 X0.95 Y-0.24 Z1.5 F360.0 E8554.898
G1 X0.95 Y3.32 Z1.5 F360.0 E8559.344
G1 X-8.6 Y-6.23 Z1.5 F360.0 E8576.233
G1 X-8.6 Y-4.45 Z1.5 F360.0 E8578.456
G1 X0.95 Y3.91 Z1.5 F360.0 E8594.333
G1 X0.95 Y5.69 Z1.5 F360.0 E8596.556
;M103
G1 X-8.6 Y-3.86 Z1.5 F3600.0
;M101
G1 X-8.6 Y-0.9 Z1.5 F360.0 E8600.261
G1 X8.6 Y13.34 Z1.5 F360.0 E8628.184
G1 X8.6 Y17.48 Z1.5 F360.0 E8633.37
G1 X0.51 Y8.8 Z1.5 F360.0 E8648.209
G1 X-0.57 Y8.32 Z1.5 F360.0 E8649.694
G1 X-8.6 Y-0.3 Z1.5 F360.0 E8664.427
G1 X-8.6 Y2.07 Z1.5 F360.0 E8667.391
G1 X-1.64 Y8.43 Z1.5 F360.0 E8679.192
;M103
G1 X-2.32 Y8.35 Z1.5 F3600.0
;M101
G1 X-3.37 Y8.48 Z1.5 F360.0 E8680.52
G1 X-4.25 Y8.78 Z1.5 F360.0 E8681.686
G1 X-8.6 Y2.66 Z1.5 F360.0 E8691.076
G1 X-8.6 Y6.81 Z1.5 F360.0 E8696.263
G1 X-4.67 Y8.95 Z1.5 F360.0 E8701.862
G1 X-5.69 Y9.71 Z1.5 F360.0 E8703.451
G1 X-6.22 Y10.37 Z1.5 F360.0 E8704.506
G1 X-8.6 Y7.4 Z1.5 F360.0 E8709.265
G1 X-8.6 Y10.95 Z1.5 F360.0 E8713.711
G1 X-6.48 Y10.7 Z1.5 F360.0 E8716.383
G1 X-7.0 Y11.96 Z1.5 F360.0 E8718.085
G1 X-7.14 Y13.01 Z1.5 F360.0 E8719.405
G1 X-8.6 Y11.54 Z1.5 F360.0 E8721.989
G1 X-8.6 Y13.91 Z1.5 F360.0 E8724.954
G1 X-7.09 Y13.64 Z1.5 F360.0 E8726.869
G1 X-7.0 Y14.32 Z1.5 F360.0 E8727.729
G1 X-6.62 Y15.3 Z1.5 F360.0 E8729.037
G1 X-8.6 Y14.51 Z1.5 F360.0 E8731.7
G1 X-8.6 Y16.28 Z1.5 F360.0 E8733.925
G1 X-6.28 Y18.6 Z1.5 F360.0 E8738.017
G1 X-4.51 Y18.6 Z1.5 F360.0 E8740.241
G1 X-4.48 Y17.43 Z1.5 F360.0 E8741.695
G1 X-3.51 Y17.82 Z1.5 F360.0 E8743.004
G1 X-3.91 Y18.6 Z1.5 F360.0 E8744.103
G1 X-2.73 Y18.6 Z1.5 F360.0 E8745.586
G1 X-2.83 Y17.91 Z1.5 F360.0 E8746.459
G1 X-2.19 Y17.95 Z1.5 F360.0 E8747.258
G1 X-1.67 Y17.88 Z1.5 F360.0 E8747.919
G1 X-2.14 Y18.6 Z1.5 F360.0 E8748.99
G1 X-0.95 Y18.6 Z1.5 F360.0 E8750.473
G1 X-1.14 Y17.81 Z1.5 F360.0 E8751.482
G1 X-0.3 Y17.48 Z1.5 F360.0 E8752.623
G1 X-0.36 Y18.6 Z1.5 F360.0 E8754.029
G1 X0.83 Y18.6 Z1.5 F360.0 E8755.511
G1 X0.11 Y17.29 Z1.5 F360.0 E8757.375
G1 X1.1 Y16.51 Z1.5 F360.0 E8758.957
G1 X1.42 Y18.6 Z1.5 F360.0 E8761.602
G1 X4.38 Y18.6 Z1.5 F360.0 E8765.308
G1 X1.36 Y16.17 Z1.5 F360.0 E8770.152
G1 X1.86 Y15.49 Z1.5 F360.0 E8771.213
G1 X2.21 Y14.65 Z1.5 F360.0 E8772.348
G1 X4.97 Y18.6 Z1.5 F360.0 E8778.38
G1 X8.53 Y18.6 Z1.5 F360.0 E8782.826
G1 X8.6 Y18.08 Z1.5 F360.0 E8783.485
G1 X2.34 Y14.19 Z1.5 F360.0 E8792.704
G1 X2.47 Y13.13 Z1.5 F360.0 E8794.029
G1 X2.22 Y11.7 Z1.5 F360.0 E8795.848
G1 X1.71 Y10.6 Z1.5 F360.0 E8797.367
;M103
G1 X1.22 Y14.11 Z1.5 F3600.0
G1 X0.85 Y15.0 Z1.5 F3600.0
G1 X0.27 Y15.77 Z1.5 F3600.0
G1 X-0.5 Y16.35 Z1.5 F3600.0
G1 X-6.88 Y18.6 Z1.5 F3600.0
;M101
G1 X-7.47 Y18.6 Z1.5 F360.0 E8798.107
G1 X-8.6 Y16.88 Z1.5 F360.0 E8800.682
G1 X-8.6 Y18.06 Z1.5 F360.0 E8802.165
G1 X-8.06 Y18.6 Z1.5 F360.0 E8803.113
;M103
G1 X-5.54 Y11.31 Z1.5 F3600.0
G1 X-4.95 Y10.55 Z1.5 F3600.0
G1 X1.73 Y5.03 Z1.5 F3600.0
;M101
G1 X1.73 Y5.37 Z1.5 F360.0 E8803.542
G1 X7.51 Y5.37 Z1.5 F360.0 E8810.783
G1 X7.51 Y-14.98 Z1.5 F360.0 E8836.238
G1 X1.73 Y-14.98 Z1.5 F360.0 E8843.479
G1 X1.73 Y5.03 Z1.5 F360.0 E8868.505
;M103
G1 X1.31 Y5.03 Z1.5 F3600.0
;M101
G1 X1.31 Y5.79 Z1.5 F360.0 E8869.459
G1 X1.73 Y5.79 Z1.5 F360.0 E8869.983
G1 X7.93 Y5.79 Z1.5 F360.0 E8877.748
G1 X7.93 Y-15.4 Z1.5 F360.0 E8904.251
G1 X1.31 Y-15.4 Z1.5 F360.0 E8912.541
G1 X1.31 Y5.03 Z1.5 F360.0 E8938.091
;M103
G1 X-0.57 Y9.56 Z1.5 F3600.0
;M101
G1 X-1.3 Y9.26 Z1.5 F360.0 E8939.07
G1 X-2.34 Y9.12 Z1.5 F360.0 E8940.387
G1 X-3.39 Y9.26 Z1.5 F360.0 E8941.705
G1 X-4.36 Y9.66 Z1.5 F360.0 E8943.022
G1 X-5.19 Y10.3 Z1.5 F360.0 E8944.339
G1 X-5.83 Y11.14 Z1.5 F360.0 E8945.656
G1 X-6.24 Y12.11 Z1.5 F360.0 E8946.973
G1 X-6.37 Y13.16 Z1.5 F360.0 E8948.289
G1 X-6.24 Y14.2 Z1.5 F360.0 E8949.607
G1 X-5.83 Y15.17 Z1.5 F360.0 E8950.924
G1 X-5.19 Y16.01 Z1.5 F360.0 E8952.24
G1 X-4.36 Y16.65 Z1.5 F360.0 E8953.557
G1 X-3.39 Y17.05 Z1.5 F360.0 E8954.875
G1 X-2.34 Y17.19 Z1.5 F360.0 E8956.192
G1 X-1.3 Y17.05 Z1.5 F360.0 E8957.509
G1 X-0.33 Y16.65 Z1.5 F360.0 E8958.826
G1 X0.51 Y16.01 Z1.5 F360.0 E8960.143
G1 X1.15 Y15.17 Z1.5 F360.0 E8961.459
G1 X1.55 Y14.2 Z1.5 F360.0 E8962.777
G1 X1.69 Y13.16 Z1.5 F360.0 E8964.094
G1 X1.55 Y12.11 Z1.5 F360.0 E8965.41
G1 X1.15 Y11.14 Z1.5 F360.0 E8966.728
G1 X0.51 Y10.3 Z1.5 F360.0 E8968.045
G1 X-0.33 Y9.66 Z1.5 F360.0 E8969.362
G1 X-0.57 Y9.56 Z1.5 F360.0 E8969.699
;M103
G1 X-0.41 Y9.17 Z1.5 F3600.0
;M101
G1 X-1.19 Y8.85 Z1.5 F360.0 E8970.749
G1 X-2.34 Y8.7 Z1.5 F360.0 E8972.203
G1 X-3.49 Y8.85 Z1.5 F360.0 E8973.658
G1 X-4.57 Y9.3 Z1.5 F360.0 E8975.114
G1 X-5.49 Y10.01 Z1.5 F360.0 E8976.569
G1 X-6.2 Y10.93 Z1.5 F360.0 E8978.024
G1 X-6.64 Y12.0 Z1.5 F360.0 E8979.479
G1 X-6.8 Y13.16 Z1.5 F360.0 E8980.933
G1 X-6.64 Y14.31 Z1.5 F360.0 E8982.388
G1 X-6.2 Y15.38 Z1.5 F360.0 E8983.843
G1 X-5.49 Y16.31 Z1.5 F360.0 E8985.298
G1 X-4.57 Y17.01 Z1.5 F360.0 E8986.753
G1 X-3.49 Y17.46 Z1.5 F360.0 E8988.209
G1 X-2.34 Y17.61 Z1.5 F360.0 E8989.664
G1 X-1.19 Y17.46 Z1.5 F360.0 E8991.118
G1 X-0.11 Y17.01 Z1.5 F360.0 E8992.573
G1 X0.81 Y16.31 Z1.5 F360.0 E8994.029
G1 X1.52 Y15.38 Z1.5 F360.0 E8995.484
G1 X1.96 Y14.31 Z1.5 F360.0 E8996.938
G1 X2.11 Y13.16 Z1.5 F360.0 E8998.394
G1 X1.96 Y12.0 Z1.5 F360.0 E8999.849
G1 X1.52 Y10.93 Z1.5 F360.0 E9001.303
G1 X0.81 Y10.01 Z1.5 F360.0 E9002.759
G1 X-0.11 Y9.3 Z1.5 F360.0 E9004.214
G1 X-0.41 Y9.17 Z1.5 F360.0 E9004.619
;M103
G1 X-8.95 Y9.3 Z1.5 F3600.0
;M101
G1 X-8.95 Y-18.95 Z1.5 F360.0 E9039.96
G1 X8.95 Y-18.95 Z1.5 F360.0 E9062.36
G1 X8.95 Y18.95 Z1.5 F360.0 E9109.78
G1 X-8.95 Y18.95 Z1.5 F360.0 E9132.181
G1 X-8.95 Y9.3 Z1.5 F360.0 E9144.261
;M103
G1 X-9.37 Y9.3 Z1.5 F3600.0
;M101
G1 X-9.37 Y-19.37 Z1.5 F360.0 E9180.125
G1 X9.37 Y-19.37 Z1.5 F360.0 E9203.574
G1 X9.37 Y19.37 Z1.5 F360.0 E9252.043
G1 X-9.37 Y19.37 Z1.5 F360.0 E9275.492
G1 X-9.37 Y9.3 Z1.5 F360.0 E9288.096
;M103
;M108 S5.629
G1 X-9.79 Y9.3 Z1.5 F3600.0
;M101
G1 X-9.79 Y-19.79 Z1.5 F270.0 E9324.481
G1 X9.79 Y-19.79 Z1.5 F270.0 E9348.976
G1 X9.79 Y19.79 Z1.5 F270.0 E9398.489
G1 X-9.79 Y19.79 Z1.5 F270.0 E9422.984
G1 X-9.79 Y9.3 Z1.5 F270.0 E9436.111
;M103
G1 X-5.47 Y11.35 Z1.5 F3600.0
;M101
G1 X-5.83 Y12.22 Z1.5 F270.0 E9437.29
G1 X-5.95 Y13.16 Z1.5 F270.0 E9438.468
G1 X-5.83 Y14.09 Z1.5 F270.0 E9439.648
G1 X-5.47 Y14.96 Z1.5 F270.0 E9440.827
G1 X-4.89 Y15.71 Z1.5 F270.0 E9442.005
G1 X-4.15 Y16.28 Z1.5 F270.0 E9443.183
G1 X-3.28 Y16.64 Z1.5 F270.0 E9444.363
G1 X-2.34 Y16.77 Z1.5 F270.0 E9445.542
G1 X-1.41 Y16.64 Z1.5 F270.0 E9446.722
G1 X-0.54 Y16.28 Z1.5 F270.0 E9447.9
G1 X0.21 Y15.71 Z1.5 F270.0 E9449.078
G1 X0.79 Y14.96 Z1.5 F270.0 E9450.257
G1 X1.15 Y14.09 Z1.5 F270.0 E9451.436
G1 X1.27 Y13.16 Z1.5 F270.0 E9452.616
G1 X1.15 Y12.22 Z1.5 F270.0 E9453.794
G1 X0.79 Y11.35 Z1.5 F270.0 E9454.974
G1 X0.21 Y10.6 Z1.5 F270.0 E9456.152
G1 X-0.54 Y10.03 Z1.5 F270.0 E9457.331
G1 X-1.41 Y9.67 Z1.5 F270.0 E9458.509
G1 X-2.34 Y9.55 Z1.5 F270.0 E9459.688
G1 X-3.28 Y9.67 Z1.5 F270.0 E9460.868
G1 X-4.15 Y10.03 Z1.5 F270.0 E9462.047
G1 X-4.89 Y10.6 Z1.5 F270.0 E9463.226
G1 X-5.47 Y11.35 Z1.5 F270.0 E9464.404
;M103
G1 X2.14 Y4.95 Z1.5 F3600.0
;M101
G1 X7.1 Y4.95 Z1.5 F270.0 E9470.597
G1 X7.1 Y-14.56 Z1.5 F270.0 E9495.005
G1 X2.14 Y-14.56 Z1.5 F270.0 E9501.198
G1 X2.14 Y4.95 Z1.5 F270.0 E9525.605
;M103
;M108 S7.506
G1 X-3.89 Y8.63 Z1.8 F3600.0
;M101
G1 X-2.43 Y8.35 Z1.8 F360.0 E9527.468
G1 X-1.89 Y8.4 Z1.8 F360.0 E9528.151
G1 X0.96 Y6.15 Z1.8 F360.0 E9532.696
G1 X0.95 Y4.38 Z1.8 F360.0 E9534.902
;M103
G1 X8.6 Y18.06 Z1.8 F3600.0
;M101
G1 X8.06 Y18.6 Z1.8 F360.0 E9535.85
G1 X6.88 Y18.6 Z1.8 F360.0 E9537.333
G1 X8.6 Y17.47 Z1.8 F360.0 E9539.908
G1 X8.6 Y14.51 Z1.8 F360.0 E9543.613
G1 X6.28 Y18.6 Z1.8 F360.0 E9549.492
G1 X2.73 Y18.6 Z1.8 F360.0 E9553.94
G1 X8.6 Y13.91 Z1.8 F360.0 E9563.332
G1 X8.6 Y10.95 Z1.8 F360.0 E9567.037
G1 X2.14 Y18.6 Z1.8 F360.0 E9579.558
G1 X-0.23 Y18.6 Z1.8 F360.0 E9582.523
G1 X-0.3 Y17.48 Z1.8 F360.0 E9583.929
G1 X-1.24 Y17.83 Z1.8 F360.0 E9585.187
G1 X-0.83 Y18.6 Z1.8 F360.0 E9586.282
G1 X-1.42 Y18.6 Z1.8 F360.0 E9587.023
G1 X-1.92 Y17.91 Z1.8 F360.0 E9588.084
G1 X-2.01 Y18.6 Z1.8 F360.0 E9588.946
G1 X-2.6 Y18.6 Z1.8 F360.0 E9589.687
G1 X-2.54 Y17.94 Z1.8 F360.0 E9590.508
G1 X-3.07 Y17.88 Z1.8 F360.0 E9591.169
G1 X-3.2 Y18.6 Z1.8 F360.0 E9592.087
G1 X-3.79 Y18.6 Z1.8 F360.0 E9592.828
G1 X-3.59 Y17.81 Z1.8 F360.0 E9593.848
G1 X-4.43 Y17.46 Z1.8 F360.0 E9594.981
G1 X-4.38 Y18.6 Z1.8 F360.0 E9596.406
G1 X-4.97 Y18.6 Z1.8 F360.0 E9597.148
G1 X-5.16 Y17.01 Z1.8 F360.0 E9599.148
G1 X-5.81 Y16.47 Z1.8 F360.0 E9600.202
G1 X-5.56 Y18.6 Z1.8 F360.0 E9602.875
G1 X-8.53 Y18.6 Z1.8 F360.0 E9606.581
G1 X-8.6 Y18.08 Z1.8 F360.0 E9607.24
G1 X-8.6 Y16.89 Z1.8 F360.0 E9608.722
G1 X-6.07 Y16.14 Z1.8 F360.0 E9612.022
G1 X-6.56 Y15.45 Z1.8 F360.0 E9613.085
G1 X-6.91 Y14.61 Z1.8 F360.0 E9614.219
G1 X-7.03 Y14.14 Z1.8 F360.0 E9614.828
G1 X-8.6 Y16.3 Z1.8 F360.0 E9618.173
G1 X-8.6 Y12.74 Z1.8 F360.0 E9622.62
G1 X-7.1 Y13.61 Z1.8 F360.0 E9624.791
G1 X-7.14 Y13.07 Z1.8 F360.0 E9625.474
G1 X-7.05 Y12.39 Z1.8 F360.0 E9626.336
G1 X-8.6 Y12.15 Z1.8 F360.0 E9628.288
G1 X-8.6 Y10.97 Z1.8 F360.0 E9629.771
G1 X-6.87 Y11.6 Z1.8 F360.0 E9632.08
G1 X-5.44 Y8.99 Z1.8 F360.0 E9635.808
G1 X0.95 Y3.79 Z1.8 F360.0 E9646.11
G1 X0.95 Y0.83 Z1.8 F360.0 E9649.814
G1 X-8.6 Y10.37 Z1.8 F360.0 E9666.704
G1 X-8.6 Y6.82 Z1.8 F360.0 E9671.151
G1 X0.95 Y0.24 Z1.8 F360.0 E9685.659
G1 X0.95 Y-3.32 Z1.8 F360.0 E9690.105
G1 X-8.6 Y6.23 Z1.8 F360.0 E9706.994
G1 X-8.6 Y2.67 Z1.8 F360.0 E9711.441
G1 X0.95 Y-3.91 Z1.8 F360.0 E9725.949
G1 X0.95 Y-7.47 Z1.8 F360.0 E9730.395
G1 X-8.6 Y2.08 Z1.8 F360.0 E9747.285
G1 X-8.6 Y-0.88 Z1.8 F360.0 E9750.99
G1 X0.95 Y-8.06 Z1.8 F360.0 E9765.931
G1 X0.95 Y-11.02 Z1.8 F360.0 E9769.637
G1 X-8.6 Y-1.47 Z1.8 F360.0 E9786.526
G1 X-8.6 Y-5.03 Z1.8 F360.0 E9790.972
G1 X0.95 Y-11.61 Z1.8 F360.0 E9805.481
G1 X0.95 Y-15.17 Z1.8 F360.0 E9809.927
G1 X-8.6 Y-5.62 Z1.8 F360.0 E9826.817
G1 X-8.6 Y-7.99 Z1.8 F360.0 E9829.78
G1 X2.01 Y-18.6 Z1.8 F360.0 E9848.546
G1 X4.38 Y-18.6 Z1.8 F360.0 E9851.51
G1 X1.54 Y-15.75 Z1.8 F360.0 E9856.54
G1 X5.09 Y-15.75 Z1.8 F360.0 E9860.986
G1 X4.97 Y-18.6 Z1.8 F360.0 E9864.547
G1 X8.53 Y-18.6 Z1.8 F360.0 E9868.993
G1 X8.6 Y-18.08 Z1.8 F360.0 E9869.652
G1 X8.6 Y-17.48 Z1.8 F360.0 E9870.394
G1 X5.68 Y-15.75 Z1.8 F360.0 E9874.633
G1 X7.46 Y-15.75 Z1.8 F360.0 E9876.856
G1 X8.6 Y-16.89 Z1.8 F360.0 E9878.867
G1 X8.6 Y-16.3 Z1.8 F360.0 E9879.608
G1 X8.05 Y-15.75 Z1.8 F360.0 E9880.572
G1 X8.29 Y-15.4 Z1.8 F360.0 E9881.107
G1 X8.6 Y-15.71 Z1.8 F360.0 E9881.652
G1 X8.6 Y-15.11 Z1.8 F360.0 E9882.393
G1 X8.29 Y-14.81 Z1.8 F360.0 E9882.939
G1 X8.6 Y-14.52 Z1.8 F360.0 E9883.465
G1 X8.29 Y-14.21 Z1.8 F360.0 E9884.01
G1 X8.6 Y-13.93 Z1.8 F360.0 E9884.535
G1 X8.29 Y-13.62 Z1.8 F360.0 E9885.081
G1 X8.6 Y-13.34 Z1.8 F360.0 E9885.606
G1 X8.29 Y-13.03 Z1.8 F360.0 E9886.153
G1 X8.6 Y-12.74 Z1.8 F360.0 E9886.678
G1 X8.29 Y-12.44 Z1.8 F360.0 E9887.224
G1 X8.6 Y-12.15 Z1.8 F360.0 E9887.749
G1 X8.29 Y-11.84 Z1.8 F360.0 E9888.295
G1 X8.6 Y-11.56 Z1.8 F360.0 E9888.82
G1 X8.29 Y-11.25 Z1.8 F360.0 E9889.366
G1 X8.6 Y-10.97 Z1.8 F360.0 E9889.891
G1 X8.29 Y-10.66 Z1.8 F360.0 E9890.437
G1 X8.6 Y-10.37 Z1.8 F360.0 E9890.962
G1 X8.29 Y-10.07 Z1.8 F360.0 E9891.508
G1 X8.6 Y-9.78 Z1.8 F360.0 E9892.034
G1 X8.29 Y-9.47 Z1.8 F360.0 E9892.58
G1 X8.6 Y-9.19 Z1.8 F360.0 E9893.105
G1 X8.29 Y-8.88 Z1.8 F360.0 E9893.65
G1 X8.6 Y-8.6 Z1.8 F360.0 E9894.175
G1 X8.29 Y-8.29 Z1.8 F360.0 E9894.722
G1 X8.6 Y-8.0 Z1.8 F360.0 E9895.247
G1 X8.29 Y-7.7 Z1.8 F360.0 E9895.793
G1 X8.6 Y-7.41 Z1.8 F360.0 E9896.318
G1 X8.29 Y-7.1 Z1.8 F360.0 E9896.864
G1 X8.6 Y-6.82 Z1.8 F360.0 E9897.39
G1 X8.29 Y-6.51 Z1.8 F360.0 E9897.935
G1 X8.6 Y-6.23 Z1.8 F360.0 E9898.46
G1 X8.29 Y-5.92 Z1.8 F360.0 E9899.006
G1 X8.6 Y-5.64 Z1.8 F360.0 E9899.531
G1 X8.29 Y-5.33 Z1.8 F360.0 E9900.078
G1 X8.6 Y-5.04 Z1.8 F360.0 E9900.603
G1 X8.29 Y-4.73 Z1.8 F360.0 E9901.149
G1 X8.6 Y-4.45 Z1.8 F360.0 E9901.674
G1 X8.29 Y-4.14 Z1.8 F360.0 E9902.22
G1 X8.6 Y-3.86 Z1.8 F360.0 E9902.745
G1 X8.29 Y-3.55 Z1.8 F360.0 E9903.291
G1 X8.6 Y-3.27 Z1.8 F360.0 E9903.816
G1 X8.29 Y-2.96 Z1.8 F360.0 E9904.362
G1 X8.6 Y-2.67 Z1.8 F360.0 E9904.887
G1 X8.29 Y-2.37 Z1.8 F360.0 E9905.433
G1 X8.6 Y-2.08 Z1.8 F360.0 E9905.959
G1 X8.29 Y-1.77 Z1.8 F360.0 E9906.505
G1 X8.6 Y-1.49 Z1.8 F360.0 E9907.03
G1 X8.29 Y-1.18 Z1.8 F360.0 E9907.575
G1 X8.6 Y-0.9 Z1.8 F360.0 E9908.1
G1 X8.29 Y-0.59 Z1.8 F360.0 E9908.647
G1 X8.6 Y-0.3 Z1.8 F360.0 E9909.172
G1 X8.29 Y0.01 Z1.8 F360.0 E9909.718
G1 X8.6 Y0.29 Z1.8 F360.0 E9910.243
G1 X8.29 Y0.6 Z1.8 F360.0 E9910.789
G1 X8.6 Y0.88 Z1.8 F360.0 E9911.315
G1 X8.29 Y1.19 Z1.8 F360.0 E9911.86
G1 X8.6 Y1.47 Z1.8 F360.0 E9912.386
G1 X8.29 Y1.78 Z1.8 F360.0 E9912.931
G1 X8.6 Y2.07 Z1.8 F360.0 E9913.456
G1 X8.29 Y2.38 Z1.8 F360.0 E9914.003
G1 X8.6 Y2.66 Z1.8 F360.0 E9914.528
G1 X8.29 Y2.97 Z1.8 F360.0 E9915.074
G1 X8.6 Y3.25 Z1.8 F360.0 E9915.599
G1 X8.29 Y3.56 Z1.8 F360.0 E9916.145
G1 X8.6 Y3.84 Z1.8 F360.0 E9916.67
G1 X8.29 Y4.15 Z1.8 F360.0 E9917.216
G1 X8.6 Y4.44 Z1.8 F360.0 E9917.741
G1 X8.29 Y4.74 Z1.8 F360.0 E9918.287
G1 X8.6 Y5.03 Z1.8 F360.0 E9918.812
G1 X8.29 Y5.34 Z1.8 F360.0 E9919.358
G1 X8.6 Y5.62 Z1.8 F360.0 E9919.884
G1 X8.07 Y6.15 Z1.8 F360.0 E9920.812
G1 X8.6 Y6.21 Z1.8 F360.0 E9921.474
G1 X8.6 Y7.4 Z1.8 F360.0 E9922.957
G1 X2.33 Y14.26 Z1.8 F360.0 E9934.583
G1 X2.45 Y12.96 Z1.8 F360.0 E9936.221
G1 X2.31 Y11.91 Z1.8 F360.0 E9937.542
G1 X1.96 Y11.07 Z1.8 F360.0 E9938.676
G1 X7.48 Y6.15 Z1.8 F360.0 E9947.928
G1 X3.93 Y6.15 Z1.8 F360.0 E9952.374
G1 X1.77 Y10.67 Z1.8 F360.0 E9958.646
G1 X0.98 Y9.69 Z1.8 F360.0 E9960.227
G1 X0.31 Y9.17 Z1.8 F360.0 E9961.284
G1 X3.33 Y6.15 Z1.8 F360.0 E9966.638
G1 X1.56 Y6.15 Z1.8 F360.0 E9968.861
G1 X-0.05 Y8.94 Z1.8 F360.0 E9972.893
G1 X-0.89 Y8.59 Z1.8 F360.0 E9974.027
G1 X-1.36 Y8.47 Z1.8 F360.0 E9974.636
;M103
G1 X8.6 Y7.99 Z1.8 F3600.0
;M101
G1 X8.6 Y10.36 Z1.8 F360.0 E9977.601
G1 X1.98 Y15.2 Z1.8 F360.0 E9987.861
;M103
G1 X0.85 Y11.31 Z1.8 F3600.0
G1 X-8.6 Y-8.58 Z1.8 F3600.0
;M101
G1 X-8.6 Y-10.95 Z1.8 F360.0 E9990.825
G1 X1.42 Y-18.6 Z1.8 F360.0 E10006.586
G1 X-2.73 Y-18.6 Z1.8 F360.0 E10011.772
G1 X-8.6 Y-11.54 Z1.8 F360.0 E10023.25
G1 X-8.6 Y-15.1 Z1.8 F360.0 E10027.697
G1 X-3.32 Y-18.6 Z1.8 F360.0 E10035.615
G1 X-6.88 Y-18.6 Z1.8 F360.0 E10040.062
G1 X-8.6 Y-15.69 Z1.8 F360.0 E10044.287
G1 X-8.6 Y-17.47 Z1.8 F360.0 E10046.51
G1 X-7.47 Y-18.6 Z1.8 F360.0 E10048.507
G1 X-8.06 Y-18.6 Z1.8 F360.0 E10049.249
G1 X-8.6 Y-18.06 Z1.8 F360.0 E10050.197
;M103
G1 X1.73 Y-14.8 Z1.8 F3600.0
;M101
G1 X1.73 Y5.37 Z1.8 F360.0 E10075.435
G1 X7.51 Y5.37 Z1.8 F360.0 E10082.676
G1 X7.51 Y-14.98 Z1.8 F360.0 E10108.131
G1 X1.73 Y-14.98 Z1.8 F360.0 E10115.372
G1 X1.73 Y-14.8 Z1.8 F360.0 E10115.589
;M103
G1 X1.31 Y-14.8 Z1.8 F3600.0
;M101
G1 X1.31 Y5.79 Z1.8 F360.0 E10141.351
G1 X7.93 Y5.79 Z1.8 F360.0 E10149.64
G1 X7.93 Y-15.4 Z1.8 F360.0 E10176.144
G1 X1.73 Y-15.4 Z1.8 F360.0 E10183.909
G1 X1.31 Y-15.4 Z1.8 F360.0 E10184.433
G1 X1.31 Y-14.8 Z1.8 F360.0 E10185.175
;M103
G1 X-1.84 Y9.19 Z1.8 F3600.0
;M101
G1 X-2.34 Y9.12 Z1.8 F360.0 E10185.805
G1 X-3.39 Y9.26 Z1.8 F360.0 E10187.122
G1 X-4.36 Y9.66 Z1.8 F360.0 E10188.439
G1 X-5.19 Y10.3 Z1.8 F360.0 E10189.756
G1 X-5.83 Y11.14 Z1.8 F360.0 E10191.073
G1 X-6.24 Y12.11 Z1.8 F360.0 E10192.39
G1 X-6.37 Y13.16 Z1.8 F360.0 E10193.706
G1 X-6.24 Y14.2 Z1.8 F360.0 E10195.024
G1 X-5.83 Y15.17 Z1.8 F360.0 E10196.341
G1 X-5.19 Y16.01 Z1.8 F360.0 E10197.658
G1 X-4.36 Y16.65 Z1.8 F360.0 E10198.974
G1 X-3.39 Y17.05 Z1.8 F360.0 E10200.292
G1 X-2.34 Y17.19 Z1.8 F360.0 E10201.609
G1 X-1.3 Y17.05 Z1.8 F360.0 E10202.926
G1 X-0.33 Y16.65 Z1.8 F360.0 E10204.243
G1 X0.51 Y16.01 Z1.8 F360.0 E10205.56
G1 X1.15 Y15.17 Z1.8 F360.0 E10206.877
G1 X1.55 Y14.2 Z1.8 F360.0 E10208.194
G1 X1.69 Y13.16 Z1.8 F360.0 E10209.511
G1 X1.55 Y12.11 Z1.8 F360.0 E10210.828
G1 X1.15 Y11.14 Z1.8 F360.0 E10212.145
G1 X0.51 Y10.3 Z1.8 F360.0 E10213.462
G1 X-0.33 Y9.66 Z1.8 F360.0 E10214.779
G1 X-1.3 Y9.26 Z1.8 F360.0 E10216.095
G1 X-1.84 Y9.19 Z1.8 F360.0 E10216.783
;M103
G1 X-1.79 Y8.77 Z1.8 F3600.0
;M101
G1 X-2.34 Y8.7 Z1.8 F360.0 E10217.481
G1 X-3.49 Y8.85 Z1.8 F360.0 E10218.935
G1 X-4.57 Y9.3 Z1.8 F360.0 E10220.391
G1 X-5.49 Y10.01 Z1.8 F360.0 E10221.846
G1 X-6.2 Y10.93 Z1.8 F360.0 E10223.302
G1 X-6.64 Y12.0 Z1.8 F360.0 E10224.757
G1 X-6.8 Y13.16 Z1.8 F360.0 E10226.21
G1 X-6.64 Y14.31 Z1.8 F360.0 E10227.665
G1 X-6.2 Y15.38 Z1.8 F360.0 E10229.12
G1 X-5.49 Y16.31 Z1.8 F360.0 E10230.575
G1 X-4.57 Y17.01 Z1.8 F360.0 E10232.031
G1 X-3.49 Y17.46 Z1.8 F360.0 E10233.487
G1 X-2.34 Y17.61 Z1.8 F360.0 E10234.941
G1 X-1.19 Y17.46 Z1.8 F360.0 E10236.396
G1 X-0.11 Y17.01 Z1.8 F360.0 E10237.851
G1 X0.81 Y16.31 Z1.8 F360.0 E10239.306
G1 X1.52 Y15.38 Z1.8 F360.0 E10240.761
G1 X1.96 Y14.31 Z1.8 F360.0 E10242.215
G1 X2.11 Y13.16 Z1.8 F360.0 E10243.672
G1 X1.96 Y12.0 Z1.8 F360.0 E10245.126
G1 X1.52 Y10.93 Z1.8 F360.0 E10246.581
G1 X0.81 Y10.01 Z1.8 F360.0 E10248.036
G1 X-0.11 Y9.3 Z1.8 F360.0 E10249.491
G1 X-1.19 Y8.85 Z1.8 F360.0 E10250.946
G1 X-1.79 Y8.77 Z1.8 F360.0 E10251.703
;M103
G1 X-8.95 Y8.85 Z1.8 F3600.0
;M101
G1 X-8.95 Y-18.95 Z1.8 F360.0 E10286.486
G1 X8.95 Y-18.95 Z1.8 F360.0 E10308.886
G1 X8.95 Y18.95 Z1.8 F360.0 E10356.307
G1 X-8.95 Y18.95 Z1.8 F360.0 E10378.707
G1 X-8.95 Y8.85 Z1.8 F360.0 E10391.345
;M103
G1 X-9.37 Y8.85 Z1.8 F3600.0
;M101
G1 X-9.37 Y-19.37 Z1.8 F360.0 E10426.652
G1 X9.37 Y-19.37 Z1.8 F360.0 E10450.1
G1 X9.37 Y19.37 Z1.8 F360.0 E10498.569
G1 X-9.37 Y19.37 Z1.8 F360.0 E10522.018
G1 X-9.37 Y8.85 Z1.8 F360.0 E10535.18
;M103
;M108 S5.629
G1 X-9.79 Y8.85 Z1.8 F3600.0
;M101
G1 X-9.79 Y-19.79 Z1.8 F270.0 E10571.008
G1 X9.79 Y-19.79 Z1.8 F270.0 E10595.502
G1 X9.79 Y19.79 Z1.8 F270.0 E10645.015
G1 X-9.79 Y19.79 Z1.8 F270.0 E10669.51
G1 X-9.79 Y8.85 Z1.8 F270.0 E10683.195
;M103
G1 X-5.47 Y11.35 Z1.8 F3600.0
;M101
G1 X-5.83 Y12.22 Z1.8 F270.0 E10684.374
G1 X-5.95 Y13.16 Z1.8 F270.0 E10685.552
G1 X-5.83 Y14.09 Z1.8 F270.0 E10686.732
G1 X-5.47 Y14.96 Z1.8 F270.0 E10687.911
G1 X-4.89 Y15.71 Z1.8 F270.0 E10689.089
G1 X-4.15 Y16.28 Z1.8 F270.0 E10690.268
G1 X-3.28 Y16.64 Z1.8 F270.0 E10691.447
G1 X-2.34 Y16.77 Z1.8 F270.0 E10692.626
G1 X-1.41 Y16.64 Z1.8 F270.0 E10693.806
G1 X-0.54 Y16.28 Z1.8 F270.0 E10694.984
G1 X0.21 Y15.71 Z1.8 F270.0 E10696.163
G1 X0.79 Y14.96 Z1.8 F270.0 E10697.341
G1 X1.15 Y14.09 Z1.8 F270.0 E10698.52
G1 X1.27 Y13.16 Z1.8 F270.0 E10699.7
G1 X1.15 Y12.22 Z1.8 F270.0 E10700.878
G1 X0.79 Y11.35 Z1.8 F270.0 E10702.058
G1 X0.21 Y10.6 Z1.8 F270.0 E10703.236
G1 X-0.54 Y10.03 Z1.8 F270.0 E10704.415
G1 X-1.41 Y9.67 Z1.8 F270.0 E10705.593
G1 X-2.34 Y9.55 Z1.8 F270.0 E10706.772
G1 X-3.28 Y9.67 Z1.8 F270.0 E10707.952
G1 X-4.15 Y10.03 Z1.8 F270.0 E10709.131
G1 X-4.89 Y10.6 Z1.8 F270.0 E10710.31
G1 X-5.47 Y11.35 Z1.8 F270.0 E10711.488
;M103
G1 X2.14 Y4.95 Z1.8 F3600.0
;M101
G1 X7.1 Y4.95 Z1.8 F270.0 E10717.681
G1 X7.1 Y-14.56 Z1.8 F270.0 E10742.089
G1 X2.14 Y-14.56 Z1.8 F270.0 E10748.282
G1 X2.14 Y4.95 Z1.8 F270.0 E10772.689
;M103
;M108 S7.506
G1 X1.41 Y6.15 Z2.1 F3600.0
;M101
G1 X3.18 Y6.15 Z2.1 F360.0 E10774.912
G1 X8.6 Y12.74 Z2.1 F360.0 E10785.589
G1 X8.6 Y9.78 Z2.1 F360.0 E10789.295
G1 X3.78 Y6.15 Z2.1 F360.0 E10796.849
G1 X7.33 Y6.15 Z2.1 F360.0 E10801.295
G1 X8.6 Y9.19 Z2.1 F360.0 E10805.42
G1 X8.6 Y6.82 Z2.1 F360.0 E10808.385
G1 X7.92 Y6.15 Z2.1 F360.0 E10809.577
G1 X8.29 Y5.92 Z2.1 F360.0 E10810.114
G1 X8.6 Y6.23 Z2.1 F360.0 E10810.66
G1 X8.6 Y5.64 Z2.1 F360.0 E10811.4
G1 X8.29 Y5.33 Z2.1 F360.0 E10811.947
G1 X8.6 Y5.04 Z2.1 F360.0 E10812.472
G1 X8.29 Y4.73 Z2.1 F360.0 E10813.018
G1 X8.6 Y4.45 Z2.1 F360.0 E10813.543
G1 X8.29 Y4.14 Z2.1 F360.0 E10814.089
G1 X8.6 Y3.86 Z2.1 F360.0 E10814.614
G1 X8.29 Y3.55 Z2.1 F360.0 E10815.16
G1 X8.6 Y3.27 Z2.1 F360.0 E10815.686
G1 X8.29 Y2.96 Z2.1 F360.0 E10816.231
G1 X8.6 Y2.67 Z2.1 F360.0 E10816.756
G1 X8.29 Y2.37 Z2.1 F360.0 E10817.302
G1 X8.6 Y2.08 Z2.1 F360.0 E10817.828
G1 X8.29 Y1.77 Z2.1 F360.0 E10818.374
G1 X8.6 Y1.49 Z2.1 F360.0 E10818.899
G1 X8.29 Y1.18 Z2.1 F360.0 E10819.445
G1 X8.6 Y0.9 Z2.1 F360.0 E10819.97
G1 X8.29 Y0.59 Z2.1 F360.0 E10820.516
G1 X8.6 Y0.3 Z2.1 F360.0 E10821.041
G1 X8.29 Y-0.01 Z2.1 F360.0 E10821.587
G1 X8.6 Y-0.29 Z2.1 F360.0 E10822.112
G1 X8.29 Y-0.6 Z2.1 F360.0 E10822.658
G1 X8.6 Y-0.88 Z2.1 F360.0 E10823.184
G1 X8.29 Y-1.19 Z2.1 F360.0 E10823.73
G1 X8.6 Y-1.47 Z2.1 F360.0 E10824.255
G1 X8.29 Y-1.78 Z2.1 F360.0 E10824.8
G1 X8.6 Y-2.07 Z2.1 F360.0 E10825.325
G1 X8.29 Y-2.38 Z2.1 F360.0 E10825.872
G1 X8.6 Y-2.66 Z2.1 F360.0 E10826.397
G1 X8.29 Y-2.97 Z2.1 F360.0 E10826.943
G1 X8.6 Y-3.25 Z2.1 F360.0 E10827.468
G1 X8.29 Y-3.56 Z2.1 F360.0 E10828.014
G1 X8.6 Y-3.84 Z2.1 F360.0 E10828.539
G1 X8.29 Y-4.15 Z2.1 F360.0 E10829.086
G1 X8.6 Y-4.44 Z2.1 F360.0 E10829.611
G1 X8.29 Y-4.74 Z2.1 F360.0 E10830.156
G1 X8.6 Y-5.03 Z2.1 F360.0 E10830.681
G1 X8.29 Y-5.34 Z2.1 F360.0 E10831.227
G1 X8.6 Y-5.62 Z2.1 F360.0 E10831.753
G1 X8.29 Y-5.93 Z2.1 F360.0 E10832.299
G1 X8.6 Y-6.21 Z2.1 F360.0 E10832.824
G1 X8.29 Y-6.52 Z2.1 F360.0 E10833.37
G1 X8.6 Y-6.81 Z2.1 F360.0 E10833.895
G1 X8.29 Y-7.11 Z2.1 F360.0 E10834.441
G1 X8.6 Y-7.4 Z2.1 F360.0 E10834.966
G1 X8.29 Y-7.71 Z2.1 F360.0 E10835.512
G1 X8.6 Y-7.99 Z2.1 F360.0 E10836.037
G1 X8.29 Y-8.3 Z2.1 F360.0 E10836.583
G1 X8.6 Y-8.58 Z2.1 F360.0 E10837.109
G1 X8.29 Y-8.89 Z2.1 F360.0 E10837.655
G1 X8.6 Y-9.18 Z2.1 F360.0 E10838.18
G1 X8.29 Y-9.48 Z2.1 F360.0 E10838.725
G1 X8.6 Y-9.77 Z2.1 F360.0 E10839.251
G1 X8.29 Y-10.08 Z2.1 F360.0 E10839.797
G1 X8.6 Y-10.36 Z2.1 F360.0 E10840.322
G1 X8.29 Y-10.67 Z2.1 F360.0 E10840.868
G1 X8.6 Y-10.95 Z2.1 F360.0 E10841.393
G1 X8.29 Y-11.26 Z2.1 F360.0 E10841.939
G1 X8.6 Y-11.54 Z2.1 F360.0 E10842.464
G1 X8.29 Y-11.85 Z2.1 F360.0 E10843.011
G1 X8.6 Y-12.14 Z2.1 F360.0 E10843.536
G1 X8.29 Y-12.45 Z2.1 F360.0 E10844.081
G1 X8.6 Y-12.73 Z2.1 F360.0 E10844.606
G1 X8.29 Y-13.04 Z2.1 F360.0 E10845.152
G1 X8.6 Y-13.32 Z2.1 F360.0 E10845.678
G1 X8.29 Y-13.63 Z2.1 F360.0 E10846.224
G1 X8.6 Y-13.91 Z2.1 F360.0 E10846.749
G1 X8.29 Y-14.22 Z2.1 F360.0 E10847.295
G1 X8.6 Y-14.51 Z2.1 F360.0 E10847.82
G1 X8.29 Y-14.82 Z2.1 F360.0 E10848.366
G1 X8.6 Y-15.1 Z2.1 F360.0 E10848.891
G1 X8.29 Y-15.41 Z2.1 F360.0 E10849.437
G1 X8.6 Y-15.69 Z2.1 F360.0 E10849.962
G1 X7.94 Y-15.75 Z2.1 F360.0 E10850.785
;M103
G1 X8.06 Y-18.6 Z2.1 F3600.0
;M101
G1 X8.6 Y-18.06 Z2.1 F360.0 E10851.734
G1 X8.6 Y-16.28 Z2.1 F360.0 E10853.957
G1 X7.47 Y-18.6 Z2.1 F360.0 E10857.176
G1 X4.51 Y-18.6 Z2.1 F360.0 E10860.882
G1 X7.35 Y-15.75 Z2.1 F360.0 E10865.913
G1 X4.39 Y-15.75 Z2.1 F360.0 E10869.619
G1 X3.91 Y-18.6 Z2.1 F360.0 E10873.226
G1 X0.95 Y-18.6 Z2.1 F360.0 E10876.931
G1 X3.8 Y-15.75 Z2.1 F360.0 E10881.962
G1 X1.43 Y-15.75 Z2.1 F360.0 E10884.926
G1 X0.36 Y-18.6 Z2.1 F360.0 E10888.725
G1 X-3.2 Y-18.6 Z2.1 F360.0 E10893.172
G1 X0.95 Y-15.64 Z2.1 F360.0 E10899.544
G1 X0.95 Y-12.68 Z2.1 F360.0 E10903.25
G1 X-3.79 Y-18.6 Z2.1 F360.0 E10912.737
G1 X-7.34 Y-18.6 Z2.1 F360.0 E10917.183
G1 X0.95 Y-12.08 Z2.1 F360.0 E10930.373
G1 X0.95 Y-8.53 Z2.1 F360.0 E10934.819
G1 X-7.93 Y-18.6 Z2.1 F360.0 E10951.617
G1 X-8.53 Y-18.6 Z2.1 F360.0 E10952.357
G1 X-8.6 Y-18.08 Z2.1 F360.0 E10953.016
G1 X-8.6 Y-14.52 Z2.1 F360.0 E10957.464
G1 X0.95 Y-7.94 Z2.1 F360.0 E10971.972
G1 X0.95 Y-4.38 Z2.1 F360.0 E10976.418
G1 X-8.6 Y-13.93 Z2.1 F360.0 E10993.307
G1 X-8.6 Y-10.97 Z2.1 F360.0 E10997.013
G1 X0.95 Y-3.79 Z2.1 F360.0 E11011.954
G1 X0.95 Y-0.83 Z2.1 F360.0 E11015.659
G1 X-8.6 Y-10.37 Z2.1 F360.0 E11032.548
G1 X-8.6 Y-6.82 Z2.1 F360.0 E11036.995
G1 X0.95 Y-0.24 Z2.1 F360.0 E11051.503
G1 X0.95 Y3.32 Z2.1 F360.0 E11055.949
G1 X-8.6 Y-6.23 Z2.1 F360.0 E11072.839
G1 X-8.6 Y-4.45 Z2.1 F360.0 E11075.062
G1 X0.95 Y3.91 Z2.1 F360.0 E11090.939
G1 X0.95 Y5.69 Z2.1 F360.0 E11093.162
;M103
G1 X-8.6 Y-3.86 Z2.1 F3600.0
;M101
G1 X-8.6 Y-0.9 Z2.1 F360.0 E11096.867
G1 X8.6 Y13.34 Z2.1 F360.0 E11124.79
G1 X8.6 Y17.48 Z2.1 F360.0 E11129.976
G1 X0.51 Y8.8 Z2.1 F360.0 E11144.815
G1 X-0.57 Y8.32 Z2.1 F360.0 E11146.3
G1 X-8.6 Y-0.3 Z2.1 F360.0 E11161.033
G1 X-8.6 Y2.07 Z2.1 F360.0 E11163.997
G1 X-1.64 Y8.43 Z2.1 F360.0 E11175.798
;M103
G1 X-2.32 Y8.35 Z2.1 F3600.0
;M101
G1 X-3.37 Y8.48 Z2.1 F360.0 E11177.125
G1 X-4.25 Y8.78 Z2.1 F360.0 E11178.291
G1 X-8.6 Y2.66 Z2.1 F360.0 E11187.682
G1 X-8.6 Y6.81 Z2.1 F360.0 E11192.869
G1 X-4.67 Y8.95 Z2.1 F360.0 E11198.468
G1 X-5.69 Y9.71 Z2.1 F360.0 E11200.057
G1 X-6.22 Y10.37 Z2.1 F360.0 E11201.112
G1 X-8.6 Y7.4 Z2.1 F360.0 E11205.871
G1 X-8.6 Y10.95 Z2.1 F360.0 E11210.317
G1 X-6.48 Y10.7 Z2.1 F360.0 E11212.989
G1 X-7.0 Y11.96 Z2.1 F360.0 E11214.69
G1 X-7.14 Y13.01 Z2.1 F360.0 E11216.01
G1 X-8.6 Y11.54 Z2.1 F360.0 E11218.595
G1 X-8.6 Y13.91 Z2.1 F360.0 E11221.56
G1 X-7.09 Y13.64 Z2.1 F360.0 E11223.474
G1 X-7.0 Y14.32 Z2.1 F360.0 E11224.335
G1 X-6.62 Y15.3 Z2.1 F360.0 E11225.643
G1 X-8.6 Y14.51 Z2.1 F360.0 E11228.306
G1 X-8.6 Y16.28 Z2.1 F360.0 E11230.53
G1 X-6.28 Y18.6 Z2.1 F360.0 E11234.622
G1 X-4.51 Y18.6 Z2.1 F360.0 E11236.847
G1 X-4.48 Y17.43 Z2.1 F360.0 E11238.301
G1 X-3.51 Y17.82 Z2.1 F360.0 E11239.61
G1 X-3.91 Y18.6 Z2.1 F360.0 E11240.709
G1 X-2.73 Y18.6 Z2.1 F360.0 E11242.191
G1 X-2.83 Y17.91 Z2.1 F360.0 E11243.065
G1 X-2.19 Y17.95 Z2.1 F360.0 E11243.863
G1 X-1.67 Y17.88 Z2.1 F360.0 E11244.525
G1 X-2.14 Y18.6 Z2.1 F360.0 E11245.596
G1 X-0.95 Y18.6 Z2.1 F360.0 E11247.079
G1 X-1.14 Y17.81 Z2.1 F360.0 E11248.088
G1 X-0.3 Y17.48 Z2.1 F360.0 E11249.229
G1 X-0.36 Y18.6 Z2.1 F360.0 E11250.635
G1 X0.83 Y18.6 Z2.1 F360.0 E11252.117
G1 X0.11 Y17.29 Z2.1 F360.0 E11253.98
G1 X1.1 Y16.51 Z2.1 F360.0 E11255.563
G1 X1.42 Y18.6 Z2.1 F360.0 E11258.208
G1 X4.38 Y18.6 Z2.1 F360.0 E11261.914
G1 X1.36 Y16.17 Z2.1 F360.0 E11266.758
G1 X1.86 Y15.49 Z2.1 F360.0 E11267.819
G1 X2.21 Y14.65 Z2.1 F360.0 E11268.954
G1 X4.97 Y18.6 Z2.1 F360.0 E11274.985
G1 X8.53 Y18.6 Z2.1 F360.0 E11279.431
G1 X8.6 Y18.08 Z2.1 F360.0 E11280.09
G1 X2.34 Y14.19 Z2.1 F360.0 E11289.309
G1 X2.47 Y13.13 Z2.1 F360.0 E11290.635
G1 X2.22 Y11.7 Z2.1 F360.0 E11292.454
G1 X1.71 Y10.6 Z2.1 F360.0 E11293.973
;M103
G1 X1.22 Y14.11 Z2.1 F3600.0
G1 X0.85 Y15.0 Z2.1 F3600.0
G1 X0.27 Y15.77 Z2.1 F3600.0
G1 X-0.5 Y16.35 Z2.1 F3600.0
G1 X-6.88 Y18.6 Z2.1 F3600.0
;M101
G1 X-7.47 Y18.6 Z2.1 F360.0 E11294.713
G1 X-8.6 Y16.88 Z2.1 F360.0 E11297.288
G1 X-8.6 Y18.06 Z2.1 F360.0 E11298.771
G1 X-8.06 Y18.6 Z2.1 F360.0 E11299.719
;M103
G1 X-5.54 Y11.31 Z2.1 F3600.0
G1 X-4.95 Y10.55 Z2.1 F3600.0
G1 X1.73 Y5.22 Z2.1 F3600.0
;M101
G1 X1.73 Y5.37 Z2.1 F360.0 E11299.901
G1 X7.51 Y5.37 Z2.1 F360.0 E11307.142
G1 X7.51 Y-14.98 Z2.1 F360.0 E11332.598
G1 X1.73 Y-14.98 Z2.1 F360.0 E11339.838
G1 X1.73 Y5.22 Z2.1 F360.0 E11365.111
;M103
G1 X1.31 Y5.22 Z2.1 F3600.0
;M101
G1 X1.31 Y5.79 Z2.1 F360.0 E11365.818
G1 X1.73 Y5.79 Z2.1 F360.0 E11366.342
G1 X7.93 Y5.79 Z2.1 F360.0 E11374.107
G1 X7.93 Y-15.4 Z2.1 F360.0 E11400.611
G1 X1.31 Y-15.4 Z2.1 F360.0 E11408.9
G1 X1.31 Y5.22 Z2.1 F360.0 E11434.697
;M103
G1 X-0.33 Y9.66 Z2.1 F3600.0
;M101
G1 X-1.3 Y9.26 Z2.1 F360.0 E11436.013
G1 X-2.34 Y9.12 Z2.1 F360.0 E11437.33
G1 X-3.39 Y9.26 Z2.1 F360.0 E11438.648
G1 X-4.36 Y9.66 Z2.1 F360.0 E11439.965
G1 X-5.19 Y10.3 Z2.1 F360.0 E11441.282
G1 X-5.83 Y11.14 Z2.1 F360.0 E11442.599
G1 X-6.24 Y12.11 Z2.1 F360.0 E11443.916
G1 X-6.37 Y13.16 Z2.1 F360.0 E11445.232
G1 X-6.24 Y14.2 Z2.1 F360.0 E11446.549
G1 X-5.83 Y15.17 Z2.1 F360.0 E11447.866
G1 X-5.19 Y16.01 Z2.1 F360.0 E11449.183
G1 X-4.36 Y16.65 Z2.1 F360.0 E11450.5
G1 X-3.39 Y17.05 Z2.1 F360.0 E11451.818
G1 X-2.34 Y17.19 Z2.1 F360.0 E11453.135
G1 X-1.3 Y17.05 Z2.1 F360.0 E11454.452
G1 X-0.33 Y16.65 Z2.1 F360.0 E11455.769
G1 X0.51 Y16.01 Z2.1 F360.0 E11457.085
G1 X1.15 Y15.17 Z2.1 F360.0 E11458.402
G1 X1.55 Y14.2 Z2.1 F360.0 E11459.72
G1 X1.69 Y13.16 Z2.1 F360.0 E11461.037
G1 X1.55 Y12.11 Z2.1 F360.0 E11462.353
G1 X1.15 Y11.14 Z2.1 F360.0 E11463.671
G1 X0.51 Y10.3 Z2.1 F360.0 E11464.988
G1 X-0.33 Y9.66 Z2.1 F360.0 E11466.305
;M103
G1 X-0.11 Y9.3 Z2.1 F3600.0
;M101
G1 X-1.19 Y8.85 Z2.1 F360.0 E11467.759
G1 X-2.34 Y8.7 Z2.1 F360.0 E11469.214
G1 X-3.49 Y8.85 Z2.1 F360.0 E11470.669
G1 X-4.57 Y9.3 Z2.1 F360.0 E11472.125
G1 X-5.49 Y10.01 Z2.1 F360.0 E11473.58
G1 X-6.2 Y10.93 Z2.1 F360.0 E11475.035
G1 X-6.64 Y12.0 Z2.1 F360.0 E11476.49
G1 X-6.8 Y13.16 Z2.1 F360.0 E11477.944
G1 X-6.64 Y14.31 Z2.1 F360.0 E11479.399
G1 X-6.2 Y15.38 Z2.1 F360.0 E11480.854
G1 X-5.49 Y16.31 Z2.1 F360.0 E11482.309
G1 X-4.57 Y17.01 Z2.1 F360.0 E11483.764
G1 X-3.49 Y17.46 Z2.1 F360.0 E11485.22
G1 X-2.34 Y17.61 Z2.1 F360.0 E11486.675
G1 X-1.19 Y17.46 Z2.1 F360.0 E11488.129
G1 X-0.11 Y17.01 Z2.1 F360.0 E11489.584
G1 X0.81 Y16.31 Z2.1 F360.0 E11491.039
G1 X1.52 Y15.38 Z2.1 F360.0 E11492.494
G1 X1.96 Y14.31 Z2.1 F360.0 E11493.949
G1 X2.11 Y13.16 Z2.1 F360.0 E11495.405
G1 X1.96 Y12.0 Z2.1 F360.0 E11496.86
G1 X1.52 Y10.93 Z2.1 F360.0 E11498.314
G1 X0.81 Y10.01 Z2.1 F360.0 E11499.769
G1 X-0.11 Y9.3 Z2.1 F360.0 E11501.225
;M103
G1 X-8.95 Y9.3 Z2.1 F3600.0
;M101
G1 X-8.95 Y-18.95 Z2.1 F360.0 E11536.565
G1 X8.95 Y-18.95 Z2.1 F360.0 E11558.966
G1 X8.95 Y18.95 Z2.1 F360.0 E11606.386
G1 X-8.95 Y18.95 Z2.1 F360.0 E11628.787
G1 X-8.95 Y9.3 Z2.1 F360.0 E11640.866
;M103
G1 X-9.37 Y9.3 Z2.1 F3600.0
;M101
G1 X-9.37 Y-19.37 Z2.1 F360.0 E11676.731
G1 X9.37 Y-19.37 Z2.1 F360.0 E11700.18
G1 X9.37 Y19.37 Z2.1 F360.0 E11748.649
G1 X-9.37 Y19.37 Z2.1 F360.0 E11772.097
G1 X-9.37 Y9.3 Z2.1 F360.0 E11784.701
;M103
;M108 S5.629
G1 X-9.79 Y9.3 Z2.1 F3600.0
;M101
G1 X-9.79 Y-19.79 Z2.1 F270.0 E11821.087
G1 X9.79 Y-19.79 Z2.1 F270.0 E11845.582
G1 X9.79 Y19.79 Z2.1 F270.0 E11895.095
G1 X-9.79 Y19.79 Z2.1 F270.0 E11919.59
G1 X-9.79 Y9.3 Z2.1 F270.0 E11932.716
;M103
G1 X-5.47 Y11.35 Z2.1 F3600.0
;M101
G1 X-5.83 Y12.22 Z2.1 F270.0 E11933.895
G1 X-5.95 Y13.16 Z2.1 F270.0 E11935.074
G1 X-5.83 Y14.09 Z2.1 F270.0 E11936.253
G1 X-5.47 Y14.96 Z2.1 F270.0 E11937.432
G1 X-4.89 Y15.71 Z2.1 F270.0 E11938.611
G1 X-4.15 Y16.28 Z2.1 F270.0 E11939.789
G1 X-3.28 Y16.64 Z2.1 F270.0 E11940.969
G1 X-2.34 Y16.77 Z2.1 F270.0 E11942.148
G1 X-1.41 Y16.64 Z2.1 F270.0 E11943.328
G1 X-0.54 Y16.28 Z2.1 F270.0 E11944.506
G1 X0.21 Y15.71 Z2.1 F270.0 E11945.684
G1 X0.79 Y14.96 Z2.1 F270.0 E11946.863
G1 X1.15 Y14.09 Z2.1 F270.0 E11948.042
G1 X1.27 Y13.16 Z2.1 F270.0 E11949.222
G1 X1.15 Y12.22 Z2.1 F270.0 E11950.4
G1 X0.79 Y11.35 Z2.1 F270.0 E11951.58
G1 X0.21 Y10.6 Z2.1 F270.0 E11952.758
G1 X-0.54 Y10.03 Z2.1 F270.0 E11953.936
G1 X-1.41 Y9.67 Z2.1 F270.0 E11955.115
G1 X-2.34 Y9.55 Z2.1 F270.0 E11956.294
G1 X-3.28 Y9.67 Z2.1 F270.0 E11957.474
G1 X-4.15 Y10.03 Z2.1 F270.0 E11958.653
G1 X-4.89 Y10.6 Z2.1 F270.0 E11959.831
G1 X-5.47 Y11.35 Z2.1 F270.0 E11961.01
;M103
G1 X2.14 Y4.95 Z2.1 F3600.0
;M101
G1 X7.1 Y4.95 Z2.1 F270.0 E11967.203
G1 X7.1 Y-14.56 Z2.1 F270.0 E11991.61
G1 X2.14 Y-14.56 Z2.1 F270.0 E11997.803
G1 X2.14 Y4.95 Z2.1 F270.0 E12022.211
;M103
;M108 S7.506
G1 X7.31 Y5.73 Z2.4 F3600.0
;M101
G1 X1.64 Y11.39 Z2.4 F360.0 E12032.233
G1 X1.47 Y10.97 Z2.4 F360.0 E12032.8
G1 X6.71 Y5.73 Z2.4 F360.0 E12042.083
G1 X6.12 Y5.73 Z2.4 F360.0 E12042.824
G1 X1.21 Y10.64 Z2.4 F360.0 E12051.508
G1 X0.96 Y10.3 Z2.4 F360.0 E12052.037
G1 X5.53 Y5.73 Z2.4 F360.0 E12060.128
G1 X4.94 Y5.73 Z2.4 F360.0 E12060.87
G1 X0.68 Y9.98 Z2.4 F360.0 E12068.402
G1 X0.34 Y9.73 Z2.4 F360.0 E12068.931
G1 X4.34 Y5.73 Z2.4 F360.0 E12076.01
G1 X3.75 Y5.73 Z2.4 F360.0 E12076.75
G1 X0.01 Y9.47 Z2.4 F360.0 E12083.374
G1 X-0.37 Y9.26 Z2.4 F360.0 E12083.919
G1 X3.16 Y5.73 Z2.4 F360.0 E12090.166
G1 X2.57 Y5.73 Z2.4 F360.0 E12090.907
G1 X-0.79 Y9.08 Z2.4 F360.0 E12096.848
G1 X-1.21 Y8.91 Z2.4 F360.0 E12097.416
G1 X1.98 Y5.73 Z2.4 F360.0 E12103.052
G1 X1.38 Y5.73 Z2.4 F360.0 E12103.794
G1 X-1.74 Y8.84 Z2.4 F360.0 E12109.309
G1 X-2.26 Y8.78 Z2.4 F360.0 E12109.97
G1 X1.37 Y5.15 Z2.4 F360.0 E12116.387
G1 X1.37 Y4.56 Z2.4 F360.0 E12117.129
G1 X-2.92 Y8.84 Z2.4 F360.0 E12124.708
G1 X-3.66 Y8.99 Z2.4 F360.0 E12125.652
G1 X1.37 Y3.96 Z2.4 F360.0 E12134.54
;M103
G1 X1.71 Y-15.33 Z2.4 F3600.0
;M101
G1 X5.39 Y-19.02 Z2.4 F360.0 E12141.053
G1 X5.98 Y-19.02 Z2.4 F360.0 E12141.794
G1 X2.3 Y-15.33 Z2.4 F360.0 E12148.307
G1 X2.89 Y-15.33 Z2.4 F360.0 E12149.047
G1 X6.58 Y-19.02 Z2.4 F360.0 E12155.561
G1 X7.17 Y-19.02 Z2.4 F360.0 E12156.302
G1 X3.49 Y-15.33 Z2.4 F360.0 E12162.816
G1 X4.08 Y-15.33 Z2.4 F360.0 E12163.556
G1 X7.76 Y-19.02 Z2.4 F360.0 E12170.07
G1 X8.35 Y-19.02 Z2.4 F360.0 E12170.811
G1 X4.67 Y-15.33 Z2.4 F360.0 E12177.325
G1 X5.26 Y-15.33 Z2.4 F360.0 E12178.065
G1 X8.95 Y-19.02 Z2.4 F360.0 E12184.578
G1 X9.02 Y-18.49 Z2.4 F360.0 E12185.238
G1 X5.86 Y-15.33 Z2.4 F360.0 E12190.828
G1 X6.45 Y-15.33 Z2.4 F360.0 E12191.57
G1 X9.02 Y-17.9 Z2.4 F360.0 E12196.111
G1 X9.02 Y-17.31 Z2.4 F360.0 E12196.852
G1 X7.04 Y-15.33 Z2.4 F360.0 E12200.346
G1 X7.63 Y-15.33 Z2.4 F360.0 E12201.087
G1 X9.02 Y-16.72 Z2.4 F360.0 E12203.534
G1 X9.02 Y-16.12 Z2.4 F360.0 E12204.275
G1 X7.87 Y-14.98 Z2.4 F360.0 E12206.304
G1 X7.87 Y-14.39 Z2.4 F360.0 E12207.044
G1 X9.02 Y-15.53 Z2.4 F360.0 E12209.073
G1 X9.02 Y-14.94 Z2.4 F360.0 E12209.815
G1 X7.87 Y-13.79 Z2.4 F360.0 E12211.843
G1 X7.87 Y-13.2 Z2.4 F360.0 E12212.584
G1 X9.02 Y-14.35 Z2.4 F360.0 E12214.612
G1 X9.02 Y-13.76 Z2.4 F360.0 E12215.352
G1 X7.87 Y-12.61 Z2.4 F360.0 E12217.381
G1 X7.87 Y-12.02 Z2.4 F360.0 E12218.123
G1 X9.02 Y-13.16 Z2.4 F360.0 E12220.151
G1 X9.02 Y-12.57 Z2.4 F360.0 E12220.892
G1 X7.87 Y-11.42 Z2.4 F360.0 E12222.92
G1 X7.87 Y-10.83 Z2.4 F360.0 E12223.662
G1 X9.02 Y-11.98 Z2.4 F360.0 E12225.69
G1 X9.02 Y-11.39 Z2.4 F360.0 E12226.431
G1 X7.87 Y-10.24 Z2.4 F360.0 E12228.459
G1 X7.87 Y-9.65 Z2.4 F360.0 E12229.2
G1 X9.02 Y-10.79 Z2.4 F360.0 E12231.228
G1 X9.02 Y-10.2 Z2.4 F360.0 E12231.97
G1 X7.87 Y-9.05 Z2.4 F360.0 E12233.998
G1 X7.87 Y-8.46 Z2.4 F360.0 E12234.739
G1 X9.02 Y-9.61 Z2.4 F360.0 E12236.767
G1 X9.02 Y-9.02 Z2.4 F360.0 E12237.508
G1 X7.87 Y-7.87 Z2.4 F360.0 E12239.537
G1 X7.87 Y-7.28 Z2.4 F360.0 E12240.278
G1 X9.02 Y-8.42 Z2.4 F360.0 E12242.306
G1 X9.02 Y-7.83 Z2.4 F360.0 E12243.047
G1 X7.87 Y-6.69 Z2.4 F360.0 E12245.075
G1 X7.87 Y-6.09 Z2.4 F360.0 E12245.817
G1 X9.02 Y-7.24 Z2.4 F360.0 E12247.845
G1 X9.02 Y-6.65 Z2.4 F360.0 E12248.586
G1 X7.87 Y-5.5 Z2.4 F360.0 E12250.614
G1 X7.87 Y-4.91 Z2.4 F360.0 E12251.355
G1 X9.02 Y-6.05 Z2.4 F360.0 E12253.383
G1 X9.02 Y-5.46 Z2.4 F360.0 E12254.125
G1 X7.87 Y-4.32 Z2.4 F360.0 E12256.153
G1 X7.87 Y-3.72 Z2.4 F360.0 E12256.894
G1 X9.02 Y-4.87 Z2.4 F360.0 E12258.922
G1 X9.02 Y-4.28 Z2.4 F360.0 E12259.664
G1 X7.87 Y-3.13 Z2.4 F360.0 E12261.693
G1 X7.87 Y-2.54 Z2.4 F360.0 E12262.433
G1 X9.02 Y-3.68 Z2.4 F360.0 E12264.462
G1 X9.02 Y-3.09 Z2.4 F360.0 E12265.202
G1 X7.87 Y-1.95 Z2.4 F360.0 E12267.23
G1 X7.87 Y-1.35 Z2.4 F360.0 E12267.972
G1 X9.02 Y-2.5 Z2.4 F360.0 E12270.001
G1 X9.02 Y-1.91 Z2.4 F360.0 E12270.741
G1 X7.87 Y-0.76 Z2.4 F360.0 E12272.77
G1 X7.87 Y-0.17 Z2.4 F360.0 E12273.511
G1 X9.02 Y-1.32 Z2.4 F360.0 E12275.541
G1 X9.02 Y-0.72 Z2.4 F360.0 E12276.283
G1 X7.87 Y0.42 Z2.4 F360.0 E12278.311
G1 X7.87 Y1.02 Z2.4 F360.0 E12279.052
G1 X9.02 Y-0.13 Z2.4 F360.0 E12281.08
G1 X9.02 Y0.46 Z2.4 F360.0 E12281.822
G1 X7.87 Y1.61 Z2.4 F360.0 E12283.85
G1 X7.87 Y2.2 Z2.4 F360.0 E12284.591
G1 X9.02 Y1.06 Z2.4 F360.0 E12286.619
G1 X9.02 Y1.65 Z2.4 F360.0 E12287.36
G1 X7.87 Y2.79 Z2.4 F360.0 E12289.388
G1 X7.87 Y3.39 Z2.4 F360.0 E12290.13
G1 X9.02 Y2.24 Z2.4 F360.0 E12292.158
G1 X9.02 Y2.83 Z2.4 F360.0 E12292.899
G1 X7.87 Y3.98 Z2.4 F360.0 E12294.927
G1 X7.87 Y4.57 Z2.4 F360.0 E12295.669
G1 X9.02 Y3.43 Z2.4 F360.0 E12297.697
G1 X9.02 Y4.02 Z2.4 F360.0 E12298.438
G1 X7.87 Y5.16 Z2.4 F360.0 E12300.466
;M103
G1 X9.02 Y4.61 Z2.4 F3600.0
;M101
G1 X1.82 Y11.81 Z2.4 F360.0 E12313.206
G1 X1.94 Y12.28 Z2.4 F360.0 E12313.815
G1 X9.02 Y5.2 Z2.4 F360.0 E12326.34
G1 X9.02 Y5.79 Z2.4 F360.0 E12327.08
