G21 (This is GCode, generated with Skeinforge version 35 from ReplicatorG)
G21 (Ultimaker profile - Quality print from alterations/start.gcode)
G21 (Metric: The unit is a millimeter)
M18 (Disable motors for now, to allow manual moving of the head)
G90 (Absolute positioning)
G92 X0 Y0 Z0 E0 (set origin to current position)
G21 (end of start.txt)
G90
G21
;M103
M105
M106
M113 S1.0
;M108 S7.506
M104 S245.0
;M108 S7.881
G1 X1.07 Y1.12 Z0.3 F243.0
;M101
G1 X1.07 Y38.89 Z0.3 F243.0 E73.496
G1 X38.93 Y38.89 Z0.3 F243.0 E147.165
G1 X38.93 Y1.12 Z0.3 F243.0 E220.66
G1 X1.07 Y1.12 Z0.3 F243.0 E294.329
;M103
G1 X29.89 Y8.57 Z0.3 F2880.0
;M101
G1 X31.45 Y10.13 Z0.3 F288.0 E297.954
G1 X31.87 Y11.14 Z0.3 F288.0 E299.742
G1 X32.96 Y12.23 Z0.3 F288.0 E302.273
G1 X32.94 Y12.8 Z0.3 F288.0 E303.213
G1 X33.71 Y13.57 Z0.3 F288.0 E304.996
G1 X33.55 Y14.0 Z0.3 F288.0 E305.759
G1 X34.09 Y14.54 Z0.3 F288.0 E307.004
G1 X33.94 Y14.98 Z0.3 F288.0 E307.768
G1 X34.47 Y15.52 Z0.3 F288.0 E309.012
G1 X34.25 Y15.88 Z0.3 F288.0 E309.72
G1 X34.65 Y16.29 Z0.3 F288.0 E310.655
G1 X34.42 Y16.65 Z0.3 F288.0 E311.359
G1 X34.83 Y17.05 Z0.3 F288.0 E312.295
G1 X34.6 Y17.42 Z0.3 F288.0 E313.001
G1 X34.99 Y17.81 Z0.3 F288.0 E313.907
G1 X34.71 Y18.12 Z0.3 F288.0 E314.595
G1 X35.04 Y18.45 Z0.3 F288.0 E315.359
G1 X34.76 Y18.76 Z0.3 F288.0 E316.048
G1 X35.08 Y19.09 Z0.3 F288.0 E316.811
G1 X34.8 Y19.4 Z0.3 F288.0 E317.501
G1 X35.13 Y19.73 Z0.3 F288.0 E318.265
G1 X34.85 Y20.04 Z0.3 F288.0 E318.952
G1 X35.13 Y20.32 Z0.3 F288.0 E319.607
G1 X34.8 Y20.59 Z0.3 F288.0 E320.298
G1 X35.09 Y20.87 Z0.3 F288.0 E320.954
G1 X34.76 Y21.14 Z0.3 F288.0 E321.646
G1 X35.05 Y21.42 Z0.3 F288.0 E322.302
G1 X34.72 Y21.69 Z0.3 F288.0 E322.991
G1 X35.0 Y21.97 Z0.3 F288.0 E323.647
G1 X34.68 Y22.24 Z0.3 F288.0 E324.338
G1 X34.93 Y22.49 Z0.3 F288.0 E324.925
G1 X34.57 Y22.72 Z0.3 F288.0 E325.63
G1 X34.82 Y22.97 Z0.3 F288.0 E326.217
G1 X34.46 Y23.2 Z0.3 F288.0 E326.922
G1 X34.71 Y23.45 Z0.3 F288.0 E327.51
G1 X34.35 Y23.68 Z0.3 F288.0 E328.217
G1 X34.6 Y23.94 Z0.3 F288.0 E328.804
G1 X34.24 Y24.17 Z0.3 F288.0 E329.509
G1 X34.49 Y24.42 Z0.3 F288.0 E330.096
G1 X34.09 Y24.62 Z0.3 F288.0 E330.821
G1 X34.33 Y24.85 Z0.3 F288.0 E331.364
G1 X33.93 Y25.04 Z0.3 F288.0 E332.094
G1 X34.16 Y25.28 Z0.3 F288.0 E332.637
G1 X33.76 Y25.47 Z0.3 F288.0 E333.367
G1 X33.99 Y25.7 Z0.3 F288.0 E333.91
G1 X33.59 Y25.89 Z0.3 F288.0 E334.639
G1 X33.83 Y26.13 Z0.3 F288.0 E335.183
G1 X33.43 Y26.32 Z0.3 F288.0 E335.913
G1 X33.66 Y26.55 Z0.3 F288.0 E336.456
G1 X33.45 Y26.93 Z0.3 F288.0 E337.169
G1 X33.22 Y26.71 Z0.3 F288.0 E337.685
G1 X33.01 Y27.08 Z0.3 F288.0 E338.396
G1 X33.23 Y27.31 Z0.3 F288.0 E338.914
G1 X33.01 Y27.68 Z0.3 F288.0 E339.625
G1 X32.79 Y27.46 Z0.3 F288.0 E340.142
G1 X32.57 Y27.83 Z0.3 F288.0 E340.852
G1 X32.8 Y28.06 Z0.3 F288.0 E341.369
G1 X32.58 Y28.43 Z0.3 F288.0 E342.08
G1 X32.36 Y28.21 Z0.3 F288.0 E342.596
G1 X32.11 Y28.56 Z0.3 F288.0 E343.294
G1 X32.33 Y28.78 Z0.3 F288.0 E343.796
G1 X32.07 Y29.1 Z0.3 F288.0 E344.488
G1 X31.85 Y28.89 Z0.3 F288.0 E344.99
G1 X31.59 Y29.22 Z0.3 F288.0 E345.682
G1 X31.8 Y29.43 Z0.3 F288.0 E346.184
G1 X31.54 Y29.76 Z0.3 F288.0 E346.875
G1 X31.33 Y29.55 Z0.3 F288.0 E347.376
G1 X31.06 Y29.88 Z0.3 F288.0 E348.069
G1 X31.28 Y30.09 Z0.3 F288.0 E348.57
G1 X31.0 Y30.41 Z0.3 F288.0 E349.26
G1 X30.79 Y30.19 Z0.3 F288.0 E349.758
G1 X30.48 Y30.48 Z0.3 F288.0 E350.447
G1 X30.69 Y30.69 Z0.3 F288.0 E350.946
G1 X30.39 Y30.98 Z0.3 F288.0 E351.634
G1 X30.17 Y30.76 Z0.3 F288.0 E352.133
G1 X29.86 Y31.05 Z0.3 F288.0 E352.821
G1 X30.08 Y31.26 Z0.3 F288.0 E353.319
G1 X29.77 Y31.55 Z0.3 F288.0 E354.007
G1 X29.56 Y31.33 Z0.3 F288.0 E354.505
G1 X29.25 Y31.62 Z0.3 F288.0 E355.192
G1 X29.46 Y31.83 Z0.3 F288.0 E355.693
G1 X29.11 Y32.07 Z0.3 F288.0 E356.392
G1 X28.89 Y31.86 Z0.3 F288.0 E356.899
G1 X28.54 Y32.1 Z0.3 F288.0 E357.599
G1 X28.76 Y32.32 Z0.3 F288.0 E358.106
G1 X28.41 Y32.56 Z0.3 F288.0 E358.805
G1 X28.19 Y32.34 Z0.3 F288.0 E359.312
G1 X27.84 Y32.58 Z0.3 F288.0 E360.011
G1 X28.06 Y32.8 Z0.3 F288.0 E360.517
G1 X27.7 Y33.03 Z0.3 F288.0 E361.217
G1 X27.49 Y32.82 Z0.3 F288.0 E361.724
G1 X27.09 Y33.02 Z0.3 F288.0 E362.446
G1 X27.32 Y33.24 Z0.3 F288.0 E362.973
G1 X26.92 Y33.44 Z0.3 F288.0 E363.702
G1 X26.69 Y33.21 Z0.3 F288.0 E364.231
G1 X26.29 Y33.4 Z0.3 F288.0 E364.96
G1 X26.52 Y33.63 Z0.3 F288.0 E365.487
G1 X26.12 Y33.82 Z0.3 F288.0 E366.215
G1 X25.9 Y33.6 Z0.3 F288.0 E366.742
G1 X25.5 Y33.79 Z0.3 F288.0 E367.47
G1 X25.72 Y34.02 Z0.3 F288.0 E367.997
G1 X25.29 Y34.18 Z0.3 F288.0 E368.75
G1 X25.05 Y33.94 Z0.3 F288.0 E369.315
G1 X24.84 Y34.32 Z0.3 F288.0 E370.03
G1 X24.6 Y34.08 Z0.3 F288.0 E370.593
G1 X24.39 Y34.46 Z0.3 F288.0 E371.309
G1 X24.15 Y34.22 Z0.3 F288.0 E371.872
G1 X23.94 Y34.6 Z0.3 F288.0 E372.588
G1 X23.69 Y34.36 Z0.3 F288.0 E373.151
G1 X23.48 Y34.74 Z0.3 F288.0 E373.867
G1 X23.23 Y34.49 Z0.3 F288.0 E374.452
G1 X22.98 Y34.83 Z0.3 F288.0 E375.149
G1 X22.72 Y34.56 Z0.3 F288.0 E375.769
G1 X22.47 Y34.91 Z0.3 F288.0 E376.466
G1 X22.2 Y34.64 Z0.3 F288.0 E377.083
G1 X21.95 Y34.99 Z0.3 F288.0 E377.781
G1 X21.69 Y34.72 Z0.3 F288.0 E378.399
G1 X21.44 Y35.06 Z0.3 F288.0 E379.096
G1 X21.17 Y34.8 Z0.3 F288.0 E379.714
G1 X20.89 Y35.11 Z0.3 F288.0 E380.404
G1 X20.59 Y34.81 Z0.3 F288.0 E381.109
G1 X20.3 Y35.11 Z0.3 F288.0 E381.797
G1 X20.0 Y34.81 Z0.3 F288.0 E382.502
G1 X19.71 Y35.11 Z0.3 F288.0 E383.191
G1 X19.4 Y34.81 Z0.3 F288.0 E383.897
G1 X19.11 Y35.11 Z0.3 F288.0 E384.585
G1 X18.8 Y34.79 Z0.3 F288.0 E385.321
G1 X18.46 Y35.05 Z0.3 F288.0 E386.014
G1 X18.1 Y34.69 Z0.3 F288.0 E386.852
G1 X17.76 Y34.94 Z0.3 F288.0 E387.547
G1 X17.4 Y34.58 Z0.3 F288.0 E388.385
G1 X17.07 Y34.84 Z0.3 F288.0 E389.079
G1 X16.7 Y34.48 Z0.3 F288.0 E389.918
G1 X16.31 Y34.67 Z0.3 F288.0 E390.643
G1 X15.85 Y34.22 Z0.3 F288.0 E391.709
G1 X15.45 Y34.41 Z0.3 F288.0 E392.435
G1 X15.0 Y33.95 Z0.3 F288.0 E393.501
G1 X14.6 Y34.15 Z0.3 F288.0 E394.228
G1 X13.99 Y33.54 Z0.3 F288.0 E395.632
G1 X13.5 Y33.64 Z0.3 F288.0 E396.459
G1 X12.85 Y32.99 Z0.3 F288.0 E397.967
G1 X12.31 Y33.05 Z0.3 F288.0 E398.852
G1 X11.16 Y31.89 Z0.3 F288.0 E401.529
G1 X10.11 Y31.43 Z0.3 F288.0 E403.417
G1 X8.55 Y29.87 Z0.3 F288.0 E407.041
G1 X8.13 Y28.87 Z0.3 F288.0 E408.83
G1 X7.04 Y27.78 Z0.3 F288.0 E411.361
G1 X7.06 Y27.2 Z0.3 F288.0 E412.3
G1 X6.29 Y26.44 Z0.3 F288.0 E414.084
G1 X6.45 Y26.0 Z0.3 F288.0 E414.847
G1 X5.91 Y25.46 Z0.3 F288.0 E416.091
G1 X6.07 Y25.02 Z0.3 F288.0 E416.855
G1 X5.53 Y24.49 Z0.3 F288.0 E418.1
G1 X5.75 Y24.12 Z0.3 F288.0 E418.808
G1 X5.35 Y23.71 Z0.3 F288.0 E419.742
G1 X5.58 Y23.35 Z0.3 F288.0 E420.447
G1 X5.17 Y22.95 Z0.3 F288.0 E421.382
G1 X5.4 Y22.58 Z0.3 F288.0 E422.089
G1 X5.01 Y22.19 Z0.3 F288.0 E422.995
G1 X5.29 Y21.88 Z0.3 F288.0 E423.683
G1 X4.96 Y21.55 Z0.3 F288.0 E424.447
G1 X5.25 Y21.24 Z0.3 F288.0 E425.136
G1 X4.92 Y20.91 Z0.3 F288.0 E425.899
G1 X5.2 Y20.6 Z0.3 F288.0 E426.588
G1 X4.87 Y20.27 Z0.3 F288.0 E427.352
G1 X5.15 Y19.96 Z0.3 F288.0 E428.04
G1 X4.87 Y19.68 Z0.3 F288.0 E428.695
G1 X5.2 Y19.41 Z0.3 F288.0 E429.386
G1 X4.91 Y19.13 Z0.3 F288.0 E430.042
G1 X5.24 Y18.86 Z0.3 F288.0 E430.733
G1 X4.96 Y18.58 Z0.3 F288.0 E431.389
G1 X5.28 Y18.31 Z0.3 F288.0 E432.079
G1 X5.0 Y18.03 Z0.3 F288.0 E432.734
G1 X5.32 Y17.76 Z0.3 F288.0 E433.426
G1 X5.07 Y17.51 Z0.3 F288.0 E434.013
G1 X5.43 Y17.28 Z0.3 F288.0 E434.718
G1 X5.18 Y17.03 Z0.3 F288.0 E435.305
G1 X5.54 Y16.8 Z0.3 F288.0 E436.01
G1 X5.29 Y16.55 Z0.3 F288.0 E436.597
G1 X5.65 Y16.32 Z0.3 F288.0 E437.304
G1 X5.4 Y16.06 Z0.3 F288.0 E437.892
G1 X5.76 Y15.83 Z0.3 F288.0 E438.596
G1 X5.51 Y15.58 Z0.3 F288.0 E439.184
G1 X5.91 Y15.38 Z0.3 F288.0 E439.909
G1 X5.67 Y15.15 Z0.3 F288.0 E440.452
G1 X6.07 Y14.96 Z0.3 F288.0 E441.181
G1 X5.84 Y14.73 Z0.3 F288.0 E441.724
G1 X6.24 Y14.53 Z0.3 F288.0 E442.454
G1 X6.01 Y14.3 Z0.3 F288.0 E442.998
G1 X6.41 Y14.11 Z0.3 F288.0 E443.727
G1 X6.17 Y13.87 Z0.3 F288.0 E444.27
G1 X6.57 Y13.68 Z0.3 F288.0 E445.0
G1 X6.34 Y13.45 Z0.3 F288.0 E445.544
G1 X6.55 Y13.07 Z0.3 F288.0 E446.257
G1 X6.78 Y13.29 Z0.3 F288.0 E446.772
G1 X6.99 Y12.92 Z0.3 F288.0 E447.484
G1 X6.77 Y12.69 Z0.3 F288.0 E448.002
G1 X6.99 Y12.32 Z0.3 F288.0 E448.713
G1 X7.21 Y12.54 Z0.3 F288.0 E449.23
G1 X7.43 Y12.17 Z0.3 F288.0 E449.94
G1 X7.2 Y11.94 Z0.3 F288.0 E450.457
G1 X7.42 Y11.57 Z0.3 F288.0 E451.168
G1 X7.64 Y11.79 Z0.3 F288.0 E451.684
G1 X7.89 Y11.44 Z0.3 F288.0 E452.381
G1 X7.67 Y11.23 Z0.3 F288.0 E452.884
G1 X7.93 Y10.9 Z0.3 F288.0 E453.576
G1 X8.15 Y11.11 Z0.3 F288.0 E454.077
G1 X8.41 Y10.78 Z0.3 F288.0 E454.77
G1 X8.2 Y10.57 Z0.3 F288.0 E455.272
G1 X8.46 Y10.24 Z0.3 F288.0 E455.963
G1 X8.68 Y10.45 Z0.3 F288.0 E456.464
G1 X8.94 Y10.12 Z0.3 F288.0 E457.156
G1 X8.72 Y9.91 Z0.3 F288.0 E457.658
G1 X9.0 Y9.59 Z0.3 F288.0 E458.348
G1 X9.22 Y9.81 Z0.3 F288.0 E458.846
G1 X9.52 Y9.52 Z0.3 F288.0 E459.535
G1 X9.31 Y9.31 Z0.3 F288.0 E460.034
G1 X9.62 Y9.02 Z0.3 F288.0 E460.722
G1 X9.83 Y9.24 Z0.3 F288.0 E461.221
G1 X10.14 Y8.95 Z0.3 F288.0 E461.909
G1 X9.92 Y8.74 Z0.3 F288.0 E462.407
G1 X10.23 Y8.45 Z0.3 F288.0 E463.094
G1 X10.45 Y8.67 Z0.3 F288.0 E463.592
G1 X10.75 Y8.38 Z0.3 F288.0 E464.279
G1 X10.54 Y8.17 Z0.3 F288.0 E464.781
G1 X10.89 Y7.93 Z0.3 F288.0 E465.479
G1 X11.11 Y8.14 Z0.3 F288.0 E465.987
G1 X11.46 Y7.9 Z0.3 F288.0 E466.686
G1 X11.24 Y7.69 Z0.3 F288.0 E467.194
G1 X11.59 Y7.45 Z0.3 F288.0 E467.893
G1 X11.81 Y7.66 Z0.3 F288.0 E468.399
G1 X12.16 Y7.42 Z0.3 F288.0 E469.099
G1 X11.94 Y7.21 Z0.3 F288.0 E469.605
G1 X12.3 Y6.97 Z0.3 F288.0 E470.304
G1 X12.52 Y7.18 Z0.3 F288.0 E470.812
G1 X12.91 Y6.98 Z0.3 F288.0 E471.534
G1 X12.68 Y6.76 Z0.3 F288.0 E472.061
G1 X13.08 Y6.56 Z0.3 F288.0 E472.79
G1 X13.31 Y6.79 Z0.3 F288.0 E473.318
G1 X13.71 Y6.6 Z0.3 F288.0 E474.047
G1 X13.48 Y6.37 Z0.3 F288.0 E474.574
G1 X13.88 Y6.18 Z0.3 F288.0 E475.302
G1 X14.11 Y6.4 Z0.3 F288.0 E475.829
G1 X14.51 Y6.21 Z0.3 F288.0 E476.558
G1 X14.28 Y5.99 Z0.3 F288.0 E477.085
G1 X14.71 Y5.82 Z0.3 F288.0 E477.838
G1 X14.95 Y6.06 Z0.3 F288.0 E478.402
G1 X15.16 Y5.68 Z0.3 F288.0 E479.118
G1 X15.4 Y5.92 Z0.3 F288.0 E479.681
G1 X15.61 Y5.54 Z0.3 F288.0 E480.397
G1 X15.85 Y5.78 Z0.3 F288.0 E480.96
G1 X16.06 Y5.4 Z0.3 F288.0 E481.676
G1 X16.31 Y5.64 Z0.3 F288.0 E482.239
G1 X16.52 Y5.26 Z0.3 F288.0 E482.954
G1 X16.77 Y5.51 Z0.3 F288.0 E483.539
G1 X17.02 Y5.17 Z0.3 F288.0 E484.237
G1 X17.28 Y5.44 Z0.3 F288.0 E484.857
G1 X17.53 Y5.09 Z0.3 F288.0 E485.553
G1 X17.8 Y5.36 Z0.3 F288.0 E486.171
G1 X18.05 Y5.01 Z0.3 F288.0 E486.868
G1 X18.31 Y5.28 Z0.3 F288.0 E487.487
G1 X18.56 Y4.94 Z0.3 F288.0 E488.183
G1 X18.83 Y5.2 Z0.3 F288.0 E488.802
G1 X19.11 Y4.89 Z0.3 F288.0 E489.492
G1 X19.41 Y5.19 Z0.3 F288.0 E490.196
G1 X19.7 Y4.89 Z0.3 F288.0 E490.885
G1 X20.0 Y5.19 Z0.3 F288.0 E491.59
G1 X20.29 Y4.89 Z0.3 F288.0 E492.278
G1 X20.6 Y5.19 Z0.3 F288.0 E492.984
G1 X20.89 Y4.89 Z0.3 F288.0 E493.673
G1 X21.2 Y5.21 Z0.3 F288.0 E494.409
G1 X21.54 Y4.95 Z0.3 F288.0 E495.102
G1 X21.9 Y5.31 Z0.3 F288.0 E495.94
G1 X22.24 Y5.06 Z0.3 F288.0 E496.635
G1 X22.6 Y5.42 Z0.3 F288.0 E497.473
G1 X22.93 Y5.16 Z0.3 F288.0 E498.166
G1 X23.3 Y5.52 Z0.3 F288.0 E499.006
G1 X23.69 Y5.33 Z0.3 F288.0 E499.731
G1 X24.15 Y5.79 Z0.3 F288.0 E500.796
G1 X24.55 Y5.59 Z0.3 F288.0 E501.523
G1 X25.01 Y6.05 Z0.3 F288.0 E502.588
G1 X25.4 Y5.85 Z0.3 F288.0 E503.316
G1 X26.01 Y6.46 Z0.3 F288.0 E504.72
G1 X26.5 Y6.36 Z0.3 F288.0 E505.547
G1 X27.15 Y7.01 Z0.3 F288.0 E507.055
G1 X27.69 Y6.95 Z0.3 F288.0 E507.94
G1 X28.84 Y8.11 Z0.3 F288.0 E510.617
;M103
G1 X28.56 Y8.35 Z0.3 F3600.0
;M101
G1 X27.25 Y7.45 Z0.3 F288.0 E513.225
G1 X25.29 Y6.51 Z0.3 F288.0 E516.78
G1 X23.22 Y5.87 Z0.3 F288.0 E520.336
G1 X21.08 Y5.55 Z0.3 F288.0 E523.891
G1 X18.92 Y5.55 Z0.3 F288.0 E527.448
G1 X16.78 Y5.87 Z0.3 F288.0 E531.003
G1 X14.71 Y6.51 Z0.3 F288.0 E534.559
G1 X12.76 Y7.45 Z0.3 F288.0 E538.114
G1 X10.97 Y8.67 Z0.3 F288.0 E541.671
G1 X9.38 Y10.14 Z0.3 F288.0 E545.227
G1 X8.03 Y11.84 Z0.3 F288.0 E548.784
G1 X6.94 Y13.71 Z0.3 F288.0 E552.34
G1 X6.15 Y15.73 Z0.3 F288.0 E555.896
G1 X5.67 Y17.84 Z0.3 F288.0 E559.451
G1 X5.51 Y20.0 Z0.3 F288.0 E563.008
G1 X5.67 Y22.16 Z0.3 F288.0 E566.564
G1 X6.15 Y24.27 Z0.3 F288.0 E570.119
G1 X6.94 Y26.29 Z0.3 F288.0 E573.675
G1 X8.03 Y28.16 Z0.3 F288.0 E577.232
G1 X9.38 Y29.86 Z0.3 F288.0 E580.788
G1 X10.97 Y31.33 Z0.3 F288.0 E584.344
G1 X12.76 Y32.55 Z0.3 F288.0 E587.901
G1 X14.71 Y33.49 Z0.3 F288.0 E591.457
G1 X16.78 Y34.13 Z0.3 F288.0 E595.013
G1 X18.92 Y34.45 Z0.3 F288.0 E598.568
G1 X21.08 Y34.45 Z0.3 F288.0 E602.124
G1 X23.22 Y34.13 Z0.3 F288.0 E605.679
G1 X25.29 Y33.49 Z0.3 F288.0 E609.235
G1 X27.25 Y32.55 Z0.3 F288.0 E612.791
G1 X29.04 Y31.33 Z0.3 F288.0 E616.347
G1 X30.62 Y29.86 Z0.3 F288.0 E619.904
G1 X31.97 Y28.16 Z0.3 F288.0 E623.46
G1 X33.06 Y26.29 Z0.3 F288.0 E627.017
G1 X33.85 Y24.27 Z0.3 F288.0 E630.572
G1 X34.33 Y22.16 Z0.3 F288.0 E634.128
G1 X34.49 Y20.0 Z0.3 F288.0 E637.684
G1 X34.33 Y17.84 Z0.3 F288.0 E641.24
G1 X33.85 Y15.73 Z0.3 F288.0 E644.796
G1 X33.06 Y13.71 Z0.3 F288.0 E648.351
G1 X31.97 Y11.84 Z0.3 F288.0 E651.908
G1 X30.62 Y10.14 Z0.3 F288.0 E655.464
G1 X29.04 Y8.67 Z0.3 F288.0 E659.021
G1 X28.64 Y8.4 Z0.3 F288.0 E659.807
G1 X28.56 Y8.35 Z0.3 F288.0 E659.97
;M103
G1 X29.21 Y7.56 Z0.3 F3600.0
;M101
G1 X29.67 Y7.88 Z0.3 F288.0 E660.882
G1 X31.37 Y9.45 Z0.3 F288.0 E664.687
G1 X32.81 Y11.26 Z0.3 F288.0 E668.492
G1 X33.97 Y13.27 Z0.3 F288.0 E672.297
G1 X34.82 Y15.43 Z0.3 F288.0 E676.105
G1 X35.34 Y17.69 Z0.3 F288.0 E679.911
G1 X35.51 Y20.0 Z0.3 F288.0 E683.716
G1 X35.34 Y22.31 Z0.3 F288.0 E687.521
G1 X34.82 Y24.57 Z0.3 F288.0 E691.327
G1 X33.97 Y26.73 Z0.3 F288.0 E695.135
G1 X32.81 Y28.74 Z0.3 F288.0 E698.94
G1 X31.37 Y30.55 Z0.3 F288.0 E702.746
G1 X29.67 Y32.13 Z0.3 F288.0 E706.551
G1 X27.76 Y33.43 Z0.3 F288.0 E710.356
G1 X25.67 Y34.44 Z0.3 F288.0 E714.163
G1 X23.45 Y35.12 Z0.3 F288.0 E717.969
G1 X21.16 Y35.47 Z0.3 F288.0 E721.775
G1 X18.84 Y35.47 Z0.3 F288.0 E725.581
G1 X16.55 Y35.12 Z0.3 F288.0 E729.386
G1 X14.33 Y34.44 Z0.3 F288.0 E733.193
G1 X12.25 Y33.43 Z0.3 F288.0 E736.999
G1 X10.33 Y32.13 Z0.3 F288.0 E740.805
G1 X8.63 Y30.55 Z0.3 F288.0 E744.61
G1 X7.19 Y28.74 Z0.3 F288.0 E748.415
G1 X6.03 Y26.73 Z0.3 F288.0 E752.221
G1 X5.18 Y24.57 Z0.3 F288.0 E756.028
G1 X4.66 Y22.31 Z0.3 F288.0 E759.835
G1 X4.49 Y20.0 Z0.3 F288.0 E763.64
G1 X4.66 Y17.69 Z0.3 F288.0 E767.445
G1 X5.18 Y15.43 Z0.3 F288.0 E771.251
G1 X6.03 Y13.27 Z0.3 F288.0 E775.059
G1 X7.19 Y11.26 Z0.3 F288.0 E778.864
G1 X8.63 Y9.45 Z0.3 F288.0 E782.669
G1 X10.33 Y7.88 Z0.3 F288.0 E786.474
G1 X12.25 Y6.57 Z0.3 F288.0 E790.28
G1 X14.33 Y5.56 Z0.3 F288.0 E794.087
G1 X16.55 Y4.88 Z0.3 F288.0 E797.893
G1 X18.84 Y4.53 Z0.3 F288.0 E801.698
G1 X21.16 Y4.53 Z0.3 F288.0 E805.504
G1 X23.45 Y4.88 Z0.3 F288.0 E809.31
G1 X25.67 Y5.56 Z0.3 F288.0 E813.116
G1 X27.76 Y6.57 Z0.3 F288.0 E816.923
G1 X29.21 Y7.56 Z0.3 F288.0 E819.816
;M103
;M108 S5.629
;M108 S5.91
G1 X29.45 Y7.22 Z0.3 F3600.0
;M101
G1 X29.93 Y7.55 Z0.3 F243.0 E820.672
G1 X31.68 Y9.16 Z0.3 F243.0 E824.146
G1 X33.16 Y11.03 Z0.3 F243.0 E827.619
G1 X34.35 Y13.09 Z0.3 F243.0 E831.094
G1 X35.22 Y15.31 Z0.3 F243.0 E834.569
G1 X35.75 Y17.63 Z0.3 F243.0 E838.043
G1 X35.93 Y20.0 Z0.3 F243.0 E841.517
G1 X35.75 Y22.37 Z0.3 F243.0 E844.991
G1 X35.22 Y24.7 Z0.3 F243.0 E848.465
G1 X34.35 Y26.91 Z0.3 F243.0 E851.94
G1 X33.16 Y28.97 Z0.3 F243.0 E855.415
G1 X31.68 Y30.84 Z0.3 F243.0 E858.888
G1 X29.93 Y32.45 Z0.3 F243.0 E862.362
G1 X27.97 Y33.8 Z0.3 F243.0 E865.836
G1 X25.82 Y34.83 Z0.3 F243.0 E869.311
G1 X23.54 Y35.53 Z0.3 F243.0 E872.786
G1 X21.19 Y35.89 Z0.3 F243.0 E876.26
G1 X18.81 Y35.89 Z0.3 F243.0 E879.733
G1 X16.46 Y35.53 Z0.3 F243.0 E883.207
G1 X14.18 Y34.83 Z0.3 F243.0 E886.681
G1 X12.04 Y33.8 Z0.3 F243.0 E890.156
G1 X10.07 Y32.45 Z0.3 F243.0 E893.63
G1 X8.32 Y30.84 Z0.3 F243.0 E897.104
G1 X6.84 Y28.97 Z0.3 F243.0 E900.577
G1 X5.65 Y26.91 Z0.3 F243.0 E904.052
G1 X4.78 Y24.7 Z0.3 F243.0 E907.527
G1 X4.25 Y22.37 Z0.3 F243.0 E911.001
G1 X4.07 Y20.0 Z0.3 F243.0 E914.475
G1 X4.25 Y17.63 Z0.3 F243.0 E917.949
G1 X4.78 Y15.31 Z0.3 F243.0 E921.423
G1 X5.65 Y13.09 Z0.3 F243.0 E924.898
G1 X6.84 Y11.03 Z0.3 F243.0 E928.373
G1 X8.32 Y9.16 Z0.3 F243.0 E931.846
G1 X10.07 Y7.55 Z0.3 F243.0 E935.32
G1 X12.04 Y6.21 Z0.3 F243.0 E938.794
G1 X14.18 Y5.17 Z0.3 F243.0 E942.269
G1 X16.46 Y4.47 Z0.3 F243.0 E945.744
G1 X18.81 Y4.12 Z0.3 F243.0 E949.217
G1 X21.19 Y4.12 Z0.3 F243.0 E952.69
G1 X23.54 Y4.47 Z0.3 F243.0 E956.164
G1 X25.82 Y5.17 Z0.3 F243.0 E959.638
G1 X27.97 Y6.21 Z0.3 F243.0 E963.114
G1 X29.45 Y7.22 Z0.3 F243.0 E965.732
;M103
G1 X28.4 Y8.75 Z0.3 F3600.0
;M101
G1 X27.04 Y7.81 Z0.3 F243.0 E968.148
G1 X25.14 Y6.9 Z0.3 F243.0 E971.216
G1 X23.13 Y6.28 Z0.3 F243.0 E974.285
G1 X21.05 Y5.97 Z0.3 F243.0 E977.353
G1 X18.95 Y5.97 Z0.3 F243.0 E980.424
G1 X16.87 Y6.28 Z0.3 F243.0 E983.492
G1 X14.86 Y6.9 Z0.3 F243.0 E986.561
G1 X12.97 Y7.81 Z0.3 F243.0 E989.629
G1 X11.23 Y9.0 Z0.3 F243.0 E992.699
G1 X9.69 Y10.43 Z0.3 F243.0 E995.767
G1 X8.37 Y12.07 Z0.3 F243.0 E998.837
G1 X7.32 Y13.9 Z0.3 F243.0 E1001.905
G1 X6.55 Y15.85 Z0.3 F243.0 E1004.975
G1 X6.09 Y17.9 Z0.3 F243.0 E1008.043
G1 X5.93 Y20.0 Z0.3 F243.0 E1011.112
G1 X6.09 Y22.1 Z0.3 F243.0 E1014.18
G1 X6.55 Y24.15 Z0.3 F243.0 E1017.249
G1 X7.32 Y26.11 Z0.3 F243.0 E1020.319
G1 X8.37 Y27.93 Z0.3 F243.0 E1023.387
G1 X9.69 Y29.57 Z0.3 F243.0 E1026.456
G1 X11.23 Y31.0 Z0.3 F243.0 E1029.525
G1 X12.97 Y32.19 Z0.3 F243.0 E1032.595
G1 X14.86 Y33.1 Z0.3 F243.0 E1035.663
G1 X16.87 Y33.72 Z0.3 F243.0 E1038.732
G1 X18.95 Y34.03 Z0.3 F243.0 E1041.8
G1 X21.05 Y34.03 Z0.3 F243.0 E1044.871
G1 X23.13 Y33.72 Z0.3 F243.0 E1047.939
G1 X25.14 Y33.1 Z0.3 F243.0 E1051.008
G1 X27.04 Y32.19 Z0.3 F243.0 E1054.076
G1 X28.77 Y31.0 Z0.3 F243.0 E1057.146
G1 X30.32 Y29.57 Z0.3 F243.0 E1060.214
G1 X31.63 Y27.93 Z0.3 F243.0 E1063.284
G1 X32.68 Y26.11 Z0.3 F243.0 E1066.352
G1 X33.45 Y24.15 Z0.3 F243.0 E1069.422
G1 X33.91 Y22.1 Z0.3 F243.0 E1072.49
G1 X34.07 Y20.0 Z0.3 F243.0 E1075.559
G1 X33.91 Y17.9 Z0.3 F243.0 E1078.628
G1 X33.45 Y15.85 Z0.3 F243.0 E1081.696
G1 X32.68 Y13.9 Z0.3 F243.0 E1084.766
G1 X31.63 Y12.07 Z0.3 F243.0 E1087.834
G1 X30.32 Y10.43 Z0.3 F243.0 E1090.903
G1 X28.77 Y9.0 Z0.3 F243.0 E1093.972
G1 X28.4 Y8.75 Z0.3 F243.0 E1094.625
;M103
;M108 S7.506
G1 X27.08 Y7.74 Z0.6 F3600.0
G1 X25.17 Y6.83 Z0.6 F3600.0
G1 X23.15 Y6.2 Z0.6 F3600.0
G1 X21.06 Y5.89 Z0.6 F3600.0
G1 X18.94 Y5.89 Z0.6 F3600.0
G1 X16.85 Y6.2 Z0.6 F3600.0
G1 X15.29 Y6.68 Z0.6 F3600.0
G1 X15.01 Y6.91 Z0.6 F3600.0
;M101
G1 X17.69 Y4.23 Z0.6 F360.0 E1099.367
G1 X18.39 Y4.13 Z0.6 F360.0 E1100.25
G1 X15.86 Y6.65 Z0.6 F360.0 E1104.711
G1 X16.72 Y6.38 Z0.6 F360.0 E1105.833
G1 X19.04 Y4.06 Z0.6 F360.0 E1109.939
G1 X19.63 Y4.06 Z0.6 F360.0 E1110.68
G1 X17.45 Y6.25 Z0.6 F360.0 E1114.547
G1 X18.15 Y6.14 Z0.6 F360.0 E1115.43
G1 X20.23 Y4.06 Z0.6 F360.0 E1119.111
G1 X20.82 Y4.06 Z0.6 F360.0 E1119.853
G1 X18.84 Y6.04 Z0.6 F360.0 E1123.349
G1 X19.45 Y6.02 Z0.6 F360.0 E1124.111
G1 X21.38 Y4.09 Z0.6 F360.0 E1127.527
G1 X21.9 Y4.17 Z0.6 F360.0 E1128.178
G1 X20.04 Y6.02 Z0.6 F360.0 E1131.458
G1 X20.64 Y6.02 Z0.6 F360.0 E1132.2
G1 X22.41 Y4.25 Z0.6 F360.0 E1135.341
G1 X22.93 Y4.32 Z0.6 F360.0 E1135.993
G1 X21.21 Y6.05 Z0.6 F360.0 E1139.038
G1 X21.72 Y6.12 Z0.6 F360.0 E1139.688
G1 X23.44 Y4.4 Z0.6 F360.0 E1142.735
G1 X23.91 Y4.53 Z0.6 F360.0 E1143.34
G1 X22.23 Y6.2 Z0.6 F360.0 E1146.301
G1 X22.75 Y6.28 Z0.6 F360.0 E1146.952
G1 X24.36 Y4.67 Z0.6 F360.0 E1149.802
G1 X24.81 Y4.81 Z0.6 F360.0 E1150.395
G1 X23.25 Y6.37 Z0.6 F360.0 E1153.167
G1 X23.7 Y6.51 Z0.6 F360.0 E1153.758
G1 X25.27 Y4.95 Z0.6 F360.0 E1156.53
G1 X25.72 Y5.09 Z0.6 F360.0 E1157.122
G1 X24.15 Y6.65 Z0.6 F360.0 E1159.892
G1 X24.61 Y6.79 Z0.6 F360.0 E1160.485
G1 X26.13 Y5.26 Z0.6 F360.0 E1163.188
G1 X26.53 Y5.46 Z0.6 F360.0 E1163.743
G1 X25.06 Y6.93 Z0.6 F360.0 E1166.351
G1 X25.47 Y7.12 Z0.6 F360.0 E1166.91
G1 X26.93 Y5.65 Z0.6 F360.0 E1169.506
G1 X27.33 Y5.84 Z0.6 F360.0 E1170.061
G1 X25.87 Y7.31 Z0.6 F360.0 E1172.657
G1 X26.26 Y7.5 Z0.6 F360.0 E1173.211
G1 X27.73 Y6.03 Z0.6 F360.0 E1175.808
G1 X28.12 Y6.24 Z0.6 F360.0 E1176.354
G1 X26.66 Y7.69 Z0.6 F360.0 E1178.921
G1 X27.06 Y7.89 Z0.6 F360.0 E1179.472
G1 X28.47 Y6.48 Z0.6 F360.0 E1181.966
G1 X28.82 Y6.72 Z0.6 F360.0 E1182.499
G1 X27.41 Y8.13 Z0.6 F360.0 E1184.992
G1 X27.76 Y8.37 Z0.6 F360.0 E1185.525
G1 X29.17 Y6.96 Z0.6 F360.0 E1188.017
G1 X29.52 Y7.2 Z0.6 F360.0 E1188.551
G1 X28.11 Y8.61 Z0.6 F360.0 E1191.045
G1 X28.47 Y8.85 Z0.6 F360.0 E1191.58
G1 X29.88 Y7.44 Z0.6 F360.0 E1194.073
G1 X30.19 Y7.72 Z0.6 F360.0 E1194.599
G1 X28.81 Y9.1 Z0.6 F360.0 E1197.05
G1 X29.12 Y9.39 Z0.6 F360.0 E1197.574
G1 X30.5 Y8.0 Z0.6 F360.0 E1200.026
G1 X30.81 Y8.29 Z0.6 F360.0 E1200.55
G1 X29.42 Y9.67 Z0.6 F360.0 E1203.002
G1 X29.73 Y9.96 Z0.6 F360.0 E1203.526
G1 X31.12 Y8.57 Z0.6 F360.0 E1205.977
G1 X31.42 Y8.86 Z0.6 F360.0 E1206.501
G1 X30.04 Y10.24 Z0.6 F360.0 E1208.952
G1 X30.34 Y10.54 Z0.6 F360.0 E1209.476
G1 X31.73 Y9.15 Z0.6 F360.0 E1211.942
G1 X31.99 Y9.48 Z0.6 F360.0 E1212.469
G1 X30.6 Y10.87 Z0.6 F360.0 E1214.934
G1 X30.86 Y11.2 Z0.6 F360.0 E1215.461
G1 X32.25 Y9.81 Z0.6 F360.0 E1217.925
G1 X32.52 Y10.14 Z0.6 F360.0 E1218.453
G1 X31.12 Y11.53 Z0.6 F360.0 E1220.918
G1 X31.39 Y11.86 Z0.6 F360.0 E1221.445
G1 X32.78 Y10.46 Z0.6 F360.0 E1223.909
G1 X33.04 Y10.79 Z0.6 F360.0 E1224.437
G1 X31.64 Y12.2 Z0.6 F360.0 E1226.923
G1 X31.86 Y12.57 Z0.6 F360.0 E1227.465
G1 X33.29 Y11.14 Z0.6 F360.0 E1230.0
G1 X33.51 Y11.52 Z0.6 F360.0 E1230.542
G1 X32.07 Y12.95 Z0.6 F360.0 E1233.079
G1 X32.29 Y13.33 Z0.6 F360.0 E1233.622
G1 X33.72 Y11.89 Z0.6 F360.0 E1236.159
G1 X33.94 Y12.27 Z0.6 F360.0 E1236.701
G1 X32.51 Y13.7 Z0.6 F360.0 E1239.238
G1 X32.7 Y14.1 Z0.6 F360.0 E1239.791
G1 X34.16 Y12.64 Z0.6 F360.0 E1242.366
G1 X34.37 Y13.02 Z0.6 F360.0 E1242.908
G1 X32.87 Y14.52 Z0.6 F360.0 E1245.57
G1 X33.03 Y14.95 Z0.6 F360.0 E1246.143
G1 X34.55 Y13.44 Z0.6 F360.0 E1248.817
G1 X34.71 Y13.86 Z0.6 F360.0 E1249.388
G1 X33.2 Y15.37 Z0.6 F360.0 E1252.061
G1 X33.37 Y15.8 Z0.6 F360.0 E1252.632
G1 X34.88 Y14.29 Z0.6 F360.0 E1255.305
G1 X35.05 Y14.71 Z0.6 F360.0 E1255.876
G1 X33.49 Y16.27 Z0.6 F360.0 E1258.633
G1 X33.6 Y16.76 Z0.6 F360.0 E1259.252
G1 X35.21 Y15.14 Z0.6 F360.0 E1262.109
G1 X35.34 Y15.6 Z0.6 F360.0 E1262.709
G1 X33.71 Y17.24 Z0.6 F360.0 E1265.602
G1 X33.82 Y17.72 Z0.6 F360.0 E1266.222
G1 X35.45 Y16.08 Z0.6 F360.0 E1269.115
G1 X35.56 Y16.57 Z0.6 F360.0 E1269.734
G1 X33.89 Y18.24 Z0.6 F360.0 E1272.701
G1 X33.93 Y18.8 Z0.6 F360.0 E1273.393
G1 X35.67 Y17.05 Z0.6 F360.0 E1276.482
G1 X35.78 Y17.53 Z0.6 F360.0 E1277.1
G1 X33.97 Y19.35 Z0.6 F360.0 E1280.311
G1 X34.01 Y19.9 Z0.6 F360.0 E1281.001
G1 X35.84 Y18.07 Z0.6 F360.0 E1284.233
G1 X35.88 Y18.62 Z0.6 F360.0 E1284.926
G1 X33.98 Y20.52 Z0.6 F360.0 E1288.287
G1 X33.93 Y21.16 Z0.6 F360.0 E1289.091
G1 X35.92 Y19.17 Z0.6 F360.0 E1292.61
G1 X35.96 Y19.72 Z0.6 F360.0 E1293.301
G1 X33.88 Y21.8 Z0.6 F360.0 E1296.977
G1 X33.77 Y22.51 Z0.6 F360.0 E1297.879
G1 X35.96 Y20.32 Z0.6 F360.0 E1301.759
G1 X35.91 Y20.96 Z0.6 F360.0 E1302.561
G1 X33.59 Y23.28 Z0.6 F360.0 E1306.666
G1 X33.42 Y24.05 Z0.6 F360.0 E1307.65
G1 X35.86 Y21.6 Z0.6 F360.0 E1311.979
G1 X35.81 Y22.24 Z0.6 F360.0 E1312.782
G1 X33.06 Y25.0 Z0.6 F360.0 E1317.664
G1 X32.67 Y25.97 Z0.6 F360.0 E1318.975
;M103
G1 X33.41 Y25.23 Z0.6 F3600.0
;M101
G1 X35.67 Y22.98 Z0.6 F360.0 E1322.962
G1 X35.49 Y23.75 Z0.6 F360.0 E1323.947
G1 X31.91 Y27.33 Z0.6 F360.0 E1330.281
;M103
G1 X33.68 Y27.34 Z0.6 F3600.0
;M101
G1 X26.42 Y34.6 Z0.6 F360.0 E1343.132
G1 X25.42 Y35.01 Z0.6 F360.0 E1344.485
;M103
G1 X26.18 Y34.24 Z0.6 F3600.0
;M101
G1 X34.99 Y25.44 Z0.6 F360.0 E1360.066
G1 X35.32 Y24.51 Z0.6 F360.0 E1361.291
;M103
G1 X34.63 Y25.21 Z0.6 F3600.0
;M101
G1 X24.56 Y35.27 Z0.6 F360.0 E1379.1
G1 X23.7 Y35.54 Z0.6 F360.0 E1380.222
G1 X27.29 Y31.95 Z0.6 F360.0 E1386.572
;M103
G1 X26.04 Y32.61 Z0.6 F3600.0
;M101
G1 X22.98 Y35.67 Z0.6 F360.0 E1391.989
G1 X22.28 Y35.77 Z0.6 F360.0 E1392.871
G1 X24.95 Y33.1 Z0.6 F360.0 E1397.599
G1 X24.1 Y33.37 Z0.6 F360.0 E1398.72
G1 X21.58 Y35.88 Z0.6 F360.0 E1403.167
G1 X20.93 Y35.94 Z0.6 F360.0 E1403.985
G1 X23.24 Y33.63 Z0.6 F360.0 E1408.068
G1 X22.52 Y33.76 Z0.6 F360.0 E1408.982
G1 X20.34 Y35.94 Z0.6 F360.0 E1412.84
G1 X19.75 Y35.94 Z0.6 F360.0 E1413.581
G1 X21.82 Y33.86 Z0.6 F360.0 E1417.253
G1 X21.13 Y33.97 Z0.6 F360.0 E1418.135
G1 X19.15 Y35.94 Z0.6 F360.0 E1421.622
G1 X18.59 Y35.91 Z0.6 F360.0 E1422.323
G1 X20.52 Y33.98 Z0.6 F360.0 E1425.734
G1 X19.93 Y33.98 Z0.6 F360.0 E1426.475
G1 X18.08 Y35.83 Z0.6 F360.0 E1429.747
G1 X17.56 Y35.75 Z0.6 F360.0 E1430.399
G1 X19.34 Y33.98 Z0.6 F360.0 E1433.534
G1 X18.77 Y33.95 Z0.6 F360.0 E1434.242
G1 X17.05 Y35.67 Z0.6 F360.0 E1437.288
G1 X16.54 Y35.6 Z0.6 F360.0 E1437.939
G1 X18.26 Y33.87 Z0.6 F360.0 E1440.983
G1 X17.74 Y33.8 Z0.6 F360.0 E1441.635
G1 X16.07 Y35.47 Z0.6 F360.0 E1444.589
G1 X15.62 Y35.33 Z0.6 F360.0 E1445.182
G1 X17.23 Y33.72 Z0.6 F360.0 E1448.027
G1 X16.73 Y33.62 Z0.6 F360.0 E1448.657
G1 X15.17 Y35.19 Z0.6 F360.0 E1451.428
G1 X14.71 Y35.05 Z0.6 F360.0 E1452.021
G1 X16.28 Y33.48 Z0.6 F360.0 E1454.791
G1 X15.83 Y33.34 Z0.6 F360.0 E1455.385
G1 X14.26 Y34.91 Z0.6 F360.0 E1458.156
G1 X13.85 Y34.73 Z0.6 F360.0 E1458.718
G1 X15.37 Y33.2 Z0.6 F360.0 E1461.416
G1 X14.92 Y33.06 Z0.6 F360.0 E1462.009
G1 X13.45 Y34.53 Z0.6 F360.0 E1464.613
G1 X13.05 Y34.34 Z0.6 F360.0 E1465.168
G1 X14.52 Y32.88 Z0.6 F360.0 E1467.764
G1 X14.12 Y32.68 Z0.6 F360.0 E1468.319
G1 X12.65 Y34.15 Z0.6 F360.0 E1470.915
G1 X12.25 Y33.96 Z0.6 F360.0 E1471.47
G1 X13.72 Y32.49 Z0.6 F360.0 E1474.067
G1 X13.32 Y32.3 Z0.6 F360.0 E1474.622
G1 X11.87 Y33.74 Z0.6 F360.0 E1477.185
G1 X11.52 Y33.51 Z0.6 F360.0 E1477.717
G1 X12.93 Y32.1 Z0.6 F360.0 E1480.212
G1 X12.57 Y31.86 Z0.6 F360.0 E1480.745
G1 X11.16 Y33.27 Z0.6 F360.0 E1483.24
G1 X10.81 Y33.03 Z0.6 F360.0 E1483.773
G1 X12.22 Y31.62 Z0.6 F360.0 E1486.266
G1 X11.87 Y31.38 Z0.6 F360.0 E1486.799
G1 X10.46 Y32.78 Z0.6 F360.0 E1489.292
G1 X10.11 Y32.54 Z0.6 F360.0 E1489.826
G1 X11.52 Y31.14 Z0.6 F360.0 E1492.32
G1 X11.18 Y30.88 Z0.6 F360.0 E1492.85
G1 X9.79 Y32.27 Z0.6 F360.0 E1495.3
G1 X9.48 Y31.98 Z0.6 F360.0 E1495.824
G1 X10.87 Y30.6 Z0.6 F360.0 E1498.275
G1 X10.56 Y30.31 Z0.6 F360.0 E1498.8
G1 X9.18 Y31.7 Z0.6 F360.0 E1501.251
G1 X8.87 Y31.41 Z0.6 F360.0 E1501.776
G1 X10.26 Y30.03 Z0.6 F360.0 E1504.228
G1 X9.95 Y29.74 Z0.6 F360.0 E1504.752
G1 X8.56 Y31.13 Z0.6 F360.0 E1507.204
G1 X8.26 Y30.84 Z0.6 F360.0 E1507.729
G1 X9.65 Y29.45 Z0.6 F360.0 E1510.194
G1 X9.39 Y29.12 Z0.6 F360.0 E1510.722
G1 X8.0 Y30.51 Z0.6 F360.0 E1513.188
G1 X7.73 Y30.18 Z0.6 F360.0 E1513.716
G1 X9.13 Y28.79 Z0.6 F360.0 E1516.181
G1 X8.86 Y28.46 Z0.6 F360.0 E1516.709
G1 X7.47 Y29.85 Z0.6 F360.0 E1519.176
G1 X7.21 Y29.52 Z0.6 F360.0 E1519.703
G1 X8.6 Y28.13 Z0.6 F360.0 E1522.167
G1 X8.35 Y27.78 Z0.6 F360.0 E1522.697
G1 X6.95 Y29.19 Z0.6 F360.0 E1525.187
G1 X6.7 Y28.84 Z0.6 F360.0 E1525.719
G1 X8.14 Y27.41 Z0.6 F360.0 E1528.255
G1 X7.92 Y27.03 Z0.6 F360.0 E1528.798
G1 X6.49 Y28.47 Z0.6 F360.0 E1531.334
G1 X6.27 Y28.09 Z0.6 F360.0 E1531.877
G1 X7.7 Y26.66 Z0.6 F360.0 E1534.413
G1 X7.49 Y26.28 Z0.6 F360.0 E1534.956
G1 X6.05 Y27.72 Z0.6 F360.0 E1537.493
G1 X5.83 Y27.34 Z0.6 F360.0 E1538.036
G1 X7.29 Y25.88 Z0.6 F360.0 E1540.615
G1 X7.13 Y25.46 Z0.6 F360.0 E1541.187
G1 X5.62 Y26.96 Z0.6 F360.0 E1543.855
G1 X5.45 Y26.54 Z0.6 F360.0 E1544.424
G1 X6.96 Y25.03 Z0.6 F360.0 E1547.098
G1 X6.79 Y24.61 Z0.6 F360.0 E1547.669
G1 X5.28 Y26.12 Z0.6 F360.0 E1550.342
G1 X5.11 Y25.69 Z0.6 F360.0 E1550.915
G1 X6.62 Y24.18 Z0.6 F360.0 E1553.588
G1 X6.51 Y23.7 Z0.6 F360.0 E1554.201
G1 X4.95 Y25.27 Z0.6 F360.0 E1556.964
G1 X4.78 Y24.84 Z0.6 F360.0 E1557.536
G1 X6.4 Y23.22 Z0.6 F360.0 E1560.398
G1 X6.29 Y22.74 Z0.6 F360.0 E1561.017
G1 X4.65 Y24.38 Z0.6 F360.0 E1563.91
G1 X4.54 Y23.89 Z0.6 F360.0 E1564.528
G1 X6.18 Y22.26 Z0.6 F360.0 E1567.423
G1 X6.11 Y21.73 Z0.6 F360.0 E1568.087
G1 X4.43 Y23.41 Z0.6 F360.0 E1571.061
G1 X4.32 Y22.93 Z0.6 F360.0 E1571.679
G1 X6.07 Y21.18 Z0.6 F360.0 E1574.775
G1 X6.03 Y20.63 Z0.6 F360.0 E1575.466
G1 X4.21 Y22.45 Z0.6 F360.0 E1578.682
G1 X4.16 Y21.9 Z0.6 F360.0 E1579.363
G1 X5.99 Y20.08 Z0.6 F360.0 E1582.595
G1 X6.02 Y19.45 Z0.6 F360.0 E1583.382
G1 X4.12 Y21.35 Z0.6 F360.0 E1586.751
G1 X4.08 Y20.8 Z0.6 F360.0 E1587.442
G1 X6.07 Y18.81 Z0.6 F360.0 E1590.968
G1 X6.12 Y18.17 Z0.6 F360.0 E1591.772
G1 X4.04 Y20.25 Z0.6 F360.0 E1595.456
G1 X4.04 Y19.65 Z0.6 F360.0 E1596.207
G1 X6.24 Y17.45 Z0.6 F360.0 E1600.098
G1 X6.42 Y16.68 Z0.6 F360.0 E1601.082
G1 X4.09 Y19.01 Z0.6 F360.0 E1605.197
G1 X4.14 Y18.37 Z0.6 F360.0 E1606.0
G1 X6.59 Y15.92 Z0.6 F360.0 E1610.34
G1 X6.96 Y14.96 Z0.6 F360.0 E1611.63
;M103
G1 X6.23 Y15.68 Z0.6 F3600.0
;M101
G1 X4.19 Y17.73 Z0.6 F360.0 E1615.25
G1 X4.34 Y16.99 Z0.6 F360.0 E1616.201
G1 X7.35 Y13.98 Z0.6 F360.0 E1621.517
G1 X8.13 Y12.61 Z0.6 F360.0 E1623.493
;M103
G1 X7.01 Y13.72 Z0.6 F3600.0
;M101
G1 X4.52 Y16.22 Z0.6 F360.0 E1627.906
G1 X4.69 Y15.45 Z0.6 F360.0 E1628.891
G1 X15.4 Y4.74 Z0.6 F360.0 E1647.838
G1 X14.54 Y5.01 Z0.6 F360.0 E1648.96
G1 X5.03 Y14.52 Z0.6 F360.0 E1665.79
;M103
G1 X5.41 Y13.54 Z0.6 F3600.0
;M101
G1 X13.53 Y5.43 Z0.6 F360.0 E1680.149
;M103
G1 X12.39 Y5.98 Z0.6 F3600.0
;M101
G1 X6.01 Y12.35 Z0.6 F360.0 E1691.425
;M103
G1 X6.88 Y10.9 Z0.6 F3600.0
;M101
G1 X10.76 Y7.01 Z0.6 F360.0 E1698.304
;M103
G1 X12.62 Y8.11 Z0.6 F3600.0
;M101
G1 X16.26 Y4.48 Z0.6 F360.0 E1704.737
G1 X16.99 Y4.34 Z0.6 F360.0 E1705.67
G1 X13.91 Y7.42 Z0.6 F360.0 E1711.125
;M103
G1 X19.0 Y6.71 Z0.6 F3600.0
G1 X21.0 Y6.71 Z0.6 F3600.0
G1 X22.97 Y7.01 Z0.6 F3600.0
G1 X24.87 Y7.6 Z0.6 F3600.0
G1 X26.66 Y8.46 Z0.6 F3600.0
G1 X28.31 Y9.58 Z0.6 F3600.0
G1 X29.77 Y10.94 Z0.6 F3600.0
G1 X31.01 Y12.49 Z0.6 F3600.0
G1 X32.0 Y14.22 Z0.6 F3600.0
G1 X32.73 Y16.07 Z0.6 F3600.0
G1 X33.17 Y18.01 Z0.6 F3600.0
G1 X33.32 Y20.0 Z0.6 F3600.0
G1 X33.17 Y21.99 Z0.6 F3600.0
G1 X32.73 Y23.93 Z0.6 F3600.0
G1 X28.89 Y32.72 Z0.6 F3600.0
;M101
G1 X34.03 Y27.58 Z0.6 F360.0 E1720.217
G1 X34.6 Y26.41 Z0.6 F360.0 E1721.852
;M103
G1 X33.22 Y28.98 Z0.6 F3600.0
;M101
G1 X29.15 Y33.05 Z0.6 F360.0 E1729.048
G1 X27.56 Y34.05 Z0.6 F360.0 E1731.396
;M103
G1 X26.36 Y32.06 Z0.6 F3600.0
;M101
G1 X26.55 Y31.96 Z0.6 F360.0 E1731.673
G1 X26.83 Y31.83 Z0.6 F360.0 E1732.056
G1 X28.52 Y30.68 Z0.6 F360.0 E1734.611
G1 X30.01 Y29.29 Z0.6 F360.0 E1737.165
G1 X31.29 Y27.7 Z0.6 F360.0 E1739.72
G1 X32.31 Y25.93 Z0.6 F360.0 E1742.274
G1 X33.05 Y24.03 Z0.6 F360.0 E1744.828
G1 X33.51 Y22.04 Z0.6 F360.0 E1747.382
G1 X33.66 Y20.0 Z0.6 F360.0 E1749.937
G1 X33.51 Y17.96 Z0.6 F360.0 E1752.491
G1 X33.05 Y15.97 Z0.6 F360.0 E1755.045
G1 X32.31 Y14.07 Z0.6 F360.0 E1757.599
G1 X31.29 Y12.3 Z0.6 F360.0 E1760.153
G1 X30.01 Y10.71 Z0.6 F360.0 E1762.708
G1 X28.52 Y9.32 Z0.6 F360.0 E1765.262
G1 X26.83 Y8.17 Z0.6 F360.0 E1767.817
G1 X24.99 Y7.28 Z0.6 F360.0 E1770.371
G1 X23.04 Y6.68 Z0.6 F360.0 E1772.925
G1 X21.02 Y6.38 Z0.6 F360.0 E1775.479
G1 X18.98 Y6.38 Z0.6 F360.0 E1778.033
G1 X16.96 Y6.68 Z0.6 F360.0 E1780.588
G1 X15.01 Y7.28 Z0.6 F360.0 E1783.142
G1 X13.17 Y8.17 Z0.6 F360.0 E1785.695
G1 X11.48 Y9.32 Z0.6 F360.0 E1788.25
G1 X9.99 Y10.71 Z0.6 F360.0 E1790.804
G1 X8.71 Y12.3 Z0.6 F360.0 E1793.359
G1 X7.69 Y14.07 Z0.6 F360.0 E1795.914
G1 X6.95 Y15.97 Z0.6 F360.0 E1798.467
G1 X6.49 Y17.96 Z0.6 F360.0 E1801.022
G1 X6.34 Y20.0 Z0.6 F360.0 E1803.576
G1 X6.49 Y22.04 Z0.6 F360.0 E1806.13
G1 X6.95 Y24.03 Z0.6 F360.0 E1808.685
G1 X7.69 Y25.93 Z0.6 F360.0 E1811.238
G1 X8.71 Y27.7 Z0.6 F360.0 E1813.793
G1 X9.99 Y29.29 Z0.6 F360.0 E1816.348
G1 X11.48 Y30.68 Z0.6 F360.0 E1818.901
G1 X13.17 Y31.83 Z0.6 F360.0 E1821.457
G1 X15.01 Y32.72 Z0.6 F360.0 E1824.01
G1 X16.96 Y33.32 Z0.6 F360.0 E1826.564
G1 X18.98 Y33.62 Z0.6 F360.0 E1829.118
G1 X21.02 Y33.62 Z0.6 F360.0 E1831.673
G1 X23.04 Y33.32 Z0.6 F360.0 E1834.227
G1 X24.99 Y32.72 Z0.6 F360.0 E1836.781
G1 X26.36 Y32.06 Z0.6 F360.0 E1838.675
;M103
G1 X27.51 Y34.47 Z0.6 F3600.0
;M101
G1 X25.97 Y35.21 Z0.6 F360.0 E1840.817
G1 X23.64 Y35.93 Z0.6 F360.0 E1843.873
G1 X21.22 Y36.29 Z0.6 F360.0 E1846.929
G1 X18.78 Y36.29 Z0.6 F360.0 E1849.984
G1 X16.36 Y35.93 Z0.6 F360.0 E1853.039
G1 X14.03 Y35.21 Z0.6 F360.0 E1856.095
G1 X11.83 Y34.15 Z0.6 F360.0 E1859.149
G1 X9.81 Y32.77 Z0.6 F360.0 E1862.204
G1 X8.02 Y31.11 Z0.6 F360.0 E1865.259
G1 X6.5 Y29.2 Z0.6 F360.0 E1868.314
G1 X5.28 Y27.09 Z0.6 F360.0 E1871.368
G1 X4.39 Y24.82 Z0.6 F360.0 E1874.424
G1 X3.84 Y22.44 Z0.6 F360.0 E1877.479
G1 X3.66 Y20.0 Z0.6 F360.0 E1880.534
G1 X3.84 Y17.57 Z0.6 F360.0 E1883.588
G1 X4.39 Y15.18 Z0.6 F360.0 E1886.644
G1 X5.28 Y12.91 Z0.6 F360.0 E1889.7
G1 X6.5 Y10.8 Z0.6 F360.0 E1892.754
G1 X8.02 Y8.89 Z0.6 F360.0 E1895.809
G1 X9.81 Y7.23 Z0.6 F360.0 E1898.864
G1 X11.83 Y5.85 Z0.6 F360.0 E1901.918
G1 X14.03 Y4.79 Z0.6 F360.0 E1904.973
G1 X16.36 Y4.07 Z0.6 F360.0 E1908.029
G1 X18.78 Y3.71 Z0.6 F360.0 E1911.084
G1 X21.22 Y3.71 Z0.6 F360.0 E1914.139
G1 X23.64 Y4.07 Z0.6 F360.0 E1917.194
G1 X25.97 Y4.79 Z0.6 F360.0 E1920.25
G1 X28.17 Y5.85 Z0.6 F360.0 E1923.304
G1 X30.19 Y7.23 Z0.6 F360.0 E1926.359
G1 X31.98 Y8.89 Z0.6 F360.0 E1929.414
G1 X33.5 Y10.8 Z0.6 F360.0 E1932.469
G1 X34.72 Y12.91 Z0.6 F360.0 E1935.523
G1 X35.61 Y15.18 Z0.6 F360.0 E1938.579
G1 X36.16 Y17.57 Z0.6 F360.0 E1941.634
G1 X36.34 Y20.0 Z0.6 F360.0 E1944.689
G1 X36.16 Y22.44 Z0.6 F360.0 E1947.743
G1 X35.61 Y24.82 Z0.6 F360.0 E1950.799
G1 X34.72 Y27.09 Z0.6 F360.0 E1953.855
G1 X33.5 Y29.2 Z0.6 F360.0 E1956.909
G1 X31.98 Y31.11 Z0.6 F360.0 E1959.964
G1 X30.19 Y32.77 Z0.6 F360.0 E1963.019
G1 X28.17 Y34.15 Z0.6 F360.0 E1966.073
G1 X27.71 Y34.37 Z0.6 F360.0 E1966.709
G1 X27.51 Y34.47 Z0.6 F360.0 E1966.985
;M103
;M108 S5.629
G1 X27.7 Y34.84 Z0.6 F3600.0
;M101
G1 X26.12 Y35.6 Z0.6 F270.0 E1969.167
G1 X23.73 Y36.34 Z0.6 F270.0 E1972.301
G1 X21.25 Y36.71 Z0.6 F270.0 E1975.435
G1 X18.75 Y36.71 Z0.6 F270.0 E1978.567
G1 X16.27 Y36.34 Z0.6 F270.0 E1981.701
G1 X13.88 Y35.6 Z0.6 F270.0 E1984.835
G1 X11.62 Y34.51 Z0.6 F270.0 E1987.968
G1 X9.55 Y33.1 Z0.6 F270.0 E1991.1
G1 X7.72 Y31.4 Z0.6 F270.0 E1994.234
G1 X6.15 Y29.44 Z0.6 F270.0 E1997.367
G1 X4.9 Y27.27 Z0.6 F270.0 E2000.5
G1 X3.99 Y24.94 Z0.6 F270.0 E2003.633
G1 X3.43 Y22.5 Z0.6 F270.0 E2006.767
G1 X3.24 Y20.0 Z0.6 F270.0 E2009.9
G1 X3.43 Y17.5 Z0.6 F270.0 E2013.034
G1 X3.99 Y15.06 Z0.6 F270.0 E2016.167
G1 X4.9 Y12.73 Z0.6 F270.0 E2019.3
G1 X6.15 Y10.56 Z0.6 F270.0 E2022.434
G1 X7.72 Y8.6 Z0.6 F270.0 E2025.567
G1 X9.55 Y6.9 Z0.6 F270.0 E2028.7
G1 X11.62 Y5.49 Z0.6 F270.0 E2031.833
G1 X13.88 Y4.4 Z0.6 F270.0 E2034.966
G1 X16.27 Y3.66 Z0.6 F270.0 E2038.1
G1 X18.75 Y3.29 Z0.6 F270.0 E2041.233
G1 X21.25 Y3.29 Z0.6 F270.0 E2044.365
G1 X23.73 Y3.66 Z0.6 F270.0 E2047.499
G1 X26.12 Y4.4 Z0.6 F270.0 E2050.633
G1 X28.38 Y5.49 Z0.6 F270.0 E2053.766
G1 X30.45 Y6.9 Z0.6 F270.0 E2056.899
G1 X32.28 Y8.6 Z0.6 F270.0 E2060.032
G1 X33.85 Y10.56 Z0.6 F270.0 E2063.165
G1 X35.1 Y12.73 Z0.6 F270.0 E2066.298
G1 X36.01 Y15.06 Z0.6 F270.0 E2069.432
G1 X36.57 Y17.5 Z0.6 F270.0 E2072.565
G1 X36.76 Y20.0 Z0.6 F270.0 E2075.698
G1 X36.57 Y22.5 Z0.6 F270.0 E2078.832
G1 X36.01 Y24.94 Z0.6 F270.0 E2081.965
G1 X35.1 Y27.27 Z0.6 F270.0 E2085.098
G1 X33.85 Y29.44 Z0.6 F270.0 E2088.232
G1 X32.28 Y31.4 Z0.6 F270.0 E2091.365
G1 X30.45 Y33.1 Z0.6 F270.0 E2094.498
G1 X28.38 Y34.51 Z0.6 F270.0 E2097.631
G1 X27.89 Y34.75 Z0.6 F270.0 E2098.306
G1 X27.7 Y34.84 Z0.6 F270.0 E2098.582
;M103
G1 X26.17 Y31.68 Z0.6 F3600.0
;M101
G1 X26.37 Y31.59 Z0.6 F270.0 E2098.858
G1 X26.62 Y31.47 Z0.6 F270.0 E2099.204
G1 X28.26 Y30.35 Z0.6 F270.0 E2101.681
G1 X29.71 Y29.01 Z0.6 F270.0 E2104.155
G1 X30.94 Y27.46 Z0.6 F270.0 E2106.632
G1 X31.93 Y25.75 Z0.6 F270.0 E2109.106
G1 X32.65 Y23.9 Z0.6 F270.0 E2111.582
G1 X33.09 Y21.97 Z0.6 F270.0 E2114.058
G1 X33.24 Y20.0 Z0.6 F270.0 E2116.533
G1 X33.09 Y18.03 Z0.6 F270.0 E2119.008
G1 X32.65 Y16.1 Z0.6 F270.0 E2121.484
G1 X31.93 Y14.26 Z0.6 F270.0 E2123.96
G1 X30.94 Y12.54 Z0.6 F270.0 E2126.435
G1 X29.71 Y10.99 Z0.6 F270.0 E2128.911
G1 X28.26 Y9.65 Z0.6 F270.0 E2131.386
G1 X26.62 Y8.53 Z0.6 F270.0 E2133.862
G1 X24.84 Y7.67 Z0.6 F270.0 E2136.337
G1 X22.95 Y7.09 Z0.6 F270.0 E2138.812
G1 X20.99 Y6.8 Z0.6 F270.0 E2141.287
G1 X19.01 Y6.8 Z0.6 F270.0 E2143.764
G1 X17.05 Y7.09 Z0.6 F270.0 E2146.24
G1 X15.16 Y7.67 Z0.6 F270.0 E2148.715
G1 X13.38 Y8.53 Z0.6 F270.0 E2151.19
G1 X11.74 Y9.65 Z0.6 F270.0 E2153.666
G1 X10.29 Y10.99 Z0.6 F270.0 E2156.141
G1 X9.06 Y12.54 Z0.6 F270.0 E2158.617
G1 X8.07 Y14.26 Z0.6 F270.0 E2161.092
G1 X7.35 Y16.1 Z0.6 F270.0 E2163.567
G1 X6.91 Y18.03 Z0.6 F270.0 E2166.044
G1 X6.76 Y20.0 Z0.6 F270.0 E2168.519
G1 X6.91 Y21.97 Z0.6 F270.0 E2170.994
G1 X7.35 Y23.9 Z0.6 F270.0 E2173.47
G1 X8.07 Y25.75 Z0.6 F270.0 E2175.945
G1 X9.06 Y27.46 Z0.6 F270.0 E2178.42
G1 X10.29 Y29.01 Z0.6 F270.0 E2180.896
G1 X11.74 Y30.35 Z0.6 F270.0 E2183.371
G1 X13.38 Y31.47 Z0.6 F270.0 E2185.848
G1 X15.16 Y32.33 Z0.6 F270.0 E2188.322
G1 X17.05 Y32.91 Z0.6 F270.0 E2190.797
G1 X19.01 Y33.2 Z0.6 F270.0 E2193.273
G1 X20.99 Y33.2 Z0.6 F270.0 E2195.75
G1 X22.95 Y32.91 Z0.6 F270.0 E2198.226
G1 X24.84 Y32.33 Z0.6 F270.0 E2200.701
G1 X26.17 Y31.68 Z0.6 F270.0 E2202.553
;M103
;M108 S7.506
G1 X24.87 Y32.4 Z0.9 F3600.0
G1 X22.97 Y32.99 Z0.9 F3600.0
G1 X21.0 Y33.29 Z0.9 F3600.0
G1 X19.0 Y33.29 Z0.9 F3600.0
G1 X17.04 Y32.99 Z0.9 F3600.0
G1 X14.29 Y32.06 Z0.9 F3600.0
;M101
G1 X18.8 Y36.57 Z0.9 F360.0 E2210.526
G1 X19.39 Y36.57 Z0.9 F360.0 E2211.267
G1 X15.35 Y32.53 Z0.9 F360.0 E2218.41
G1 X16.21 Y32.8 Z0.9 F360.0 E2219.53
G1 X19.98 Y36.57 Z0.9 F360.0 E2226.207
G1 X20.58 Y36.57 Z0.9 F360.0 E2226.948
G1 X17.06 Y33.05 Z0.9 F360.0 E2233.171
G1 X17.76 Y33.16 Z0.9 F360.0 E2234.053
G1 X21.17 Y36.57 Z0.9 F360.0 E2240.091
G1 X21.69 Y36.5 Z0.9 F360.0 E2240.752
G1 X18.45 Y33.26 Z0.9 F360.0 E2246.483
G1 X19.13 Y33.35 Z0.9 F360.0 E2247.333
G1 X22.21 Y36.42 Z0.9 F360.0 E2252.782
G1 X22.72 Y36.35 Z0.9 F360.0 E2253.433
G1 X19.72 Y33.35 Z0.9 F360.0 E2258.744
G1 X20.31 Y33.35 Z0.9 F360.0 E2259.485
G1 X23.24 Y36.27 Z0.9 F360.0 E2264.659
G1 X23.75 Y36.19 Z0.9 F360.0 E2265.304
G1 X20.91 Y33.35 Z0.9 F360.0 E2270.331
G1 X21.43 Y33.28 Z0.9 F360.0 E2270.996
G1 X24.2 Y36.05 Z0.9 F360.0 E2275.889
G1 X24.65 Y35.91 Z0.9 F360.0 E2276.482
G1 X21.95 Y33.2 Z0.9 F360.0 E2281.265
G1 X22.46 Y33.13 Z0.9 F360.0 E2281.916
G1 X25.1 Y35.77 Z0.9 F360.0 E2286.591
G1 X25.56 Y35.63 Z0.9 F360.0 E2287.183
G1 X22.98 Y33.05 Z0.9 F360.0 E2291.745
G1 X23.43 Y32.91 Z0.9 F360.0 E2292.338
G1 X26.01 Y35.49 Z0.9 F360.0 E2296.901
G1 X26.42 Y35.3 Z0.9 F360.0 E2297.46
G1 X23.88 Y32.77 Z0.9 F360.0 E2301.943
G1 X24.34 Y32.63 Z0.9 F360.0 E2302.534
G1 X26.82 Y35.11 Z0.9 F360.0 E2306.923
G1 X27.22 Y34.92 Z0.9 F360.0 E2307.478
G1 X24.79 Y32.49 Z0.9 F360.0 E2311.773
G1 X25.2 Y32.31 Z0.9 F360.0 E2312.336
G1 X27.62 Y34.72 Z0.9 F360.0 E2316.609
G1 X28.02 Y34.53 Z0.9 F360.0 E2317.164
G1 X25.6 Y32.12 Z0.9 F360.0 E2321.439
G1 X26.0 Y31.92 Z0.9 F360.0 E2321.994
G1 X28.4 Y34.33 Z0.9 F360.0 E2326.246
G1 X28.76 Y34.09 Z0.9 F360.0 E2326.779
G1 X26.4 Y31.73 Z0.9 F360.0 E2330.948
G1 X26.79 Y31.53 Z0.9 F360.0 E2331.496
G1 X29.11 Y33.85 Z0.9 F360.0 E2335.602
G1 X29.46 Y33.61 Z0.9 F360.0 E2336.136
G1 X27.14 Y31.29 Z0.9 F360.0 E2340.243
G1 X27.49 Y31.05 Z0.9 F360.0 E2340.776
G1 X29.81 Y33.37 Z0.9 F360.0 E2344.882
G1 X30.16 Y33.13 Z0.9 F360.0 E2345.415
G1 X27.84 Y30.81 Z0.9 F360.0 E2349.521
G1 X28.2 Y30.57 Z0.9 F360.0 E2350.054
G1 X30.5 Y32.87 Z0.9 F360.0 E2354.125
G1 X30.8 Y32.58 Z0.9 F360.0 E2354.65
G1 X28.52 Y30.3 Z0.9 F360.0 E2358.687
G1 X28.83 Y30.01 Z0.9 F360.0 E2359.211
G1 X31.11 Y32.3 Z0.9 F360.0 E2363.249
G1 X31.42 Y32.01 Z0.9 F360.0 E2363.773
G1 X29.14 Y29.73 Z0.9 F360.0 E2367.811
G1 X29.44 Y29.44 Z0.9 F360.0 E2368.335
G1 X31.73 Y31.73 Z0.9 F360.0 E2372.372
G1 X32.03 Y31.44 Z0.9 F360.0 E2372.897
G1 X29.75 Y29.16 Z0.9 F360.0 E2376.934
G1 X30.02 Y28.84 Z0.9 F360.0 E2377.46
G1 X32.32 Y31.13 Z0.9 F360.0 E2381.52
G1 X32.58 Y30.8 Z0.9 F360.0 E2382.047
G1 X30.29 Y28.51 Z0.9 F360.0 E2386.107
G1 X30.55 Y28.18 Z0.9 F360.0 E2386.635
G1 X32.84 Y30.47 Z0.9 F360.0 E2390.695
G1 X33.1 Y30.14 Z0.9 F360.0 E2391.223
G1 X30.81 Y27.85 Z0.9 F360.0 E2395.281
G1 X31.07 Y27.52 Z0.9 F360.0 E2395.81
G1 X33.37 Y29.81 Z0.9 F360.0 E2399.874
G1 X33.63 Y29.48 Z0.9 F360.0 E2400.402
G1 X31.29 Y27.14 Z0.9 F360.0 E2404.547
G1 X31.5 Y26.77 Z0.9 F360.0 E2405.09
G1 X33.87 Y29.13 Z0.9 F360.0 E2409.267
G1 X34.08 Y28.75 Z0.9 F360.0 E2409.81
G1 X31.72 Y26.39 Z0.9 F360.0 E2413.986
G1 X31.94 Y26.01 Z0.9 F360.0 E2414.529
G1 X34.3 Y28.38 Z0.9 F360.0 E2418.706
G1 X34.52 Y28.0 Z0.9 F360.0 E2419.249
G1 X32.13 Y25.62 Z0.9 F360.0 E2423.466
G1 X32.3 Y25.19 Z0.9 F360.0 E2424.037
G1 X34.73 Y27.62 Z0.9 F360.0 E2428.342
G1 X34.95 Y27.25 Z0.9 F360.0 E2428.885
G1 X32.47 Y24.77 Z0.9 F360.0 E2433.278
G1 X32.63 Y24.34 Z0.9 F360.0 E2433.849
G1 X35.12 Y26.83 Z0.9 F360.0 E2438.251
G1 X35.29 Y26.4 Z0.9 F360.0 E2438.823
G1 X32.8 Y23.91 Z0.9 F360.0 E2443.231
G1 X32.91 Y23.43 Z0.9 F360.0 E2443.851
G1 X35.46 Y25.98 Z0.9 F360.0 E2448.36
G1 X35.62 Y25.55 Z0.9 F360.0 E2448.932
G1 X33.02 Y22.95 Z0.9 F360.0 E2453.542
G1 X33.13 Y22.46 Z0.9 F360.0 E2454.162
G1 X35.79 Y25.13 Z0.9 F360.0 E2458.873
G1 X35.93 Y24.67 Z0.9 F360.0 E2459.466
G1 X33.23 Y21.98 Z0.9 F360.0 E2464.234
G1 X33.28 Y21.43 Z0.9 F360.0 E2464.926
G1 X36.04 Y24.19 Z0.9 F360.0 E2469.816
G1 X36.15 Y23.71 Z0.9 F360.0 E2470.434
G1 X33.32 Y20.88 Z0.9 F360.0 E2475.446
G1 X33.36 Y20.33 Z0.9 F360.0 E2476.138
G1 X36.26 Y23.23 Z0.9 F360.0 E2481.271
G1 X36.37 Y22.75 Z0.9 F360.0 E2481.889
G1 X33.36 Y19.74 Z0.9 F360.0 E2487.208
G1 X33.32 Y19.1 Z0.9 F360.0 E2488.013
G1 X36.45 Y22.23 Z0.9 F360.0 E2493.559
G1 X36.49 Y21.68 Z0.9 F360.0 E2494.25
G1 X33.27 Y18.46 Z0.9 F360.0 E2499.954
G1 X33.18 Y17.78 Z0.9 F360.0 E2500.809
G1 X36.53 Y21.13 Z0.9 F360.0 E2506.736
G1 X36.57 Y20.58 Z0.9 F360.0 E2507.427
G1 X33.01 Y17.01 Z0.9 F360.0 E2513.738
G1 X32.83 Y16.25 Z0.9 F360.0 E2514.722
G1 X36.62 Y20.03 Z0.9 F360.0 E2521.415
G1 X36.57 Y19.39 Z0.9 F360.0 E2522.212
G1 X32.5 Y15.32 Z0.9 F360.0 E2529.414
G1 X32.12 Y14.35 Z0.9 F360.0 E2530.725
;M103
G1 X32.86 Y15.09 Z0.9 F3600.0
;M101
G1 X36.52 Y18.75 Z0.9 F360.0 E2537.21
G1 X36.48 Y18.11 Z0.9 F360.0 E2538.013
G1 X31.38 Y13.01 Z0.9 F360.0 E2547.037
;M103
G1 X33.35 Y10.83 Z0.9 F3600.0
;M101
G1 X27.94 Y5.43 Z0.9 F360.0 E2556.592
G1 X26.8 Y4.88 Z0.9 F360.0 E2558.177
;M103
G1 X27.7 Y5.78 Z0.9 F3600.0
;M101
G1 X35.14 Y13.22 Z0.9 F360.0 E2571.345
G1 X35.52 Y14.2 Z0.9 F360.0 E2572.656
;M103
G1 X34.78 Y13.46 Z0.9 F3600.0
;M101
G1 X25.76 Y4.44 Z0.9 F360.0 E2588.614
G1 X24.91 Y4.17 Z0.9 F360.0 E2589.736
G1 X35.89 Y15.16 Z0.9 F360.0 E2609.171
G1 X36.07 Y15.93 Z0.9 F360.0 E2610.157
G1 X24.05 Y3.91 Z0.9 F360.0 E2631.419
G1 X23.29 Y3.74 Z0.9 F360.0 E2632.397
G1 X36.24 Y16.69 Z0.9 F360.0 E2655.319
G1 X36.42 Y17.46 Z0.9 F360.0 E2656.303
G1 X22.59 Y3.63 Z0.9 F360.0 E2680.769
G1 X21.89 Y3.53 Z0.9 F360.0 E2681.652
G1 X26.95 Y8.59 Z0.9 F360.0 E2690.602
;M103
G1 X25.71 Y7.94 Z0.9 F3600.0
;M101
G1 X21.2 Y3.43 Z0.9 F360.0 E2698.575
G1 X20.61 Y3.43 Z0.9 F360.0 E2699.316
G1 X24.65 Y7.47 Z0.9 F360.0 E2706.459
G1 X23.79 Y7.2 Z0.9 F360.0 E2707.579
G1 X20.02 Y3.43 Z0.9 F360.0 E2714.256
G1 X19.42 Y3.43 Z0.9 F360.0 E2714.997
G1 X22.94 Y6.95 Z0.9 F360.0 E2721.22
G1 X22.24 Y6.84 Z0.9 F360.0 E2722.102
G1 X18.83 Y3.43 Z0.9 F360.0 E2728.14
G1 X18.31 Y3.5 Z0.9 F360.0 E2728.801
G1 X21.55 Y6.74 Z0.9 F360.0 E2734.532
G1 X20.87 Y6.66 Z0.9 F360.0 E2735.382
G1 X17.79 Y3.58 Z0.9 F360.0 E2740.831
G1 X17.28 Y3.65 Z0.9 F360.0 E2741.482
G1 X20.28 Y6.66 Z0.9 F360.0 E2746.793
G1 X19.69 Y6.66 Z0.9 F360.0 E2747.534
G1 X16.76 Y3.73 Z0.9 F360.0 E2752.708
G1 X16.25 Y3.81 Z0.9 F360.0 E2753.353
G1 X19.1 Y6.66 Z0.9 F360.0 E2758.38
G1 X18.57 Y6.72 Z0.9 F360.0 E2759.045
G1 X15.8 Y3.95 Z0.9 F360.0 E2763.938
G1 X15.35 Y4.09 Z0.9 F360.0 E2764.531
G1 X18.05 Y6.8 Z0.9 F360.0 E2769.314
G1 X17.54 Y6.88 Z0.9 F360.0 E2769.966
G1 X14.9 Y4.23 Z0.9 F360.0 E2774.64
G1 X14.44 Y4.37 Z0.9 F360.0 E2775.232
G1 X17.02 Y6.95 Z0.9 F360.0 E2779.794
G1 X16.57 Y7.09 Z0.9 F360.0 E2780.388
G1 X13.99 Y4.51 Z0.9 F360.0 E2784.95
G1 X13.58 Y4.7 Z0.9 F360.0 E2785.51
G1 X16.12 Y7.23 Z0.9 F360.0 E2789.992
G1 X15.67 Y7.37 Z0.9 F360.0 E2790.583
G1 X13.18 Y4.89 Z0.9 F360.0 E2794.972
G1 X12.78 Y5.08 Z0.9 F360.0 E2795.527
G1 X15.21 Y7.51 Z0.9 F360.0 E2799.823
G1 X14.8 Y7.69 Z0.9 F360.0 E2800.385
G1 X12.38 Y5.28 Z0.9 F360.0 E2804.658
G1 X11.98 Y5.47 Z0.9 F360.0 E2805.213
G1 X14.4 Y7.88 Z0.9 F360.0 E2809.488
G1 X14.0 Y8.08 Z0.9 F360.0 E2810.043
G1 X11.6 Y5.67 Z0.9 F360.0 E2814.296
G1 X11.25 Y5.91 Z0.9 F360.0 E2814.829
G1 X13.6 Y8.27 Z0.9 F360.0 E2818.997
G1 X13.21 Y8.48 Z0.9 F360.0 E2819.545
G1 X10.89 Y6.15 Z0.9 F360.0 E2823.652
G1 X10.54 Y6.39 Z0.9 F360.0 E2824.186
G1 X12.86 Y8.72 Z0.9 F360.0 E2828.292
G1 X12.51 Y8.96 Z0.9 F360.0 E2828.825
G1 X10.19 Y6.63 Z0.9 F360.0 E2832.931
G1 X9.84 Y6.87 Z0.9 F360.0 E2833.464
G1 X12.16 Y9.2 Z0.9 F360.0 E2837.57
G1 X11.81 Y9.44 Z0.9 F360.0 E2838.103
G1 X9.5 Y7.13 Z0.9 F360.0 E2842.174
G1 X9.2 Y7.42 Z0.9 F360.0 E2842.699
G1 X11.48 Y9.7 Z0.9 F360.0 E2846.736
G1 X11.17 Y9.99 Z0.9 F360.0 E2847.26
G1 X8.89 Y7.7 Z0.9 F360.0 E2851.298
G1 X8.58 Y7.99 Z0.9 F360.0 E2851.822
G1 X10.86 Y10.27 Z0.9 F360.0 E2855.86
G1 X10.56 Y10.56 Z0.9 F360.0 E2856.384
G1 X8.28 Y8.28 Z0.9 F360.0 E2860.421
G1 X7.97 Y8.56 Z0.9 F360.0 E2860.946
G1 X10.25 Y10.84 Z0.9 F360.0 E2864.983
G1 X9.98 Y11.16 Z0.9 F360.0 E2865.509
G1 X7.68 Y8.87 Z0.9 F360.0 E2869.569
G1 X7.42 Y9.2 Z0.9 F360.0 E2870.096
G1 X9.72 Y11.49 Z0.9 F360.0 E2874.156
G1 X9.45 Y11.82 Z0.9 F360.0 E2874.684
G1 X7.16 Y9.53 Z0.9 F360.0 E2878.745
G1 X6.9 Y9.86 Z0.9 F360.0 E2879.272
G1 X9.19 Y12.15 Z0.9 F360.0 E2883.33
G1 X8.93 Y12.48 Z0.9 F360.0 E2883.859
G1 X6.63 Y10.19 Z0.9 F360.0 E2887.923
G1 X6.37 Y10.52 Z0.9 F360.0 E2888.451
G1 X8.71 Y12.86 Z0.9 F360.0 E2892.597
G1 X8.5 Y13.24 Z0.9 F360.0 E2893.139
G1 X6.14 Y10.87 Z0.9 F360.0 E2897.316
G1 X5.92 Y11.25 Z0.9 F360.0 E2897.859
G1 X8.28 Y13.61 Z0.9 F360.0 E2902.035
G1 X8.06 Y13.99 Z0.9 F360.0 E2902.578
G1 X5.7 Y11.63 Z0.9 F360.0 E2906.755
G1 X5.48 Y12.0 Z0.9 F360.0 E2907.298
G1 X7.87 Y14.38 Z0.9 F360.0 E2911.515
G1 X7.7 Y14.81 Z0.9 F360.0 E2912.087
G1 X5.27 Y12.38 Z0.9 F360.0 E2916.391
G1 X5.05 Y12.75 Z0.9 F360.0 E2916.934
G1 X7.53 Y15.24 Z0.9 F360.0 E2921.327
G1 X7.37 Y15.66 Z0.9 F360.0 E2921.898
G1 X4.88 Y13.17 Z0.9 F360.0 E2926.3
G1 X4.71 Y13.6 Z0.9 F360.0 E2926.872
G1 X7.2 Y16.09 Z0.9 F360.0 E2931.28
G1 X7.09 Y16.57 Z0.9 F360.0 E2931.9
G1 X4.55 Y14.02 Z0.9 F360.0 E2936.41
G1 X4.38 Y14.45 Z0.9 F360.0 E2936.981
G1 X6.98 Y17.05 Z0.9 F360.0 E2941.591
G1 X6.87 Y17.54 Z0.9 F360.0 E2942.211
G1 X4.21 Y14.87 Z0.9 F360.0 E2946.922
G1 X4.07 Y15.33 Z0.9 F360.0 E2947.515
G1 X6.77 Y18.02 Z0.9 F360.0 E2952.284
G1 X6.72 Y18.57 Z0.9 F360.0 E2952.975
G1 X3.96 Y15.81 Z0.9 F360.0 E2957.865
G1 X3.85 Y16.29 Z0.9 F360.0 E2958.483
G1 X6.68 Y19.12 Z0.9 F360.0 E2963.495
G1 X6.64 Y19.67 Z0.9 F360.0 E2964.187
G1 X3.74 Y16.77 Z0.9 F360.0 E2969.32
G1 X3.63 Y17.25 Z0.9 F360.0 E2969.938
G1 X6.64 Y20.26 Z0.9 F360.0 E2975.258
G1 X6.69 Y20.9 Z0.9 F360.0 E2976.062
G1 X3.55 Y17.77 Z0.9 F360.0 E2981.608
G1 X3.51 Y18.32 Z0.9 F360.0 E2982.299
G1 X6.73 Y21.54 Z0.9 F360.0 E2988.003
G1 X6.82 Y22.22 Z0.9 F360.0 E2988.858
G1 X3.47 Y18.87 Z0.9 F360.0 E2994.785
G1 X3.43 Y19.42 Z0.9 F360.0 E2995.476
G1 X6.99 Y22.99 Z0.9 F360.0 E3001.787
G1 X7.17 Y23.76 Z0.9 F360.0 E3002.771
G1 X3.39 Y19.97 Z0.9 F360.0 E3009.464
G1 X3.43 Y20.61 Z0.9 F360.0 E3010.261
G1 X7.5 Y24.68 Z0.9 F360.0 E3017.464
G1 X7.88 Y25.65 Z0.9 F360.0 E3018.774
;M103
G1 X7.14 Y24.91 Z0.9 F3600.0
;M101
G1 X3.48 Y21.25 Z0.9 F360.0 E3025.259
G1 X3.52 Y21.89 Z0.9 F360.0 E3026.062
G1 X8.63 Y26.99 Z0.9 F360.0 E3035.086
;M103
G1 X5.48 Y27.99 Z0.9 F3600.0
;M101
G1 X12.06 Y34.57 Z0.9 F360.0 E3046.722
G1 X13.2 Y35.12 Z0.9 F360.0 E3048.308
;M103
G1 X12.3 Y34.22 Z0.9 F3600.0
;M101
G1 X4.86 Y26.78 Z0.9 F360.0 E3061.476
G1 X4.48 Y25.8 Z0.9 F360.0 E3062.787
;M103
G1 X5.22 Y26.54 Z0.9 F3600.0
;M101
G1 X14.24 Y35.56 Z0.9 F360.0 E3078.745
G1 X15.09 Y35.83 Z0.9 F360.0 E3079.867
G1 X4.11 Y24.84 Z0.9 F360.0 E3099.302
G1 X3.93 Y24.07 Z0.9 F360.0 E3100.288
G1 X15.95 Y36.09 Z0.9 F360.0 E3121.55
G1 X16.71 Y36.26 Z0.9 F360.0 E3122.528
G1 X3.76 Y23.31 Z0.9 F360.0 E3145.449
G1 X3.58 Y22.54 Z0.9 F360.0 E3146.434
G1 X17.41 Y36.37 Z0.9 F360.0 E3170.9
G1 X18.11 Y36.47 Z0.9 F360.0 E3171.783
G1 X13.05 Y31.41 Z0.9 F360.0 E3180.733
;M103
G1 X10.42 Y33.53 Z0.9 F3600.0
;M101
G1 X6.32 Y29.42 Z0.9 F360.0 E3187.992
;M103
G1 X7.45 Y18.11 Z0.9 F3600.0
G1 X7.88 Y16.26 Z0.9 F3600.0
G1 X8.57 Y14.5 Z0.9 F3600.0
G1 X9.52 Y12.85 Z0.9 F3600.0
G1 X10.7 Y11.37 Z0.9 F3600.0
G1 X12.09 Y10.08 Z0.9 F3600.0
G1 X13.66 Y9.01 Z0.9 F3600.0
G1 X15.36 Y8.19 Z0.9 F3600.0
G1 X17.18 Y7.63 Z0.9 F3600.0
G1 X29.58 Y6.47 Z0.9 F3600.0
;M101
G1 X33.68 Y10.58 Z0.9 F360.0 E3195.251
G1 X34.52 Y12.01 Z0.9 F360.0 E3197.332
;M103
G1 X31.27 Y13.54 Z0.9 F3600.0
;M101
G1 X30.76 Y12.66 Z0.9 F360.0 E3198.604
G1 X29.55 Y11.14 Z0.9 F360.0 E3201.04
G1 X28.12 Y9.82 Z0.9 F360.0 E3203.475
G1 X26.51 Y8.72 Z0.9 F360.0 E3205.911
G1 X24.76 Y7.87 Z0.9 F360.0 E3208.347
G1 X22.9 Y7.3 Z0.9 F360.0 E3210.783
G1 X20.97 Y7.01 Z0.9 F360.0 E3213.218
G1 X19.03 Y7.01 Z0.9 F360.0 E3215.653
G1 X17.1 Y7.3 Z0.9 F360.0 E3218.088
G1 X15.24 Y7.87 Z0.9 F360.0 E3220.524
G1 X13.49 Y8.72 Z0.9 F360.0 E3222.96
G1 X11.88 Y9.82 Z0.9 F360.0 E3225.396
G1 X10.45 Y11.14 Z0.9 F360.0 E3227.831
G1 X9.24 Y12.66 Z0.9 F360.0 E3230.267
G1 X8.26 Y14.35 Z0.9 F360.0 E3232.703
G1 X7.55 Y16.16 Z0.9 F360.0 E3235.137
G1 X7.12 Y18.06 Z0.9 F360.0 E3237.573
G1 X6.97 Y20.0 Z0.9 F360.0 E3240.009
G1 X7.12 Y21.94 Z0.9 F360.0 E3242.444
G1 X7.55 Y23.84 Z0.9 F360.0 E3244.88
G1 X8.26 Y25.65 Z0.9 F360.0 E3247.314
G1 X9.24 Y27.34 Z0.9 F360.0 E3249.75
G1 X10.45 Y28.86 Z0.9 F360.0 E3252.186
G1 X11.88 Y30.18 Z0.9 F360.0 E3254.621
G1 X13.49 Y31.28 Z0.9 F360.0 E3257.057
G1 X15.24 Y32.13 Z0.9 F360.0 E3259.493
G1 X17.1 Y32.7 Z0.9 F360.0 E3261.929
G1 X19.03 Y32.99 Z0.9 F360.0 E3264.364
G1 X20.97 Y32.99 Z0.9 F360.0 E3266.799
G1 X22.9 Y32.7 Z0.9 F360.0 E3269.234
G1 X24.76 Y32.13 Z0.9 F360.0 E3271.67
G1 X26.51 Y31.28 Z0.9 F360.0 E3274.106
G1 X28.12 Y30.18 Z0.9 F360.0 E3276.542
G1 X29.55 Y28.86 Z0.9 F360.0 E3278.977
G1 X30.76 Y27.34 Z0.9 F360.0 E3281.413
G1 X31.74 Y25.65 Z0.9 F360.0 E3283.849
G1 X32.45 Y23.84 Z0.9 F360.0 E3286.283
G1 X32.88 Y21.94 Z0.9 F360.0 E3288.719
G1 X33.03 Y20.0 Z0.9 F360.0 E3291.154
G1 X32.88 Y18.06 Z0.9 F360.0 E3293.589
G1 X32.45 Y16.16 Z0.9 F360.0 E3296.026
G1 X31.74 Y14.35 Z0.9 F360.0 E3298.46
G1 X31.42 Y13.8 Z0.9 F360.0 E3299.253
G1 X31.27 Y13.54 Z0.9 F360.0 E3299.624
;M103
G1 X34.68 Y11.57 Z0.9 F3600.0
;M101
G1 X34.83 Y11.83 Z0.9 F360.0 E3299.997
G1 X35.29 Y12.64 Z0.9 F360.0 E3301.158
G1 X36.22 Y15.0 Z0.9 F360.0 E3304.332
G1 X36.78 Y17.47 Z0.9 F360.0 E3307.506
G1 X36.97 Y20.0 Z0.9 F360.0 E3310.68
G1 X36.78 Y22.53 Z0.9 F360.0 E3313.853
G1 X36.22 Y25.0 Z0.9 F360.0 E3317.027
G1 X35.29 Y27.37 Z0.9 F360.0 E3320.201
G1 X34.02 Y29.56 Z0.9 F360.0 E3323.375
G1 X32.44 Y31.55 Z0.9 F360.0 E3326.548
G1 X30.58 Y33.27 Z0.9 F360.0 E3329.722
G1 X28.49 Y34.7 Z0.9 F360.0 E3332.896
G1 X26.2 Y35.8 Z0.9 F360.0 E3336.068
G1 X23.78 Y36.55 Z0.9 F360.0 E3339.243
G1 X21.27 Y36.93 Z0.9 F360.0 E3342.416
G1 X18.73 Y36.93 Z0.9 F360.0 E3345.591
G1 X16.22 Y36.55 Z0.9 F360.0 E3348.764
G1 X13.8 Y35.8 Z0.9 F360.0 E3351.939
G1 X11.51 Y34.7 Z0.9 F360.0 E3355.112
G1 X9.42 Y33.27 Z0.9 F360.0 E3358.285
G1 X7.56 Y31.55 Z0.9 F360.0 E3361.46
G1 X5.98 Y29.56 Z0.9 F360.0 E3364.632
G1 X4.71 Y27.37 Z0.9 F360.0 E3367.806
G1 X3.78 Y25.0 Z0.9 F360.0 E3370.981
G1 X3.22 Y22.53 Z0.9 F360.0 E3374.154
G1 X3.03 Y20.0 Z0.9 F360.0 E3377.328
G1 X3.22 Y17.47 Z0.9 F360.0 E3380.502
G1 X3.78 Y15.0 Z0.9 F360.0 E3383.675
G1 X4.71 Y12.64 Z0.9 F360.0 E3386.85
G1 X5.98 Y10.44 Z0.9 F360.0 E3390.023
G1 X7.56 Y8.46 Z0.9 F360.0 E3393.196
G1 X9.42 Y6.73 Z0.9 F360.0 E3396.371
G1 X11.51 Y5.3 Z0.9 F360.0 E3399.544
G1 X13.8 Y4.2 Z0.9 F360.0 E3402.717
G1 X16.22 Y3.45 Z0.9 F360.0 E3405.892
G1 X18.73 Y3.07 Z0.9 F360.0 E3409.065
G1 X21.27 Y3.07 Z0.9 F360.0 E3412.24
G1 X23.78 Y3.45 Z0.9 F360.0 E3415.413
G1 X26.2 Y4.2 Z0.9 F360.0 E3418.588
G1 X28.49 Y5.3 Z0.9 F360.0 E3421.76
G1 X30.58 Y6.73 Z0.9 F360.0 E3424.934
G1 X32.44 Y8.46 Z0.9 F360.0 E3428.108
G1 X34.02 Y10.44 Z0.9 F360.0 E3431.281
G1 X34.68 Y11.57 Z0.9 F360.0 E3432.921
;M103
;M108 S5.629
G1 X35.04 Y11.36 Z0.9 F3600.0
;M101
G1 X35.19 Y11.62 Z0.9 F270.0 E3433.294
G1 X35.67 Y12.45 Z0.9 F270.0 E3434.495
G1 X36.62 Y14.87 Z0.9 F270.0 E3437.746
G1 X37.2 Y17.41 Z0.9 F270.0 E3440.998
G1 X37.39 Y20.0 Z0.9 F270.0 E3444.251
G1 X37.2 Y22.59 Z0.9 F270.0 E3447.503
G1 X36.62 Y25.13 Z0.9 F270.0 E3450.755
G1 X35.67 Y27.55 Z0.9 F270.0 E3454.006
G1 X34.37 Y29.8 Z0.9 F270.0 E3457.259
G1 X32.75 Y31.83 Z0.9 F270.0 E3460.51
G1 X30.85 Y33.6 Z0.9 F270.0 E3463.763
G1 X28.7 Y35.06 Z0.9 F270.0 E3467.015
G1 X26.36 Y36.19 Z0.9 F270.0 E3470.266
G1 X23.87 Y36.96 Z0.9 F270.0 E3473.519
G1 X21.3 Y37.35 Z0.9 F270.0 E3476.77
G1 X18.7 Y37.35 Z0.9 F270.0 E3480.023
G1 X16.13 Y36.96 Z0.9 F270.0 E3483.274
G1 X13.65 Y36.19 Z0.9 F270.0 E3486.527
G1 X11.3 Y35.06 Z0.9 F270.0 E3489.778
G1 X9.15 Y33.6 Z0.9 F270.0 E3493.03
G1 X7.25 Y31.83 Z0.9 F270.0 E3496.282
G1 X5.63 Y29.8 Z0.9 F270.0 E3499.533
G1 X4.33 Y27.55 Z0.9 F270.0 E3502.787
G1 X3.38 Y25.13 Z0.9 F270.0 E3506.038
G1 X2.8 Y22.59 Z0.9 F270.0 E3509.29
G1 X2.61 Y20.0 Z0.9 F270.0 E3512.542
G1 X2.8 Y17.41 Z0.9 F270.0 E3515.795
G1 X3.38 Y14.87 Z0.9 F270.0 E3519.046
G1 X4.33 Y12.45 Z0.9 F270.0 E3522.298
G1 X5.63 Y10.2 Z0.9 F270.0 E3525.551
G1 X7.25 Y8.17 Z0.9 F270.0 E3528.802
G1 X9.15 Y6.4 Z0.9 F270.0 E3532.055
G1 X11.3 Y4.94 Z0.9 F270.0 E3535.306
G1 X13.65 Y3.81 Z0.9 F270.0 E3538.557
G1 X16.13 Y3.04 Z0.9 F270.0 E3541.811
G1 X18.7 Y2.65 Z0.9 F270.0 E3545.062
G1 X21.3 Y2.65 Z0.9 F270.0 E3548.314
G1 X23.87 Y3.04 Z0.9 F270.0 E3551.565
G1 X26.36 Y3.81 Z0.9 F270.0 E3554.819
G1 X28.7 Y4.94 Z0.9 F270.0 E3558.07
G1 X30.85 Y6.4 Z0.9 F270.0 E3561.321
G1 X32.75 Y8.17 Z0.9 F270.0 E3564.574
G1 X34.37 Y10.2 Z0.9 F270.0 E3567.825
G1 X35.04 Y11.36 Z0.9 F270.0 E3569.504
;M103
G1 X30.91 Y13.75 Z0.9 F3600.0
;M101
G1 X30.42 Y12.9 Z0.9 F270.0 E3570.731
G1 X29.24 Y11.43 Z0.9 F270.0 E3573.088
G1 X27.86 Y10.15 Z0.9 F270.0 E3575.444
G1 X26.3 Y9.08 Z0.9 F270.0 E3577.802
G1 X24.61 Y8.27 Z0.9 F270.0 E3580.158
G1 X22.81 Y7.71 Z0.9 F270.0 E3582.516
G1 X20.94 Y7.43 Z0.9 F270.0 E3584.872
G1 X19.06 Y7.43 Z0.9 F270.0 E3587.229
G1 X17.2 Y7.71 Z0.9 F270.0 E3589.586
G1 X15.39 Y8.27 Z0.9 F270.0 E3591.943
G1 X13.7 Y9.08 Z0.9 F270.0 E3594.3
G1 X12.14 Y10.15 Z0.9 F270.0 E3596.657
G1 X10.76 Y11.43 Z0.9 F270.0 E3599.013
G1 X9.58 Y12.9 Z0.9 F270.0 E3601.37
G1 X8.64 Y14.53 Z0.9 F270.0 E3603.727
G1 X7.95 Y16.28 Z0.9 F270.0 E3606.083
G1 X7.54 Y18.12 Z0.9 F270.0 E3608.441
G1 X7.39 Y20.0 Z0.9 F270.0 E3610.797
G1 X7.54 Y21.88 Z0.9 F270.0 E3613.153
G1 X7.95 Y23.72 Z0.9 F270.0 E3615.511
G1 X8.64 Y25.47 Z0.9 F270.0 E3617.867
G1 X9.58 Y27.1 Z0.9 F270.0 E3620.223
G1 X10.76 Y28.57 Z0.9 F270.0 E3622.58
G1 X12.14 Y29.86 Z0.9 F270.0 E3624.937
G1 X13.7 Y30.92 Z0.9 F270.0 E3627.294
G1 X15.39 Y31.74 Z0.9 F270.0 E3629.651
G1 X17.2 Y32.29 Z0.9 F270.0 E3632.008
G1 X19.06 Y32.57 Z0.9 F270.0 E3634.365
G1 X20.94 Y32.57 Z0.9 F270.0 E3636.721
G1 X22.81 Y32.29 Z0.9 F270.0 E3639.078
G1 X24.61 Y31.74 Z0.9 F270.0 E3641.436
G1 X26.3 Y30.92 Z0.9 F270.0 E3643.792
G1 X27.86 Y29.86 Z0.9 F270.0 E3646.15
G1 X29.24 Y28.57 Z0.9 F270.0 E3648.506
G1 X30.42 Y27.1 Z0.9 F270.0 E3650.863
G1 X31.36 Y25.47 Z0.9 F270.0 E3653.219
G1 X32.05 Y23.72 Z0.9 F270.0 E3655.575
G1 X32.47 Y21.88 Z0.9 F270.0 E3657.934
G1 X32.61 Y20.0 Z0.9 F270.0 E3660.289
G1 X32.47 Y18.12 Z0.9 F270.0 E3662.645
G1 X32.05 Y16.28 Z0.9 F270.0 E3665.003
G1 X31.36 Y14.53 Z0.9 F270.0 E3667.359
G1 X31.06 Y14.01 Z0.9 F270.0 E3668.116
G1 X30.91 Y13.75 Z0.9 F270.0 E3668.489
;M103
;M108 S7.506
G1 X31.43 Y14.5 Z1.2 F3600.0
G1 X32.12 Y16.26 Z1.2 F3600.0
G1 X32.55 Y18.11 Z1.2 F3600.0
G1 X32.69 Y20.0 Z1.2 F3600.0
G1 X32.39 Y23.88 Z1.2 F3600.0
;M101
G1 X36.96 Y19.32 Z1.2 F360.0 E3676.563
G1 X36.92 Y18.77 Z1.2 F360.0 E3677.254
G1 X32.58 Y23.1 Z1.2 F360.0 E3684.924
G1 X32.76 Y22.34 Z1.2 F360.0 E3685.909
G1 X36.87 Y18.22 Z1.2 F360.0 E3693.195
G1 X36.83 Y17.67 Z1.2 F360.0 E3693.887
G1 X32.87 Y21.63 Z1.2 F360.0 E3700.899
G1 X32.92 Y20.99 Z1.2 F360.0 E3701.702
G1 X36.75 Y17.16 Z1.2 F360.0 E3708.478
G1 X36.64 Y16.68 Z1.2 F360.0 E3709.096
G1 X32.97 Y20.35 Z1.2 F360.0 E3715.592
G1 X32.97 Y19.75 Z1.2 F360.0 E3716.341
G1 X36.53 Y16.19 Z1.2 F360.0 E3722.63
G1 X36.42 Y15.71 Z1.2 F360.0 E3723.249
G1 X32.93 Y19.2 Z1.2 F360.0 E3729.416
G1 X32.89 Y18.65 Z1.2 F360.0 E3730.107
G1 X36.31 Y15.23 Z1.2 F360.0 E3736.153
G1 X36.17 Y14.78 Z1.2 F360.0 E3736.748
G1 X32.85 Y18.1 Z1.2 F360.0 E3742.621
G1 X32.74 Y17.61 Z1.2 F360.0 E3743.244
G1 X36.0 Y14.35 Z1.2 F360.0 E3749.01
G1 X35.84 Y13.93 Z1.2 F360.0 E3749.582
G1 X32.63 Y17.13 Z1.2 F360.0 E3755.247
G1 X32.52 Y16.65 Z1.2 F360.0 E3755.866
G1 X35.67 Y13.5 Z1.2 F360.0 E3761.432
G1 X35.5 Y13.07 Z1.2 F360.0 E3762.003
G1 X32.41 Y16.16 Z1.2 F360.0 E3767.47
G1 X32.24 Y15.74 Z1.2 F360.0 E3768.042
G1 X35.34 Y12.65 Z1.2 F360.0 E3773.508
G1 X35.12 Y12.27 Z1.2 F360.0 E3774.053
G1 X32.08 Y15.31 Z1.2 F360.0 E3779.436
G1 X31.91 Y14.89 Z1.2 F360.0 E3780.009
G1 X34.9 Y11.89 Z1.2 F360.0 E3785.304
G1 X34.69 Y11.52 Z1.2 F360.0 E3785.846
G1 X31.74 Y14.46 Z1.2 F360.0 E3791.053
G1 X31.54 Y14.08 Z1.2 F360.0 E3791.6
G1 X34.47 Y11.14 Z1.2 F360.0 E3796.787
G1 X34.25 Y10.77 Z1.2 F360.0 E3797.328
G1 X31.32 Y13.7 Z1.2 F360.0 E3802.514
G1 X31.11 Y13.32 Z1.2 F360.0 E3803.056
G1 X34.03 Y10.4 Z1.2 F360.0 E3808.238
G1 X33.77 Y10.07 Z1.2 F360.0 E3808.764
G1 X30.89 Y12.95 Z1.2 F360.0 E3813.863
G1 X30.66 Y12.59 Z1.2 F360.0 E3814.4
G1 X33.51 Y9.74 Z1.2 F360.0 E3819.442
G1 X33.24 Y9.41 Z1.2 F360.0 E3819.97
G1 X30.4 Y12.26 Z1.2 F360.0 E3825.012
G1 X30.13 Y11.93 Z1.2 F360.0 E3825.539
G1 X32.98 Y9.08 Z1.2 F360.0 E3830.582
G1 X32.72 Y8.75 Z1.2 F360.0 E3831.11
G1 X29.87 Y11.6 Z1.2 F360.0 E3836.152
G1 X29.61 Y11.27 Z1.2 F360.0 E3836.679
G1 X32.46 Y8.42 Z1.2 F360.0 E3841.719
G1 X32.15 Y8.13 Z1.2 F360.0 E3842.243
G1 X29.31 Y10.97 Z1.2 F360.0 E3847.256
G1 X29.01 Y10.68 Z1.2 F360.0 E3847.781
G1 X31.84 Y7.85 Z1.2 F360.0 E3852.796
G1 X31.53 Y7.56 Z1.2 F360.0 E3853.321
G1 X28.7 Y10.4 Z1.2 F360.0 E3858.335
G1 X28.39 Y10.11 Z1.2 F360.0 E3858.859
G1 X31.23 Y7.28 Z1.2 F360.0 E3863.873
G1 X30.92 Y6.99 Z1.2 F360.0 E3864.398
G1 X28.08 Y9.83 Z1.2 F360.0 E3869.414
G1 X27.73 Y9.59 Z1.2 F360.0 E3869.948
G1 X30.61 Y6.71 Z1.2 F360.0 E3875.045
G1 X30.26 Y6.47 Z1.2 F360.0 E3875.578
G1 X27.38 Y9.35 Z1.2 F360.0 E3880.677
G1 X27.03 Y9.11 Z1.2 F360.0 E3881.21
G1 X29.91 Y6.23 Z1.2 F360.0 E3886.309
G1 X29.56 Y5.99 Z1.2 F360.0 E3886.843
G1 X26.67 Y8.87 Z1.2 F360.0 E3891.941
G1 X26.3 Y8.65 Z1.2 F360.0 E3892.484
G1 X29.2 Y5.75 Z1.2 F360.0 E3897.626
G1 X28.85 Y5.51 Z1.2 F360.0 E3898.159
G1 X25.9 Y8.46 Z1.2 F360.0 E3903.384
G1 X25.5 Y8.27 Z1.2 F360.0 E3903.94
G1 X28.5 Y5.27 Z1.2 F360.0 E3909.247
G1 X28.1 Y5.08 Z1.2 F360.0 E3909.803
G1 X25.1 Y8.07 Z1.2 F360.0 E3915.11
G1 X24.69 Y7.89 Z1.2 F360.0 E3915.669
G1 X27.7 Y4.88 Z1.2 F360.0 E3920.987
G1 X27.3 Y4.69 Z1.2 F360.0 E3921.543
G1 X24.24 Y7.75 Z1.2 F360.0 E3926.955
G1 X23.79 Y7.61 Z1.2 F360.0 E3927.546
G1 X26.9 Y4.5 Z1.2 F360.0 E3933.052
G1 X26.5 Y4.31 Z1.2 F360.0 E3933.607
G1 X23.33 Y7.47 Z1.2 F360.0 E3939.207
G1 X22.88 Y7.33 Z1.2 F360.0 E3939.801
G1 X26.08 Y4.13 Z1.2 F360.0 E3945.469
G1 X25.63 Y3.99 Z1.2 F360.0 E3946.062
G1 X22.37 Y7.25 Z1.2 F360.0 E3951.84
G1 X21.85 Y7.18 Z1.2 F360.0 E3952.492
G1 X25.18 Y3.85 Z1.2 F360.0 E3958.38
G1 X24.73 Y3.71 Z1.2 F360.0 E3958.971
G1 X21.34 Y7.1 Z1.2 F360.0 E3964.97
G1 X20.8 Y7.05 Z1.2 F360.0 E3965.645
G1 X24.27 Y3.57 Z1.2 F360.0 E3971.794
G1 X23.82 Y3.43 Z1.2 F360.0 E3972.387
G1 X20.2 Y7.05 Z1.2 F360.0 E3978.782
G1 X19.61 Y7.05 Z1.2 F360.0 E3979.523
G1 X23.31 Y3.35 Z1.2 F360.0 E3986.064
G1 X22.8 Y3.27 Z1.2 F360.0 E3986.715
G1 X19.02 Y7.05 Z1.2 F360.0 E3993.397
G1 X18.32 Y7.15 Z1.2 F360.0 E3994.28
G1 X22.28 Y3.19 Z1.2 F360.0 E4001.285
G1 X21.77 Y3.11 Z1.2 F360.0 E4001.937
G1 X17.62 Y7.26 Z1.2 F360.0 E4009.265
G1 X16.89 Y7.4 Z1.2 F360.0 E4010.207
G1 X21.25 Y3.04 Z1.2 F360.0 E4017.927
G1 X20.66 Y3.04 Z1.2 F360.0 E4018.668
G1 X16.03 Y7.67 Z1.2 F360.0 E4026.855
G1 X15.15 Y7.96 Z1.2 F360.0 E4028.018
G1 X20.06 Y3.04 Z1.2 F360.0 E4036.721
G1 X19.47 Y3.04 Z1.2 F360.0 E4037.463
G1 X14.0 Y8.51 Z1.2 F360.0 E4047.141
G1 X12.45 Y9.47 Z1.2 F360.0 E4049.417
;M103
G1 X13.74 Y8.18 Z1.2 F3600.0
;M101
G1 X18.88 Y3.04 Z1.2 F360.0 E4058.51
G1 X18.21 Y3.12 Z1.2 F360.0 E4059.355
G1 X3.13 Y18.2 Z1.2 F360.0 E4086.036
G1 X3.18 Y17.56 Z1.2 F360.0 E4086.841
G1 X17.51 Y3.22 Z1.2 F360.0 E4112.202
G1 X16.81 Y3.33 Z1.2 F360.0 E4113.084
G1 X3.33 Y16.81 Z1.2 F360.0 E4136.934
G1 X3.51 Y16.04 Z1.2 F360.0 E4137.918
G1 X16.09 Y3.46 Z1.2 F360.0 E4160.183
G1 X15.24 Y3.72 Z1.2 F360.0 E4161.305
G1 X3.68 Y15.27 Z1.2 F360.0 E4181.744
G1 X3.99 Y14.38 Z1.2 F360.0 E4182.93
G1 X14.38 Y3.99 Z1.2 F360.0 E4201.315
;M103
G1 X13.43 Y4.34 Z1.2 F3600.0
;M101
G1 X4.37 Y13.4 Z1.2 F360.0 E4217.351
;M103
G1 X4.84 Y12.34 Z1.2 F3600.0
;M101
G1 X12.29 Y4.89 Z1.2 F360.0 E4230.538
;M103
G1 X10.93 Y5.66 Z1.2 F3600.0
;M101
G1 X5.65 Y10.94 Z1.2 F360.0 E4239.886
;M103
G1 X7.41 Y8.59 Z1.2 F3600.0
;M101
G1 X7.96 Y8.03 Z1.2 F360.0 E4240.862
;M103
G1 X9.38 Y12.54 Z1.2 F3600.0
;M101
G1 X3.08 Y18.84 Z1.2 F360.0 E4252.008
G1 X3.03 Y19.48 Z1.2 F360.0 E4252.811
G1 X8.49 Y14.02 Z1.2 F360.0 E4262.477
;M103
G1 X8.01 Y15.1 Z1.2 F3600.0
;M101
G1 X3.0 Y20.1 Z1.2 F360.0 E4271.335
G1 X3.04 Y20.65 Z1.2 F360.0 E4272.027
G1 X7.63 Y16.07 Z1.2 F360.0 E4280.136
G1 X7.43 Y16.86 Z1.2 F360.0 E4281.155
G1 X3.08 Y21.21 Z1.2 F360.0 E4288.842
G1 X3.12 Y21.76 Z1.2 F360.0 E4289.533
G1 X7.25 Y17.63 Z1.2 F360.0 E4296.837
G1 X7.13 Y18.34 Z1.2 F360.0 E4297.741
G1 X3.17 Y22.31 Z1.2 F360.0 E4304.759
G1 X3.25 Y22.82 Z1.2 F360.0 E4305.407
G1 X7.08 Y18.98 Z1.2 F360.0 E4312.195
G1 X7.04 Y19.62 Z1.2 F360.0 E4312.998
G1 X3.36 Y23.3 Z1.2 F360.0 E4319.507
G1 X3.47 Y23.78 Z1.2 F360.0 E4320.126
G1 X7.03 Y20.23 Z1.2 F360.0 E4326.421
G1 X7.07 Y20.78 Z1.2 F360.0 E4327.112
G1 X3.58 Y24.27 Z1.2 F360.0 E4333.285
G1 X3.69 Y24.75 Z1.2 F360.0 E4333.905
G1 X7.11 Y21.33 Z1.2 F360.0 E4339.956
G1 X7.15 Y21.88 Z1.2 F360.0 E4340.647
G1 X3.82 Y25.2 Z1.2 F360.0 E4346.531
G1 X3.99 Y25.63 Z1.2 F360.0 E4347.103
G1 X7.25 Y22.37 Z1.2 F360.0 E4352.874
G1 X7.36 Y22.85 Z1.2 F360.0 E4353.493
G1 X4.16 Y26.06 Z1.2 F360.0 E4359.164
G1 X4.32 Y26.48 Z1.2 F360.0 E4359.735
G1 X7.47 Y23.33 Z1.2 F360.0 E4365.305
G1 X7.58 Y23.81 Z1.2 F360.0 E4365.924
G1 X4.49 Y26.91 Z1.2 F360.0 E4371.394
G1 X4.66 Y27.33 Z1.2 F360.0 E4371.965
G1 X7.75 Y24.24 Z1.2 F360.0 E4377.432
G1 X7.91 Y24.67 Z1.2 F360.0 E4378.004
G1 X4.87 Y27.71 Z1.2 F360.0 E4383.392
G1 X5.09 Y28.09 Z1.2 F360.0 E4383.935
G1 X8.08 Y25.09 Z1.2 F360.0 E4389.233
G1 X8.25 Y25.52 Z1.2 F360.0 E4389.805
G1 X5.3 Y28.46 Z1.2 F360.0 E4395.016
G1 X5.52 Y28.84 Z1.2 F360.0 E4395.559
G1 X8.45 Y25.91 Z1.2 F360.0 E4400.745
G1 X8.67 Y26.28 Z1.2 F360.0 E4401.287
G1 X5.74 Y29.22 Z1.2 F360.0 E4406.474
G1 X5.95 Y29.59 Z1.2 F360.0 E4407.016
G1 X8.88 Y26.66 Z1.2 F360.0 E4412.2
G1 X9.1 Y27.03 Z1.2 F360.0 E4412.742
G1 X6.22 Y29.92 Z1.2 F360.0 E4417.845
G1 X6.48 Y30.25 Z1.2 F360.0 E4418.372
G1 X9.33 Y27.4 Z1.2 F360.0 E4423.413
G1 X9.59 Y27.73 Z1.2 F360.0 E4423.941
G1 X6.74 Y30.58 Z1.2 F360.0 E4428.983
G1 X7.01 Y30.91 Z1.2 F360.0 E4429.511
G1 X9.86 Y28.06 Z1.2 F360.0 E4434.553
G1 X10.12 Y28.39 Z1.2 F360.0 E4435.08
G1 X7.27 Y31.24 Z1.2 F360.0 E4440.122
G1 X7.53 Y31.57 Z1.2 F360.0 E4440.649
G1 X10.38 Y28.72 Z1.2 F360.0 E4445.693
G1 X10.67 Y29.02 Z1.2 F360.0 E4446.216
G1 X7.84 Y31.85 Z1.2 F360.0 E4451.23
G1 X8.15 Y32.14 Z1.2 F360.0 E4451.754
G1 X10.98 Y29.3 Z1.2 F360.0 E4456.768
G1 X11.29 Y29.59 Z1.2 F360.0 E4457.292
G1 X8.45 Y32.42 Z1.2 F360.0 E4462.306
G1 X8.76 Y32.71 Z1.2 F360.0 E4462.831
G1 X11.59 Y29.87 Z1.2 F360.0 E4467.843
G1 X11.9 Y30.16 Z1.2 F360.0 E4468.368
G1 X9.07 Y32.99 Z1.2 F360.0 E4473.381
G1 X9.37 Y33.28 Z1.2 F360.0 E4473.905
G1 X12.25 Y30.4 Z1.2 F360.0 E4478.998
G1 X12.61 Y30.64 Z1.2 F360.0 E4479.531
G1 X9.72 Y33.52 Z1.2 F360.0 E4484.629
G1 X10.08 Y33.76 Z1.2 F360.0 E4485.163
G1 X12.96 Y30.88 Z1.2 F360.0 E4490.262
G1 X13.31 Y31.12 Z1.2 F360.0 E4490.795
G1 X10.43 Y34.0 Z1.2 F360.0 E4495.894
G1 X10.78 Y34.24 Z1.2 F360.0 E4496.427
G1 X13.68 Y31.34 Z1.2 F360.0 E4501.565
G1 X14.08 Y31.53 Z1.2 F360.0 E4502.119
G1 X11.13 Y34.48 Z1.2 F360.0 E4507.34
G1 X11.49 Y34.72 Z1.2 F360.0 E4507.874
G1 X14.48 Y31.72 Z1.2 F360.0 E4513.178
G1 X14.88 Y31.92 Z1.2 F360.0 E4513.733
G1 X11.88 Y34.92 Z1.2 F360.0 E4519.04
G1 X12.28 Y35.11 Z1.2 F360.0 E4519.596
G1 X15.29 Y32.1 Z1.2 F360.0 E4524.911
G1 X15.74 Y32.24 Z1.2 F360.0 E4525.503
G1 X12.68 Y35.3 Z1.2 F360.0 E4530.909
G1 X13.08 Y35.49 Z1.2 F360.0 E4531.465
G1 X16.19 Y32.38 Z1.2 F360.0 E4536.965
G1 X16.65 Y32.52 Z1.2 F360.0 E4537.558
G1 X13.48 Y35.69 Z1.2 F360.0 E4543.154
G1 X13.9 Y35.87 Z1.2 F360.0 E4543.717
G1 X17.1 Y32.66 Z1.2 F360.0 E4549.382
G1 X17.61 Y32.74 Z1.2 F360.0 E4550.033
G1 X14.35 Y36.01 Z1.2 F360.0 E4555.805
G1 X14.8 Y36.15 Z1.2 F360.0 E4556.397
G1 X18.13 Y32.82 Z1.2 F360.0 E4562.282
G1 X18.64 Y32.9 Z1.2 F360.0 E4562.932
G1 X15.25 Y36.28 Z1.2 F360.0 E4568.924
G1 X15.71 Y36.42 Z1.2 F360.0 E4569.517
G1 X19.17 Y32.96 Z1.2 F360.0 E4575.654
G1 X19.77 Y32.96 Z1.2 F360.0 E4576.396
G1 X16.16 Y36.56 Z1.2 F360.0 E4582.781
G1 X16.67 Y36.65 Z1.2 F360.0 E4583.424
G1 X20.36 Y32.96 Z1.2 F360.0 E4589.959
G1 X20.95 Y32.96 Z1.2 F360.0 E4590.7
G1 X17.18 Y36.73 Z1.2 F360.0 E4597.372
G1 X17.7 Y36.81 Z1.2 F360.0 E4598.024
G1 X21.65 Y32.85 Z1.2 F360.0 E4605.013
G1 X22.34 Y32.75 Z1.2 F360.0 E4605.896
G1 X18.21 Y36.88 Z1.2 F360.0 E4613.208
G1 X18.72 Y36.96 Z1.2 F360.0 E4613.858
G1 X23.07 Y32.61 Z1.2 F360.0 E4621.554
G1 X23.93 Y32.35 Z1.2 F360.0 E4622.676
G1 X19.32 Y36.96 Z1.2 F360.0 E4630.841
G1 X19.91 Y36.96 Z1.2 F360.0 E4631.581
G1 X24.8 Y32.07 Z1.2 F360.0 E4640.238
G1 X25.95 Y31.52 Z1.2 F360.0 E4641.827
;M103
G1 X25.05 Y32.41 Z1.2 F3600.0
;M101
G1 X20.5 Y36.96 Z1.2 F360.0 E4649.871
G1 X21.09 Y36.96 Z1.2 F360.0 E4650.611
G1 X27.46 Y30.6 Z1.2 F360.0 E4661.874
;M103
G1 X28.98 Y34.4 Z1.2 F3600.0
;M101
G1 X34.39 Y28.99 Z1.2 F360.0 E4671.445
G1 X35.2 Y27.59 Z1.2 F360.0 E4673.471
;M103
G1 X35.29 Y26.32 Z1.2 F3600.0
;M101
G1 X25.58 Y36.03 Z1.2 F360.0 E4690.649
G1 X24.72 Y36.29 Z1.2 F360.0 E4691.772
G1 X36.33 Y24.69 Z1.2 F360.0 E4712.299
G1 X36.5 Y23.92 Z1.2 F360.0 E4713.283
G1 X23.87 Y36.56 Z1.2 F360.0 E4735.635
G1 X23.15 Y36.68 Z1.2 F360.0 E4736.539
G1 X36.68 Y23.15 Z1.2 F360.0 E4760.464
G1 X36.83 Y22.41 Z1.2 F360.0 E4761.412
G1 X22.46 Y36.78 Z1.2 F360.0 E4786.836
G1 X21.76 Y36.89 Z1.2 F360.0 E4787.719
G1 X36.88 Y21.77 Z1.2 F360.0 E4814.462
G1 X36.92 Y21.13 Z1.2 F360.0 E4815.265
G1 X30.73 Y27.32 Z1.2 F360.0 E4826.219
;M103
G1 X31.54 Y25.92 Z1.2 F3600.0
;M101
G1 X36.97 Y20.49 Z1.2 F360.0 E4835.821
G1 X37.0 Y19.87 Z1.2 F360.0 E4836.596
G1 X32.01 Y24.86 Z1.2 F360.0 E4845.419
;M103
G1 X27.41 Y34.79 Z1.2 F3600.0
;M101
G1 X35.65 Y26.55 Z1.2 F360.0 E4859.996
G1 X36.03 Y25.58 Z1.2 F360.0 E4861.307
;M103
G1 X34.06 Y28.74 Z1.2 F3600.0
;M101
G1 X27.66 Y35.14 Z1.2 F360.0 E4872.631
G1 X26.51 Y35.69 Z1.2 F360.0 E4874.218
;M103
G1 X32.7 Y31.28 Z1.2 F3600.0
;M101
G1 X31.65 Y32.33 Z1.2 F360.0 E4876.075
;M103
G1 X28.67 Y29.15 Z1.2 F3600.0
;M101
G1 X28.68 Y29.13 Z1.2 F360.0 E4876.104
G1 X29.26 Y28.59 Z1.2 F360.0 E4877.091
G1 X30.44 Y27.12 Z1.2 F360.0 E4879.455
G1 X31.38 Y25.48 Z1.2 F360.0 E4881.816
G1 X32.07 Y23.72 Z1.2 F360.0 E4884.178
G1 X32.49 Y21.88 Z1.2 F360.0 E4886.541
G1 X32.64 Y20.0 Z1.2 F360.0 E4888.903
G1 X32.49 Y18.12 Z1.2 F360.0 E4891.265
G1 X32.07 Y16.28 Z1.2 F360.0 E4893.628
G1 X31.38 Y14.52 Z1.2 F360.0 E4895.99
G1 X30.44 Y12.88 Z1.2 F360.0 E4898.352
G1 X29.26 Y11.41 Z1.2 F360.0 E4900.715
G1 X27.88 Y10.12 Z1.2 F360.0 E4903.078
G1 X26.32 Y9.06 Z1.2 F360.0 E4905.441
G1 X24.62 Y8.24 Z1.2 F360.0 E4907.803
G1 X22.81 Y7.68 Z1.2 F360.0 E4910.166
G1 X20.94 Y7.4 Z1.2 F360.0 E4912.528
G1 X19.06 Y7.4 Z1.2 F360.0 E4914.889
G1 X17.19 Y7.68 Z1.2 F360.0 E4917.251
G1 X15.38 Y8.24 Z1.2 F360.0 E4919.614
G1 X13.68 Y9.06 Z1.2 F360.0 E4921.976
G1 X12.12 Y10.12 Z1.2 F360.0 E4924.339
G1 X10.74 Y11.41 Z1.2 F360.0 E4926.702
G1 X9.56 Y12.88 Z1.2 F360.0 E4929.065
G1 X8.62 Y14.52 Z1.2 F360.0 E4931.427
G1 X7.93 Y16.28 Z1.2 F360.0 E4933.789
G1 X7.51 Y18.12 Z1.2 F360.0 E4936.152
G1 X7.37 Y20.0 Z1.2 F360.0 E4938.514
G1 X7.51 Y21.88 Z1.2 F360.0 E4940.876
G1 X7.93 Y23.72 Z1.2 F360.0 E4943.239
G1 X8.62 Y25.48 Z1.2 F360.0 E4945.601
G1 X9.56 Y27.12 Z1.2 F360.0 E4947.963
G1 X10.74 Y28.59 Z1.2 F360.0 E4950.326
G1 X12.12 Y29.88 Z1.2 F360.0 E4952.689
G1 X13.68 Y30.94 Z1.2 F360.0 E4955.051
G1 X15.38 Y31.76 Z1.2 F360.0 E4957.413
G1 X17.19 Y32.32 Z1.2 F360.0 E4959.776
G1 X19.06 Y32.6 Z1.2 F360.0 E4962.138
G1 X20.94 Y32.6 Z1.2 F360.0 E4964.5
G1 X22.81 Y32.32 Z1.2 F360.0 E4966.862
G1 X24.62 Y31.76 Z1.2 F360.0 E4969.225
G1 X26.32 Y30.94 Z1.2 F360.0 E4971.587
G1 X27.88 Y29.88 Z1.2 F360.0 E4973.95
G1 X28.67 Y29.15 Z1.2 F360.0 E4975.296
;M103
G1 X31.89 Y32.59 Z1.2 F3600.0
;M101
G1 X30.83 Y33.58 Z1.2 F360.0 E4977.112
G1 X28.68 Y35.04 Z1.2 F360.0 E4980.358
G1 X26.34 Y36.16 Z1.2 F360.0 E4983.605
G1 X23.86 Y36.93 Z1.2 F360.0 E4986.853
G1 X21.3 Y37.32 Z1.2 F360.0 E4990.099
G1 X18.7 Y37.32 Z1.2 F360.0 E4993.347
G1 X16.14 Y36.93 Z1.2 F360.0 E4996.593
G1 X13.66 Y36.16 Z1.2 F360.0 E4999.84
G1 X11.32 Y35.04 Z1.2 F360.0 E5003.088
G1 X9.17 Y33.58 Z1.2 F360.0 E5006.334
G1 X7.27 Y31.81 Z1.2 F360.0 E5009.581
G1 X5.65 Y29.78 Z1.2 F360.0 E5012.827
G1 X4.36 Y27.54 Z1.2 F360.0 E5016.073
G1 X3.41 Y25.12 Z1.2 F360.0 E5019.321
G1 X2.83 Y22.59 Z1.2 F360.0 E5022.568
G1 X2.64 Y20.0 Z1.2 F360.0 E5025.814
G1 X2.83 Y17.41 Z1.2 F360.0 E5029.061
G1 X3.41 Y14.88 Z1.2 F360.0 E5032.307
G1 X4.36 Y12.47 Z1.2 F360.0 E5035.556
G1 X5.65 Y10.22 Z1.2 F360.0 E5038.802
G1 X7.27 Y8.19 Z1.2 F360.0 E5042.048
G1 X9.17 Y6.42 Z1.2 F360.0 E5045.295
G1 X11.32 Y4.96 Z1.2 F360.0 E5048.541
G1 X13.66 Y3.84 Z1.2 F360.0 E5051.788
G1 X16.14 Y3.07 Z1.2 F360.0 E5055.036
G1 X18.7 Y2.68 Z1.2 F360.0 E5058.282
G1 X21.3 Y2.68 Z1.2 F360.0 E5061.53
G1 X23.86 Y3.07 Z1.2 F360.0 E5064.776
G1 X26.34 Y3.84 Z1.2 F360.0 E5068.023
G1 X28.68 Y4.96 Z1.2 F360.0 E5071.271
G1 X30.83 Y6.42 Z1.2 F360.0 E5074.517
G1 X32.73 Y8.19 Z1.2 F360.0 E5077.764
G1 X34.35 Y10.22 Z1.2 F360.0 E5081.01
G1 X35.65 Y12.47 Z1.2 F360.0 E5084.256
G1 X36.59 Y14.88 Z1.2 F360.0 E5087.504
G1 X37.17 Y17.41 Z1.2 F360.0 E5090.751
G1 X37.37 Y20.0 Z1.2 F360.0 E5093.997
G1 X37.17 Y22.59 Z1.2 F360.0 E5097.244
G1 X36.59 Y25.12 Z1.2 F360.0 E5100.49
G1 X35.65 Y27.54 Z1.2 F360.0 E5103.739
G1 X34.35 Y29.78 Z1.2 F360.0 E5106.985
G1 X32.73 Y31.81 Z1.2 F360.0 E5110.231
G1 X31.89 Y32.59 Z1.2 F360.0 E5111.662
;M103
;M108 S5.629
G1 X32.18 Y32.9 Z1.2 F3600.0
;M101
G1 X31.09 Y33.91 Z1.2 F270.0 E5113.517
G1 X28.89 Y35.4 Z1.2 F270.0 E5116.842
G1 X26.5 Y36.56 Z1.2 F270.0 E5120.168
G1 X23.96 Y37.34 Z1.2 F270.0 E5123.493
G1 X21.33 Y37.74 Z1.2 F270.0 E5126.818
G1 X18.67 Y37.74 Z1.2 F270.0 E5130.143
G1 X16.04 Y37.34 Z1.2 F270.0 E5133.467
G1 X13.5 Y36.56 Z1.2 F270.0 E5136.792
G1 X11.11 Y35.4 Z1.2 F270.0 E5140.118
G1 X8.91 Y33.91 Z1.2 F270.0 E5143.443
G1 X6.96 Y32.1 Z1.2 F270.0 E5146.768
G1 X5.31 Y30.02 Z1.2 F270.0 E5150.092
G1 X3.98 Y27.72 Z1.2 F270.0 E5153.418
G1 X3.01 Y25.24 Z1.2 F270.0 E5156.743
G1 X2.41 Y22.65 Z1.2 F270.0 E5160.068
G1 X2.22 Y20.0 Z1.2 F270.0 E5163.393
G1 X2.41 Y17.35 Z1.2 F270.0 E5166.719
G1 X3.01 Y14.76 Z1.2 F270.0 E5170.043
G1 X3.98 Y12.28 Z1.2 F270.0 E5173.369
G1 X5.31 Y9.98 Z1.2 F270.0 E5176.694
G1 X6.96 Y7.9 Z1.2 F270.0 E5180.018
G1 X8.91 Y6.1 Z1.2 F270.0 E5183.343
G1 X11.11 Y4.6 Z1.2 F270.0 E5186.668
G1 X13.5 Y3.45 Z1.2 F270.0 E5189.994
G1 X16.04 Y2.66 Z1.2 F270.0 E5193.319
G1 X18.67 Y2.27 Z1.2 F270.0 E5196.644
G1 X21.33 Y2.27 Z1.2 F270.0 E5199.969
G1 X23.96 Y2.66 Z1.2 F270.0 E5203.293
G1 X26.5 Y3.45 Z1.2 F270.0 E5206.618
G1 X28.89 Y4.6 Z1.2 F270.0 E5209.944
G1 X31.09 Y6.1 Z1.2 F270.0 E5213.269
G1 X33.04 Y7.9 Z1.2 F270.0 E5216.594
G1 X34.69 Y9.98 Z1.2 F270.0 E5219.918
G1 X36.02 Y12.28 Z1.2 F270.0 E5223.244
G1 X36.99 Y14.76 Z1.2 F270.0 E5226.569
G1 X37.59 Y17.35 Z1.2 F270.0 E5229.894
G1 X37.78 Y20.0 Z1.2 F270.0 E5233.219
G1 X37.59 Y22.65 Z1.2 F270.0 E5236.544
G1 X36.99 Y25.24 Z1.2 F270.0 E5239.869
G1 X36.02 Y27.72 Z1.2 F270.0 E5243.194
G1 X34.69 Y30.02 Z1.2 F270.0 E5246.52
G1 X33.04 Y32.1 Z1.2 F270.0 E5249.844
G1 X32.18 Y32.9 Z1.2 F270.0 E5251.314
;M103
G1 X28.4 Y28.83 Z1.2 F3600.0
;M101
G1 X28.95 Y28.31 Z1.2 F270.0 E5252.265
G1 X30.09 Y26.88 Z1.2 F270.0 E5254.55
G1 X31.01 Y25.3 Z1.2 F270.0 E5256.832
G1 X31.67 Y23.6 Z1.2 F270.0 E5259.116
G1 X32.08 Y21.82 Z1.2 F270.0 E5261.4
G1 X32.22 Y20.0 Z1.2 F270.0 E5263.683
G1 X32.08 Y18.18 Z1.2 F270.0 E5265.966
G1 X31.67 Y16.4 Z1.2 F270.0 E5268.25
G1 X31.01 Y14.7 Z1.2 F270.0 E5270.534
G1 X30.09 Y13.12 Z1.2 F270.0 E5272.816
G1 X28.95 Y11.69 Z1.2 F270.0 E5275.101
G1 X27.62 Y10.45 Z1.2 F270.0 E5277.385
G1 X26.11 Y9.42 Z1.2 F270.0 E5279.669
G1 X24.46 Y8.63 Z1.2 F270.0 E5281.952
G1 X22.72 Y8.09 Z1.2 F270.0 E5284.236
G1 X20.91 Y7.82 Z1.2 F270.0 E5286.519
G1 X19.09 Y7.82 Z1.2 F270.0 E5288.803
G1 X17.28 Y8.09 Z1.2 F270.0 E5291.087
G1 X15.54 Y8.63 Z1.2 F270.0 E5293.371
G1 X13.89 Y9.42 Z1.2 F270.0 E5295.654
G1 X12.38 Y10.45 Z1.2 F270.0 E5297.938
G1 X11.05 Y11.69 Z1.2 F270.0 E5300.222
G1 X9.91 Y13.12 Z1.2 F270.0 E5302.507
G1 X8.99 Y14.7 Z1.2 F270.0 E5304.789
G1 X8.33 Y16.4 Z1.2 F270.0 E5307.073
G1 X7.92 Y18.18 Z1.2 F270.0 E5309.357
G1 X7.79 Y20.0 Z1.2 F270.0 E5311.64
G1 X7.92 Y21.82 Z1.2 F270.0 E5313.923
G1 X8.33 Y23.6 Z1.2 F270.0 E5316.207
G1 X8.99 Y25.3 Z1.2 F270.0 E5318.491
G1 X9.91 Y26.88 Z1.2 F270.0 E5320.773
G1 X11.05 Y28.31 Z1.2 F270.0 E5323.058
G1 X12.38 Y29.55 Z1.2 F270.0 E5325.342
G1 X13.89 Y30.58 Z1.2 F270.0 E5327.626
G1 X15.54 Y31.37 Z1.2 F270.0 E5329.909
G1 X17.28 Y31.91 Z1.2 F270.0 E5332.193
G1 X19.09 Y32.18 Z1.2 F270.0 E5334.476
G1 X20.91 Y32.18 Z1.2 F270.0 E5336.761
G1 X22.72 Y31.91 Z1.2 F270.0 E5339.044
G1 X24.46 Y31.37 Z1.2 F270.0 E5341.328
G1 X26.11 Y30.58 Z1.2 F270.0 E5343.611
G1 X27.62 Y29.55 Z1.2 F270.0 E5345.895
G1 X28.4 Y28.83 Z1.2 F270.0 E5347.228
;M103
;M108 S7.506
G1 X29.01 Y28.36 Z1.5 F3600.0
G1 X30.16 Y26.93 Z1.5 F3600.0
G1 X31.08 Y25.34 Z1.5 F3600.0
G1 X31.75 Y23.62 Z1.5 F3600.0
G1 X32.16 Y21.83 Z1.5 F3600.0
G1 X32.3 Y20.0 Z1.5 F3600.0
G1 X31.85 Y14.67 Z1.5 F3600.0
;M101
G1 X37.38 Y20.2 Z1.5 F360.0 E5357.023
;M103
G1 X28.32 Y5.21 Z1.5 F3600.0
;M101
G1 X35.76 Y12.65 Z1.5 F360.0 E5370.188
G1 X36.14 Y13.63 Z1.5 F360.0 E5371.498
;M103
G1 X35.4 Y12.89 Z1.5 F3600.0
;M101
G1 X26.3 Y3.79 Z1.5 F360.0 E5387.601
G1 X25.44 Y3.52 Z1.5 F360.0 E5388.723
G1 X36.52 Y14.6 Z1.5 F360.0 E5408.329
G1 X36.75 Y15.43 Z1.5 F360.0 E5409.4
G1 X24.58 Y3.26 Z1.5 F360.0 E5430.931
G1 X23.75 Y3.02 Z1.5 F360.0 E5432.011
G1 X36.93 Y16.2 Z1.5 F360.0 E5455.32
G1 X37.1 Y16.96 Z1.5 F360.0 E5456.304
G1 X23.06 Y2.91 Z1.5 F360.0 E5481.158
G1 X22.36 Y2.81 Z1.5 F360.0 E5482.039
G1 X37.23 Y17.68 Z1.5 F360.0 E5508.342
G1 X37.27 Y18.32 Z1.5 F360.0 E5509.146
G1 X21.66 Y2.7 Z1.5 F360.0 E5536.768
G1 X21.01 Y2.65 Z1.5 F360.0 E5537.58
G1 X37.32 Y18.96 Z1.5 F360.0 E5566.432
G1 X37.37 Y19.6 Z1.5 F360.0 E5567.235
G1 X20.42 Y2.65 Z1.5 F360.0 E5597.219
G1 X19.83 Y2.65 Z1.5 F360.0 E5597.96
G1 X26.23 Y9.06 Z1.5 F360.0 E5609.292
;M103
G1 X25.09 Y8.51 Z1.5 F3600.0
;M101
G1 X19.24 Y2.65 Z1.5 F360.0 E5619.653
G1 X18.65 Y2.66 Z1.5 F360.0 E5620.385
G1 X24.11 Y8.12 Z1.5 F360.0 E5630.048
G1 X23.26 Y7.86 Z1.5 F360.0 E5631.168
G1 X18.14 Y2.73 Z1.5 F360.0 E5640.228
G1 X17.62 Y2.81 Z1.5 F360.0 E5640.879
G1 X22.48 Y7.67 Z1.5 F360.0 E5649.466
G1 X21.78 Y7.56 Z1.5 F360.0 E5650.349
G1 X17.11 Y2.89 Z1.5 F360.0 E5658.613
G1 X16.59 Y2.97 Z1.5 F360.0 E5659.265
G1 X21.08 Y7.46 Z1.5 F360.0 E5667.204
G1 X20.47 Y7.44 Z1.5 F360.0 E5667.971
G1 X16.08 Y3.05 Z1.5 F360.0 E5675.727
G1 X15.63 Y3.19 Z1.5 F360.0 E5676.32
G1 X19.88 Y7.44 Z1.5 F360.0 E5683.828
G1 X19.28 Y7.44 Z1.5 F360.0 E5684.57
G1 X15.18 Y3.33 Z1.5 F360.0 E5691.831
G1 X14.73 Y3.47 Z1.5 F360.0 E5692.422
G1 X18.74 Y7.48 Z1.5 F360.0 E5699.521
G1 X18.22 Y7.56 Z1.5 F360.0 E5700.173
G1 X14.27 Y3.61 Z1.5 F360.0 E5707.161
G1 X13.82 Y3.75 Z1.5 F360.0 E5707.754
G1 X17.71 Y7.64 Z1.5 F360.0 E5714.633
G1 X17.19 Y7.72 Z1.5 F360.0 E5715.285
G1 X13.4 Y3.92 Z1.5 F360.0 E5721.998
G1 X13.0 Y4.11 Z1.5 F360.0 E5722.554
G1 X16.74 Y7.86 Z1.5 F360.0 E5729.173
G1 X16.29 Y8.0 Z1.5 F360.0 E5729.765
G1 X12.6 Y4.31 Z1.5 F360.0 E5736.29
G1 X12.2 Y4.5 Z1.5 F360.0 E5736.845
G1 X15.84 Y8.14 Z1.5 F360.0 E5743.278
G1 X15.38 Y8.28 Z1.5 F360.0 E5743.87
G1 X11.8 Y4.69 Z1.5 F360.0 E5750.211
G1 X11.4 Y4.88 Z1.5 F360.0 E5750.766
G1 X14.99 Y8.47 Z1.5 F360.0 E5757.108
G1 X14.59 Y8.66 Z1.5 F360.0 E5757.664
G1 X11.04 Y5.11 Z1.5 F360.0 E5763.942
G1 X10.68 Y5.35 Z1.5 F360.0 E5764.475
G1 X14.19 Y8.85 Z1.5 F360.0 E5770.669
G1 X13.79 Y9.05 Z1.5 F360.0 E5771.225
G1 X10.33 Y5.59 Z1.5 F360.0 E5777.334
G1 X9.98 Y5.83 Z1.5 F360.0 E5777.868
G1 X13.42 Y9.28 Z1.5 F360.0 E5783.96
G1 X13.07 Y9.52 Z1.5 F360.0 E5784.494
G1 X9.63 Y6.07 Z1.5 F360.0 E5790.585
G1 X9.28 Y6.31 Z1.5 F360.0 E5791.118
G1 X12.72 Y9.76 Z1.5 F360.0 E5797.21
G1 X12.37 Y10.0 Z1.5 F360.0 E5797.743
G1 X8.95 Y6.58 Z1.5 F360.0 E5803.782
G1 X8.65 Y6.87 Z1.5 F360.0 E5804.307
G1 X12.03 Y10.25 Z1.5 F360.0 E5810.296
G1 X11.72 Y10.54 Z1.5 F360.0 E5810.82
G1 X8.34 Y7.15 Z1.5 F360.0 E5816.81
G1 X8.03 Y7.44 Z1.5 F360.0 E5817.334
G1 X11.42 Y10.82 Z1.5 F360.0 E5823.324
G1 X11.11 Y11.11 Z1.5 F360.0 E5823.848
G1 X7.72 Y7.72 Z1.5 F360.0 E5829.839
G1 X7.42 Y8.01 Z1.5 F360.0 E5830.363
G1 X10.8 Y11.39 Z1.5 F360.0 E5836.353
G1 X10.53 Y11.72 Z1.5 F360.0 E5836.88
G1 X7.13 Y8.31 Z1.5 F360.0 E5842.904
G1 X6.87 Y8.64 Z1.5 F360.0 E5843.431
G1 X10.27 Y12.05 Z1.5 F360.0 E5849.455
G1 X10.01 Y12.38 Z1.5 F360.0 E5849.983
G1 X6.6 Y8.97 Z1.5 F360.0 E5856.007
G1 X6.34 Y9.3 Z1.5 F360.0 E5856.534
G1 X9.74 Y12.71 Z1.5 F360.0 E5862.556
G1 X9.5 Y13.05 Z1.5 F360.0 E5863.088
G1 X6.08 Y9.63 Z1.5 F360.0 E5869.144
G1 X5.81 Y9.96 Z1.5 F360.0 E5869.672
G1 X9.28 Y13.43 Z1.5 F360.0 E5875.809
G1 X9.07 Y13.81 Z1.5 F360.0 E5876.352
G1 X5.56 Y10.3 Z1.5 F360.0 E5882.549
G1 X5.35 Y10.68 Z1.5 F360.0 E5883.091
G1 X8.85 Y14.18 Z1.5 F360.0 E5889.288
G1 X8.64 Y14.56 Z1.5 F360.0 E5889.833
G1 X5.13 Y11.05 Z1.5 F360.0 E5896.036
G1 X4.91 Y11.43 Z1.5 F360.0 E5896.578
G1 X8.47 Y14.99 Z1.5 F360.0 E5902.869
G1 X8.3 Y15.41 Z1.5 F360.0 E5903.441
G1 X4.7 Y11.81 Z1.5 F360.0 E5909.821
G1 X4.48 Y12.18 Z1.5 F360.0 E5910.363
G1 X8.14 Y15.84 Z1.5 F360.0 E5916.831
G1 X7.97 Y16.26 Z1.5 F360.0 E5917.403
G1 X4.28 Y12.57 Z1.5 F360.0 E5923.934
G1 X4.11 Y13.0 Z1.5 F360.0 E5924.506
G1 X7.86 Y16.74 Z1.5 F360.0 E5931.132
G1 X7.75 Y17.22 Z1.5 F360.0 E5931.751
G1 X3.94 Y13.42 Z1.5 F360.0 E5938.477
G1 X3.78 Y13.85 Z1.5 F360.0 E5939.048
G1 X7.64 Y17.7 Z1.5 F360.0 E5945.875
G1 X7.53 Y18.2 Z1.5 F360.0 E5946.504
G1 X3.61 Y14.27 Z1.5 F360.0 E5953.448
G1 X3.44 Y14.7 Z1.5 F360.0 E5954.019
G1 X7.49 Y18.75 Z1.5 F360.0 E5961.186
G1 X7.45 Y19.3 Z1.5 F360.0 E5961.877
G1 X3.31 Y15.16 Z1.5 F360.0 E5969.206
G1 X3.2 Y15.64 Z1.5 F360.0 E5969.826
G1 X7.41 Y19.85 Z1.5 F360.0 E5977.276
G1 X7.43 Y20.47 Z1.5 F360.0 E5978.047
G1 X3.09 Y16.12 Z1.5 F360.0 E5985.734
G1 X2.98 Y16.6 Z1.5 F360.0 E5986.353
G1 X7.48 Y21.11 Z1.5 F360.0 E5994.32
G1 X7.53 Y21.75 Z1.5 F360.0 E5995.123
G1 X2.87 Y17.09 Z1.5 F360.0 E6003.369
G1 X2.78 Y17.59 Z1.5 F360.0 E6004.01
G1 X7.68 Y22.49 Z1.5 F360.0 E6012.676
G1 X7.85 Y23.26 Z1.5 F360.0 E6013.66
G1 X2.74 Y18.14 Z1.5 F360.0 E6022.708
G1 X2.7 Y18.69 Z1.5 F360.0 E6023.399
G1 X8.11 Y24.11 Z1.5 F360.0 E6032.977
G1 X8.49 Y25.08 Z1.5 F360.0 E6034.287
;M103
G1 X7.76 Y24.34 Z1.5 F3600.0
;M101
G1 X2.66 Y19.25 Z1.5 F360.0 E6043.305
G1 X2.62 Y19.8 Z1.5 F360.0 E6043.996
G1 X9.14 Y26.32 Z1.5 F360.0 E6055.529
;M103
G1 X10.62 Y28.39 Z1.5 F3600.0
;M101
G1 X2.63 Y20.4 Z1.5 F360.0 E6069.667
G1 X2.68 Y21.04 Z1.5 F360.0 E6070.47
G1 X18.99 Y37.35 Z1.5 F360.0 E6099.321
G1 X19.58 Y37.35 Z1.5 F360.0 E6100.062
G1 X11.26 Y29.03 Z1.5 F360.0 E6114.778
;M103
G1 X13.77 Y30.95 Z1.5 F3600.0
;M101
G1 X20.17 Y37.35 Z1.5 F360.0 E6126.111
G1 X20.76 Y37.35 Z1.5 F360.0 E6126.852
G1 X14.91 Y31.5 Z1.5 F360.0 E6137.213
;M103
G1 X15.89 Y31.88 Z1.5 F3600.0
;M101
G1 X21.35 Y37.34 Z1.5 F360.0 E6146.876
G1 X21.86 Y37.27 Z1.5 F360.0 E6147.527
G1 X16.74 Y32.15 Z1.5 F360.0 E6156.587
G1 X17.52 Y32.33 Z1.5 F360.0 E6157.593
G1 X22.38 Y37.19 Z1.5 F360.0 E6166.18
G1 X22.89 Y37.11 Z1.5 F360.0 E6166.832
G1 X18.22 Y32.44 Z1.5 F360.0 E6175.096
G1 X18.92 Y32.55 Z1.5 F360.0 E6175.979
G1 X23.41 Y37.03 Z1.5 F360.0 E6183.918
G1 X23.92 Y36.95 Z1.5 F360.0 E6184.562
G1 X19.53 Y32.57 Z1.5 F360.0 E6192.317
G1 X20.13 Y32.57 Z1.5 F360.0 E6193.058
G1 X24.37 Y36.81 Z1.5 F360.0 E6200.566
G1 X24.82 Y36.67 Z1.5 F360.0 E6201.159
G1 X20.72 Y32.57 Z1.5 F360.0 E6208.42
G1 X21.26 Y32.52 Z1.5 F360.0 E6209.103
G1 X25.27 Y36.53 Z1.5 F360.0 E6216.202
G1 X25.73 Y36.39 Z1.5 F360.0 E6216.795
G1 X21.78 Y32.44 Z1.5 F360.0 E6223.784
G1 X22.29 Y32.36 Z1.5 F360.0 E6224.434
G1 X26.18 Y36.25 Z1.5 F360.0 E6231.313
G1 X26.6 Y36.08 Z1.5 F360.0 E6231.881
G1 X22.81 Y32.28 Z1.5 F360.0 E6238.594
G1 X23.26 Y32.14 Z1.5 F360.0 E6239.187
G1 X27.0 Y35.89 Z1.5 F360.0 E6245.806
G1 X27.4 Y35.69 Z1.5 F360.0 E6246.362
G1 X23.71 Y32.01 Z1.5 F360.0 E6252.888
G1 X24.16 Y31.87 Z1.5 F360.0 E6253.481
G1 X27.8 Y35.5 Z1.5 F360.0 E6259.914
G1 X28.2 Y35.31 Z1.5 F360.0 E6260.469
G1 X24.62 Y31.72 Z1.5 F360.0 E6266.81
G1 X25.02 Y31.53 Z1.5 F360.0 E6267.364
G1 X28.6 Y35.12 Z1.5 F360.0 E6273.705
G1 X28.96 Y34.89 Z1.5 F360.0 E6274.243
G1 X25.42 Y31.34 Z1.5 F360.0 E6280.522
G1 X25.82 Y31.15 Z1.5 F360.0 E6281.077
G1 X29.32 Y34.65 Z1.5 F360.0 E6287.271
G1 X29.67 Y34.41 Z1.5 F360.0 E6287.804
G1 X26.22 Y30.95 Z1.5 F360.0 E6293.913
G1 X26.58 Y30.72 Z1.5 F360.0 E6294.45
G1 X30.02 Y34.17 Z1.5 F360.0 E6300.542
G1 X30.37 Y33.93 Z1.5 F360.0 E6301.075
G1 X26.93 Y30.48 Z1.5 F360.0 E6307.166
G1 X27.28 Y30.24 Z1.5 F360.0 E6307.699
G1 X30.73 Y33.69 Z1.5 F360.0 E6313.79
G1 X31.05 Y33.42 Z1.5 F360.0 E6314.316
G1 X27.63 Y30.0 Z1.5 F360.0 E6320.356
G1 X27.97 Y29.75 Z1.5 F360.0 E6320.885
G1 X31.36 Y33.13 Z1.5 F360.0 E6326.875
G1 X31.66 Y32.85 Z1.5 F360.0 E6327.401
G1 X28.28 Y29.46 Z1.5 F360.0 E6333.39
G1 X28.58 Y29.18 Z1.5 F360.0 E6333.915
G1 X31.97 Y32.56 Z1.5 F360.0 E6339.906
G1 X32.28 Y32.28 Z1.5 F360.0 E6340.43
G1 X28.89 Y28.89 Z1.5 F360.0 E6346.42
G1 X29.2 Y28.61 Z1.5 F360.0 E6346.944
G1 X32.58 Y31.99 Z1.5 F360.0 E6352.935
G1 X32.87 Y31.69 Z1.5 F360.0 E6353.46
G1 X29.47 Y28.28 Z1.5 F360.0 E6359.484
G1 X29.73 Y27.95 Z1.5 F360.0 E6360.011
G1 X33.14 Y31.36 Z1.5 F360.0 E6366.035
G1 X33.4 Y31.03 Z1.5 F360.0 E6366.562
G1 X29.99 Y27.62 Z1.5 F360.0 E6372.587
G1 X30.26 Y27.29 Z1.5 F360.0 E6373.113
G1 X33.66 Y30.7 Z1.5 F360.0 E6379.136
G1 X33.92 Y30.37 Z1.5 F360.0 E6379.663
G1 X30.5 Y26.95 Z1.5 F360.0 E6385.719
G1 X30.72 Y26.57 Z1.5 F360.0 E6386.262
G1 X34.19 Y30.04 Z1.5 F360.0 E6392.399
G1 X34.44 Y29.7 Z1.5 F360.0 E6392.929
G1 X30.93 Y26.19 Z1.5 F360.0 E6399.125
G1 X31.15 Y25.82 Z1.5 F360.0 E6399.667
G1 X34.65 Y29.32 Z1.5 F360.0 E6405.864
G1 X34.87 Y28.95 Z1.5 F360.0 E6406.407
G1 X31.36 Y25.44 Z1.5 F360.0 E6412.61
G1 X31.53 Y25.02 Z1.5 F360.0 E6413.181
G1 X35.09 Y28.57 Z1.5 F360.0 E6419.473
G1 X35.3 Y28.2 Z1.5 F360.0 E6420.016
G1 X31.7 Y24.59 Z1.5 F360.0 E6426.395
G1 X31.87 Y24.16 Z1.5 F360.0 E6426.967
G1 X35.52 Y27.82 Z1.5 F360.0 E6433.435
G1 X35.72 Y27.43 Z1.5 F360.0 E6433.984
G1 X32.03 Y23.74 Z1.5 F360.0 E6440.515
G1 X32.15 Y23.26 Z1.5 F360.0 E6441.131
G1 X35.89 Y27.01 Z1.5 F360.0 E6447.757
G1 X36.06 Y26.58 Z1.5 F360.0 E6448.33
G1 X32.26 Y22.78 Z1.5 F360.0 E6455.056
G1 X32.37 Y22.3 Z1.5 F360.0 E6455.675
G1 X36.22 Y26.15 Z1.5 F360.0 E6462.502
G1 X36.39 Y25.73 Z1.5 F360.0 E6463.074
G1 X32.47 Y21.8 Z1.5 F360.0 E6470.018
G1 X32.51 Y21.25 Z1.5 F360.0 E6470.71
G1 X36.56 Y25.3 Z1.5 F360.0 E6477.876
G1 X36.69 Y24.84 Z1.5 F360.0 E6478.474
G1 X32.55 Y20.7 Z1.5 F360.0 E6485.803
G1 X32.59 Y20.15 Z1.5 F360.0 E6486.494
G1 X36.8 Y24.36 Z1.5 F360.0 E6493.944
G1 X36.91 Y23.88 Z1.5 F360.0 E6494.563
G1 X32.57 Y19.53 Z1.5 F360.0 E6502.25
G1 X32.52 Y18.89 Z1.5 F360.0 E6503.054
G1 X37.02 Y23.4 Z1.5 F360.0 E6511.022
G1 X37.13 Y22.91 Z1.5 F360.0 E6511.641
G1 X32.47 Y18.25 Z1.5 F360.0 E6519.887
G1 X32.32 Y17.51 Z1.5 F360.0 E6520.834
G1 X37.22 Y22.41 Z1.5 F360.0 E6529.5
G1 X37.26 Y21.86 Z1.5 F360.0 E6530.191
G1 X32.15 Y16.74 Z1.5 F360.0 E6539.238
G1 X31.89 Y15.89 Z1.5 F360.0 E6540.351
G1 X37.3 Y21.31 Z1.5 F360.0 E6549.93
G1 X37.34 Y20.76 Z1.5 F360.0 E6550.622
G1 X31.51 Y14.92 Z1.5 F360.0 E6560.949
G1 X30.86 Y13.69 Z1.5 F360.0 E6562.687
;M103
G1 X33.61 Y9.92 Z1.5 F3600.0
;M101
G1 X28.56 Y4.87 Z1.5 F360.0 E6571.626
G1 X27.42 Y4.32 Z1.5 F360.0 E6573.213
;M103
G1 X30.33 Y6.05 Z1.5 F3600.0
;M101
G1 X33.94 Y9.65 Z1.5 F360.0 E6579.593
G1 X35.03 Y11.34 Z1.5 F360.0 E6582.109
;M103
G1 X31.38 Y23.51 Z1.5 F3600.0
G1 X30.73 Y25.17 Z1.5 F3600.0
G1 X29.84 Y26.71 Z1.5 F3600.0
G1 X28.73 Y28.1 Z1.5 F3600.0
G1 X18.34 Y37.3 Z1.5 F3600.0
;M101
G1 X2.73 Y21.68 Z1.5 F360.0 E6609.732
G1 X2.78 Y22.32 Z1.5 F360.0 E6610.536
G1 X17.64 Y37.19 Z1.5 F360.0 E6636.838
G1 X16.95 Y37.09 Z1.5 F360.0 E6637.72
G1 X2.9 Y23.04 Z1.5 F360.0 E6662.573
G1 X3.07 Y23.81 Z1.5 F360.0 E6663.558
G1 X16.25 Y36.98 Z1.5 F360.0 E6686.867
G1 X15.42 Y36.74 Z1.5 F360.0 E6687.946
G1 X3.25 Y24.57 Z1.5 F360.0 E6709.477
G1 X3.48 Y25.4 Z1.5 F360.0 E6710.548
G1 X14.56 Y36.48 Z1.5 F360.0 E6730.154
G1 X13.7 Y36.22 Z1.5 F360.0 E6731.276
G1 X3.86 Y26.37 Z1.5 F360.0 E6748.69
;M103
G1 X4.24 Y27.35 Z1.5 F3600.0
;M101
G1 X12.58 Y35.69 Z1.5 F360.0 E6763.442
;M103
G1 X11.44 Y35.14 Z1.5 F3600.0
;M101
G1 X4.97 Y28.66 Z1.5 F360.0 E6774.896
;M103
G1 X6.06 Y30.35 Z1.5 F3600.0
;M101
G1 X9.67 Y33.95 Z1.5 F360.0 E6781.277
;M103
G1 X12.29 Y29.5 Z1.5 F3600.0
;M101
G1 X12.37 Y29.57 Z1.5 F360.0 E6781.409
G1 X12.56 Y29.71 Z1.5 F360.0 E6781.707
G1 X13.88 Y30.6 Z1.5 F360.0 E6783.698
G1 X15.53 Y31.4 Z1.5 F360.0 E6785.988
G1 X17.28 Y31.94 Z1.5 F360.0 E6788.277
G1 X19.09 Y32.21 Z1.5 F360.0 E6790.565
G1 X20.92 Y32.21 Z1.5 F360.0 E6792.855
G1 X22.72 Y31.94 Z1.5 F360.0 E6795.143
G1 X24.47 Y31.4 Z1.5 F360.0 E6797.433
G1 X26.12 Y30.6 Z1.5 F360.0 E6799.722
G1 X27.63 Y29.57 Z1.5 F360.0 E6802.012
G1 X28.98 Y28.33 Z1.5 F360.0 E6804.301
G1 X30.12 Y26.9 Z1.5 F360.0 E6806.591
G1 X31.03 Y25.31 Z1.5 F360.0 E6808.881
G1 X31.7 Y23.61 Z1.5 F360.0 E6811.169
G1 X32.11 Y21.83 Z1.5 F360.0 E6813.458
G1 X32.24 Y20.0 Z1.5 F360.0 E6815.748
G1 X32.11 Y18.18 Z1.5 F360.0 E6818.037
G1 X31.7 Y16.39 Z1.5 F360.0 E6820.326
G1 X31.03 Y14.69 Z1.5 F360.0 E6822.615
G1 X30.12 Y13.1 Z1.5 F360.0 E6824.904
G1 X28.98 Y11.67 Z1.5 F360.0 E6827.195
G1 X27.63 Y10.43 Z1.5 F360.0 E6829.484
G1 X26.12 Y9.4 Z1.5 F360.0 E6831.773
G1 X24.47 Y8.6 Z1.5 F360.0 E6834.063
G1 X22.72 Y8.06 Z1.5 F360.0 E6836.352
G1 X20.92 Y7.79 Z1.5 F360.0 E6838.641
G1 X19.09 Y7.79 Z1.5 F360.0 E6840.93
G1 X17.28 Y8.06 Z1.5 F360.0 E6843.219
G1 X15.53 Y8.6 Z1.5 F360.0 E6845.508
G1 X13.88 Y9.4 Z1.5 F360.0 E6847.797
G1 X12.37 Y10.43 Z1.5 F360.0 E6850.087
G1 X11.03 Y11.67 Z1.5 F360.0 E6852.376
G1 X9.88 Y13.1 Z1.5 F360.0 E6854.666
G1 X8.97 Y14.69 Z1.5 F360.0 E6856.956
G1 X8.3 Y16.39 Z1.5 F360.0 E6859.244
G1 X7.89 Y18.18 Z1.5 F360.0 E6861.534
G1 X7.76 Y20.0 Z1.5 F360.0 E6863.823
G1 X7.89 Y21.83 Z1.5 F360.0 E6866.113
G1 X8.3 Y23.61 Z1.5 F360.0 E6868.402
G1 X8.97 Y25.31 Z1.5 F360.0 E6870.69
G1 X9.88 Y26.9 Z1.5 F360.0 E6872.98
G1 X11.03 Y28.33 Z1.5 F360.0 E6875.27
G1 X12.29 Y29.5 Z1.5 F360.0 E6877.427
;M103
G1 X8.55 Y33.53 Z1.5 F3600.0
;M101
G1 X6.98 Y32.08 Z1.5 F360.0 E6880.1
G1 X5.33 Y30.0 Z1.5 F360.0 E6883.42
G1 X4.0 Y27.71 Z1.5 F360.0 E6886.739
G1 X3.03 Y25.23 Z1.5 F360.0 E6890.061
G1 X2.44 Y22.65 Z1.5 F360.0 E6893.38
G1 X2.24 Y20.0 Z1.5 F360.0 E6896.7
G1 X2.44 Y17.35 Z1.5 F360.0 E6900.019
G1 X3.03 Y14.77 Z1.5 F360.0 E6903.338
G1 X4.0 Y12.3 Z1.5 F360.0 E6906.66
G1 X5.33 Y10.0 Z1.5 F360.0 E6909.979
G1 X6.98 Y7.92 Z1.5 F360.0 E6913.299
G1 X8.93 Y6.12 Z1.5 F360.0 E6916.619
G1 X11.12 Y4.62 Z1.5 F360.0 E6919.939
G1 X13.51 Y3.47 Z1.5 F360.0 E6923.259
G1 X16.05 Y2.69 Z1.5 F360.0 E6926.579
G1 X18.67 Y2.29 Z1.5 F360.0 E6929.899
G1 X21.33 Y2.29 Z1.5 F360.0 E6933.219
G1 X23.95 Y2.69 Z1.5 F360.0 E6936.539
G1 X26.49 Y3.47 Z1.5 F360.0 E6939.859
G1 X28.88 Y4.62 Z1.5 F360.0 E6943.179
G1 X31.07 Y6.12 Z1.5 F360.0 E6946.499
G1 X33.02 Y7.92 Z1.5 F360.0 E6949.819
G1 X34.67 Y10.0 Z1.5 F360.0 E6953.139
G1 X36.0 Y12.3 Z1.5 F360.0 E6956.458
G1 X36.97 Y14.77 Z1.5 F360.0 E6959.78
G1 X37.56 Y17.35 Z1.5 F360.0 E6963.099
G1 X37.76 Y20.0 Z1.5 F360.0 E6966.419
G1 X37.56 Y22.65 Z1.5 F360.0 E6969.738
G1 X36.97 Y25.23 Z1.5 F360.0 E6973.057
G1 X36.0 Y27.71 Z1.5 F360.0 E6976.379
G1 X34.67 Y30.0 Z1.5 F360.0 E6979.698
G1 X33.02 Y32.08 Z1.5 F360.0 E6983.018
G1 X31.07 Y33.88 Z1.5 F360.0 E6986.338
G1 X28.88 Y35.38 Z1.5 F360.0 E6989.658
G1 X26.49 Y36.53 Z1.5 F360.0 E6992.978
G1 X23.95 Y37.31 Z1.5 F360.0 E6996.298
G1 X21.33 Y37.71 Z1.5 F360.0 E6999.618
G1 X18.67 Y37.71 Z1.5 F360.0 E7002.938
G1 X16.05 Y37.31 Z1.5 F360.0 E7006.258
G1 X13.51 Y36.53 Z1.5 F360.0 E7009.578
G1 X11.12 Y35.38 Z1.5 F360.0 E7012.898
G1 X9.47 Y34.25 Z1.5 F360.0 E7015.404
G1 X8.93 Y33.88 Z1.5 F360.0 E7016.218
G1 X8.55 Y33.53 Z1.5 F360.0 E7016.865
;M103
;M108 S5.629
G1 X8.27 Y33.84 Z1.5 F3600.0
;M101
G1 X6.68 Y32.36 Z1.5 F270.0 E7019.577
G1 X4.98 Y30.24 Z1.5 F270.0 E7022.976
G1 X3.62 Y27.89 Z1.5 F270.0 E7026.374
G1 X2.63 Y25.36 Z1.5 F270.0 E7029.773
G1 X2.03 Y22.71 Z1.5 F270.0 E7033.17
G1 X1.82 Y20.0 Z1.5 F270.0 E7036.569
G1 X2.03 Y17.29 Z1.5 F270.0 E7039.967
G1 X2.63 Y14.64 Z1.5 F270.0 E7043.364
G1 X3.62 Y12.11 Z1.5 F270.0 E7046.763
G1 X4.98 Y9.76 Z1.5 F270.0 E7050.161
G1 X6.68 Y7.64 Z1.5 F270.0 E7053.56
G1 X8.67 Y5.79 Z1.5 F270.0 E7056.958
G1 X10.91 Y4.26 Z1.5 F270.0 E7060.356
G1 X13.36 Y3.08 Z1.5 F270.0 E7063.754
G1 X15.96 Y2.28 Z1.5 F270.0 E7067.153
G1 X18.64 Y1.88 Z1.5 F270.0 E7070.551
G1 X21.36 Y1.88 Z1.5 F270.0 E7073.948
G1 X24.04 Y2.28 Z1.5 F270.0 E7077.346
G1 X26.64 Y3.08 Z1.5 F270.0 E7080.744
G1 X29.09 Y4.26 Z1.5 F270.0 E7084.143
G1 X31.33 Y5.79 Z1.5 F270.0 E7087.541
G1 X33.32 Y7.64 Z1.5 F270.0 E7090.939
G1 X35.02 Y9.76 Z1.5 F270.0 E7094.337
G1 X36.38 Y12.11 Z1.5 F270.0 E7097.735
G1 X37.37 Y14.64 Z1.5 F270.0 E7101.135
G1 X37.97 Y17.29 Z1.5 F270.0 E7104.532
G1 X38.18 Y20.0 Z1.5 F270.0 E7107.93
G1 X37.97 Y22.71 Z1.5 F270.0 E7111.328
G1 X37.37 Y25.36 Z1.5 F270.0 E7114.726
G1 X36.38 Y27.89 Z1.5 F270.0 E7118.125
G1 X35.02 Y30.24 Z1.5 F270.0 E7121.523
G1 X33.32 Y32.36 Z1.5 F270.0 E7124.922
G1 X31.33 Y34.21 Z1.5 F270.0 E7128.32
G1 X29.09 Y35.74 Z1.5 F270.0 E7131.718
G1 X26.64 Y36.92 Z1.5 F270.0 E7135.116
G1 X24.04 Y37.72 Z1.5 F270.0 E7138.515
G1 X21.36 Y38.13 Z1.5 F270.0 E7141.913
G1 X18.64 Y38.13 Z1.5 F270.0 E7145.31
G1 X15.96 Y37.72 Z1.5 F270.0 E7148.708
G1 X13.36 Y36.92 Z1.5 F270.0 E7152.106
G1 X10.91 Y35.74 Z1.5 F270.0 E7155.505
G1 X9.23 Y34.6 Z1.5 F270.0 E7158.05
G1 X8.67 Y34.21 Z1.5 F270.0 E7158.903
G1 X8.27 Y33.84 Z1.5 F270.0 E7159.589
;M103
G1 X12.63 Y29.24 Z1.5 F3600.0
;M101
G1 X14.09 Y30.24 Z1.5 F270.0 E7161.8
G1 X15.68 Y31.01 Z1.5 F270.0 E7164.01
G1 X17.37 Y31.53 Z1.5 F270.0 E7166.221
G1 X19.12 Y31.79 Z1.5 F270.0 E7168.431
G1 X20.88 Y31.79 Z1.5 F270.0 E7170.643
G1 X22.63 Y31.53 Z1.5 F270.0 E7172.853
G1 X24.32 Y31.01 Z1.5 F270.0 E7175.063
G1 X25.91 Y30.24 Z1.5 F270.0 E7177.274
G1 X27.37 Y29.24 Z1.5 F270.0 E7179.485
G1 X28.67 Y28.04 Z1.5 F270.0 E7181.695
G1 X29.77 Y26.66 Z1.5 F270.0 E7183.907
G1 X30.65 Y25.13 Z1.5 F270.0 E7186.116
G1 X31.3 Y23.49 Z1.5 F270.0 E7188.327
G1 X31.69 Y21.76 Z1.5 F270.0 E7190.538
G1 X31.82 Y20.0 Z1.5 F270.0 E7192.748
G1 X31.69 Y18.24 Z1.5 F270.0 E7194.958
G1 X31.3 Y16.52 Z1.5 F270.0 E7197.169
G1 X30.65 Y14.87 Z1.5 F270.0 E7199.38
G1 X29.77 Y13.34 Z1.5 F270.0 E7201.589
G1 X28.67 Y11.96 Z1.5 F270.0 E7203.801
G1 X27.37 Y10.76 Z1.5 F270.0 E7206.011
G1 X25.91 Y9.76 Z1.5 F270.0 E7208.222
G1 X24.32 Y8.99 Z1.5 F270.0 E7210.432
G1 X22.63 Y8.47 Z1.5 F270.0 E7212.643
G1 X20.88 Y8.21 Z1.5 F270.0 E7214.853
G1 X19.12 Y8.21 Z1.5 F270.0 E7217.065
G1 X17.37 Y8.47 Z1.5 F270.0 E7219.275
G1 X15.68 Y8.99 Z1.5 F270.0 E7221.485
G1 X14.09 Y9.76 Z1.5 F270.0 E7223.696
G1 X12.63 Y10.76 Z1.5 F270.0 E7225.906
G1 X11.33 Y11.96 Z1.5 F270.0 E7228.117
G1 X10.23 Y13.34 Z1.5 F270.0 E7230.328
G1 X9.35 Y14.87 Z1.5 F270.0 E7232.538
G1 X8.7 Y16.52 Z1.5 F270.0 E7234.749
G1 X8.31 Y18.24 Z1.5 F270.0 E7236.959
G1 X8.18 Y20.0 Z1.5 F270.0 E7239.17
G1 X8.31 Y21.76 Z1.5 F270.0 E7241.38
G1 X8.7 Y23.49 Z1.5 F270.0 E7243.591
G1 X9.35 Y25.13 Z1.5 F270.0 E7245.801
G1 X10.23 Y26.66 Z1.5 F270.0 E7248.011
G1 X11.33 Y28.04 Z1.5 F270.0 E7250.223
G1 X12.63 Y29.24 Z1.5 F270.0 E7252.433
;M103
;M108 S7.506
G1 X14.05 Y30.31 Z1.8 F3600.0
G1 X15.65 Y31.08 Z1.8 F3600.0
G1 X17.35 Y31.61 Z1.8 F3600.0
G1 X19.11 Y31.87 Z1.8 F3600.0
G1 X20.89 Y31.87 Z1.8 F3600.0
G1 X25.12 Y31.16 Z1.8 F3600.0
;M101
G1 X18.64 Y37.64 Z1.8 F360.0 E7263.891
G1 X18.13 Y37.56 Z1.8 F360.0 E7264.543
G1 X24.11 Y31.58 Z1.8 F360.0 E7275.121
G1 X23.25 Y31.84 Z1.8 F360.0 E7276.241
G1 X17.61 Y37.48 Z1.8 F360.0 E7286.216
G1 X17.1 Y37.4 Z1.8 F360.0 E7286.867
G1 X22.46 Y32.04 Z1.8 F360.0 E7296.35
G1 X21.76 Y32.15 Z1.8 F360.0 E7297.232
G1 X16.58 Y37.33 Z1.8 F360.0 E7306.393
G1 X16.07 Y37.25 Z1.8 F360.0 E7307.043
G1 X21.06 Y32.25 Z1.8 F360.0 E7315.879
G1 X20.45 Y32.27 Z1.8 F360.0 E7316.647
G1 X15.61 Y37.11 Z1.8 F360.0 E7325.2
G1 X15.16 Y36.97 Z1.8 F360.0 E7325.793
G1 X19.86 Y32.27 Z1.8 F360.0 E7334.098
G1 X19.26 Y32.27 Z1.8 F360.0 E7334.839
G1 X14.71 Y36.83 Z1.8 F360.0 E7342.898
G1 X14.26 Y36.69 Z1.8 F360.0 E7343.49
G1 X18.72 Y32.22 Z1.8 F360.0 E7351.397
G1 X18.21 Y32.14 Z1.8 F360.0 E7352.049
G1 X13.8 Y36.55 Z1.8 F360.0 E7359.844
G1 X13.37 Y36.39 Z1.8 F360.0 E7360.42
G1 X17.7 Y32.07 Z1.8 F360.0 E7368.068
G1 X17.19 Y31.98 Z1.8 F360.0 E7368.709
G1 X12.97 Y36.2 Z1.8 F360.0 E7376.172
G1 X12.57 Y36.0 Z1.8 F360.0 E7376.727
G1 X16.74 Y31.84 Z1.8 F360.0 E7384.096
G1 X16.28 Y31.7 Z1.8 F360.0 E7384.689
G1 X12.17 Y35.81 Z1.8 F360.0 E7391.964
G1 X11.77 Y35.62 Z1.8 F360.0 E7392.519
G1 X15.83 Y31.56 Z1.8 F360.0 E7399.7
G1 X15.39 Y31.41 Z1.8 F360.0 E7400.281
G1 X11.37 Y35.43 Z1.8 F360.0 E7407.395
G1 X10.99 Y35.21 Z1.8 F360.0 E7407.938
G1 X14.99 Y31.21 Z1.8 F360.0 E7415.013
G1 X14.59 Y31.02 Z1.8 F360.0 E7415.568
G1 X10.64 Y34.97 Z1.8 F360.0 E7422.559
G1 X10.29 Y34.73 Z1.8 F360.0 E7423.092
G1 X14.19 Y30.83 Z1.8 F360.0 E7429.998
G1 X13.8 Y30.63 Z1.8 F360.0 E7430.55
G1 X9.94 Y34.49 Z1.8 F360.0 E7437.382
G1 X9.59 Y34.25 Z1.8 F360.0 E7437.915
G1 X13.45 Y30.39 Z1.8 F360.0 E7444.748
G1 X13.1 Y30.15 Z1.8 F360.0 E7445.282
G1 X9.23 Y34.01 Z1.8 F360.0 E7452.114
G1 X8.89 Y33.76 Z1.8 F360.0 E7452.644
G1 X12.74 Y29.91 Z1.8 F360.0 E7459.455
G1 X12.39 Y29.67 Z1.8 F360.0 E7459.989
G1 X8.59 Y33.47 Z1.8 F360.0 E7466.723
G1 X8.28 Y33.19 Z1.8 F360.0 E7467.247
G1 X12.08 Y29.39 Z1.8 F360.0 E7473.964
G1 X11.77 Y29.11 Z1.8 F360.0 E7474.488
G1 X7.97 Y32.9 Z1.8 F360.0 E7481.206
G1 X7.66 Y32.62 Z1.8 F360.0 E7481.73
G1 X11.46 Y28.82 Z1.8 F360.0 E7488.448
G1 X11.15 Y28.54 Z1.8 F360.0 E7488.972
G1 X7.36 Y32.33 Z1.8 F360.0 E7495.69
G1 X7.05 Y32.05 Z1.8 F360.0 E7496.215
G1 X10.87 Y28.23 Z1.8 F360.0 E7502.965
G1 X10.6 Y27.9 Z1.8 F360.0 E7503.493
G1 X6.78 Y31.72 Z1.8 F360.0 E7510.248
G1 X6.52 Y31.39 Z1.8 F360.0 E7510.775
G1 X10.34 Y27.57 Z1.8 F360.0 E7517.53
G1 X10.08 Y27.24 Z1.8 F360.0 E7518.057
G1 X6.26 Y31.06 Z1.8 F360.0 E7524.812
G1 X6.0 Y30.73 Z1.8 F360.0 E7525.339
G1 X9.82 Y26.91 Z1.8 F360.0 E7532.099
G1 X9.6 Y26.54 Z1.8 F360.0 E7532.642
G1 X5.73 Y30.4 Z1.8 F360.0 E7539.484
G1 X5.47 Y30.07 Z1.8 F360.0 E7540.01
G1 X9.38 Y26.16 Z1.8 F360.0 E7546.933
G1 X9.17 Y25.79 Z1.8 F360.0 E7547.475
G1 X5.24 Y29.71 Z1.8 F360.0 E7554.425
G1 X5.02 Y29.34 Z1.8 F360.0 E7554.968
G1 X8.95 Y25.41 Z1.8 F360.0 E7561.917
G1 X8.77 Y24.99 Z1.8 F360.0 E7562.482
G1 X4.8 Y28.96 Z1.8 F360.0 E7569.504
G1 X4.59 Y28.59 Z1.8 F360.0 E7570.047
G1 X8.61 Y24.57 Z1.8 F360.0 E7577.158
G1 X8.44 Y24.14 Z1.8 F360.0 E7577.729
G1 X4.37 Y28.21 Z1.8 F360.0 E7584.928
G1 X4.15 Y27.84 Z1.8 F360.0 E7585.47
G1 X8.27 Y23.72 Z1.8 F360.0 E7592.756
G1 X8.15 Y23.25 Z1.8 F360.0 E7593.364
G1 X3.97 Y27.43 Z1.8 F360.0 E7600.768
G1 X3.8 Y27.01 Z1.8 F360.0 E7601.339
G1 X8.04 Y22.76 Z1.8 F360.0 E7608.844
G1 X7.93 Y22.28 Z1.8 F360.0 E7609.463
G1 X3.63 Y26.58 Z1.8 F360.0 E7617.066
G1 X3.47 Y26.16 Z1.8 F360.0 E7617.638
G1 X7.83 Y21.79 Z1.8 F360.0 E7625.352
G1 X7.78 Y21.24 Z1.8 F360.0 E7626.043
G1 X3.3 Y25.73 Z1.8 F360.0 E7633.98
G1 X3.13 Y25.3 Z1.8 F360.0 E7634.551
G1 X7.74 Y20.69 Z1.8 F360.0 E7642.71
G1 X7.7 Y20.14 Z1.8 F360.0 E7643.401
G1 X3.01 Y24.83 Z1.8 F360.0 E7651.703
G1 X2.9 Y24.35 Z1.8 F360.0 E7652.323
G1 X7.73 Y19.52 Z1.8 F360.0 E7660.865
G1 X7.77 Y18.88 Z1.8 F360.0 E7661.667
G1 X2.79 Y23.87 Z1.8 F360.0 E7670.489
G1 X2.68 Y23.39 Z1.8 F360.0 E7671.107
G1 X7.82 Y18.24 Z1.8 F360.0 E7680.208
G1 X7.98 Y17.49 Z1.8 F360.0 E7681.171
G1 X2.57 Y22.9 Z1.8 F360.0 E7690.749
G1 X2.49 Y22.39 Z1.8 F360.0 E7691.398
G1 X8.16 Y16.72 Z1.8 F360.0 E7701.427
G1 X8.45 Y15.84 Z1.8 F360.0 E7702.586
G1 X2.45 Y21.84 Z1.8 F360.0 E7713.198
G1 X2.41 Y21.29 Z1.8 F360.0 E7713.889
G1 X8.83 Y14.87 Z1.8 F360.0 E7725.251
G1 X9.55 Y13.56 Z1.8 F360.0 E7727.119
;M103
G1 X8.49 Y14.61 Z1.8 F3600.0
;M101
G1 X2.37 Y20.74 Z1.8 F360.0 E7737.954
G1 X2.32 Y20.19 Z1.8 F360.0 E7738.645
G1 X20.15 Y2.36 Z1.8 F360.0 E7770.188
G1 X19.56 Y2.36 Z1.8 F360.0 E7770.928
G1 X2.34 Y19.58 Z1.8 F360.0 E7801.392
G1 X2.39 Y18.94 Z1.8 F360.0 E7802.195
G1 X18.97 Y2.36 Z1.8 F360.0 E7831.525
G1 X18.32 Y2.41 Z1.8 F360.0 E7832.336
G1 X2.44 Y18.3 Z1.8 F360.0 E7860.438
G1 X2.49 Y17.66 Z1.8 F360.0 E7861.241
G1 X17.62 Y2.52 Z1.8 F360.0 E7888.024
G1 X16.93 Y2.62 Z1.8 F360.0 E7888.907
G1 X2.6 Y16.95 Z1.8 F360.0 E7914.249
G1 X2.78 Y16.18 Z1.8 F360.0 E7915.234
G1 X16.23 Y2.73 Z1.8 F360.0 E7939.031
G1 X15.41 Y2.95 Z1.8 F360.0 E7940.094
G1 X2.95 Y15.41 Z1.8 F360.0 E7962.132
G1 X3.17 Y14.61 Z1.8 F360.0 E7963.175
G1 X14.55 Y3.22 Z1.8 F360.0 E7983.321
G1 X13.7 Y3.48 Z1.8 F360.0 E7984.443
G1 X3.55 Y13.63 Z1.8 F360.0 E8002.395
;M103
G1 X3.93 Y12.66 Z1.8 F3600.0
;M101
G1 X12.61 Y3.98 Z1.8 F360.0 E8017.743
;M103
G1 X11.47 Y4.53 Z1.8 F3600.0
;M101
G1 X4.6 Y11.4 Z1.8 F360.0 E8029.894
;M103
G1 X5.45 Y9.96 Z1.8 F3600.0
;M101
G1 X9.8 Y5.61 Z1.8 F360.0 E8037.592
;M103
G1 X13.59 Y9.52 Z1.8 F3600.0
;M101
G1 X20.75 Y2.36 Z1.8 F360.0 E8050.258
G1 X21.34 Y2.36 Z1.8 F360.0 E8050.996
G1 X14.83 Y8.87 Z1.8 F360.0 E8062.507
;M103
G1 X15.85 Y8.43 Z1.8 F3600.0
;M101
G1 X21.85 Y2.44 Z1.8 F360.0 E8073.115
G1 X22.37 Y2.52 Z1.8 F360.0 E8073.767
G1 X16.71 Y8.17 Z1.8 F360.0 E8083.769
G1 X17.51 Y7.96 Z1.8 F360.0 E8084.802
G1 X22.88 Y2.59 Z1.8 F360.0 E8094.3
G1 X23.39 Y2.67 Z1.8 F360.0 E8094.952
G1 X18.21 Y7.86 Z1.8 F360.0 E8104.127
G1 X18.91 Y7.75 Z1.8 F360.0 E8105.009
G1 X23.91 Y2.75 Z1.8 F360.0 E8113.862
G1 X24.37 Y2.89 Z1.8 F360.0 E8114.457
G1 X19.52 Y7.73 Z1.8 F360.0 E8123.022
G1 X20.12 Y7.73 Z1.8 F360.0 E8123.764
G1 X24.82 Y3.02 Z1.8 F360.0 E8132.081
G1 X25.27 Y3.16 Z1.8 F360.0 E8132.673
G1 X20.71 Y7.73 Z1.8 F360.0 E8140.744
G1 X21.25 Y7.78 Z1.8 F360.0 E8141.424
G1 X25.72 Y3.3 Z1.8 F360.0 E8149.335
G1 X26.18 Y3.44 Z1.8 F360.0 E8149.928
G1 X21.77 Y7.85 Z1.8 F360.0 E8157.73
G1 X22.28 Y7.93 Z1.8 F360.0 E8158.382
G1 X26.61 Y3.6 Z1.8 F360.0 E8166.04
G1 X27.01 Y3.8 Z1.8 F360.0 E8166.595
G1 X22.79 Y8.02 Z1.8 F360.0 E8174.061
G1 X23.24 Y8.15 Z1.8 F360.0 E8174.654
G1 X27.41 Y3.99 Z1.8 F360.0 E8182.027
G1 X27.81 Y4.18 Z1.8 F360.0 E8182.583
G1 X23.69 Y8.29 Z1.8 F360.0 E8189.862
G1 X24.15 Y8.43 Z1.8 F360.0 E8190.455
G1 X28.21 Y4.37 Z1.8 F360.0 E8197.642
G1 X28.61 Y4.57 Z1.8 F360.0 E8198.197
G1 X24.59 Y8.59 Z1.8 F360.0 E8205.311
G1 X24.99 Y8.78 Z1.8 F360.0 E8205.866
G1 X28.99 Y4.78 Z1.8 F360.0 E8212.945
G1 X29.34 Y5.02 Z1.8 F360.0 E8213.478
G1 X25.39 Y8.97 Z1.8 F360.0 E8220.472
G1 X25.79 Y9.16 Z1.8 F360.0 E8221.026
G1 X29.69 Y5.26 Z1.8 F360.0 E8227.937
G1 X30.05 Y5.5 Z1.8 F360.0 E8228.47
G1 X26.18 Y9.36 Z1.8 F360.0 E8235.303
G1 X26.54 Y9.6 Z1.8 F360.0 E8235.837
G1 X30.4 Y5.74 Z1.8 F360.0 E8242.67
G1 X30.75 Y5.98 Z1.8 F360.0 E8243.202
G1 X26.89 Y9.84 Z1.8 F360.0 E8250.035
G1 X27.24 Y10.08 Z1.8 F360.0 E8250.568
G1 X31.09 Y6.23 Z1.8 F360.0 E8257.384
G1 X31.4 Y6.51 Z1.8 F360.0 E8257.908
G1 X27.59 Y10.32 Z1.8 F360.0 E8264.644
G1 X27.91 Y10.6 Z1.8 F360.0 E8265.17
G1 X31.71 Y6.8 Z1.8 F360.0 E8271.888
G1 X32.02 Y7.08 Z1.8 F360.0 E8272.412
G1 X28.22 Y10.88 Z1.8 F360.0 E8279.13
G1 X28.53 Y11.17 Z1.8 F360.0 E8279.654
G1 X32.32 Y7.37 Z1.8 F360.0 E8286.372
G1 X32.63 Y7.65 Z1.8 F360.0 E8286.896
G1 X28.83 Y11.45 Z1.8 F360.0 E8293.613
G1 X29.12 Y11.75 Z1.8 F360.0 E8294.138
G1 X32.94 Y7.94 Z1.8 F360.0 E8300.886
G1 X33.2 Y8.26 Z1.8 F360.0 E8301.412
G1 X29.39 Y12.08 Z1.8 F360.0 E8308.167
G1 X29.65 Y12.41 Z1.8 F360.0 E8308.694
G1 X33.47 Y8.59 Z1.8 F360.0 E8315.449
G1 X33.73 Y8.92 Z1.8 F360.0 E8315.976
G1 X29.91 Y12.74 Z1.8 F360.0 E8322.732
G1 X30.17 Y13.07 Z1.8 F360.0 E8323.26
G1 X33.99 Y9.25 Z1.8 F360.0 E8330.016
G1 X34.26 Y9.58 Z1.8 F360.0 E8330.543
G1 X30.39 Y13.45 Z1.8 F360.0 E8337.381
G1 X30.61 Y13.82 Z1.8 F360.0 E8337.924
G1 X34.52 Y9.91 Z1.8 F360.0 E8344.844
G1 X34.75 Y10.27 Z1.8 F360.0 E8345.379
G1 X30.82 Y14.2 Z1.8 F360.0 E8352.328
G1 X31.04 Y14.57 Z1.8 F360.0 E8352.871
G1 X34.97 Y10.65 Z1.8 F360.0 E8359.82
