G21 (This is GCode, generated with Skeinforge version 35 from ReplicatorG)
G21 (Ultimaker profile - Quality print - alterations/start-centered.gcode)
G21 (Metric: The unit is a millimeter)
G90 (Absolute Positioning)
G92 X0 Y0 Z0 E0 (set origin to current position)
G21 (end of start .gcode file)
G90
G21
;M103
M105
M106
M113 S1.0
;M108 S7.506
M104 S245.0
;M108 S5.629
;M108 S5.91
G1 X-15.41 Y-15.41 Z0.3 F243.0
;M101
G1 X-15.41 Y15.41 Z0.3 F243.0 E44.974
G1 X15.41 Y15.41 Z0.3 F243.0 E89.949
G1 X15.41 Y-15.41 Z0.3 F243.0 E134.923
G1 X-15.41 Y-15.41 Z0.3 F243.0 E179.897
;M103
G1 X12.41 Y-0.1 Z0.3 F3600.0
;M101
G1 X12.41 Y-12.41 Z0.3 F243.0 E197.862
G1 X-12.41 Y-12.41 Z0.3 F243.0 E234.081
G1 X-12.41 Y12.41 Z0.3 F243.0 E270.3
G1 X12.41 Y12.41 Z0.3 F243.0 E306.519
G1 X12.41 Y0.0 Z0.3 F243.0 E324.628
G1 X12.41 Y-0.1 Z0.3 F243.0 E324.773
;M103
;M108 S7.506
;M108 S5.629
G1 X12.41 Y0.0 Z0.6 F3600.0
;M101
G1 X12.41 Y-12.41 Z0.6 F270.0 E340.296
G1 X-12.41 Y-12.41 Z0.6 F270.0 E371.343
G1 X-12.41 Y12.41 Z0.6 F270.0 E402.39
G1 X12.41 Y12.41 Z0.6 F270.0 E433.437
G1 X12.41 Y0.0 Z0.6 F270.0 E448.961
;M103
;M108 S7.506
;M108 S5.629
G1 X12.41 Y0.0 Z0.9 F3600.0
;M101
G1 X12.41 Y-12.41 Z0.9 F270.0 E464.485
G1 X-12.41 Y-12.41 Z0.9 F270.0 E495.532
G1 X-12.41 Y12.41 Z0.9 F270.0 E526.579
G1 X12.41 Y12.41 Z0.9 F270.0 E557.626
G1 X12.41 Y0.0 Z0.9 F270.0 E573.149
;M103
;M108 S7.506
;M108 S5.629
G1 X12.41 Y0.0 Z1.2 F3600.0
;M101
G1 X12.41 Y-12.41 Z1.2 F270.0 E588.673
G1 X-12.41 Y-12.41 Z1.2 F270.0 E619.72
G1 X-12.41 Y12.41 Z1.2 F270.0 E650.767
G1 X12.41 Y12.41 Z1.2 F270.0 E681.814
G1 X12.41 Y0.0 Z1.2 F270.0 E697.337
;M103
;M108 S7.506
;M108 S5.629
G1 X12.41 Y0.0 Z1.5 F3600.0
;M101
G1 X12.41 Y-12.41 Z1.5 F270.0 E712.861
G1 X-12.41 Y-12.41 Z1.5 F270.0 E743.908
G1 X-12.41 Y12.41 Z1.5 F270.0 E774.955
G1 X12.41 Y12.41 Z1.5 F270.0 E806.002
G1 X12.41 Y0.0 Z1.5 F270.0 E821.526
;M103
;M108 S7.506
;M108 S5.629
G1 X12.41 Y0.0 Z1.8 F3600.0
;M101
G1 X12.41 Y-12.41 Z1.8 F270.0 E837.049
G1 X-12.41 Y-12.41 Z1.8 F270.0 E868.096
G1 X-12.41 Y12.41 Z1.8 F270.0 E899.143
G1 X12.41 Y12.41 Z1.8 F270.0 E930.19
G1 X12.41 Y0.0 Z1.8 F270.0 E945.714
;M103
;M108 S7.506
;M108 S5.629
G1 X12.41 Y0.0 Z2.1 F3600.0
;M101
G1 X12.41 Y-12.41 Z2.1 F270.0 E961.238
G1 X-12.41 Y-12.41 Z2.1 F270.0 E992.285
G1 X-12.41 Y12.41 Z2.1 F270.0 E1023.332
G1 X12.41 Y12.41 Z2.1 F270.0 E1054.379
G1 X12.41 Y0.0 Z2.1 F270.0 E1069.902
;M103
;M108 S7.506
;M108 S5.629
G1 X12.41 Y0.0 Z2.4 F3600.0
;M101
G1 X12.41 Y-12.41 Z2.4 F270.0 E1085.426
G1 X-12.41 Y-12.41 Z2.4 F270.0 E1116.473
G1 X-12.41 Y12.41 Z2.4 F270.0 E1147.52
G1 X12.41 Y12.41 Z2.4 F270.0 E1178.567
G1 X12.41 Y0.0 Z2.4 F270.0 E1194.09
;M103
;M108 S7.506
;M108 S5.629
G1 X12.41 Y0.0 Z2.7 F3600.0
;M101
G1 X12.41 Y-12.41 Z2.7 F270.0 E1209.614
G1 X-12.41 Y-12.41 Z2.7 F270.0 E1240.661
G1 X-12.41 Y12.41 Z2.7 F270.0 E1271.708
G1 X12.41 Y12.41 Z2.7 F270.0 E1302.755
G1 X12.41 Y0.0 Z2.7 F270.0 E1318.279
;M103
;M108 S7.506
;M108 S5.629
G1 X12.41 Y0.0 Z3.0 F3600.0
;M101
G1 X12.41 Y-12.41 Z3.0 F270.0 E1333.802
G1 X-12.41 Y-12.41 Z3.0 F270.0 E1364.849
G1 X-12.41 Y12.41 Z3.0 F270.0 E1395.896
G1 X12.41 Y12.41 Z3.0 F270.0 E1426.943
G1 X12.41 Y0.0 Z3.0 F270.0 E1442.467
;M103
;M108 S7.506
;M108 S5.629
G1 X12.41 Y0.0 Z3.3 F3600.0
;M101
G1 X12.41 Y-12.41 Z3.3 F270.0 E1457.991
G1 X-12.41 Y-12.41 Z3.3 F270.0 E1489.038
G1 X-12.41 Y12.41 Z3.3 F270.0 E1520.085
G1 X12.41 Y12.41 Z3.3 F270.0 E1551.132
G1 X12.41 Y0.0 Z3.3 F270.0 E1566.655
;M103
;M108 S7.506
;M108 S5.629
G1 X12.41 Y0.0 Z3.6 F3600.0
;M101
G1 X12.41 Y-12.41 Z3.6 F270.0 E1582.179
G1 X-12.41 Y-12.41 Z3.6 F270.0 E1613.226
G1 X-12.41 Y12.41 Z3.6 F270.0 E1644.273
G1 X12.41 Y12.41 Z3.6 F270.0 E1675.32
G1 X12.41 Y0.0 Z3.6 F270.0 E1690.843
;M103
;M108 S7.506
;M108 S5.629
G1 X12.41 Y0.0 Z3.9 F3600.0
;M101
G1 X12.41 Y-12.41 Z3.9 F270.0 E1706.367
G1 X-12.41 Y-12.41 Z3.9 F270.0 E1737.414
G1 X-12.41 Y12.41 Z3.9 F270.0 E1768.461
G1 X12.41 Y12.41 Z3.9 F270.0 E1799.508
G1 X12.41 Y0.0 Z3.9 F270.0 E1815.032
;M103
;M108 S7.506
;M108 S5.629
G1 X12.41 Y0.0 Z4.2 F3600.0
;M101
G1 X12.41 Y-12.41 Z4.2 F270.0 E1830.555
G1 X-12.41 Y-12.41 Z4.2 F270.0 E1861.602
G1 X-12.41 Y12.41 Z4.2 F270.0 E1892.649
G1 X12.41 Y12.41 Z4.2 F270.0 E1923.696
G1 X12.41 Y0.0 Z4.2 F270.0 E1939.22
;M103
;M108 S7.506
;M108 S5.629
G1 X12.41 Y0.0 Z4.5 F3600.0
;M101
G1 X12.41 Y-12.41 Z4.5 F270.0 E1954.744
G1 X-12.41 Y-12.41 Z4.5 F270.0 E1985.791
G1 X-12.41 Y12.41 Z4.5 F270.0 E2016.838
G1 X12.41 Y12.41 Z4.5 F270.0 E2047.885
G1 X12.41 Y0.0 Z4.5 F270.0 E2063.408
;M103
;M108 S7.506
;M108 S5.629
G1 X12.41 Y0.0 Z4.8 F3600.0
;M101
G1 X12.41 Y-12.41 Z4.8 F270.0 E2078.932
G1 X-12.41 Y-12.41 Z4.8 F270.0 E2109.979
G1 X-12.41 Y12.41 Z4.8 F270.0 E2141.026
G1 X12.41 Y12.41 Z4.8 F270.0 E2172.073
G1 X12.41 Y0.0 Z4.8 F270.0 E2187.596
;M103
;M108 S7.506
;M108 S5.629
G1 X12.41 Y0.0 Z5.1 F3600.0
;M101
G1 X12.41 Y-12.41 Z5.1 F270.0 E2203.12
G1 X-12.41 Y-12.41 Z5.1 F270.0 E2234.167
G1 X-12.41 Y12.41 Z5.1 F270.0 E2265.214
G1 X12.41 Y12.41 Z5.1 F270.0 E2296.261
G1 X12.41 Y0.0 Z5.1 F270.0 E2311.785
;M103
;M108 S7.506
;M108 S5.629
G1 X12.41 Y0.0 Z5.4 F3600.0
;M101
G1 X12.41 Y-12.41 Z5.4 F270.0 E2327.308
G1 X-12.41 Y-12.41 Z5.4 F270.0 E2358.355
G1 X-12.41 Y12.41 Z5.4 F270.0 E2389.402
G1 X12.41 Y12.41 Z5.4 F270.0 E2420.449
G1 X12.41 Y0.0 Z5.4 F270.0 E2435.973
;M103
;M108 S7.506
;M108 S5.629
G1 X12.41 Y0.0 Z5.7 F3600.0
;M101
G1 X12.41 Y-12.41 Z5.7 F270.0 E2451.497
G1 X-12.41 Y-12.41 Z5.7 F270.0 E2482.544
G1 X-12.41 Y12.41 Z5.7 F270.0 E2513.591
G1 X12.41 Y12.41 Z5.7 F270.0 E2544.638
G1 X12.41 Y0.0 Z5.7 F270.0 E2560.161
;M103
;M108 S7.506
;M108 S5.629
G1 X12.41 Y0.0 Z6.0 F3600.0
;M101
G1 X12.41 Y-12.41 Z6.0 F270.0 E2575.685
G1 X-12.41 Y-12.41 Z6.0 F270.0 E2606.732
G1 X-12.41 Y12.41 Z6.0 F270.0 E2637.779
G1 X12.41 Y12.41 Z6.0 F270.0 E2668.826
G1 X12.41 Y0.0 Z6.0 F270.0 E2684.349
;M103
;M108 S7.506
;M108 S5.629
G1 X12.41 Y0.0 Z6.3 F3600.0
;M101
G1 X12.41 Y-12.41 Z6.3 F270.0 E2699.873
G1 X-12.41 Y-12.41 Z6.3 F270.0 E2730.92
G1 X-12.41 Y12.41 Z6.3 F270.0 E2761.967
G1 X12.41 Y12.41 Z6.3 F270.0 E2793.014
G1 X12.41 Y0.0 Z6.3 F270.0 E2808.538
;M103
;M108 S7.506
;M108 S5.629
G1 X12.41 Y0.0 Z6.6 F3600.0
;M101
G1 X12.41 Y-12.41 Z6.6 F270.0 E2824.061
G1 X-12.41 Y-12.41 Z6.6 F270.0 E2855.108
G1 X-12.41 Y12.41 Z6.6 F270.0 E2886.155
G1 X12.41 Y12.41 Z6.6 F270.0 E2917.202
G1 X12.41 Y0.0 Z6.6 F270.0 E2932.726
;M103
;M108 S7.506
;M108 S5.629
G1 X12.41 Y0.0 Z6.9 F3600.0
;M101
G1 X12.41 Y-12.41 Z6.9 F270.0 E2948.249
G1 X-12.41 Y-12.41 Z6.9 F270.0 E2979.297
G1 X-12.41 Y12.41 Z6.9 F270.0 E3010.344
G1 X12.41 Y12.41 Z6.9 F270.0 E3041.391
G1 X12.41 Y0.0 Z6.9 F270.0 E3056.914
;M103
;M108 S7.506
;M108 S5.629
G1 X12.41 Y0.0 Z7.2 F3600.0
;M101
G1 X12.41 Y-12.41 Z7.2 F270.0 E3072.438
G1 X-12.41 Y-12.41 Z7.2 F270.0 E3103.485
G1 X-12.41 Y12.41 Z7.2 F270.0 E3134.532
G1 X12.41 Y12.41 Z7.2 F270.0 E3165.579
G1 X12.41 Y0.0 Z7.2 F270.0 E3181.102
;M103
;M108 S7.506
;M108 S5.629
G1 X12.41 Y0.0 Z7.5 F3600.0
;M101
G1 X12.41 Y-12.41 Z7.5 F270.0 E3196.626
G1 X-12.41 Y-12.41 Z7.5 F270.0 E3227.673
G1 X-12.41 Y12.41 Z7.5 F270.0 E3258.72
G1 X12.41 Y12.41 Z7.5 F270.0 E3289.767
G1 X12.41 Y0.0 Z7.5 F270.0 E3305.291
;M103
;M108 S7.506
;M108 S5.629
G1 X12.41 Y0.0 Z7.8 F3600.0
;M101
G1 X12.41 Y-12.41 Z7.8 F270.0 E3320.814
G1 X-12.41 Y-12.41 Z7.8 F270.0 E3351.861
G1 X-12.41 Y12.41 Z7.8 F270.0 E3382.908
G1 X12.41 Y12.41 Z7.8 F270.0 E3413.955
G1 X12.41 Y0.0 Z7.8 F270.0 E3429.479
;M103
;M108 S7.506
;M108 S5.629
G1 X12.41 Y0.0 Z8.1 F3600.0
;M101
G1 X12.41 Y-12.41 Z8.1 F270.0 E3445.002
G1 X-12.41 Y-12.41 Z8.1 F270.0 E3476.05
G1 X-12.41 Y12.41 Z8.1 F270.0 E3507.097
G1 X12.41 Y12.41 Z8.1 F270.0 E3538.144
G1 X12.41 Y0.0 Z8.1 F270.0 E3553.667
;M103
;M108 S7.506
;M108 S5.629
G1 X12.41 Y0.0 Z8.4 F3600.0
;M101
G1 X12.41 Y-12.41 Z8.4 F270.0 E3569.191
G1 X-12.41 Y-12.41 Z8.4 F270.0 E3600.238
G1 X-12.41 Y12.41 Z8.4 F270.0 E3631.285
G1 X12.41 Y12.41 Z8.4 F270.0 E3662.332
G1 X12.41 Y0.0 Z8.4 F270.0 E3677.855
;M103
;M108 S7.506
;M108 S5.629
G1 X12.41 Y0.0 Z8.7 F3600.0
;M101
G1 X12.41 Y-12.41 Z8.7 F270.0 E3693.379
G1 X-12.41 Y-12.41 Z8.7 F270.0 E3724.426
G1 X-12.41 Y12.41 Z8.7 F270.0 E3755.473
G1 X12.41 Y12.41 Z8.7 F270.0 E3786.52
G1 X12.41 Y0.0 Z8.7 F270.0 E3802.044
;M103
;M108 S7.506
;M108 S5.629
G1 X12.41 Y0.0 Z9.0 F3600.0
;M101
G1 X12.41 Y-12.41 Z9.0 F270.0 E3817.567
G1 X-12.41 Y-12.41 Z9.0 F270.0 E3848.614
G1 X-12.41 Y12.41 Z9.0 F270.0 E3879.661
G1 X12.41 Y12.41 Z9.0 F270.0 E3910.708
G1 X12.41 Y0.0 Z9.0 F270.0 E3926.232
;M103
;M108 S7.506
;M108 S5.629
G1 X12.41 Y0.0 Z9.3 F3600.0
;M101
G1 X12.41 Y-12.41 Z9.3 F270.0 E3941.755
G1 X-12.41 Y-12.41 Z9.3 F270.0 E3972.803
G1 X-12.41 Y12.41 Z9.3 F270.0 E4003.85
G1 X12.41 Y12.41 Z9.3 F270.0 E4034.897
G1 X12.41 Y0.0 Z9.3 F270.0 E4050.42
;M103
;M108 S7.506
;M108 S5.629
G1 X12.41 Y0.0 Z9.6 F3600.0
;M101
G1 X12.41 Y-12.41 Z9.6 F270.0 E4065.944
G1 X-12.41 Y-12.41 Z9.6 F270.0 E4096.991
G1 X-12.41 Y12.41 Z9.6 F270.0 E4128.038
G1 X12.41 Y12.41 Z9.6 F270.0 E4159.085
G1 X12.41 Y0.0 Z9.6 F270.0 E4174.608
;M103
;M108 S7.506
;M108 S5.629
G1 X12.41 Y0.0 Z9.9 F3600.0
;M101
G1 X12.41 Y-12.41 Z9.9 F270.0 E4190.132
G1 X-12.41 Y-12.41 Z9.9 F270.0 E4221.179
G1 X-12.41 Y12.41 Z9.9 F270.0 E4252.226
G1 X12.41 Y12.41 Z9.9 F270.0 E4283.273
G1 X12.41 Y0.0 Z9.9 F270.0 E4298.797
;M103
;M108 S7.506
;M108 S5.629
G1 X12.41 Y0.0 Z10.2 F3600.0
;M101
G1 X12.41 Y-12.41 Z10.2 F270.0 E4314.32
G1 X-12.41 Y-12.41 Z10.2 F270.0 E4345.367
G1 X-12.41 Y12.41 Z10.2 F270.0 E4376.414
G1 X12.41 Y12.41 Z10.2 F270.0 E4407.461
G1 X12.41 Y0.0 Z10.2 F270.0 E4422.985
;M103
;M108 S7.506
;M108 S5.629
G1 X12.41 Y0.0 Z10.5 F3600.0
;M101
G1 X12.41 Y-12.41 Z10.5 F270.0 E4438.508
G1 X-12.41 Y-12.41 Z10.5 F270.0 E4469.556
G1 X-12.41 Y12.41 Z10.5 F270.0 E4500.603
G1 X12.41 Y12.41 Z10.5 F270.0 E4531.65
G1 X12.41 Y0.0 Z10.5 F270.0 E4547.173
;M103
;M108 S7.506
;M108 S5.629
G1 X12.41 Y0.0 Z10.8 F3600.0
;M101
G1 X12.41 Y-12.41 Z10.8 F270.0 E4562.697
G1 X-12.41 Y-12.41 Z10.8 F270.0 E4593.744
G1 X-12.41 Y12.41 Z10.8 F270.0 E4624.791
G1 X12.41 Y12.41 Z10.8 F270.0 E4655.838
G1 X12.41 Y0.0 Z10.8 F270.0 E4671.361
;M103
;M108 S7.506
;M108 S5.629
G1 X12.41 Y0.0 Z11.1 F3600.0
;M101
G1 X12.41 Y-12.41 Z11.1 F270.0 E4686.885
G1 X-12.41 Y-12.41 Z11.1 F270.0 E4717.932
G1 X-12.41 Y12.41 Z11.1 F270.0 E4748.979
G1 X12.41 Y12.41 Z11.1 F270.0 E4780.026
G1 X12.41 Y0.0 Z11.1 F270.0 E4795.55
;M103
;M108 S7.506
;M108 S5.629
G1 X12.41 Y0.0 Z11.4 F3600.0
;M101
G1 X12.41 Y-12.41 Z11.4 F270.0 E4811.073
G1 X-12.41 Y-12.41 Z11.4 F270.0 E4842.12
G1 X-12.41 Y12.41 Z11.4 F270.0 E4873.167
G1 X12.41 Y12.41 Z11.4 F270.0 E4904.214
G1 X12.41 Y0.0 Z11.4 F270.0 E4919.738
;M103
;M108 S7.506
;M108 S5.629
G1 X12.41 Y0.0 Z11.7 F3600.0
;M101
G1 X12.41 Y-12.41 Z11.7 F270.0 E4935.261
G1 X-12.41 Y-12.41 Z11.7 F270.0 E4966.309
G1 X-12.41 Y12.41 Z11.7 F270.0 E4997.356
G1 X12.41 Y12.41 Z11.7 F270.0 E5028.403
G1 X12.41 Y0.0 Z11.7 F270.0 E5043.926
;M103
;M108 S7.506
;M108 S5.629
G1 X12.41 Y0.0 Z12.0 F3600.0
;M101
G1 X12.41 Y-12.41 Z12.0 F270.0 E5059.45
G1 X-12.41 Y-12.41 Z12.0 F270.0 E5090.497
G1 X-12.41 Y12.41 Z12.0 F270.0 E5121.544
G1 X12.41 Y12.41 Z12.0 F270.0 E5152.591
G1 X12.41 Y0.0 Z12.0 F270.0 E5168.114
;M103
;M108 S7.506
;M108 S5.629
G1 X12.41 Y0.0 Z12.3 F3600.0
;M101
G1 X12.41 Y-12.41 Z12.3 F270.0 E5183.638
G1 X-12.41 Y-12.41 Z12.3 F270.0 E5214.685
G1 X-12.41 Y12.41 Z12.3 F270.0 E5245.732
G1 X12.41 Y12.41 Z12.3 F270.0 E5276.779
G1 X12.41 Y0.0 Z12.3 F270.0 E5292.303
;M103
;M108 S7.506
;M108 S5.629
G1 X12.41 Y0.0 Z12.6 F3600.0
;M101
G1 X12.41 Y-12.41 Z12.6 F270.0 E5307.826
G1 X-12.41 Y-12.41 Z12.6 F270.0 E5338.873
G1 X-12.41 Y12.41 Z12.6 F270.0 E5369.92
G1 X12.41 Y12.41 Z12.6 F270.0 E5400.967
G1 X12.41 Y0.0 Z12.6 F270.0 E5416.491
;M103
;M108 S7.506
;M108 S5.629
G1 X12.41 Y0.0 Z12.9 F3600.0
;M101
G1 X12.41 Y-12.41 Z12.9 F270.0 E5432.014
G1 X-12.41 Y-12.41 Z12.9 F270.0 E5463.062
G1 X-12.41 Y12.41 Z12.9 F270.0 E5494.109
G1 X12.41 Y12.41 Z12.9 F270.0 E5525.156
G1 X12.41 Y0.0 Z12.9 F270.0 E5540.679
;M103
;M108 S7.506
;M108 S5.629
G1 X12.41 Y0.0 Z13.2 F3600.0
;M101
G1 X12.41 Y-12.41 Z13.2 F270.0 E5556.203
G1 X-12.41 Y-12.41 Z13.2 F270.0 E5587.25
G1 X-12.41 Y12.41 Z13.2 F270.0 E5618.297
G1 X12.41 Y12.41 Z13.2 F270.0 E5649.344
G1 X12.41 Y0.0 Z13.2 F270.0 E5664.867
;M103
;M108 S7.506
;M108 S5.629
G1 X12.41 Y0.0 Z13.5 F3600.0
;M101
G1 X12.41 Y-12.41 Z13.5 F270.0 E5680.391
G1 X-12.41 Y-12.41 Z13.5 F270.0 E5711.438
G1 X-12.41 Y12.41 Z13.5 F270.0 E5742.485
G1 X12.41 Y12.41 Z13.5 F270.0 E5773.532
G1 X12.41 Y0.0 Z13.5 F270.0 E5789.056
;M103
;M108 S7.506
;M108 S5.629
G1 X12.41 Y0.0 Z13.8 F3600.0
;M101
G1 X12.41 Y-12.41 Z13.8 F270.0 E5804.579
G1 X-12.41 Y-12.41 Z13.8 F270.0 E5835.626
G1 X-12.41 Y12.41 Z13.8 F270.0 E5866.673
G1 X12.41 Y12.41 Z13.8 F270.0 E5897.72
G1 X12.41 Y0.0 Z13.8 F270.0 E5913.244
;M103
;M108 S7.506
;M108 S5.629
G1 X12.41 Y0.0 Z14.1 F3600.0
;M101
G1 X12.41 Y-12.41 Z14.1 F270.0 E5928.767
G1 X-12.41 Y-12.41 Z14.1 F270.0 E5959.815
G1 X-12.41 Y12.41 Z14.1 F270.0 E5990.862
G1 X12.41 Y12.41 Z14.1 F270.0 E6021.909
G1 X12.41 Y0.0 Z14.1 F270.0 E6037.432
;M103
;M108 S7.506
;M108 S5.629
G1 X12.41 Y0.0 Z14.4 F3600.0
;M101
G1 X12.41 Y-12.41 Z14.4 F270.0 E6052.956
G1 X-12.41 Y-12.41 Z14.4 F270.0 E6084.003
G1 X-12.41 Y12.41 Z14.4 F270.0 E6115.05
G1 X12.41 Y12.41 Z14.4 F270.0 E6146.097
G1 X12.41 Y0.0 Z14.4 F270.0 E6161.62
;M103
;M108 S7.506
;M108 S5.629
G1 X12.41 Y0.0 Z14.7 F3600.0
;M101
G1 X12.41 Y-12.41 Z14.7 F270.0 E6177.144
G1 X-12.41 Y-12.41 Z14.7 F270.0 E6208.191
G1 X-12.41 Y12.41 Z14.7 F270.0 E6239.238
G1 X12.41 Y12.41 Z14.7 F270.0 E6270.285
G1 X12.41 Y0.0 Z14.7 F270.0 E6285.809
;M103
;M108 S7.506
;M108 S5.629
G1 X12.41 Y0.0 Z15.0 F3600.0
;M101
G1 X12.41 Y-12.41 Z15.0 F270.0 E6301.332
G1 X-12.41 Y-12.41 Z15.0 F270.0 E6332.379
G1 X-12.41 Y12.41 Z15.0 F270.0 E6363.426
G1 X12.41 Y12.41 Z15.0 F270.0 E6394.473
G1 X12.41 Y0.0 Z15.0 F270.0 E6409.997
;M103
;M108 S7.506
;M108 S5.629
G1 X12.41 Y0.0 Z15.3 F3600.0
;M101
G1 X12.41 Y-12.41 Z15.3 F270.0 E6425.52
G1 X-12.41 Y-12.41 Z15.3 F270.0 E6456.568
G1 X-12.41 Y12.41 Z15.3 F270.0 E6487.615
G1 X12.41 Y12.41 Z15.3 F270.0 E6518.662
G1 X12.41 Y0.0 Z15.3 F270.0 E6534.185
;M103
;M108 S7.506
;M108 S5.629
G1 X12.41 Y0.0 Z15.6 F3600.0
;M101
G1 X12.41 Y-12.41 Z15.6 F270.0 E6549.709
G1 X-12.41 Y-12.41 Z15.6 F270.0 E6580.756
G1 X-12.41 Y12.41 Z15.6 F270.0 E6611.803
G1 X12.41 Y12.41 Z15.6 F270.0 E6642.85
G1 X12.41 Y0.0 Z15.6 F270.0 E6658.373
;M103
;M108 S7.506
;M108 S5.629
G1 X12.41 Y0.0 Z15.9 F3600.0
;M101
G1 X12.41 Y-12.41 Z15.9 F270.0 E6673.897
G1 X-12.41 Y-12.41 Z15.9 F270.0 E6704.944
G1 X-12.41 Y12.41 Z15.9 F270.0 E6735.991
G1 X12.41 Y12.41 Z15.9 F270.0 E6767.038
G1 X12.41 Y0.0 Z15.9 F270.0 E6782.562
;M103
;M108 S7.506
;M108 S5.629
G1 X12.41 Y0.0 Z16.2 F3600.0
;M101
G1 X12.41 Y-12.41 Z16.2 F270.0 E6798.085
G1 X-12.41 Y-12.41 Z16.2 F270.0 E6829.132
G1 X-12.41 Y12.41 Z16.2 F270.0 E6860.179
G1 X12.41 Y12.41 Z16.2 F270.0 E6891.226
G1 X12.41 Y0.0 Z16.2 F270.0 E6906.75
;M103
;M108 S7.506
;M108 S5.629
G1 X12.41 Y0.0 Z16.5 F3600.0
;M101
G1 X12.41 Y-12.41 Z16.5 F270.0 E6922.273
G1 X-12.41 Y-12.41 Z16.5 F270.0 E6953.321
G1 X-12.41 Y12.41 Z16.5 F270.0 E6984.368
G1 X12.41 Y12.41 Z16.5 F270.0 E7015.415
G1 X12.41 Y0.0 Z16.5 F270.0 E7030.938
;M103
;M108 S7.506
;M108 S5.629
G1 X12.41 Y0.0 Z16.8 F3600.0
;M101
G1 X12.41 Y-12.41 Z16.8 F270.0 E7046.462
G1 X-12.41 Y-12.41 Z16.8 F270.0 E7077.509
G1 X-12.41 Y12.41 Z16.8 F270.0 E7108.556
G1 X12.41 Y12.41 Z16.8 F270.0 E7139.603
G1 X12.41 Y0.0 Z16.8 F270.0 E7155.126
;M103
;M108 S7.506
;M108 S5.629
G1 X12.41 Y0.0 Z17.1 F3600.0
;M101
G1 X12.41 Y-12.41 Z17.1 F270.0 E7170.65
G1 X-12.41 Y-12.41 Z17.1 F270.0 E7201.697
G1 X-12.41 Y12.41 Z17.1 F270.0 E7232.744
G1 X12.41 Y12.41 Z17.1 F270.0 E7263.791
G1 X12.41 Y0.0 Z17.1 F270.0 E7279.315
;M103
;M108 S7.506
;M108 S5.629
G1 X12.41 Y0.0 Z17.4 F3600.0
;M101
G1 X12.41 Y-12.41 Z17.4 F270.0 E7294.838
G1 X-12.41 Y-12.41 Z17.4 F270.0 E7325.885
G1 X-12.41 Y12.41 Z17.4 F270.0 E7356.932
G1 X12.41 Y12.41 Z17.4 F270.0 E7387.979
G1 X12.41 Y0.0 Z17.4 F270.0 E7403.503
;M103
;M108 S7.506
;M108 S5.629
G1 X12.41 Y0.0 Z17.7 F3600.0
;M101
G1 X12.41 Y-12.41 Z17.7 F270.0 E7419.026
G1 X-12.41 Y-12.41 Z17.7 F270.0 E7450.074
G1 X-12.41 Y12.41 Z17.7 F270.0 E7481.121
G1 X12.41 Y12.41 Z17.7 F270.0 E7512.168
G1 X12.41 Y0.0 Z17.7 F270.0 E7527.691
;M103
;M108 S7.506
;M108 S5.629
G1 X12.41 Y0.0 Z18.0 F3600.0
;M101
G1 X12.41 Y-12.41 Z18.0 F270.0 E7543.215
G1 X-12.41 Y-12.41 Z18.0 F270.0 E7574.262
G1 X-12.41 Y12.41 Z18.0 F270.0 E7605.309
G1 X12.41 Y12.41 Z18.0 F270.0 E7636.356
G1 X12.41 Y0.0 Z18.0 F270.0 E7651.879
;M103
;M108 S7.506
;M108 S5.629
G1 X12.41 Y0.0 Z18.3 F3600.0
;M101
G1 X12.41 Y-12.41 Z18.3 F270.0 E7667.403
G1 X-12.41 Y-12.41 Z18.3 F270.0 E7698.45
G1 X-12.41 Y12.41 Z18.3 F270.0 E7729.497
G1 X12.41 Y12.41 Z18.3 F270.0 E7760.544
G1 X12.41 Y0.0 Z18.3 F270.0 E7776.068
;M103
;M108 S7.506
;M108 S5.629
G1 X12.41 Y0.0 Z18.6 F3600.0
;M101
G1 X12.41 Y-12.41 Z18.6 F270.0 E7791.591
G1 X-12.41 Y-12.41 Z18.6 F270.0 E7822.638
G1 X-12.41 Y12.41 Z18.6 F270.0 E7853.685
G1 X12.41 Y12.41 Z18.6 F270.0 E7884.732
G1 X12.41 Y0.0 Z18.6 F270.0 E7900.256
;M103
;M108 S7.506
;M108 S5.629
G1 X12.41 Y0.0 Z18.9 F3600.0
;M101
G1 X12.41 Y-12.41 Z18.9 F270.0 E7915.779
G1 X-12.41 Y-12.41 Z18.9 F270.0 E7946.827
G1 X-12.41 Y12.41 Z18.9 F270.0 E7977.874
G1 X12.41 Y12.41 Z18.9 F270.0 E8008.921
G1 X12.41 Y0.0 Z18.9 F270.0 E8024.444
;M103
;M108 S7.506
;M108 S5.629
G1 X12.41 Y0.0 Z19.2 F3600.0
;M101
G1 X12.41 Y-12.41 Z19.2 F270.0 E8039.968
G1 X-12.41 Y-12.41 Z19.2 F270.0 E8071.015
G1 X-12.41 Y12.41 Z19.2 F270.0 E8102.062
G1 X12.41 Y12.41 Z19.2 F270.0 E8133.109
G1 X12.41 Y0.0 Z19.2 F270.0 E8148.632
;M103
;M108 S7.506
;M108 S5.629
G1 X12.41 Y0.0 Z19.5 F3600.0
;M101
G1 X12.41 Y-12.41 Z19.5 F270.0 E8164.156
G1 X-12.41 Y-12.41 Z19.5 F270.0 E8195.203
G1 X-12.41 Y12.41 Z19.5 F270.0 E8226.25
G1 X12.41 Y12.41 Z19.5 F270.0 E8257.297
G1 X12.41 Y0.0 Z19.5 F270.0 E8272.821
;M103
;M108 S7.506
;M108 S5.629
G1 X12.41 Y0.0 Z19.8 F3600.0
;M101
G1 X12.41 Y-12.41 Z19.8 F270.0 E8288.344
G1 X-12.41 Y-12.41 Z19.8 F270.0 E8319.391
G1 X-12.41 Y12.41 Z19.8 F270.0 E8350.438
G1 X12.41 Y12.41 Z19.8 F270.0 E8381.485
G1 X12.41 Y0.0 Z19.8 F270.0 E8397.009
;M103
;M108 S7.506
;M108 S5.629
G1 X12.41 Y0.0 Z20.1 F3600.0
;M101
G1 X12.41 Y-12.41 Z20.1 F270.0 E8412.532
G1 X-12.41 Y-12.41 Z20.1 F270.0 E8443.58
G1 X-12.41 Y12.41 Z20.1 F270.0 E8474.627
G1 X12.41 Y12.41 Z20.1 F270.0 E8505.674
G1 X12.41 Y0.0 Z20.1 F270.0 E8521.197
;M103
;M108 S7.506
;M108 S5.629
G1 X12.41 Y0.0 Z20.4 F3600.0
;M101
G1 X12.41 Y-12.41 Z20.4 F270.0 E8536.721
G1 X-12.41 Y-12.41 Z20.4 F270.0 E8567.768
G1 X-12.41 Y12.41 Z20.4 F270.0 E8598.815
G1 X12.41 Y12.41 Z20.4 F270.0 E8629.862
G1 X12.41 Y0.0 Z20.4 F270.0 E8645.385
;M103
;M108 S7.506
;M108 S5.629
G1 X12.41 Y0.0 Z20.7 F3600.0
;M101
G1 X12.41 Y-12.41 Z20.7 F270.0 E8660.909
G1 X-12.41 Y-12.41 Z20.7 F270.0 E8691.956
G1 X-12.41 Y12.41 Z20.7 F270.0 E8723.003
G1 X12.41 Y12.41 Z20.7 F270.0 E8754.05
G1 X12.41 Y0.0 Z20.7 F270.0 E8769.574
;M103
;M108 S7.506
;M108 S5.629
G1 X12.41 Y0.0 Z21.0 F3600.0
;M101
G1 X12.41 Y-12.41 Z21.0 F270.0 E8785.097
G1 X-12.41 Y-12.41 Z21.0 F270.0 E8816.144
G1 X-12.41 Y12.41 Z21.0 F270.0 E8847.191
G1 X12.41 Y12.41 Z21.0 F270.0 E8878.238
G1 X12.41 Y0.0 Z21.0 F270.0 E8893.762
;M103
;M108 S7.506
;M108 S5.629
G1 X12.41 Y0.0 Z21.3 F3600.0
;M101
G1 X12.41 Y-12.41 Z21.3 F270.0 E8909.285
G1 X-12.41 Y-12.41 Z21.3 F270.0 E8940.333
G1 X-12.41 Y12.41 Z21.3 F270.0 E8971.38
G1 X12.41 Y12.41 Z21.3 F270.0 E9002.427
G1 X12.41 Y0.0 Z21.3 F270.0 E9017.95
;M103
;M108 S7.506
;M108 S5.629
G1 X12.41 Y0.0 Z21.6 F3600.0
;M101
G1 X12.41 Y-12.41 Z21.6 F270.0 E9033.474
G1 X-12.41 Y-12.41 Z21.6 F270.0 E9064.521
G1 X-12.41 Y12.41 Z21.6 F270.0 E9095.568
G1 X12.41 Y12.41 Z21.6 F270.0 E9126.615
G1 X12.41 Y0.0 Z21.6 F270.0 E9142.138
;M103
;M108 S7.506
;M108 S5.629
G1 X12.41 Y0.0 Z21.9 F3600.0
;M101
G1 X12.41 Y-12.41 Z21.9 F270.0 E9157.662
G1 X-12.41 Y-12.41 Z21.9 F270.0 E9188.709
G1 X-12.41 Y12.41 Z21.9 F270.0 E9219.756
G1 X12.41 Y12.41 Z21.9 F270.0 E9250.803
G1 X12.41 Y0.0 Z21.9 F270.0 E9266.327
;M103
;M108 S7.506
;M108 S5.629
G1 X12.41 Y0.0 Z22.2 F3600.0
;M101
G1 X12.41 Y-12.41 Z22.2 F270.0 E9281.85
G1 X-12.41 Y-12.41 Z22.2 F270.0 E9312.897
G1 X-12.41 Y12.41 Z22.2 F270.0 E9343.944
G1 X12.41 Y12.41 Z22.2 F270.0 E9374.991
G1 X12.41 Y0.0 Z22.2 F270.0 E9390.515
;M103
;M108 S7.506
;M108 S5.629
G1 X12.41 Y0.0 Z22.5 F3600.0
;M101
G1 X12.41 Y-12.41 Z22.5 F270.0 E9406.038
G1 X-12.41 Y-12.41 Z22.5 F270.0 E9437.086
G1 X-12.41 Y12.41 Z22.5 F270.0 E9468.133
G1 X12.41 Y12.41 Z22.5 F270.0 E9499.18
G1 X12.41 Y0.0 Z22.5 F270.0 E9514.703
;M103
;M108 S7.506
;M108 S5.629
G1 X12.41 Y0.0 Z22.8 F3600.0
;M101
G1 X12.41 Y-12.41 Z22.8 F270.0 E9530.227
G1 X-12.41 Y-12.41 Z22.8 F270.0 E9561.274
G1 X-12.41 Y12.41 Z22.8 F270.0 E9592.321
G1 X12.41 Y12.41 Z22.8 F270.0 E9623.368
G1 X12.41 Y0.0 Z22.8 F270.0 E9638.891
;M103
;M108 S7.506
;M108 S5.629
G1 X12.41 Y0.0 Z23.1 F3600.0
;M101
G1 X12.41 Y-12.41 Z23.1 F270.0 E9654.415
G1 X-12.41 Y-12.41 Z23.1 F270.0 E9685.462
G1 X-12.41 Y12.41 Z23.1 F270.0 E9716.509
G1 X12.41 Y12.41 Z23.1 F270.0 E9747.556
G1 X12.41 Y0.0 Z23.1 F270.0 E9763.08
;M103
;M108 S7.506
;M108 S5.629
G1 X12.41 Y0.0 Z23.4 F3600.0
;M101
G1 X12.41 Y-12.41 Z23.4 F270.0 E9778.603
G1 X-12.41 Y-12.41 Z23.4 F270.0 E9809.65
G1 X-12.41 Y12.41 Z23.4 F270.0 E9840.697
G1 X12.41 Y12.41 Z23.4 F270.0 E9871.744
G1 X12.41 Y0.0 Z23.4 F270.0 E9887.268
;M103
;M108 S7.506
;M108 S5.629
G1 X12.41 Y0.0 Z23.7 F3600.0
;M101
G1 X12.41 Y-12.41 Z23.7 F270.0 E9902.791
G1 X-12.41 Y-12.41 Z23.7 F270.0 E9933.838
G1 X-12.41 Y12.41 Z23.7 F270.0 E9964.886
G1 X12.41 Y12.41 Z23.7 F270.0 E9995.933
G1 X12.41 Y0.0 Z23.7 F270.0 E10011.456
;M103
;M108 S7.506
;M108 S5.629
G1 X12.41 Y0.0 Z24.0 F3600.0
;M101
G1 X12.41 Y-12.41 Z24.0 F270.0 E10026.98
G1 X-12.41 Y-12.41 Z24.0 F270.0 E10058.027
G1 X-12.41 Y12.41 Z24.0 F270.0 E10089.074
G1 X12.41 Y12.41 Z24.0 F270.0 E10120.121
G1 X12.41 Y0.0 Z24.0 F270.0 E10135.644
;M103
;M108 S7.506
;M108 S5.629
G1 X12.41 Y0.0 Z24.3 F3600.0
;M101
G1 X12.41 Y-12.41 Z24.3 F270.0 E10151.168
G1 X-12.41 Y-12.41 Z24.3 F270.0 E10182.215
G1 X-12.41 Y12.41 Z24.3 F270.0 E10213.262
G1 X12.41 Y12.41 Z24.3 F270.0 E10244.309
G1 X12.41 Y0.0 Z24.3 F270.0 E10259.833
;M103
;M108 S7.506
;M108 S5.629
G1 X12.41 Y0.0 Z24.6 F3600.0
;M101
G1 X12.41 Y-12.41 Z24.6 F270.0 E10275.356
G1 X-12.41 Y-12.41 Z24.6 F270.0 E10306.403
G1 X-12.41 Y12.41 Z24.6 F270.0 E10337.45
G1 X12.41 Y12.41 Z24.6 F270.0 E10368.497
G1 X12.41 Y0.0 Z24.6 F270.0 E10384.021
;M103
;M108 S7.506
;M108 S5.629
G1 X12.41 Y0.0 Z24.9 F3600.0
;M101
G1 X12.41 Y-12.41 Z24.9 F270.0 E10399.544
G1 X-12.41 Y-12.41 Z24.9 F270.0 E10430.591
G1 X-12.41 Y12.41 Z24.9 F270.0 E10461.639
G1 X12.41 Y12.41 Z24.9 F270.0 E10492.686
G1 X12.41 Y0.0 Z24.9 F270.0 E10508.209
;M103
;M108 S7.506
;M108 S5.629
G1 X12.41 Y0.0 Z25.2 F3600.0
;M101
G1 X12.41 Y-12.41 Z25.2 F270.0 E10523.733
G1 X-12.41 Y-12.41 Z25.2 F270.0 E10554.78
G1 X-12.41 Y12.41 Z25.2 F270.0 E10585.827
G1 X12.41 Y12.41 Z25.2 F270.0 E10616.874
G1 X12.41 Y0.0 Z25.2 F270.0 E10632.397
;M103
M104 S0
;M103
M104 S0 (end.gcode v2.0 - turning off extruder )
G90 (absolute positioning - end of end.gcode)
G92 X0 Y0 Z0 (set current as home position)
G92 E0 (reset extrusion position)
G90 (absolute positioning - end of end.gcode)
M113 S0.0
M107
