G21 (This is GCode, generated with Skeinforge version 35 from ReplicatorG)
G21 (Ultimaker profile - Quality print from alterations/start.gcode)
G21 (Metric: The unit is a millimeter)
M18 (Disable motors for now, to allow manual moving of the head)
G90 (Absolute positioning)
G92 X0 Y0 Z0 E0 (set origin to current position)
;G91 (Relative positioning)
G21 (end of start.txt)
G90
G21
;M103
M105
M106
M113 S1.0
;M108 S50.04
M104 S245.0
M104 S244.471
;M108 S27.6
;M108 S28.98
G1 X1.98 Y-0.35 Z0.3 F1191.264
;M101
G1 X1.98 Y30.47 Z0.3 F1191.264 E44.983
G1 X32.79 Y30.47 Z0.3 F1191.264 E89.966
G1 X32.79 Y-0.35 Z0.3 F1191.264 E134.948
G1 X1.98 Y-0.35 Z0.3 F1191.264 E179.931
;M103
G1 X4.97 Y2.75 Z0.3 F2647.253
;M101
G1 X4.97 Y27.47 Z0.3 F1191.264 E216.012
G1 X29.79 Y27.47 Z0.3 F1191.264 E252.237
G1 X29.79 Y2.66 Z0.3 F1191.264 E288.462
G1 X4.97 Y2.66 Z0.3 F1191.264 E324.687
G1 X4.97 Y2.75 Z0.3 F1191.264 E324.831
;M103
M104 S245.0
;M108 S39.41
;M108 S50.04
M104 S244.326
;M108 S24.88
G1 X4.97 Y2.66 Z0.6 F2386.319
;M101
G1 X4.97 Y27.47 Z0.6 F1193.159 E355.882
G1 X29.79 Y27.47 Z0.6 F1193.159 E386.932
G1 X29.79 Y2.66 Z0.6 F1193.159 E417.983
G1 X4.97 Y2.66 Z0.6 F1193.159 E449.033
;M103
M104 S245.0
;M108 S37.53
;M108 S50.04
M104 S244.326
;M108 S24.88
G1 X4.97 Y2.66 Z0.9 F2386.128
;M101
G1 X4.97 Y27.47 Z0.9 F1193.064 E480.087
G1 X29.79 Y27.47 Z0.9 F1193.064 E511.14
G1 X29.79 Y2.66 Z0.9 F1193.064 E542.193
G1 X4.97 Y2.66 Z0.9 F1193.064 E573.246
;M103
M104 S245.0
;M108 S37.53
;M108 S50.04
M104 S244.326
;M108 S24.88
G1 X4.97 Y2.66 Z1.2 F2386.128
;M101
G1 X4.97 Y27.47 Z1.2 F1193.064 E604.299
G1 X29.79 Y27.47 Z1.2 F1193.064 E635.352
G1 X29.79 Y2.66 Z1.2 F1193.064 E666.405
G1 X4.97 Y2.66 Z1.2 F1193.064 E697.458
;M103
M104 S245.0
;M108 S37.53
;M108 S50.04
M104 S244.326
;M108 S24.88
G1 X4.97 Y2.66 Z1.5 F2386.128
;M101
G1 X4.97 Y27.47 Z1.5 F1193.064 E728.511
G1 X29.79 Y27.47 Z1.5 F1193.064 E759.564
G1 X29.79 Y2.66 Z1.5 F1193.064 E790.617
G1 X4.97 Y2.66 Z1.5 F1193.064 E821.67
;M103
M104 S245.0
;M108 S37.53
;M108 S50.04
M104 S244.326
;M108 S24.88
G1 X4.97 Y2.66 Z1.8 F2386.128
;M101
G1 X4.97 Y27.47 Z1.8 F1193.064 E852.723
G1 X29.79 Y27.47 Z1.8 F1193.064 E883.777
G1 X29.79 Y2.66 Z1.8 F1193.064 E914.83
G1 X4.97 Y2.66 Z1.8 F1193.064 E945.883
;M103
M104 S245.0
;M108 S37.53
;M108 S50.04
M104 S244.326
;M108 S24.88
G1 X4.97 Y2.66 Z2.1 F2386.128
;M101
G1 X4.97 Y27.47 Z2.1 F1193.064 E976.936
G1 X29.79 Y27.47 Z2.1 F1193.064 E1007.989
G1 X29.79 Y2.66 Z2.1 F1193.064 E1039.042
G1 X4.97 Y2.66 Z2.1 F1193.064 E1070.095
;M103
M104 S245.0
;M108 S37.53
;M108 S50.04
M104 S244.326
;M108 S24.88
G1 X4.97 Y2.66 Z2.4 F2386.128
;M101
G1 X4.97 Y27.47 Z2.4 F1193.064 E1101.148
G1 X29.79 Y27.47 Z2.4 F1193.064 E1132.201
G1 X29.79 Y2.66 Z2.4 F1193.064 E1163.254
G1 X4.97 Y2.66 Z2.4 F1193.064 E1194.307
;M103
M104 S245.0
;M108 S37.53
;M108 S50.04
M104 S244.326
;M108 S24.88
G1 X4.97 Y2.66 Z2.7 F2386.128
;M101
G1 X4.97 Y27.47 Z2.7 F1193.064 E1225.36
G1 X29.79 Y27.47 Z2.7 F1193.064 E1256.413
G1 X29.79 Y2.66 Z2.7 F1193.064 E1287.467
G1 X4.97 Y2.66 Z2.7 F1193.064 E1318.52
;M103
M104 S245.0
;M108 S37.53
;M108 S50.04
M104 S244.326
;M108 S24.88
G1 X4.97 Y2.66 Z3.0 F2386.128
;M101
G1 X4.97 Y27.47 Z3.0 F1193.064 E1349.573
G1 X29.79 Y27.47 Z3.0 F1193.064 E1380.626
G1 X29.79 Y2.66 Z3.0 F1193.064 E1411.679
G1 X4.97 Y2.66 Z3.0 F1193.064 E1442.732
;M103
M104 S245.0
;M108 S37.53
;M108 S50.04
M104 S244.326
;M108 S24.88
G1 X4.97 Y2.66 Z3.3 F2386.128
;M101
G1 X4.97 Y27.47 Z3.3 F1193.064 E1473.785
G1 X29.79 Y27.47 Z3.3 F1193.064 E1504.838
G1 X29.79 Y2.66 Z3.3 F1193.064 E1535.891
G1 X4.97 Y2.66 Z3.3 F1193.064 E1566.944
;M103
M104 S245.0
;M108 S37.53
;M108 S50.04
M104 S244.326
;M108 S24.88
G1 X4.97 Y2.66 Z3.6 F2386.128
;M101
G1 X4.97 Y27.47 Z3.6 F1193.064 E1597.997
G1 X29.79 Y27.47 Z3.6 F1193.064 E1629.05
G1 X29.79 Y2.66 Z3.6 F1193.064 E1660.104
G1 X4.97 Y2.66 Z3.6 F1193.064 E1691.157
;M103
M104 S245.0
;M108 S37.53
;M108 S50.04
M104 S244.326
;M108 S24.88
G1 X4.97 Y2.66 Z3.9 F2386.128
;M101
G1 X4.97 Y27.47 Z3.9 F1193.064 E1722.21
G1 X29.79 Y27.47 Z3.9 F1193.064 E1753.263
G1 X29.79 Y2.66 Z3.9 F1193.064 E1784.316
G1 X4.97 Y2.66 Z3.9 F1193.064 E1815.369
;M103
M104 S245.0
;M108 S37.53
;M108 S50.04
M104 S244.326
;M108 S24.88
G1 X4.97 Y2.66 Z4.2 F2386.128
;M101
G1 X4.97 Y27.47 Z4.2 F1193.064 E1846.422
G1 X29.79 Y27.47 Z4.2 F1193.064 E1877.475
G1 X29.79 Y2.66 Z4.2 F1193.064 E1908.528
G1 X4.97 Y2.66 Z4.2 F1193.064 E1939.581
;M103
M104 S245.0
;M108 S37.53
;M108 S50.04
M104 S244.326
;M108 S24.88
G1 X4.97 Y2.66 Z4.5 F2386.128
;M101
G1 X4.97 Y27.47 Z4.5 F1193.064 E1970.634
G1 X29.79 Y27.47 Z4.5 F1193.064 E2001.687
G1 X29.79 Y2.66 Z4.5 F1193.064 E2032.74
G1 X4.97 Y2.66 Z4.5 F1193.064 E2063.794
;M103
M104 S245.0
;M108 S37.53
;M108 S50.04
M104 S244.326
;M108 S24.88
G1 X4.97 Y2.66 Z4.8 F2386.128
;M101
G1 X4.97 Y27.47 Z4.8 F1193.064 E2094.847
G1 X29.79 Y27.47 Z4.8 F1193.064 E2125.9
G1 X29.79 Y2.66 Z4.8 F1193.064 E2156.953
G1 X4.97 Y2.66 Z4.8 F1193.064 E2188.006
;M103
M104 S245.0
;M108 S37.53
;M108 S50.04
M104 S244.326
;M108 S24.88
G1 X4.97 Y2.66 Z5.1 F2386.128
;M101
G1 X4.97 Y27.47 Z5.1 F1193.064 E2219.059
G1 X29.79 Y27.47 Z5.1 F1193.064 E2250.112
G1 X29.79 Y2.66 Z5.1 F1193.064 E2281.165
G1 X4.97 Y2.66 Z5.1 F1193.064 E2312.218
;M103
M104 S245.0
;M108 S37.53
;M108 S50.04
M104 S244.326
;M108 S24.88
G1 X4.97 Y2.66 Z5.4 F2386.128
;M101
G1 X4.97 Y27.47 Z5.4 F1193.064 E2343.271
G1 X29.79 Y27.47 Z5.4 F1193.064 E2374.324
G1 X29.79 Y2.66 Z5.4 F1193.064 E2405.377
G1 X4.97 Y2.66 Z5.4 F1193.064 E2436.43
;M103
M104 S245.0
;M108 S37.53
;M108 S50.04
M104 S244.326
;M108 S24.88
G1 X4.97 Y2.66 Z5.7 F2386.128
;M101
G1 X4.97 Y27.47 Z5.7 F1193.064 E2467.484
G1 X29.79 Y27.47 Z5.7 F1193.064 E2498.537
G1 X29.79 Y2.66 Z5.7 F1193.064 E2529.59
G1 X4.97 Y2.66 Z5.7 F1193.064 E2560.643
;M103
M104 S245.0
;M108 S37.53
;M108 S50.04
M104 S244.326
;M108 S24.88
G1 X4.97 Y2.66 Z6.0 F2386.128
;M101
G1 X4.97 Y27.47 Z6.0 F1193.064 E2591.696
G1 X29.79 Y27.47 Z6.0 F1193.064 E2622.749
G1 X29.79 Y2.66 Z6.0 F1193.064 E2653.802
G1 X4.97 Y2.66 Z6.0 F1193.064 E2684.855
;M103
M104 S245.0
;M108 S37.53
;M108 S50.04
M104 S244.326
;M108 S24.88
G1 X4.97 Y2.66 Z6.3 F2386.128
;M101
G1 X4.97 Y27.47 Z6.3 F1193.064 E2715.908
G1 X29.79 Y27.47 Z6.3 F1193.064 E2746.961
G1 X29.79 Y2.66 Z6.3 F1193.064 E2778.014
G1 X4.97 Y2.66 Z6.3 F1193.064 E2809.067
;M103
M104 S245.0
;M108 S37.53
;M108 S50.04
M104 S244.326
;M108 S24.88
G1 X4.97 Y2.66 Z6.6 F2386.128
;M101
G1 X4.97 Y27.47 Z6.6 F1193.064 E2840.121
G1 X29.79 Y27.47 Z6.6 F1193.064 E2871.174
G1 X29.79 Y2.66 Z6.6 F1193.064 E2902.227
G1 X4.97 Y2.66 Z6.6 F1193.064 E2933.28
;M103
M104 S245.0
;M108 S37.53
;M108 S50.04
M104 S244.326
;M108 S24.88
G1 X4.97 Y2.66 Z6.9 F2386.128
;M101
G1 X4.97 Y27.47 Z6.9 F1193.064 E2964.333
G1 X29.79 Y27.47 Z6.9 F1193.064 E2995.386
G1 X29.79 Y2.66 Z6.9 F1193.064 E3026.439
G1 X4.97 Y2.66 Z6.9 F1193.064 E3057.492
;M103
M104 S245.0
;M108 S37.53
;M108 S50.04
M104 S244.326
;M108 S24.88
G1 X4.97 Y2.66 Z7.2 F2386.128
;M101
G1 X4.97 Y27.47 Z7.2 F1193.064 E3088.545
G1 X29.79 Y27.47 Z7.2 F1193.064 E3119.598
G1 X29.79 Y2.66 Z7.2 F1193.064 E3150.651
G1 X4.97 Y2.66 Z7.2 F1193.064 E3181.704
;M103
M104 S245.0
;M108 S37.53
;M108 S50.04
M104 S244.326
;M108 S24.88
G1 X4.97 Y2.66 Z7.5 F2386.128
;M101
G1 X4.97 Y27.47 Z7.5 F1193.064 E3212.757
G1 X29.79 Y27.47 Z7.5 F1193.064 E3243.811
G1 X29.79 Y2.66 Z7.5 F1193.064 E3274.864
G1 X4.97 Y2.66 Z7.5 F1193.064 E3305.917
;M103
M104 S245.0
;M108 S37.53
;M108 S50.04
M104 S244.326
;M108 S24.88
G1 X4.97 Y2.66 Z7.8 F2386.128
;M101
G1 X4.97 Y27.47 Z7.8 F1193.064 E3336.97
G1 X29.79 Y27.47 Z7.8 F1193.064 E3368.023
G1 X29.79 Y2.66 Z7.8 F1193.064 E3399.076
G1 X4.97 Y2.66 Z7.8 F1193.064 E3430.129
;M103
M104 S245.0
;M108 S37.53
;M108 S50.04
M104 S244.326
;M108 S24.88
G1 X4.97 Y2.66 Z8.1 F2386.128
;M101
G1 X4.97 Y27.47 Z8.1 F1193.064 E3461.182
G1 X29.79 Y27.47 Z8.1 F1193.064 E3492.235
G1 X29.79 Y2.66 Z8.1 F1193.064 E3523.288
G1 X4.97 Y2.66 Z8.1 F1193.064 E3554.341
;M103
M104 S245.0
;M108 S37.53
;M108 S50.04
M104 S244.326
;M108 S24.88
G1 X4.97 Y2.66 Z8.4 F2386.128
;M101
G1 X4.97 Y27.47 Z8.4 F1193.064 E3585.394
G1 X29.79 Y27.47 Z8.4 F1193.064 E3616.447
G1 X29.79 Y2.66 Z8.4 F1193.064 E3647.501
G1 X4.97 Y2.66 Z8.4 F1193.064 E3678.554
;M103
M104 S245.0
;M108 S37.53
;M108 S50.04
M104 S244.326
;M108 S24.88
G1 X4.97 Y2.66 Z8.7 F2386.128
;M101
G1 X4.97 Y27.47 Z8.7 F1193.064 E3709.607
G1 X29.79 Y27.47 Z8.7 F1193.064 E3740.66
G1 X29.79 Y2.66 Z8.7 F1193.064 E3771.713
G1 X4.97 Y2.66 Z8.7 F1193.064 E3802.766
;M103
M104 S245.0
;M108 S37.53
;M108 S50.04
M104 S244.326
;M108 S24.88
G1 X4.97 Y2.66 Z9.0 F2386.128
;M101
G1 X4.97 Y27.47 Z9.0 F1193.064 E3833.819
G1 X29.79 Y27.47 Z9.0 F1193.064 E3864.872
G1 X29.79 Y2.66 Z9.0 F1193.064 E3895.925
G1 X4.97 Y2.66 Z9.0 F1193.064 E3926.978
;M103
M104 S245.0
;M108 S37.53
;M108 S50.04
M104 S244.326
;M108 S24.88
G1 X4.97 Y2.66 Z9.3 F2386.128
;M101
G1 X4.97 Y27.47 Z9.3 F1193.064 E3958.031
G1 X29.79 Y27.47 Z9.3 F1193.064 E3989.084
G1 X29.79 Y2.66 Z9.3 F1193.064 E4020.138
G1 X4.97 Y2.66 Z9.3 F1193.064 E4051.191
;M103
M104 S245.0
;M108 S37.53
;M108 S50.04
M104 S244.326
;M108 S24.88
G1 X4.97 Y2.66 Z9.6 F2386.128
;M101
G1 X4.97 Y27.47 Z9.6 F1193.064 E4082.244
G1 X29.79 Y27.47 Z9.6 F1193.064 E4113.297
G1 X29.79 Y2.66 Z9.6 F1193.064 E4144.35
G1 X4.97 Y2.66 Z9.6 F1193.064 E4175.403
;M103
M104 S245.0
;M108 S37.53
;M108 S50.04
M104 S244.326
;M108 S24.88
G1 X4.97 Y2.66 Z9.9 F2386.128
;M101
G1 X4.97 Y27.47 Z9.9 F1193.064 E4206.456
G1 X29.79 Y27.47 Z9.9 F1193.064 E4237.509
G1 X29.79 Y2.66 Z9.9 F1193.064 E4268.562
G1 X4.97 Y2.66 Z9.9 F1193.064 E4299.615
;M103
M104 S245.0
;M108 S37.53
;M108 S50.04
M104 S244.326
;M108 S24.88
G1 X4.97 Y2.66 Z10.2 F2386.128
;M101
G1 X4.97 Y27.47 Z10.2 F1193.064 E4330.668
G1 X29.79 Y27.47 Z10.2 F1193.064 E4361.721
G1 X29.79 Y2.66 Z10.2 F1193.064 E4392.774
G1 X4.97 Y2.66 Z10.2 F1193.064 E4423.828
;M103
M104 S245.0
;M108 S37.53
;M108 S50.04
M104 S244.326
;M108 S24.88
G1 X4.97 Y2.66 Z10.5 F2386.128
;M101
G1 X4.97 Y27.47 Z10.5 F1193.064 E4454.881
G1 X29.79 Y27.47 Z10.5 F1193.064 E4485.934
G1 X29.79 Y2.66 Z10.5 F1193.064 E4516.987
G1 X4.97 Y2.66 Z10.5 F1193.064 E4548.04
;M103
M104 S245.0
;M108 S37.53
;M108 S50.04
M104 S244.326
;M108 S24.88
G1 X4.97 Y2.66 Z10.8 F2386.128
;M101
G1 X4.97 Y27.47 Z10.8 F1193.064 E4579.093
G1 X29.79 Y27.47 Z10.8 F1193.064 E4610.146
G1 X29.79 Y2.66 Z10.8 F1193.064 E4641.199
G1 X4.97 Y2.66 Z10.8 F1193.064 E4672.252
;M103
M104 S245.0
;M108 S37.53
;M108 S50.04
M104 S244.326
;M108 S24.88
G1 X4.97 Y2.66 Z11.1 F2386.128
;M101
G1 X4.97 Y27.47 Z11.1 F1193.064 E4703.305
G1 X29.79 Y27.47 Z11.1 F1193.064 E4734.358
G1 X29.79 Y2.66 Z11.1 F1193.064 E4765.411
G1 X4.97 Y2.66 Z11.1 F1193.064 E4796.464
;M103
M104 S245.0
;M108 S37.53
;M108 S50.04
M104 S244.326
;M108 S24.88
G1 X4.97 Y2.66 Z11.4 F2386.128
;M101
G1 X4.97 Y27.47 Z11.4 F1193.064 E4827.518
G1 X29.79 Y27.47 Z11.4 F1193.064 E4858.571
G1 X29.79 Y2.66 Z11.4 F1193.064 E4889.624
G1 X4.97 Y2.66 Z11.4 F1193.064 E4920.677
;M103
M104 S245.0
;M108 S37.53
;M108 S50.04
M104 S244.326
;M108 S24.88
G1 X4.97 Y2.66 Z11.7 F2386.128
;M101
G1 X4.97 Y27.47 Z11.7 F1193.064 E4951.73
G1 X29.79 Y27.47 Z11.7 F1193.064 E4982.783
G1 X29.79 Y2.66 Z11.7 F1193.064 E5013.836
G1 X4.97 Y2.66 Z11.7 F1193.064 E5044.889
;M103
M104 S245.0
;M108 S37.53
;M108 S50.04
M104 S244.326
;M108 S24.88
G1 X4.97 Y2.66 Z12.0 F2386.128
;M101
G1 X4.97 Y27.47 Z12.0 F1193.064 E5075.942
G1 X29.79 Y27.47 Z12.0 F1193.064 E5106.995
G1 X29.79 Y2.66 Z12.0 F1193.064 E5138.048
G1 X4.97 Y2.66 Z12.0 F1193.064 E5169.101
;M103
M104 S245.0
;M108 S37.53
;M108 S50.04
M104 S244.326
;M108 S24.88
G1 X4.97 Y2.66 Z12.3 F2386.128
;M101
G1 X4.97 Y27.47 Z12.3 F1193.064 E5200.155
G1 X29.79 Y27.47 Z12.3 F1193.064 E5231.208
G1 X29.79 Y2.66 Z12.3 F1193.064 E5262.261
G1 X4.97 Y2.66 Z12.3 F1193.064 E5293.314
;M103
M104 S245.0
;M108 S37.53
;M108 S50.04
M104 S244.326
;M108 S24.88
G1 X4.97 Y2.66 Z12.6 F2386.128
;M101
G1 X4.97 Y27.47 Z12.6 F1193.064 E5324.367
G1 X29.79 Y27.47 Z12.6 F1193.064 E5355.42
G1 X29.79 Y2.66 Z12.6 F1193.064 E5386.473
G1 X4.97 Y2.66 Z12.6 F1193.064 E5417.526
;M103
M104 S245.0
;M108 S37.53
;M108 S50.04
M104 S244.326
;M108 S24.88
G1 X4.97 Y2.66 Z12.9 F2386.128
;M101
G1 X4.97 Y27.47 Z12.9 F1193.064 E5448.579
G1 X29.79 Y27.47 Z12.9 F1193.064 E5479.632
G1 X29.79 Y2.66 Z12.9 F1193.064 E5510.685
G1 X4.97 Y2.66 Z12.9 F1193.064 E5541.738
;M103
M104 S245.0
;M108 S37.53
;M108 S50.04
M104 S244.326
;M108 S24.88
G1 X4.97 Y2.66 Z13.2 F2386.128
;M101
G1 X4.97 Y27.47 Z13.2 F1193.064 E5572.791
G1 X29.79 Y27.47 Z13.2 F1193.064 E5603.845
G1 X29.79 Y2.66 Z13.2 F1193.064 E5634.898
G1 X4.97 Y2.66 Z13.2 F1193.064 E5665.951
;M103
M104 S245.0
;M108 S37.53
;M108 S50.04
M104 S244.326
;M108 S24.88
G1 X4.97 Y2.66 Z13.5 F2386.128
;M101
G1 X4.97 Y27.47 Z13.5 F1193.064 E5697.004
G1 X29.79 Y27.47 Z13.5 F1193.064 E5728.057
G1 X29.79 Y2.66 Z13.5 F1193.064 E5759.11
G1 X4.97 Y2.66 Z13.5 F1193.064 E5790.163
;M103
M104 S245.0
;M108 S37.53
;M108 S50.04
M104 S244.326
;M108 S24.88
G1 X4.97 Y2.66 Z13.8 F2386.128
;M101
G1 X4.97 Y27.47 Z13.8 F1193.064 E5821.216
G1 X29.79 Y27.47 Z13.8 F1193.064 E5852.269
G1 X29.79 Y2.66 Z13.8 F1193.064 E5883.322
G1 X4.97 Y2.66 Z13.8 F1193.064 E5914.375
;M103
M104 S245.0
;M108 S37.53
;M108 S50.04
M104 S244.326
;M108 S24.88
G1 X4.97 Y2.66 Z14.1 F2386.128
;M101
G1 X4.97 Y27.47 Z14.1 F1193.064 E5945.428
G1 X29.79 Y27.47 Z14.1 F1193.064 E5976.481
G1 X29.79 Y2.66 Z14.1 F1193.064 E6007.535
G1 X4.97 Y2.66 Z14.1 F1193.064 E6038.588
;M103
M104 S245.0
;M108 S37.53
;M108 S50.04
M104 S244.326
;M108 S24.88
G1 X4.97 Y2.66 Z14.4 F2386.128
;M101
G1 X4.97 Y27.47 Z14.4 F1193.064 E6069.641
G1 X29.79 Y27.47 Z14.4 F1193.064 E6100.694
G1 X29.79 Y2.66 Z14.4 F1193.064 E6131.747
G1 X4.97 Y2.66 Z14.4 F1193.064 E6162.8
;M103
M104 S245.0
;M108 S37.53
;M108 S50.04
M104 S244.326
;M108 S24.88
G1 X4.97 Y2.66 Z14.7 F2386.128
;M101
G1 X4.97 Y27.47 Z14.7 F1193.064 E6193.853
G1 X29.79 Y27.47 Z14.7 F1193.064 E6224.906
G1 X29.79 Y2.66 Z14.7 F1193.064 E6255.959
G1 X4.97 Y2.66 Z14.7 F1193.064 E6287.012
;M103
M104 S245.0
;M108 S37.53
;M108 S50.04
M104 S244.326
;M108 S24.88
G1 X4.97 Y2.66 Z15.0 F2386.128
;M101
G1 X4.97 Y27.47 Z15.0 F1193.064 E6318.065
G1 X29.79 Y27.47 Z15.0 F1193.064 E6349.118
G1 X29.79 Y2.66 Z15.0 F1193.064 E6380.172
G1 X4.97 Y2.66 Z15.0 F1193.064 E6411.225
;M103
M104 S245.0
;M108 S37.53
;M108 S50.04
M104 S244.326
;M108 S24.88
G1 X4.97 Y2.66 Z15.3 F2386.128
;M101
G1 X4.97 Y27.47 Z15.3 F1193.064 E6442.278
G1 X29.79 Y27.47 Z15.3 F1193.064 E6473.331
G1 X29.79 Y2.66 Z15.3 F1193.064 E6504.384
G1 X4.97 Y2.66 Z15.3 F1193.064 E6535.437
;M103
M104 S245.0
;M108 S37.53
;M108 S50.04
M104 S244.326
;M108 S24.88
G1 X4.97 Y2.66 Z15.6 F2386.128
;M101
G1 X4.97 Y27.47 Z15.6 F1193.064 E6566.49
G1 X29.79 Y27.47 Z15.6 F1193.064 E6597.543
G1 X29.79 Y2.66 Z15.6 F1193.064 E6628.596
G1 X4.97 Y2.66 Z15.6 F1193.064 E6659.649
;M103
M104 S245.0
;M108 S37.53
;M108 S50.04
M104 S244.326
;M108 S24.88
G1 X4.97 Y2.66 Z15.9 F2386.128
;M101
G1 X4.97 Y27.47 Z15.9 F1193.064 E6690.702
G1 X29.79 Y27.47 Z15.9 F1193.064 E6721.755
G1 X29.79 Y2.66 Z15.9 F1193.064 E6752.808
G1 X4.97 Y2.66 Z15.9 F1193.064 E6783.862
;M103
M104 S245.0
;M108 S37.53
;M108 S50.04
M104 S244.326
;M108 S24.88
G1 X4.97 Y2.66 Z16.2 F2386.128
;M101
G1 X4.97 Y27.47 Z16.2 F1193.064 E6814.915
G1 X29.79 Y27.47 Z16.2 F1193.064 E6845.968
G1 X29.79 Y2.66 Z16.2 F1193.064 E6877.021
G1 X4.97 Y2.66 Z16.2 F1193.064 E6908.074
;M103
M104 S245.0
;M108 S37.53
;M108 S50.04
M104 S244.326
;M108 S24.88
G1 X4.97 Y2.66 Z16.5 F2386.128
;M101
G1 X4.97 Y27.47 Z16.5 F1193.064 E6939.127
G1 X29.79 Y27.47 Z16.5 F1193.064 E6970.18
G1 X29.79 Y2.66 Z16.5 F1193.064 E7001.233
G1 X4.97 Y2.66 Z16.5 F1193.064 E7032.286
;M103
M104 S245.0
;M108 S37.53
;M108 S50.04
M104 S244.326
;M108 S24.88
G1 X4.97 Y2.66 Z16.8 F2386.128
;M101
G1 X4.97 Y27.47 Z16.8 F1193.064 E7063.339
G1 X29.79 Y27.47 Z16.8 F1193.064 E7094.392
G1 X29.79 Y2.66 Z16.8 F1193.064 E7125.445
G1 X4.97 Y2.66 Z16.8 F1193.064 E7156.498
;M103
M104 S245.0
;M108 S37.53
;M108 S50.04
M104 S244.326
;M108 S24.88
G1 X4.97 Y2.66 Z17.1 F2386.128
;M101
G1 X4.97 Y27.47 Z17.1 F1193.064 E7187.552
G1 X29.79 Y27.47 Z17.1 F1193.064 E7218.605
G1 X29.79 Y2.66 Z17.1 F1193.064 E7249.658
G1 X4.97 Y2.66 Z17.1 F1193.064 E7280.711
;M103
M104 S245.0
;M108 S37.53
;M108 S50.04
M104 S244.326
;M108 S24.88
G1 X4.97 Y2.66 Z17.4 F2386.128
;M101
G1 X4.97 Y27.47 Z17.4 F1193.064 E7311.764
G1 X29.79 Y27.47 Z17.4 F1193.064 E7342.817
G1 X29.79 Y2.66 Z17.4 F1193.064 E7373.87
G1 X4.97 Y2.66 Z17.4 F1193.064 E7404.923
;M103
M104 S245.0
;M108 S37.53
;M108 S50.04
M104 S244.326
;M108 S24.88
G1 X4.97 Y2.66 Z17.7 F2386.128
;M101
G1 X4.97 Y27.47 Z17.7 F1193.064 E7435.976
G1 X29.79 Y27.47 Z17.7 F1193.064 E7467.029
G1 X29.79 Y2.66 Z17.7 F1193.064 E7498.082
G1 X4.97 Y2.66 Z17.7 F1193.064 E7529.135
;M103
M104 S245.0
;M108 S37.53
;M108 S50.04
M104 S244.326
;M108 S24.88
G1 X4.97 Y2.66 Z18.0 F2386.128
;M101
G1 X4.97 Y27.47 Z18.0 F1193.064 E7560.188
G1 X29.79 Y27.47 Z18.0 F1193.064 E7591.242
G1 X29.79 Y2.66 Z18.0 F1193.064 E7622.295
G1 X4.97 Y2.66 Z18.0 F1193.064 E7653.348
;M103
M104 S245.0
;M108 S37.53
;M108 S50.04
M104 S244.326
;M108 S24.88
G1 X4.97 Y2.66 Z18.3 F2386.128
;M101
G1 X4.97 Y27.47 Z18.3 F1193.064 E7684.401
G1 X29.79 Y27.47 Z18.3 F1193.064 E7715.454
G1 X29.79 Y2.66 Z18.3 F1193.064 E7746.507
G1 X4.97 Y2.66 Z18.3 F1193.064 E7777.56
;M103
M104 S245.0
;M108 S37.53
;M108 S50.04
M104 S244.326
;M108 S24.88
G1 X4.97 Y2.66 Z18.6 F2386.128
;M101
G1 X4.97 Y27.47 Z18.6 F1193.064 E7808.613
G1 X29.79 Y27.47 Z18.6 F1193.064 E7839.666
G1 X29.79 Y2.66 Z18.6 F1193.064 E7870.719
G1 X4.97 Y2.66 Z18.6 F1193.064 E7901.772
;M103
M104 S245.0
;M108 S37.53
;M108 S50.04
M104 S244.326
;M108 S24.88
G1 X4.97 Y2.66 Z18.9 F2386.128
;M101
G1 X4.97 Y27.47 Z18.9 F1193.064 E7932.825
G1 X29.79 Y27.47 Z18.9 F1193.064 E7963.879
G1 X29.79 Y2.66 Z18.9 F1193.064 E7994.932
G1 X4.97 Y2.66 Z18.9 F1193.064 E8025.985
;M103
M104 S245.0
;M108 S37.53
;M108 S50.04
M104 S244.326
;M108 S24.88
G1 X4.97 Y2.66 Z19.2 F2386.128
;M101
G1 X4.97 Y27.47 Z19.2 F1193.064 E8057.038
G1 X29.79 Y27.47 Z19.2 F1193.064 E8088.091
G1 X29.79 Y2.66 Z19.2 F1193.064 E8119.144
G1 X4.97 Y2.66 Z19.2 F1193.064 E8150.197
;M103
M104 S245.0
;M108 S37.53
;M108 S50.04
M104 S244.326
;M108 S24.88
G1 X4.97 Y2.66 Z19.5 F2386.128
;M101
G1 X4.97 Y27.47 Z19.5 F1193.064 E8181.25
G1 X29.79 Y27.47 Z19.5 F1193.064 E8212.303
G1 X29.79 Y2.66 Z19.5 F1193.064 E8243.356
G1 X4.97 Y2.66 Z19.5 F1193.064 E8274.409
;M103
M104 S245.0
;M108 S37.53
;M108 S50.04
M104 S244.326
;M108 S24.88
G1 X4.97 Y2.66 Z19.8 F2386.128
;M101
G1 X4.97 Y27.47 Z19.8 F1193.064 E8305.462
G1 X29.79 Y27.47 Z19.8 F1193.064 E8336.515
G1 X29.79 Y2.66 Z19.8 F1193.064 E8367.569
G1 X4.97 Y2.66 Z19.8 F1193.064 E8398.622
;M103
M104 S245.0
;M108 S37.53
;M108 S50.04
M104 S244.326
;M108 S24.88
G1 X4.97 Y2.66 Z20.1 F2386.128
;M101
G1 X4.97 Y27.47 Z20.1 F1193.064 E8429.675
G1 X29.79 Y27.47 Z20.1 F1193.064 E8460.728
G1 X29.79 Y2.66 Z20.1 F1193.064 E8491.781
G1 X4.97 Y2.66 Z20.1 F1193.064 E8522.834
;M103
M104 S245.0
;M108 S37.53
;M108 S50.04
M104 S244.326
;M108 S24.88
G1 X4.97 Y2.66 Z20.4 F2386.128
;M101
G1 X4.97 Y27.47 Z20.4 F1193.064 E8553.887
G1 X29.79 Y27.47 Z20.4 F1193.064 E8584.94
G1 X29.79 Y2.66 Z20.4 F1193.064 E8615.993
G1 X4.97 Y2.66 Z20.4 F1193.064 E8647.046
;M103
M104 S245.0
;M108 S37.53
;M108 S50.04
M104 S244.326
;M108 S24.88
G1 X4.97 Y2.66 Z20.7 F2386.128
;M101
G1 X4.97 Y27.47 Z20.7 F1193.064 E8678.099
G1 X29.79 Y27.47 Z20.7 F1193.064 E8709.152
G1 X29.79 Y2.66 Z20.7 F1193.064 E8740.205
G1 X4.97 Y2.66 Z20.7 F1193.064 E8771.259
;M103
M104 S245.0
;M108 S37.53
;M108 S50.04
M104 S244.326
;M108 S24.88
G1 X4.97 Y2.66 Z21.0 F2386.128
;M101
G1 X4.97 Y27.47 Z21.0 F1193.064 E8802.312
G1 X29.79 Y27.47 Z21.0 F1193.064 E8833.365
G1 X29.79 Y2.66 Z21.0 F1193.064 E8864.418
G1 X4.97 Y2.66 Z21.0 F1193.064 E8895.471
;M103
M104 S245.0
;M108 S37.53
;M108 S50.04
M104 S244.326
;M108 S24.88
G1 X4.97 Y2.66 Z21.3 F2386.128
;M101
G1 X4.97 Y27.47 Z21.3 F1193.064 E8926.524
G1 X29.79 Y27.47 Z21.3 F1193.064 E8957.577
G1 X29.79 Y2.66 Z21.3 F1193.064 E8988.63
G1 X4.97 Y2.66 Z21.3 F1193.064 E9019.683
;M103
M104 S245.0
;M108 S37.53
;M108 S50.04
M104 S244.326
;M108 S24.88
G1 X4.97 Y2.66 Z21.6 F2386.128
;M101
G1 X4.97 Y27.47 Z21.6 F1193.064 E9050.736
G1 X29.79 Y27.47 Z21.6 F1193.064 E9081.789
G1 X29.79 Y2.66 Z21.6 F1193.064 E9112.842
G1 X4.97 Y2.66 Z21.6 F1193.064 E9143.896
;M103
M104 S245.0
;M108 S37.53
;M108 S50.04
M104 S244.326
;M108 S24.88
G1 X4.97 Y2.66 Z21.9 F2386.128
;M101
G1 X4.97 Y27.47 Z21.9 F1193.064 E9174.949
G1 X29.79 Y27.47 Z21.9 F1193.064 E9206.002
G1 X29.79 Y2.66 Z21.9 F1193.064 E9237.055
G1 X4.97 Y2.66 Z21.9 F1193.064 E9268.108
;M103
M104 S245.0
;M108 S37.53
;M108 S50.04
M104 S244.326
;M108 S24.88
G1 X4.97 Y2.66 Z22.2 F2386.128
;M101
G1 X4.97 Y27.47 Z22.2 F1193.064 E9299.161
G1 X29.79 Y27.47 Z22.2 F1193.064 E9330.214
G1 X29.79 Y2.66 Z22.2 F1193.064 E9361.267
G1 X4.97 Y2.66 Z22.2 F1193.064 E9392.32
;M103
M104 S245.0
;M108 S37.53
;M108 S50.04
M104 S244.326
;M108 S24.88
G1 X4.97 Y2.66 Z22.5 F2386.128
;M101
G1 X4.97 Y27.47 Z22.5 F1193.064 E9423.373
G1 X29.79 Y27.47 Z22.5 F1193.064 E9454.426
G1 X29.79 Y2.66 Z22.5 F1193.064 E9485.479
G1 X4.97 Y2.66 Z22.5 F1193.064 E9516.532
;M103
M104 S245.0
;M108 S37.53
;M108 S50.04
M104 S244.326
;M108 S24.88
G1 X4.97 Y2.66 Z22.8 F2386.128
;M101
G1 X4.97 Y27.47 Z22.8 F1193.064 E9547.586
G1 X29.79 Y27.47 Z22.8 F1193.064 E9578.639
G1 X29.79 Y2.66 Z22.8 F1193.064 E9609.692
G1 X4.97 Y2.66 Z22.8 F1193.064 E9640.745
;M103
M104 S245.0
;M108 S37.53
;M108 S50.04
M104 S244.326
;M108 S24.88
G1 X4.97 Y2.66 Z23.1 F2386.128
;M101
G1 X4.97 Y27.47 Z23.1 F1193.064 E9671.798
G1 X29.79 Y27.47 Z23.1 F1193.064 E9702.851
G1 X29.79 Y2.66 Z23.1 F1193.064 E9733.904
G1 X4.97 Y2.66 Z23.1 F1193.064 E9764.957
;M103
M104 S245.0
;M108 S37.53
;M108 S50.04
M104 S244.326
;M108 S24.88
G1 X4.97 Y2.66 Z23.4 F2386.128
;M101
G1 X4.97 Y27.47 Z23.4 F1193.064 E9796.01
G1 X29.79 Y27.47 Z23.4 F1193.064 E9827.063
G1 X29.79 Y2.66 Z23.4 F1193.064 E9858.116
G1 X4.97 Y2.66 Z23.4 F1193.064 E9889.169
;M103
M104 S245.0
;M108 S37.53
;M108 S50.04
M104 S244.326
;M108 S24.88
G1 X4.97 Y2.66 Z23.7 F2386.128
;M101
G1 X4.97 Y27.47 Z23.7 F1193.064 E9920.222
G1 X29.79 Y27.47 Z23.7 F1193.064 E9951.276
G1 X29.79 Y2.66 Z23.7 F1193.064 E9982.329
G1 X4.97 Y2.66 Z23.7 F1193.064 E10013.382
;M103
M104 S245.0
;M108 S37.53
;M108 S50.04
M104 S244.326
;M108 S24.88
G1 X4.97 Y2.66 Z24.0 F2386.128
;M101
G1 X4.97 Y27.47 Z24.0 F1193.064 E10044.435
G1 X29.79 Y27.47 Z24.0 F1193.064 E10075.488
G1 X29.79 Y2.66 Z24.0 F1193.064 E10106.541
G1 X4.97 Y2.66 Z24.0 F1193.064 E10137.594
;M103
M104 S245.0
;M108 S37.53
;M108 S50.04
M104 S244.326
;M108 S24.88
G1 X4.97 Y2.66 Z24.3 F2386.128
;M101
G1 X4.97 Y27.47 Z24.3 F1193.064 E10168.647
G1 X29.79 Y27.47 Z24.3 F1193.064 E10199.7
G1 X29.79 Y2.66 Z24.3 F1193.064 E10230.753
G1 X4.97 Y2.66 Z24.3 F1193.064 E10261.806
;M103
M104 S245.0
;M108 S37.53
;M108 S50.04
M104 S244.326
;M108 S24.88
G1 X4.97 Y2.66 Z24.6 F2386.128
;M101
G1 X4.97 Y27.47 Z24.6 F1193.064 E10292.859
G1 X29.79 Y27.47 Z24.6 F1193.064 E10323.913
G1 X29.79 Y2.66 Z24.6 F1193.064 E10354.966
G1 X4.97 Y2.66 Z24.6 F1193.064 E10386.019
;M103
M104 S245.0
;M108 S37.53
;M108 S50.04
M104 S244.326
;M108 S24.88
G1 X4.97 Y2.66 Z24.9 F2386.128
;M101
G1 X4.97 Y27.47 Z24.9 F1193.064 E10417.072
G1 X29.79 Y27.47 Z24.9 F1193.064 E10448.125
G1 X29.79 Y2.66 Z24.9 F1193.064 E10479.178
G1 X4.97 Y2.66 Z24.9 F1193.064 E10510.231
;M103
M104 S245.0
;M108 S37.53
;M108 S50.04
M104 S244.326
;M108 S24.88
G1 X4.97 Y2.66 Z25.2 F2386.128
;M101
G1 X4.97 Y27.47 Z25.2 F1193.064 E10541.284
G1 X29.79 Y27.47 Z25.2 F1193.064 E10572.337
G1 X29.79 Y2.66 Z25.2 F1193.064 E10603.39
G1 X4.97 Y2.66 Z25.2 F1193.064 E10634.443
;M103
M104 S245.0
;M108 S37.53
M104 S0
;M103
M104 S0 (end.gcode v2.0 - turning off extruder )
G90 (absolute positioning - end of end.gcode)
G92 X0 Y0 Z0 (set current as home position)
G92 E0 (reset extrusion position)
G1 X-20.0 F3000.0 (rapidly move extruder away from the object, hopefully)
G1 Z10.0 F400.0 (platform down a little more)
G90 (absolute positioning - end of end.gcode)
M113 S0.0
M107
