G21 (This is GCode, generated with Skeinforge version 35 from ReplicatorG)
G21 (Ultimaker profile - Quality print from alterations/start.gcode)
G21 (Metric: The unit is a millimeter)
M18 (Disable motors for now, to allow manual moving of the head)
G90 (Absolute positioning)
G92 X0 Y0 Z0 E0 (set origin to current position)
G21 (end of start.txt)
G90
G21
;M103
M105
M106
M113 S1.0
;M108 S50.04
M104 S245.0
;M108 S52.54
G1 X-12.79 Y-12.79 Z0.3 F1620.0
;M101
G1 X-12.79 Y12.79 Z0.3 F1620.0 E49.781
G1 X12.79 Y12.79 Z0.3 F1620.0 E99.561
G1 X12.79 Y-12.79 Z0.3 F1620.0 E149.342
G1 X-12.79 Y-12.79 Z0.3 F1620.0 E199.123
;M103
G1 X8.76 Y-9.02 Z0.3 F2880.0
;M101
G1 X9.02 Y-8.76 Z0.3 F1920.0 E199.726
G1 X9.02 Y-8.16 Z0.3 F1920.0 E200.698
G1 X8.16 Y-9.02 Z0.3 F1920.0 E202.677
G1 X7.57 Y-9.02 Z0.3 F1920.0 E203.65
G1 X9.02 Y-7.57 Z0.3 F1920.0 E207.006
G1 X9.02 Y-6.98 Z0.3 F1920.0 E207.978
G1 X6.98 Y-9.02 Z0.3 F1920.0 E212.707
G1 X6.39 Y-9.02 Z0.3 F1920.0 E213.681
G1 X9.02 Y-6.39 Z0.3 F1920.0 E219.788
G1 X9.02 Y-5.79 Z0.3 F1920.0 E220.76
G1 X5.79 Y-9.02 Z0.3 F1920.0 E228.241
G1 X5.2 Y-9.02 Z0.3 F1920.0 E229.213
G1 X9.02 Y-5.2 Z0.3 F1920.0 E238.069
G1 X9.02 Y-4.61 Z0.3 F1920.0 E239.043
G1 X4.61 Y-9.02 Z0.3 F1920.0 E249.276
G1 X4.02 Y-9.02 Z0.3 F1920.0 E250.248
G1 X9.02 Y-4.02 Z0.3 F1920.0 E261.855
G1 X9.02 Y-3.43 Z0.3 F1920.0 E262.827
G1 X3.43 Y-9.02 Z0.3 F1920.0 E275.809
G1 X2.83 Y-9.02 Z0.3 F1920.0 E276.783
G1 X9.02 Y-2.83 Z0.3 F1920.0 E291.142
G1 X9.02 Y-2.24 Z0.3 F1920.0 E292.114
G1 X2.24 Y-9.02 Z0.3 F1920.0 E307.847
G1 X1.65 Y-9.02 Z0.3 F1920.0 E308.821
G1 X9.02 Y-1.65 Z0.3 F1920.0 E325.932
G1 X9.02 Y-1.06 Z0.3 F1920.0 E326.904
G1 X1.06 Y-9.02 Z0.3 F1920.0 E345.389
G1 X0.46 Y-9.02 Z0.3 F1920.0 E346.361
G1 X9.02 Y-0.46 Z0.3 F1920.0 E366.22
G1 X9.02 Y0.13 Z0.3 F1920.0 E367.194
G1 X-0.13 Y-9.02 Z0.3 F1920.0 E388.431
G1 X-0.72 Y-9.02 Z0.3 F1920.0 E389.403
G1 X9.02 Y0.72 Z0.3 F1920.0 E412.014
G1 X9.02 Y1.32 Z0.3 F1920.0 E412.988
G1 X-1.32 Y-9.02 Z0.3 F1920.0 E436.976
G1 X-1.91 Y-9.02 Z0.3 F1920.0 E437.948
G1 X9.02 Y1.91 Z0.3 F1920.0 E463.311
G1 X9.02 Y2.5 Z0.3 F1920.0 E464.283
G1 X-2.5 Y-9.02 Z0.3 F1920.0 E491.02
G1 X-3.09 Y-9.02 Z0.3 F1920.0 E491.994
G1 X9.02 Y3.09 Z0.3 F1920.0 E520.108
G1 X9.02 Y3.68 Z0.3 F1920.0 E521.08
G1 X-3.68 Y-9.02 Z0.3 F1920.0 E550.569
G1 X-4.28 Y-9.02 Z0.3 F1920.0 E551.541
G1 X9.02 Y4.28 Z0.3 F1920.0 E582.404
G1 X9.02 Y4.87 Z0.3 F1920.0 E583.378
G1 X-4.87 Y-9.02 Z0.3 F1920.0 E615.618
G1 X-5.46 Y-9.02 Z0.3 F1920.0 E616.59
G1 X9.02 Y5.46 Z0.3 F1920.0 E650.205
G1 X9.02 Y6.05 Z0.3 F1920.0 E651.179
G1 X-6.05 Y-9.02 Z0.3 F1920.0 E686.171
G1 X-6.65 Y-9.02 Z0.3 F1920.0 E687.143
G1 X9.02 Y6.65 Z0.3 F1920.0 E723.51
G1 X9.02 Y7.24 Z0.3 F1920.0 E724.482
G1 X-7.24 Y-9.02 Z0.3 F1920.0 E762.223
G1 X-7.83 Y-9.02 Z0.3 F1920.0 E763.196
G1 X9.02 Y7.83 Z0.3 F1920.0 E802.314
G1 X9.02 Y8.42 Z0.3 F1920.0 E803.286
G1 X-8.42 Y-9.02 Z0.3 F1920.0 E843.779
G1 X-9.02 Y-9.02 Z0.3 F1920.0 E844.753
G1 X9.02 Y9.02 Z0.3 F1920.0 E886.622
G1 X8.42 Y9.02 Z0.3 F1920.0 E887.596
G1 X-9.02 Y-8.42 Z0.3 F1920.0 E928.089
G1 X-9.02 Y-7.83 Z0.3 F1920.0 E929.061
G1 X7.83 Y9.02 Z0.3 F1920.0 E968.179
G1 X7.24 Y9.02 Z0.3 F1920.0 E969.152
G1 X-9.02 Y-7.24 Z0.3 F1920.0 E1006.894
G1 X-9.02 Y-6.65 Z0.3 F1920.0 E1007.866
G1 X6.65 Y9.02 Z0.3 F1920.0 E1044.232
G1 X6.05 Y9.02 Z0.3 F1920.0 E1045.204
G1 X-9.02 Y-6.05 Z0.3 F1920.0 E1080.196
G1 X-9.02 Y-5.46 Z0.3 F1920.0 E1081.17
G1 X5.46 Y9.02 Z0.3 F1920.0 E1114.785
G1 X4.87 Y9.02 Z0.3 F1920.0 E1115.757
G1 X-9.02 Y-4.87 Z0.3 F1920.0 E1147.997
G1 X-9.02 Y-4.28 Z0.3 F1920.0 E1148.971
G1 X4.28 Y9.02 Z0.3 F1920.0 E1179.834
G1 X3.68 Y9.02 Z0.3 F1920.0 E1180.806
G1 X-9.02 Y-3.68 Z0.3 F1920.0 E1210.295
G1 X-9.02 Y-3.09 Z0.3 F1920.0 E1211.267
G1 X3.09 Y9.02 Z0.3 F1920.0 E1239.382
G1 X2.5 Y9.02 Z0.3 F1920.0 E1240.355
G1 X-9.02 Y-2.5 Z0.3 F1920.0 E1267.093
G1 X-9.02 Y-1.91 Z0.3 F1920.0 E1268.065
G1 X1.91 Y9.02 Z0.3 F1920.0 E1293.427
G1 X1.32 Y9.02 Z0.3 F1920.0 E1294.399
G1 X-9.02 Y-1.32 Z0.3 F1920.0 E1318.388
G1 X-9.02 Y-0.72 Z0.3 F1920.0 E1319.361
G1 X0.72 Y9.02 Z0.3 F1920.0 E1341.972
G1 X0.13 Y9.02 Z0.3 F1920.0 E1342.944
G1 X-9.02 Y-0.13 Z0.3 F1920.0 E1364.181
G1 X-9.02 Y0.46 Z0.3 F1920.0 E1365.155
G1 X-0.46 Y9.02 Z0.3 F1920.0 E1385.015
G1 X-1.06 Y9.02 Z0.3 F1920.0 E1385.987
G1 X-9.02 Y1.06 Z0.3 F1920.0 E1404.472
G1 X-9.02 Y1.65 Z0.3 F1920.0 E1405.444
G1 X-1.65 Y9.02 Z0.3 F1920.0 E1422.554
G1 X-2.24 Y9.02 Z0.3 F1920.0 E1423.528
G1 X-9.02 Y2.24 Z0.3 F1920.0 E1439.261
G1 X-9.02 Y2.83 Z0.3 F1920.0 E1440.233
G1 X-2.83 Y9.02 Z0.3 F1920.0 E1454.592
G1 X-3.43 Y9.02 Z0.3 F1920.0 E1455.566
G1 X-9.02 Y3.43 Z0.3 F1920.0 E1468.548
G1 X-9.02 Y4.02 Z0.3 F1920.0 E1469.52
G1 X-4.02 Y9.02 Z0.3 F1920.0 E1481.128
G1 X-4.61 Y9.02 Z0.3 F1920.0 E1482.1
G1 X-9.02 Y4.61 Z0.3 F1920.0 E1492.332
G1 X-9.02 Y5.2 Z0.3 F1920.0 E1493.306
G1 X-5.2 Y9.02 Z0.3 F1920.0 E1502.162
G1 X-5.79 Y9.02 Z0.3 F1920.0 E1503.134
G1 X-9.02 Y5.79 Z0.3 F1920.0 E1510.615
G1 X-9.02 Y6.39 Z0.3 F1920.0 E1511.587
G1 X-6.39 Y9.02 Z0.3 F1920.0 E1517.694
G1 X-6.98 Y9.02 Z0.3 F1920.0 E1518.668
G1 X-9.02 Y6.98 Z0.3 F1920.0 E1523.398
G1 X-9.02 Y7.57 Z0.3 F1920.0 E1524.37
G1 X-7.57 Y9.02 Z0.3 F1920.0 E1527.725
G1 X-8.16 Y9.02 Z0.3 F1920.0 E1528.699
G1 X-9.02 Y8.16 Z0.3 F1920.0 E1530.677
G1 X-9.02 Y8.76 Z0.3 F1920.0 E1531.649
G1 X-8.76 Y9.02 Z0.3 F1920.0 E1532.253
;M103
G1 X-8.86 Y9.37 Z0.3 F3600.0
;M101
G1 X-9.37 Y9.37 Z0.3 F1920.0 E1533.101
G1 X-9.37 Y-9.37 Z0.3 F1920.0 E1563.877
G1 X9.37 Y-9.37 Z0.3 F1920.0 E1594.652
G1 X9.37 Y9.37 Z0.3 F1920.0 E1625.427
G1 X-8.76 Y9.37 Z0.3 F1920.0 E1655.191
G1 X-8.86 Y9.37 Z0.3 F1920.0 E1655.354
;M103
;M108 S37.53
;M108 S39.41
G1 X-8.76 Y9.79 Z0.3 F3600.0
;M101
G1 X-9.79 Y9.79 Z0.3 F1620.0 E1656.864
G1 X-9.79 Y-9.79 Z0.3 F1620.0 E1685.447
G1 X9.79 Y-9.79 Z0.3 F1620.0 E1714.029
G1 X9.79 Y9.79 Z0.3 F1620.0 E1742.612
G1 X-8.76 Y9.79 Z0.3 F1620.0 E1769.684
;M103
M104 S0
;M103
M104 S0 (end.gcode v2.0 - turning off extruder )
G90 (absolute positioning - end of end.gcode)
G92 X0 Y0 Z0 (set current as home position)
G92 E0 (reset extrusion position)
G1 X-20.0 F3000.0 (rapidly move extruder away from the object, hopefully)
G1 Z10.0 F400.0 (platform down a little more)
G90 (absolute positioning - end of end.gcode)
M113 S0.0
M107
