G21 (This is GCode, generated with Skeinforge version 35 from ReplicatorG)
G21 (Ultimaker profile - Quality print - alterations/start-centered.gcode)
G21 (Metric: The unit is a millimeter)
M18 (Disable motors for now, to allow manual moving of the head)
G90 (Absolute Positioning)
G92 X0 Y0 Z0 E0 (set origin to current position)
M1 (Check if the platform is empty before continuing)
G1 X-220.0 Y-220.0 F2000 (ensure you're in the front left corner)
G92 X-110 Y-110 Z220 E0 (make the center the origin)
G1 X0.0 Y0.0 F3000 (go back to the center)
G1 Z210.0 F100 (let the platform go up slightly, start slowly)
G1 Z0.0 F400 (we don't have all day...)
G92 X0 Y0 Z0 E0 (make the center the origin)
G91 (Relative positioning)
G1 Z35.0 F400 (lower platform for cleaning nozzle)
G92 E0 (zero the extruded length)
G1 E260 F1000 (extrude some to get the flow going)
G1 E-20 F3000 (reverse a little)
G92 E0 (zero the extruded length)
M1 (Clean the nozzle and press YES to continue...)
G1 Z-1.0 F100 (rise platform again)
G1 Z-34.0 F400 (rise platform again)
G90 
G1 Z0.4
G92 E0 (zero the extruded length)
G21 (end of start .gcode file)
G90
G21
;M103
M105
M106
M113 S1.0
;M108 S50.04
M104 S245.0
G1 X-21.86 Y-31.44 Z0.53 F360.0
;M101
G1 X-21.86 Y31.44 Z0.53 F360.0 E524.436
G1 X21.86 Y31.44 Z0.53 F360.0 E888.977
G1 X21.86 Y-31.44 Z0.53 F360.0 E1413.413
G1 X-21.86 Y-31.44 Z0.53 F360.0 E1777.955
;M103
G1 X-18.86 Y1.82 Z0.53 F360.0
;M101
G1 X-18.86 Y8.42 Z0.53 F360.0 E1833.015
G1 X-16.76 Y11.22 Z0.53 F360.0 E1862.134
G1 X-16.76 Y1.36 Z0.53 F360.0 E1944.366
G1 X-14.67 Y0.42 Z0.53 F360.0 E1963.486
G1 X-14.67 Y14.01 Z0.53 F360.0 E2076.785
;M103
G1 X-12.57 Y22.85 Z0.53 F360.0
;M101
G1 X-12.57 Y-4.7 Z0.53 F360.0 E2306.56
;M103
G1 X-10.48 Y-12.61 Z0.53 F360.0
;M101
G1 X-10.48 Y26.58 Z0.53 F360.0 E2633.413
G1 X-8.38 Y27.51 Z0.53 F360.0 E2652.533
G1 X-8.38 Y-27.98 Z0.53 F360.0 E3115.278
G1 X-10.48 Y-27.98 Z0.53 F360.0 E3132.75
G1 X-10.48 Y-14.86 Z0.53 F360.0 E3242.162
G1 X-12.57 Y-16.72 Z0.53 F360.0 E3265.538
G1 X-12.57 Y-26.58 Z0.53 F360.0 E3347.779
G1 X-14.67 Y-25.65 Z0.53 F360.0 E3366.902
G1 X-14.67 Y-19.05 Z0.53 F360.0 E3421.955
;M103
G1 X-4.19 Y-25.18 Z0.53 F360.0
;M101
G1 X-4.19 Y28.44 Z0.53 F360.0 E3869.171
G1 X-6.29 Y28.44 Z0.53 F360.0 E3886.643
G1 X-6.29 Y-27.98 Z0.53 F360.0 E4357.152
G1 X-2.1 Y-23.32 Z0.53 F360.0 E4409.386
G1 X-2.1 Y27.04 Z0.53 F360.0 E4829.421
G1 X0.0 Y26.58 Z0.53 F360.0 E4847.319
G1 X0.0 Y-24.25 Z0.53 F360.0 E5271.241
G1 X2.1 Y-26.11 Z0.53 F360.0 E5294.617
G1 X2.1 Y27.51 Z0.53 F360.0 E5741.833
G1 X4.19 Y27.98 Z0.53 F360.0 E5759.73
G1 X4.19 Y-27.51 Z0.53 F360.0 E6222.475
G1 X6.29 Y-28.44 Z0.53 F360.0 E6241.595
G1 X6.29 Y27.98 Z0.53 F360.0 E6712.105
G1 X8.38 Y25.65 Z0.53 F360.0 E6738.224
G1 X8.38 Y-28.44 Z0.53 F360.0 E7189.318
G1 X10.48 Y-27.51 Z0.53 F360.0 E7208.438
G1 X10.48 Y23.32 Z0.53 F360.0 E7632.36
G1 X12.57 Y24.72 Z0.53 F360.0 E7653.356
G1 X12.57 Y-25.18 Z0.53 F360.0 E8069.506
;M103
G1 X14.67 Y-20.06 Z0.53 F360.0
;M101
G1 X14.67 Y24.72 Z0.53 F360.0 E8442.946
G1 X16.76 Y23.79 Z0.53 F360.0 E8462.066
G1 X16.76 Y12.99 Z0.53 F360.0 E8552.063
G1 X18.86 Y15.32 Z0.53 F360.0 E8578.176
G1 X18.86 Y22.39 Z0.53 F360.0 E8637.123
;M103
G1 X-18.88 Y1.86 Z0.89 F2400.0
;M101
G1 X14.69 Y1.86 Z0.89 F2400.0 E8679.11
G1 X14.69 Y2.33 Z0.89 F2400.0 E8679.692
G1 X-18.88 Y2.33 Z0.89 F2400.0 E8721.679
G1 X-18.88 Y2.79 Z0.89 F2400.0 E8722.26
G1 X14.69 Y2.79 Z0.89 F2400.0 E8764.246
G1 X14.69 Y3.26 Z0.89 F2400.0 E8764.829
G1 X-18.88 Y3.26 Z0.89 F2400.0 E8806.815
G1 X-18.88 Y3.72 Z0.89 F2400.0 E8807.397
G1 X14.69 Y3.72 Z0.89 F2400.0 E8849.383
G1 X14.69 Y4.19 Z0.89 F2400.0 E8849.966
G1 X-18.88 Y4.19 Z0.89 F2400.0 E8891.952
G1 X-18.88 Y4.66 Z0.89 F2400.0 E8892.535
G1 X14.69 Y4.66 Z0.89 F2400.0 E8934.521
G1 X14.69 Y5.12 Z0.89 F2400.0 E8935.103
G1 X-18.88 Y5.12 Z0.89 F2400.0 E8977.089
G1 X-18.88 Y5.59 Z0.89 F2400.0 E8977.672
G1 X14.69 Y5.59 Z0.89 F2400.0 E9019.658
G1 X14.69 Y6.05 Z0.89 F2400.0 E9020.24
G1 X-18.88 Y6.05 Z0.89 F2400.0 E9062.226
G1 X-18.88 Y6.52 Z0.89 F2400.0 E9062.809
G1 X14.69 Y6.52 Z0.89 F2400.0 E9104.795
G1 X14.69 Y6.98 Z0.89 F2400.0 E9105.376
G1 X-18.88 Y6.98 Z0.89 F2400.0 E9147.363
G1 X-18.88 Y7.45 Z0.89 F2400.0 E9147.946
G1 X14.69 Y7.45 Z0.89 F2400.0 E9189.932
G1 X14.69 Y7.91 Z0.89 F2400.0 E9190.513
G1 X-18.88 Y7.91 Z0.89 F2400.0 E9232.499
G1 X-18.88 Y8.38 Z0.89 F2400.0 E9233.082
G1 X14.69 Y8.38 Z0.89 F2400.0 E9275.068
G1 X14.69 Y8.85 Z0.89 F2400.0 E9275.651
G1 X-16.78 Y8.85 Z0.89 F2400.0 E9315.017
G1 X-16.78 Y9.31 Z0.89 F2400.0 E9315.598
G1 X14.69 Y9.31 Z0.89 F2400.0 E9354.964
G1 X14.69 Y9.78 Z0.89 F2400.0 E9355.546
G1 X-16.78 Y9.78 Z0.89 F2400.0 E9394.912
G1 X-16.78 Y10.24 Z0.89 F2400.0 E9395.493
G1 X14.69 Y10.24 Z0.89 F2400.0 E9434.859
G1 X14.69 Y10.71 Z0.89 F2400.0 E9435.442
G1 X-16.78 Y10.71 Z0.89 F2400.0 E9474.807
G1 X-16.78 Y11.17 Z0.89 F2400.0 E9475.389
G1 X14.69 Y11.17 Z0.89 F2400.0 E9514.754
G1 X14.69 Y11.64 Z0.89 F2400.0 E9515.337
G1 X4.17 Y11.64 Z0.89 F2400.0 E9528.493
G1 X4.17 Y12.1 Z0.89 F2400.0 E9529.075
G1 X14.69 Y12.1 Z0.89 F2400.0 E9542.232
G1 X14.69 Y12.57 Z0.89 F2400.0 E9542.815
G1 X4.17 Y12.57 Z0.89 F2400.0 E9555.972
G1 X4.17 Y13.04 Z0.89 F2400.0 E9556.555
G1 X16.78 Y13.04 Z0.89 F2400.0 E9572.332
G1 X16.78 Y13.5 Z0.89 F2400.0 E9572.914
G1 X4.17 Y13.5 Z0.89 F2400.0 E9588.692
G1 X4.17 Y13.97 Z0.89 F2400.0 E9589.275
G1 X16.78 Y13.97 Z0.89 F2400.0 E9605.052
G1 X16.78 Y14.43 Z0.89 F2400.0 E9605.634
G1 X4.17 Y14.43 Z0.89 F2400.0 E9621.411
G1 X4.17 Y14.9 Z0.89 F2400.0 E9621.994
G1 X16.78 Y14.9 Z0.89 F2400.0 E9637.772
;M103
G1 X-12.59 Y15.83 Z0.89 F2400.0
;M101
G1 X18.88 Y15.83 Z0.89 F2400.0 E9677.137
G1 X18.88 Y16.29 Z0.89 F2400.0 E9677.719
G1 X-12.59 Y16.29 Z0.89 F2400.0 E9717.084
G1 X-12.59 Y16.76 Z0.89 F2400.0 E9717.667
G1 X18.88 Y16.76 Z0.89 F2400.0 E9757.032
G1 X18.88 Y17.23 Z0.89 F2400.0 E9757.615
G1 X-12.59 Y17.23 Z0.89 F2400.0 E9796.981
G1 X-12.59 Y17.69 Z0.89 F2400.0 E9797.562
G1 X18.88 Y17.69 Z0.89 F2400.0 E9836.928
G1 X18.88 Y18.16 Z0.89 F2400.0 E9837.51
G1 X-12.59 Y18.16 Z0.89 F2400.0 E9876.876
G1 X-12.59 Y18.62 Z0.89 F2400.0 E9877.457
G1 X18.88 Y18.62 Z0.89 F2400.0 E9916.823
G1 X18.88 Y19.09 Z0.89 F2400.0 E9917.406
G1 X-12.59 Y19.09 Z0.89 F2400.0 E9956.771
G1 X-12.59 Y19.55 Z0.89 F2400.0 E9957.353
G1 X18.88 Y19.55 Z0.89 F2400.0 E9996.718
G1 X18.88 Y20.02 Z0.89 F2400.0 E9997.301
G1 X-12.59 Y20.02 Z0.89 F2400.0 E10036.666
G1 X-12.59 Y20.48 Z0.89 F2400.0 E10037.248
G1 X18.88 Y20.48 Z0.89 F2400.0 E10076.613
G1 X18.88 Y20.95 Z0.89 F2400.0 E10077.196
G1 X-12.59 Y20.95 Z0.89 F2400.0 E10116.561
G1 X-12.59 Y21.42 Z0.89 F2400.0 E10117.144
G1 X18.88 Y21.42 Z0.89 F2400.0 E10156.509
G1 X18.88 Y21.88 Z0.89 F2400.0 E10157.091
G1 X-12.59 Y21.88 Z0.89 F2400.0 E10196.456
G1 X-12.59 Y22.35 Z0.89 F2400.0 E10197.039
G1 X18.88 Y22.35 Z0.89 F2400.0 E10236.404
;M103
G1 X16.78 Y22.81 Z0.89 F2400.0
;M101
G1 X-12.59 Y22.81 Z0.89 F2400.0 E10273.149
G1 X-10.5 Y24.21 Z0.89 F2400.0 E10276.299
G1 X8.4 Y24.21 Z0.89 F2400.0 E10299.939
G1 X8.4 Y23.74 Z0.89 F2400.0 E10300.522
G1 X-10.5 Y23.74 Z0.89 F2400.0 E10324.162
G1 X-10.5 Y23.28 Z0.89 F2400.0 E10324.744
G1 X16.78 Y23.28 Z0.89 F2400.0 E10358.867
G1 X16.78 Y23.74 Z0.89 F2400.0 E10359.449
G1 X12.55 Y23.74 Z0.89 F2400.0 E10364.743
G1 X12.55 Y24.21 Z0.89 F2400.0 E10365.326
G1 X14.69 Y24.21 Z0.89 F2400.0 E10368.0
G1 X14.69 Y24.67 Z0.89 F2400.0 E10368.581
G1 X-10.5 Y24.67 Z0.89 F2400.0 E10400.084
G1 X-10.5 Y25.14 Z0.89 F2400.0 E10400.667
G1 X8.4 Y25.14 Z0.89 F2400.0 E10424.307
G1 X8.4 Y25.61 Z0.89 F2400.0 E10424.89
G1 X-0.02 Y25.61 Z0.89 F2400.0 E10435.426
G1 X-0.02 Y26.07 Z0.89 F2400.0 E10436.008
G1 X6.31 Y26.07 Z0.89 F2400.0 E10443.923
G1 X6.31 Y26.54 Z0.89 F2400.0 E10444.506
G1 X-10.5 Y26.54 Z0.89 F2400.0 E10465.525
G1 X-10.5 Y26.07 Z0.89 F2400.0 E10466.108
G1 X-2.07 Y26.07 Z0.89 F2400.0 E10476.644
G1 X-2.07 Y25.61 Z0.89 F2400.0 E10477.226
G1 X-10.5 Y25.61 Z0.89 F2400.0 E10487.762
;M103
G1 X-6.31 Y27.93 Z0.89 F2400.0
;M101
G1 X-4.17 Y27.93 Z0.89 F2400.0 E10490.435
G1 X-4.17 Y28.4 Z0.89 F2400.0 E10491.018
G1 X-6.31 Y28.4 Z0.89 F2400.0 E10493.691
;M103
G1 X2.07 Y27.47 Z0.89 F2400.0
;M101
G1 X6.31 Y27.47 Z0.89 F2400.0 E10498.986
G1 X6.31 Y27.93 Z0.89 F2400.0 E10499.567
G1 X4.17 Y27.93 Z0.89 F2400.0 E10502.241
G1 X-4.17 Y27.47 Z0.89 F2400.0 E10512.688
G1 X-8.4 Y27.47 Z0.89 F2400.0 E10517.982
G1 X-8.4 Y27.0 Z0.89 F2400.0 E10518.565
G1 X6.31 Y27.0 Z0.89 F2400.0 E10536.963
;M103
G1 X2.12 Y13.97 Z0.89 F2400.0
;M101
G1 X-14.69 Y13.97 Z0.89 F2400.0 E10557.983
G1 X-14.69 Y13.5 Z0.89 F2400.0 E10558.566
G1 X2.12 Y13.5 Z0.89 F2400.0 E10579.585
G1 X2.12 Y13.04 Z0.89 F2400.0 E10580.167
G1 X-14.69 Y13.04 Z0.89 F2400.0 E10601.186
G1 X-14.69 Y12.57 Z0.89 F2400.0 E10601.769
G1 X2.12 Y12.57 Z0.89 F2400.0 E10622.788
G1 X2.12 Y12.1 Z0.89 F2400.0 E10623.371
G1 X-14.69 Y12.1 Z0.89 F2400.0 E10644.39
G1 X-14.69 Y11.64 Z0.89 F2400.0 E10644.972
G1 X2.12 Y11.64 Z0.89 F2400.0 E10665.992
;M103
G1 X-12.59 Y14.43 Z0.89 F2400.0
;M101
G1 X2.12 Y14.43 Z0.89 F2400.0 E10684.39
G1 X2.12 Y14.9 Z0.89 F2400.0 E10684.973
G1 X-12.59 Y14.9 Z0.89 F2400.0 E10703.371
G1 X-12.59 Y15.36 Z0.89 F2400.0 E10703.953
G1 X18.88 Y15.36 Z0.89 F2400.0 E10743.318
G1 X14.69 Y-0.47 Z0.89 F2400.0 E10763.802
G1 X-12.59 Y-0.47 Z0.89 F2400.0 E10797.926
G1 X-12.59 Y-0.93 Z0.89 F2400.0 E10798.508
G1 X14.69 Y-0.93 Z0.89 F2400.0 E10832.631
G1 X14.69 Y-1.4 Z0.89 F2400.0 E10833.214
G1 X-12.59 Y-1.4 Z0.89 F2400.0 E10867.338
G1 X-12.59 Y-1.86 Z0.89 F2400.0 E10867.919
G1 X14.69 Y-1.86 Z0.89 F2400.0 E10902.043
G1 X14.69 Y-2.33 Z0.89 F2400.0 E10902.626
G1 X-12.59 Y-2.33 Z0.89 F2400.0 E10936.749
G1 X-12.59 Y-2.79 Z0.89 F2400.0 E10937.331
G1 X14.69 Y-2.79 Z0.89 F2400.0 E10971.455
G1 X14.69 Y-3.26 Z0.89 F2400.0 E10972.038
G1 X-12.59 Y-3.26 Z0.89 F2400.0 E11006.161
G1 X-12.59 Y-3.72 Z0.89 F2400.0 E11006.743
G1 X14.69 Y-3.72 Z0.89 F2400.0 E11040.866
G1 X14.69 Y-4.19 Z0.89 F2400.0 E11041.449
G1 X-12.59 Y-4.19 Z0.89 F2400.0 E11075.573
G1 X-12.59 Y-4.66 Z0.89 F2400.0 E11076.156
G1 X14.69 Y-4.66 Z0.89 F2400.0 E11110.279
G1 X14.69 Y-5.12 Z0.89 F2400.0 E11110.861
G1 X-10.5 Y-5.12 Z0.89 F2400.0 E11142.364
G1 X-10.5 Y-5.59 Z0.89 F2400.0 E11142.947
G1 X14.69 Y-5.59 Z0.89 F2400.0 E11174.449
G1 X14.69 Y-6.05 Z0.89 F2400.0 E11175.031
G1 X-10.5 Y-6.05 Z0.89 F2400.0 E11206.534
G1 X-10.5 Y-6.52 Z0.89 F2400.0 E11207.117
G1 X14.69 Y-6.52 Z0.89 F2400.0 E11238.619
G1 X14.69 Y-6.98 Z0.89 F2400.0 E11239.201
G1 X-10.5 Y-6.98 Z0.89 F2400.0 E11270.704
G1 X-10.5 Y-7.45 Z0.89 F2400.0 E11271.287
G1 X14.69 Y-7.45 Z0.89 F2400.0 E11302.79
G1 X14.69 Y-7.91 Z0.89 F2400.0 E11303.371
G1 X-10.5 Y-7.91 Z0.89 F2400.0 E11334.874
G1 X-10.5 Y-8.38 Z0.89 F2400.0 E11335.457
G1 X14.69 Y-8.38 Z0.89 F2400.0 E11366.96
G1 X14.69 Y-8.85 Z0.89 F2400.0 E11367.543
G1 X-10.5 Y-8.85 Z0.89 F2400.0 E11399.045
G1 X-10.5 Y-9.31 Z0.89 F2400.0 E11399.627
G1 X14.69 Y-9.31 Z0.89 F2400.0 E11431.13
G1 X14.69 Y-9.78 Z0.89 F2400.0 E11431.713
G1 X-10.5 Y-9.78 Z0.89 F2400.0 E11463.215
G1 X-10.5 Y-10.24 Z0.89 F2400.0 E11463.797
G1 X14.69 Y-10.24 Z0.89 F2400.0 E11495.3
G1 X14.69 Y-10.71 Z0.89 F2400.0 E11495.883
G1 X-10.5 Y-10.71 Z0.89 F2400.0 E11527.385
G1 X-10.5 Y-11.17 Z0.89 F2400.0 E11527.967
G1 X14.69 Y-11.17 Z0.89 F2400.0 E11559.47
G1 X14.69 Y-11.64 Z0.89 F2400.0 E11560.053
G1 X-10.5 Y-11.64 Z0.89 F2400.0 E11591.555
G1 X-10.5 Y-12.1 Z0.89 F2400.0 E11592.137
G1 X14.69 Y-12.1 Z0.89 F2400.0 E11623.64
G1 X14.69 Y-12.57 Z0.89 F2400.0 E11624.223
G1 X-10.5 Y-12.57 Z0.89 F2400.0 E11655.725
G1 X-8.4 Y-13.97 Z0.89 F2400.0 E11658.875
G1 X14.69 Y-13.97 Z0.89 F2400.0 E11687.757
G1 X14.69 Y-14.43 Z0.89 F2400.0 E11688.339
G1 X-8.4 Y-14.43 Z0.89 F2400.0 E11717.221
G1 X-10.5 Y-14.9 Z0.89 F2400.0 E11719.906
G1 X-16.78 Y1.4 Z0.89 F2400.0 E11741.755
G1 X14.69 Y1.4 Z0.89 F2400.0 E11781.12
G1 X14.69 Y0.93 Z0.89 F2400.0 E11781.703
G1 X-14.69 Y0.93 Z0.89 F2400.0 E11818.447
G1 X-14.69 Y0.47 Z0.89 F2400.0 E11819.029
G1 X14.69 Y0.47 Z0.89 F2400.0 E11855.773
G1 X14.69 Y0.0 Z0.89 F2400.0 E11856.356
G1 X-12.59 Y0.0 Z0.89 F2400.0 E11890.48
;M103
G1 X-9.11 Y-14.9 Z0.89 F2400.0
;M101
G1 X14.69 Y-14.9 Z0.89 F2400.0 E11920.252
G1 X14.69 Y-15.36 Z0.89 F2400.0 E11920.834
G1 X-10.5 Y-15.36 Z0.89 F2400.0 E11952.337
G1 X-10.5 Y-15.83 Z0.89 F2400.0 E11952.92
G1 X14.69 Y-15.83 Z0.89 F2400.0 E11984.422
G1 X14.69 Y-16.29 Z0.89 F2400.0 E11985.004
G1 X-10.5 Y-16.29 Z0.89 F2400.0 E12016.507
G1 X-12.59 Y-16.76 Z0.89 F2400.0 E12019.192
;M103
G1 X-11.21 Y-16.76 Z0.89 F2400.0
;M101
G1 X14.69 Y-16.76 Z0.89 F2400.0 E12051.585
G1 X14.69 Y-17.23 Z0.89 F2400.0 E12052.168
G1 X-12.59 Y-17.23 Z0.89 F2400.0 E12086.291
G1 X-12.59 Y-17.69 Z0.89 F2400.0 E12086.873
G1 X14.69 Y-17.69 Z0.89 F2400.0 E12120.997
G1 X14.69 Y-18.16 Z0.89 F2400.0 E12121.58
G1 X-12.59 Y-18.16 Z0.89 F2400.0 E12155.703
G1 X-12.59 Y-18.62 Z0.89 F2400.0 E12156.285
G1 X14.69 Y-18.62 Z0.89 F2400.0 E12190.408
G1 X14.69 Y-19.09 Z0.89 F2400.0 E12190.991
G1 X-14.69 Y-19.09 Z0.89 F2400.0 E12227.736
G1 X-14.69 Y-19.55 Z0.89 F2400.0 E12228.317
G1 X14.69 Y-19.55 Z0.89 F2400.0 E12265.062
G1 X14.69 Y-20.02 Z0.89 F2400.0 E12265.645
G1 X-14.69 Y-20.02 Z0.89 F2400.0 E12302.389
G1 X-14.69 Y-20.48 Z0.89 F2400.0 E12302.971
G1 X12.59 Y-20.48 Z0.89 F2400.0 E12337.094
G1 X12.59 Y-20.95 Z0.89 F2400.0 E12337.677
G1 X-14.69 Y-20.95 Z0.89 F2400.0 E12371.801
G1 X-14.69 Y-21.42 Z0.89 F2400.0 E12372.384
G1 X12.59 Y-21.42 Z0.89 F2400.0 E12406.507
G1 X12.59 Y-21.88 Z0.89 F2400.0 E12407.089
G1 X-14.69 Y-21.88 Z0.89 F2400.0 E12441.213
G1 X-14.69 Y-22.35 Z0.89 F2400.0 E12441.796
G1 X12.59 Y-22.35 Z0.89 F2400.0 E12475.919
G1 X12.59 Y-22.81 Z0.89 F2400.0 E12476.501
G1 X-14.69 Y-22.81 Z0.89 F2400.0 E12510.624
G1 X-14.69 Y-23.28 Z0.89 F2400.0 E12511.207
G1 X-4.17 Y-23.28 Z0.89 F2400.0 E12524.364
G1 X-4.17 Y-23.74 Z0.89 F2400.0 E12524.946
G1 X-14.69 Y-23.74 Z0.89 F2400.0 E12538.103
G1 X-14.69 Y-24.21 Z0.89 F2400.0 E12538.686
G1 X-4.17 Y-24.21 Z0.89 F2400.0 E12551.842
G1 X-4.17 Y-24.67 Z0.89 F2400.0 E12552.424
G1 X-14.69 Y-24.67 Z0.89 F2400.0 E12565.581
G1 X-14.69 Y-25.14 Z0.89 F2400.0 E12566.164
G1 X-4.17 Y-25.14 Z0.89 F2400.0 E12579.321
G1 X-6.26 Y-26.54 Z0.89 F2400.0 E12582.471
G1 X-12.59 Y-26.54 Z0.89 F2400.0 E12590.386
G1 X-12.59 Y-26.07 Z0.89 F2400.0 E12590.969
G1 X-6.26 Y-26.07 Z0.89 F2400.0 E12598.884
G1 X-6.26 Y-25.61 Z0.89 F2400.0 E12599.465
G1 X-14.69 Y-25.61 Z0.89 F2400.0 E12610.001
;M103
G1 X-10.5 Y-27.0 Z0.89 F2400.0
;M101
G1 X-6.26 Y-27.0 Z0.89 F2400.0 E12615.296
G1 X-6.26 Y-27.47 Z0.89 F2400.0 E12615.879
G1 X-10.5 Y-27.47 Z0.89 F2400.0 E12621.173
G1 X-10.5 Y-27.93 Z0.89 F2400.0 E12621.755
G1 X-6.26 Y-27.93 Z0.89 F2400.0 E12627.049
G1 X-2.12 Y-23.28 Z0.89 F2400.0 E12634.849
G1 X12.59 Y-23.28 Z0.89 F2400.0 E12653.247
G1 X12.59 Y-23.74 Z0.89 F2400.0 E12653.829
G1 X-0.02 Y-23.74 Z0.89 F2400.0 E12669.607
G1 X-0.02 Y-24.21 Z0.89 F2400.0 E12670.189
G1 X12.59 Y-24.21 Z0.89 F2400.0 E12685.967
G1 X12.59 Y-24.67 Z0.89 F2400.0 E12686.549
G1 X2.07 Y-24.67 Z0.89 F2400.0 E12699.706
G1 X2.07 Y-25.14 Z0.89 F2400.0 E12700.289
G1 X12.59 Y-25.14 Z0.89 F2400.0 E12713.445
G1 X10.5 Y-26.54 Z0.89 F2400.0 E12716.595
G1 X4.17 Y-26.54 Z0.89 F2400.0 E12724.51
G1 X4.17 Y-27.0 Z0.89 F2400.0 E12725.092
G1 X10.5 Y-27.0 Z0.89 F2400.0 E12733.007
G1 X10.5 Y-27.47 Z0.89 F2400.0 E12733.59
G1 X4.17 Y-27.47 Z0.89 F2400.0 E12741.505
;M103
G1 X6.26 Y-27.93 Z0.89 F2400.0
;M101
G1 X8.4 Y-27.93 Z0.89 F2400.0 E12744.179
G1 X8.4 Y-28.4 Z0.89 F2400.0 E12744.762
G1 X6.26 Y-28.4 Z0.89 F2400.0 E12747.435
;M103
G1 X2.07 Y-26.07 Z0.89 F2400.0
;M101
G1 X10.5 Y-26.07 Z0.89 F2400.0 E12757.971
G1 X10.5 Y-25.61 Z0.89 F2400.0 E12758.553
G1 X2.07 Y-25.61 Z0.89 F2400.0 E12769.089
;M103
G1 X-8.4 Y-13.5 Z0.89 F2400.0
;M101
G1 X14.69 Y-13.5 Z0.89 F2400.0 E12797.97
G1 X14.69 Y-13.04 Z0.89 F2400.0 E12798.552
G1 X-8.4 Y-13.04 Z0.89 F2400.0 E12827.434
;M103
;M108 S52.54
G1 X-3.46 Y-6.43 Z1.2 F2880.0
;M101
G1 X-4.92 Y-7.88 Z1.2 F1920.0 E12830.817
G1 X-5.06 Y-7.43 Z1.2 F1920.0 E12831.599
G1 X-3.47 Y-5.84 Z1.2 F1920.0 E12835.291
G1 X-3.47 Y-5.25 Z1.2 F1920.0 E12836.258
G1 X-5.19 Y-6.97 Z1.2 F1920.0 E12840.259
G1 X-5.33 Y-6.52 Z1.2 F1920.0 E12841.04
G1 X-3.47 Y-4.66 Z1.2 F1920.0 E12845.349
G1 X-3.48 Y-4.07 Z1.2 F1920.0 E12846.317
G1 X-5.47 Y-6.06 Z1.2 F1920.0 E12850.934
G1 X-5.6 Y-5.6 Z1.2 F1920.0 E12851.716
G1 X-3.48 Y-3.48 Z1.2 F1920.0 E12856.643
G1 X-3.49 Y-2.89 Z1.2 F1920.0 E12857.608
G1 X-5.74 Y-5.15 Z1.2 F1920.0 E12862.841
G1 X-5.88 Y-4.69 Z1.2 F1920.0 E12863.622
G1 X-3.49 Y-2.3 Z1.2 F1920.0 E12869.163
G1 X-3.49 Y-1.72 Z1.2 F1920.0 E12870.13
G1 X-6.01 Y-4.23 Z1.2 F1920.0 E12875.979
G1 X-6.15 Y-3.78 Z1.2 F1920.0 E12876.761
G1 X-3.5 Y-1.13 Z1.2 F1920.0 E12882.92
G1 X-3.5 Y-0.54 Z1.2 F1920.0 E12883.887
G1 X-6.28 Y-3.32 Z1.2 F1920.0 E12890.354
G1 X-6.42 Y-2.87 Z1.2 F1920.0 E12891.135
G1 X-3.5 Y0.05 Z1.2 F1920.0 E12897.911
G1 X-3.51 Y0.64 Z1.2 F1920.0 E12898.878
G1 X-6.52 Y-2.37 Z1.2 F1920.0 E12905.877
G1 X-6.61 Y-1.88 Z1.2 F1920.0 E12906.711
G1 X-3.51 Y1.23 Z1.2 F1920.0 E12913.921
G1 X-3.51 Y1.82 Z1.2 F1920.0 E12914.888
G1 X-6.71 Y-1.38 Z1.2 F1920.0 E12922.308
G1 X-6.8 Y-0.88 Z1.2 F1920.0 E12923.141
G1 X-3.52 Y2.41 Z1.2 F1920.0 E12930.771
G1 X-3.52 Y3.0 Z1.2 F1920.0 E12931.737
G1 X-6.9 Y-0.38 Z1.2 F1920.0 E12939.575
G1 X-6.99 Y0.12 Z1.2 F1920.0 E12940.406
G1 X-3.52 Y3.59 Z1.2 F1920.0 E12948.454
G1 X-3.53 Y4.17 Z1.2 F1920.0 E12949.421
G1 X-7.08 Y0.62 Z1.2 F1920.0 E12957.678
G1 X-7.18 Y1.12 Z1.2 F1920.0 E12958.51
G1 X-3.53 Y4.76 Z1.2 F1920.0 E12966.979
G1 X-3.53 Y5.35 Z1.2 F1920.0 E12967.946
G1 X-7.27 Y1.62 Z1.2 F1920.0 E12976.623
G1 X-7.37 Y2.11 Z1.2 F1920.0 E12977.455
G1 X-3.54 Y5.94 Z1.2 F1920.0 E12986.343
G1 X-3.54 Y6.53 Z1.2 F1920.0 E12987.31
G1 X-7.46 Y2.61 Z1.2 F1920.0 E12996.408
G1 X-7.55 Y3.11 Z1.2 F1920.0 E12997.241
G1 X-3.54 Y7.12 Z1.2 F1920.0 E13006.548
G1 X-3.55 Y7.71 Z1.2 F1920.0 E13007.515
G1 X-7.65 Y3.61 Z1.2 F1920.0 E13017.031
G1 X-7.74 Y4.11 Z1.2 F1920.0 E13017.865
G1 X-3.55 Y8.3 Z1.2 F1920.0 E13027.591
G1 X-3.56 Y8.89 Z1.2 F1920.0 E13028.558
G1 X-7.83 Y4.61 Z1.2 F1920.0 E13038.493
G1 X-7.96 Y5.07 Z1.2 F1920.0 E13039.285
G1 X-3.48 Y9.55 Z1.2 F1920.0 E13049.688
G1 X-3.44 Y10.19 Z1.2 F1920.0 E13050.731
G1 X-8.1 Y5.52 Z1.2 F1920.0 E13061.554
G1 X-8.25 Y5.96 Z1.2 F1920.0 E13062.318
G1 X-3.4 Y10.82 Z1.2 F1920.0 E13073.592
G1 X-3.42 Y11.39 Z1.2 F1920.0 E13074.524
G1 X-8.5 Y6.31 Z1.2 F1920.0 E13086.315
G1 X-8.84 Y6.57 Z1.2 F1920.0 E13087.008
G1 X-3.44 Y11.97 Z1.2 F1920.0 E13099.547
G1 X-3.45 Y12.55 Z1.2 F1920.0 E13100.499
G1 X-9.39 Y6.61 Z1.2 F1920.0 E13114.291
G1 X-9.94 Y6.65 Z1.2 F1920.0 E13115.199
G1 X-3.46 Y13.13 Z1.2 F1920.0 E13130.242
G1 X-3.47 Y13.71 Z1.2 F1920.0 E13131.195
G1 X-10.49 Y6.69 Z1.2 F1920.0 E13147.49
G1 X-11.05 Y6.72 Z1.2 F1920.0 E13148.411
G1 X-3.49 Y14.29 Z1.2 F1920.0 E13165.978
G1 X-3.52 Y14.85 Z1.2 F1920.0 E13166.902
G1 X-11.72 Y6.65 Z1.2 F1920.0 E13185.938
G1 X-12.38 Y6.58 Z1.2 F1920.0 E13187.034
G1 X-3.59 Y15.37 Z1.2 F1920.0 E13207.449
G1 X-3.66 Y15.89 Z1.2 F1920.0 E13208.313
G1 X-11.7 Y7.85 Z1.2 F1920.0 E13226.991
;M103
G1 X-8.15 Y11.99 Z1.2 F2880.0
;M101
G1 X-3.75 Y16.39 Z1.2 F1920.0 E13237.21
G1 X-3.9 Y16.83 Z1.2 F1920.0 E13237.972
G1 X-8.0 Y12.73 Z1.2 F1920.0 E13247.496
G1 X-7.94 Y13.39 Z1.2 F1920.0 E13248.585
G1 X-4.06 Y17.27 Z1.2 F1920.0 E13257.594
G1 X-4.21 Y17.71 Z1.2 F1920.0 E13258.357
G1 X-7.87 Y14.05 Z1.2 F1920.0 E13266.85
G1 X-7.8 Y14.71 Z1.2 F1920.0 E13267.941
G1 X-4.36 Y18.15 Z1.2 F1920.0 E13275.917
G1 X-4.52 Y18.59 Z1.2 F1920.0 E13276.679
G1 X-7.73 Y15.37 Z1.2 F1920.0 E13284.14
G1 X-7.64 Y16.05 Z1.2 F1920.0 E13285.269
G1 X-4.67 Y19.02 Z1.2 F1920.0 E13292.163
G1 X-4.83 Y19.46 Z1.2 F1920.0 E13292.926
G1 X-7.45 Y16.84 Z1.2 F1920.0 E13299.008
G1 X-7.25 Y17.63 Z1.2 F1920.0 E13300.341
G1 X-4.98 Y19.9 Z1.2 F1920.0 E13305.613
G1 X-5.14 Y20.34 Z1.2 F1920.0 E13306.375
G1 X-7.06 Y18.42 Z1.2 F1920.0 E13310.836
G1 X-6.86 Y19.2 Z1.2 F1920.0 E13312.168
G1 X-5.32 Y20.75 Z1.2 F1920.0 E13315.751
G1 X-5.52 Y21.13 Z1.2 F1920.0 E13316.47
G1 X-6.67 Y19.99 Z1.2 F1920.0 E13319.124
G1 X-6.47 Y20.78 Z1.2 F1920.0 E13320.456
G1 X-5.73 Y21.52 Z1.2 F1920.0 E13322.18
G1 X-5.94 Y21.91 Z1.2 F1920.0 E13322.9
G1 X-6.28 Y21.57 Z1.2 F1920.0 E13323.694
;M103
G1 X-3.46 Y-7.02 Z1.2 F2880.0
;M101
G1 X-4.79 Y-8.34 Z1.2 F1920.0 E13326.769
G1 X-4.65 Y-8.8 Z1.2 F1920.0 E13327.551
G1 X-3.46 Y-7.6 Z1.2 F1920.0 E13330.319
G1 X-3.45 Y-8.19 Z1.2 F1920.0 E13331.286
G1 X-4.51 Y-9.25 Z1.2 F1920.0 E13333.745
G1 X-4.38 Y-9.71 Z1.2 F1920.0 E13334.527
G1 X-3.45 Y-8.78 Z1.2 F1920.0 E13336.677
G1 X-3.45 Y-9.37 Z1.2 F1920.0 E13337.643
G1 X-4.24 Y-10.16 Z1.2 F1920.0 E13339.485
G1 X-4.1 Y-10.62 Z1.2 F1920.0 E13340.266
G1 X-3.44 Y-9.96 Z1.2 F1920.0 E13341.801
G1 X-3.44 Y-10.55 Z1.2 F1920.0 E13342.768
G1 X-3.97 Y-11.08 Z1.2 F1920.0 E13343.994
G1 X-3.83 Y-11.53 Z1.2 F1920.0 E13344.776
G1 X-3.39 Y-11.09 Z1.2 F1920.0 E13345.795
G1 X-3.31 Y-11.61 Z1.2 F1920.0 E13346.651
G1 X-3.7 Y-11.99 Z1.2 F1920.0 E13347.534
G1 X-3.56 Y-12.45 Z1.2 F1920.0 E13348.317
G1 X-3.24 Y-12.12 Z1.2 F1920.0 E13349.065
G1 X-3.16 Y-12.64 Z1.2 F1920.0 E13349.92
G1 X-3.42 Y-12.9 Z1.2 F1920.0 E13350.53
G1 X-3.08 Y-13.15 Z1.2 F1920.0 E13351.225
G1 X-3.29 Y-13.36 Z1.2 F1920.0 E13351.698
G1 X-3.01 Y-13.67 Z1.2 F1920.0 E13352.386
G1 X-3.15 Y-13.81 Z1.2 F1920.0 E13352.72
G1 X-2.87 Y-14.12 Z1.2 F1920.0 E13353.408
G1 X-3.06 Y-14.31 Z1.2 F1920.0 E13353.854
G1 X-2.71 Y-14.56 Z1.2 F1920.0 E13354.553
G1 X-2.97 Y-14.81 Z1.2 F1920.0 E13355.146
G1 X-2.56 Y-15.0 Z1.2 F1920.0 E13355.884
G1 X-2.87 Y-15.31 Z1.2 F1920.0 E13356.625
G1 X-2.4 Y-15.43 Z1.2 F1920.0 E13357.428
G1 X-2.78 Y-15.81 Z1.2 F1920.0 E13358.315
G1 X-2.24 Y-15.87 Z1.2 F1920.0 E13359.202
G1 X-2.91 Y-16.53 Z1.2 F1920.0 E13360.741
G1 X-3.28 Y-17.5 Z1.2 F1920.0 E13362.435
G1 X-4.25 Y-17.87 Z1.2 F1920.0 E13364.145
G1 X-4.35 Y-17.98 Z1.2 F1920.0 E13364.386
;M103
G1 X-2.55 Y-16.77 Z1.2 F2880.0
;M101
G1 X-1.98 Y-16.2 Z1.2 F1920.0 E13365.697
G1 X-1.69 Y-16.5 Z1.2 F1920.0 E13366.383
G1 X-2.34 Y-17.15 Z1.2 F1920.0 E13367.887
G1 X-1.71 Y-17.11 Z1.2 F1920.0 E13368.911
G1 X-1.39 Y-16.8 Z1.2 F1920.0 E13369.651
G1 X-1.1 Y-17.09 Z1.2 F1920.0 E13370.339
G1 X-1.14 Y-17.13 Z1.2 F1920.0 E13370.433
;M103
G1 X-1.04 Y-17.58 Z1.2 F3600.0
;M101
G1 X-0.1 Y-18.02 Z1.2 F1920.0 E13372.136
G1 X0.22 Y-18.25 Z1.2 F1920.0 E13372.787
G1 X0.67 Y-18.07 Z1.2 F1920.0 E13373.583
G1 X0.58 Y-17.88 Z1.2 F1920.0 E13373.924
G1 X0.11 Y-17.45 Z1.2 F1920.0 E13374.964
G1 X-0.78 Y-16.91 Z1.2 F1920.0 E13376.686
G1 X-1.9 Y-15.78 Z1.2 F1920.0 E13379.286
G1 X-2.64 Y-13.68 Z1.2 F1920.0 E13382.944
G1 X-3.08 Y-10.75 Z1.2 F1920.0 E13387.807
G1 X-3.2 Y8.8 Z1.2 F1920.0 E13419.906
G1 X-3.17 Y8.84 Z1.2 F1920.0 E13419.995
G1 X-3.03 Y10.99 Z1.2 F1920.0 E13423.53
G1 X-3.06 Y11.04 Z1.2 F1920.0 E13423.616
G1 X-3.14 Y14.72 Z1.2 F1920.0 E13429.663
G1 X-3.36 Y16.37 Z1.2 F1920.0 E13432.404
G1 X-4.87 Y20.67 Z1.2 F1920.0 E13439.879
G1 X-5.85 Y22.5 Z1.2 F1920.0 E13443.286
G1 X-6.29 Y22.7 Z1.2 F1920.0 E13444.086
G1 X-6.47 Y22.27 Z1.2 F1920.0 E13444.865
G1 X-8.03 Y15.98 Z1.2 F1920.0 E13455.495
G1 X-8.39 Y12.41 Z1.2 F1920.0 E13461.396
G1 X-8.64 Y11.59 Z1.2 F1920.0 E13462.797
G1 X-8.79 Y11.34 Z1.2 F1920.0 E13463.279
G1 X-11.42 Y8.76 Z1.2 F1920.0 E13469.32
G1 X-12.22 Y7.77 Z1.2 F1920.0 E13471.418
G1 X-13.21 Y6.2 Z1.2 F1920.0 E13474.456
G1 X-12.95 Y5.96 Z1.2 F1920.0 E13475.031
G1 X-12.29 Y6.23 Z1.2 F1920.0 E13476.207
G1 X-11.0 Y6.37 Z1.2 F1920.0 E13478.339
G1 X-8.87 Y6.21 Z1.2 F1920.0 E13481.844
G1 X-8.55 Y5.76 Z1.2 F1920.0 E13482.752
G1 X-8.2 Y4.65 Z1.2 F1920.0 E13484.665
G1 X-6.79 Y-2.88 Z1.2 F1920.0 E13497.242
G1 X-3.5 Y-13.9 Z1.2 F1920.0 E13516.124
G1 X-3.13 Y-15.89 Z1.2 F1920.0 E13519.443
G1 X-3.3 Y-16.66 Z1.2 F1920.0 E13520.738
G1 X-3.52 Y-17.06 Z1.2 F1920.0 E13521.481
G1 X-6.52 Y-18.73 Z1.2 F1920.0 E13527.124
G1 X-7.9 Y-19.78 Z1.2 F1920.0 E13529.973
G1 X-7.49 Y-19.98 Z1.2 F1920.0 E13530.726
G1 X-5.99 Y-19.1 Z1.2 F1920.0 E13533.581
G1 X-2.43 Y-17.51 Z1.2 F1920.0 E13539.976
G1 X-1.31 Y-17.45 Z1.2 F1920.0 E13541.832
G1 X-1.04 Y-17.58 Z1.2 F1920.0 E13542.319
;M103
;M108 S37.53
;M108 S39.41
G1 X-1.39 Y-17.88 Z1.2 F3600.0
;M101
G1 X-0.31 Y-18.38 Z1.2 F1620.0 E13544.052
G1 X0.65 Y-19.08 Z1.2 F1620.0 E13545.789
G1 X1.21 Y-19.63 Z1.2 F1620.0 E13546.932
G1 X1.26 Y-19.59 Z1.2 F1620.0 E13547.027
G1 X1.34 Y-19.2 Z1.2 F1620.0 E13547.594
G1 X1.22 Y-18.28 Z1.2 F1620.0 E13548.954
G1 X0.93 Y-17.63 Z1.2 F1620.0 E13549.992
G1 X0.37 Y-17.12 Z1.2 F1620.0 E13551.102
G1 X-0.52 Y-16.58 Z1.2 F1620.0 E13552.618
G1 X-1.53 Y-15.55 Z1.2 F1620.0 E13554.719
G1 X-2.24 Y-13.58 Z1.2 F1620.0 E13557.775
G1 X-2.67 Y-10.71 Z1.2 F1620.0 E13562.008
G1 X-2.84 Y-6.74 Z1.2 F1620.0 E13567.81
G1 X-2.9 Y2.81 Z1.2 F1620.0 E13581.754
G1 X-2.86 Y2.95 Z1.2 F1620.0 E13581.957
G1 X-2.78 Y8.69 Z1.2 F1620.0 E13590.336
G1 X-2.76 Y8.72 Z1.2 F1620.0 E13590.399
G1 X-2.6 Y11.11 Z1.2 F1620.0 E13593.888
G1 X-2.64 Y11.16 Z1.2 F1620.0 E13593.985
G1 X-2.62 Y12.89 Z1.2 F1620.0 E13596.501
G1 X-2.72 Y14.76 Z1.2 F1620.0 E13599.232
G1 X-2.95 Y16.46 Z1.2 F1620.0 E13601.742
G1 X-3.33 Y17.71 Z1.2 F1620.0 E13603.652
G1 X-4.49 Y20.84 Z1.2 F1620.0 E13608.518
G1 X-5.54 Y22.82 Z1.2 F1620.0 E13611.792
G1 X-6.12 Y23.48 Z1.2 F1620.0 E13613.073
G1 X-6.51 Y23.25 Z1.2 F1620.0 E13613.731
G1 X-6.87 Y22.4 Z1.2 F1620.0 E13615.084
G1 X-8.01 Y18.09 Z1.2 F1620.0 E13621.584
G1 X-8.44 Y16.05 Z1.2 F1620.0 E13624.638
G1 X-8.81 Y12.49 Z1.2 F1620.0 E13629.857
G1 X-9.03 Y11.76 Z1.2 F1620.0 E13630.969
G1 X-9.12 Y11.6 Z1.2 F1620.0 E13631.243
G1 X-11.73 Y9.04 Z1.2 F1620.0 E13636.57
G1 X-12.56 Y8.02 Z1.2 F1620.0 E13638.501
G1 X-13.44 Y6.66 Z1.2 F1620.0 E13640.864
G1 X-14.02 Y5.57 Z1.2 F1620.0 E13642.661
G1 X-14.16 Y5.13 Z1.2 F1620.0 E13643.339
G1 X-14.0 Y5.1 Z1.2 F1620.0 E13643.572
G1 X-12.19 Y5.82 Z1.2 F1620.0 E13646.421
G1 X-10.99 Y5.95 Z1.2 F1620.0 E13648.175
G1 X-9.52 Y5.84 Z1.2 F1620.0 E13650.335
G1 X-9.46 Y5.79 Z1.2 F1620.0 E13650.446
G1 X-9.37 Y5.77 Z1.2 F1620.0 E13650.583
G1 X-9.1 Y5.81 Z1.2 F1620.0 E13650.984
G1 X-8.93 Y5.57 Z1.2 F1620.0 E13651.407
G1 X-8.61 Y4.55 Z1.2 F1620.0 E13652.972
G1 X-7.2 Y-2.98 Z1.2 F1620.0 E13664.151
G1 X-3.9 Y-14.0 Z1.2 F1620.0 E13680.936
G1 X-3.56 Y-15.88 Z1.2 F1620.0 E13683.731
G1 X-3.7 Y-16.51 Z1.2 F1620.0 E13684.673
G1 X-3.82 Y-16.74 Z1.2 F1620.0 E13685.061
G1 X-5.58 Y-17.67 Z1.2 F1620.0 E13687.964
G1 X-6.75 Y-18.39 Z1.2 F1620.0 E13689.965
G1 X-7.68 Y-19.1 Z1.2 F1620.0 E13691.669
G1 X-8.43 Y-19.82 Z1.2 F1620.0 E13693.196
G1 X-9.05 Y-20.57 Z1.2 F1620.0 E13694.612
G1 X-9.45 Y-21.52 Z1.2 F1620.0 E13696.111
G1 X-9.6 Y-22.82 Z1.2 F1620.0 E13698.024
G1 X-9.57 Y-22.91 Z1.2 F1620.0 E13698.173
G1 X-9.44 Y-22.99 Z1.2 F1620.0 E13698.396
G1 X-8.78 Y-21.8 Z1.2 F1620.0 E13700.387
G1 X-7.97 Y-20.87 Z1.2 F1620.0 E13702.185
G1 X-6.99 Y-20.14 Z1.2 F1620.0 E13703.973
G1 X-5.8 Y-19.48 Z1.2 F1620.0 E13705.958
G1 X-2.34 Y-17.92 Z1.2 F1620.0 E13711.502
G1 X-1.39 Y-17.88 Z1.2 F1620.0 E13712.888
;M103
;M108 S50.04
;M108 S52.54
G1 X6.72 Y-21.72 Z1.2 F2880.0
;M101
G1 X7.58 Y-20.86 Z1.2 F1920.0 E13714.888
G1 X7.99 Y-19.85 Z1.2 F1920.0 E13716.674
;M103
G1 X7.22 Y-20.62 Z1.2 F2880.0
;M101
G1 X6.6 Y-21.24 Z1.2 F1920.0 E13718.123
G1 X6.48 Y-20.77 Z1.2 F1920.0 E13718.926
G1 X8.31 Y-18.94 Z1.2 F1920.0 E13723.18
G1 X8.64 Y-18.02 Z1.2 F1920.0 E13724.773
;M103
G1 X7.95 Y-18.71 Z1.2 F2880.0
;M101
G1 X6.36 Y-20.29 Z1.2 F1920.0 E13728.455
G1 X6.25 Y-19.82 Z1.2 F1920.0 E13729.258
G1 X8.96 Y-17.11 Z1.2 F1920.0 E13735.553
G1 X9.26 Y-16.22 Z1.2 F1920.0 E13737.096
G1 X6.13 Y-19.34 Z1.2 F1920.0 E13744.357
G1 X6.01 Y-18.87 Z1.2 F1920.0 E13745.158
G1 X9.35 Y-15.53 Z1.2 F1920.0 E13752.903
G1 X9.44 Y-14.85 Z1.2 F1920.0 E13754.036
G1 X5.89 Y-18.4 Z1.2 F1920.0 E13762.268
G1 X5.78 Y-17.92 Z1.2 F1920.0 E13763.071
G1 X9.47 Y-14.23 Z1.2 F1920.0 E13771.647
G1 X9.48 Y-13.62 Z1.2 F1920.0 E13772.642
G1 X5.66 Y-17.45 Z1.2 F1920.0 E13781.524
G1 X5.54 Y-16.97 Z1.2 F1920.0 E13782.327
G1 X9.5 Y-13.01 Z1.2 F1920.0 E13791.513
G1 X9.51 Y-12.41 Z1.2 F1920.0 E13792.507
G1 X5.42 Y-16.5 Z1.2 F1920.0 E13801.994
G1 X5.31 Y-16.02 Z1.2 F1920.0 E13802.798
G1 X9.52 Y-11.8 Z1.2 F1920.0 E13812.591
G1 X9.54 Y-11.2 Z1.2 F1920.0 E13813.586
G1 X5.24 Y-15.5 Z1.2 F1920.0 E13823.569
G1 X5.18 Y-14.96 Z1.2 F1920.0 E13824.457
G1 X9.54 Y-10.6 Z1.2 F1920.0 E13834.583
G1 X9.51 Y-10.04 Z1.2 F1920.0 E13835.496
G1 X5.13 Y-14.42 Z1.2 F1920.0 E13845.665
G1 X5.07 Y-13.89 Z1.2 F1920.0 E13846.552
G1 X9.47 Y-9.49 Z1.2 F1920.0 E13856.764
G1 X9.43 Y-8.94 Z1.2 F1920.0 E13857.671
G1 X5.02 Y-13.35 Z1.2 F1920.0 E13867.915
G1 X4.96 Y-12.81 Z1.2 F1920.0 E13868.802
G1 X9.4 Y-8.37 Z1.2 F1920.0 E13879.117
G1 X9.41 Y-7.77 Z1.2 F1920.0 E13880.096
G1 X4.9 Y-12.28 Z1.2 F1920.0 E13890.57
G1 X4.76 Y-11.83 Z1.2 F1920.0 E13891.349
G1 X9.41 Y-7.18 Z1.2 F1920.0 E13902.154
G1 X9.41 Y-6.58 Z1.2 F1920.0 E13903.132
G1 X4.61 Y-11.39 Z1.2 F1920.0 E13914.296
G1 X4.37 Y-11.04 Z1.2 F1920.0 E13914.995
G1 X9.42 Y-5.99 Z1.2 F1920.0 E13926.726
G1 X9.42 Y-5.39 Z1.2 F1920.0 E13927.704
G1 X4.07 Y-10.74 Z1.2 F1920.0 E13940.138
G1 X3.77 Y-10.45 Z1.2 F1920.0 E13940.827
G1 X9.43 Y-4.79 Z1.2 F1920.0 E13953.963
G1 X9.43 Y-4.2 Z1.2 F1920.0 E13954.942
G1 X3.47 Y-10.16 Z1.2 F1920.0 E13968.781
G1 X3.17 Y-9.86 Z1.2 F1920.0 E13969.469
G1 X9.43 Y-3.6 Z1.2 F1920.0 E13984.013
G1 X9.44 Y-3.01 Z1.2 F1920.0 E13984.992
G1 X2.87 Y-9.57 Z1.2 F1920.0 E14000.238
G1 X2.57 Y-9.28 Z1.2 F1920.0 E14000.925
G1 X9.44 Y-2.41 Z1.2 F1920.0 E14016.874
G1 X9.44 Y-1.81 Z1.2 F1920.0 E14017.853
G1 X2.27 Y-8.98 Z1.2 F1920.0 E14034.504
G1 X1.97 Y-8.69 Z1.2 F1920.0 E14035.191
G1 X4.1 Y-6.57 Z1.2 F1920.0 E14040.121
G1 X3.46 Y-6.61 Z1.2 F1920.0 E14041.173
G1 X1.69 Y-8.38 Z1.2 F1920.0 E14045.28
G1 X1.42 Y-8.06 Z1.2 F1920.0 E14045.971
G1 X2.82 Y-6.66 Z1.2 F1920.0 E14049.21
G1 X2.18 Y-6.71 Z1.2 F1920.0 E14050.262
G1 X1.16 Y-7.73 Z1.2 F1920.0 E14052.631
G1 X0.91 Y-7.38 Z1.2 F1920.0 E14053.328
G1 X1.61 Y-6.69 Z1.2 F1920.0 E14054.943
G1 X1.07 Y-6.63 Z1.2 F1920.0 E14055.828
G1 X0.68 Y-7.02 Z1.2 F1920.0 E14056.731
G1 X0.53 Y-6.58 Z1.2 F1920.0 E14057.492
G1 X0.55 Y-6.56 Z1.2 F1920.0 E14057.546
;M103
G1 X3.86 Y-5.82 Z1.2 F3600.0
G1 X4.1 Y-5.61 Z1.2 F3600.0
G1 X10.48 Y15.22 Z1.2 F2880.0
;M101
G1 X9.97 Y14.71 Z1.2 F1920.0 E14058.731
G1 X10.15 Y14.3 Z1.2 F1920.0 E14059.468
G1 X9.84 Y13.98 Z1.2 F1920.0 E14060.203
G1 X9.92 Y13.48 Z1.2 F1920.0 E14061.048
G1 X9.61 Y13.17 Z1.2 F1920.0 E14061.764
G1 X9.82 Y12.78 Z1.2 F1920.0 E14062.484
G1 X9.36 Y12.32 Z1.2 F1920.0 E14063.545
G1 X9.71 Y12.08 Z1.2 F1920.0 E14064.245
G1 X9.11 Y11.48 Z1.2 F1920.0 E14065.647
G1 X9.61 Y11.38 Z1.2 F1920.0 E14066.482
G1 X8.86 Y10.63 Z1.2 F1920.0 E14068.228
G1 X9.52 Y10.7 Z1.2 F1920.0 E14069.319
G1 X8.6 Y9.79 Z1.2 F1920.0 E14071.442
G1 X8.35 Y8.94 Z1.2 F1920.0 E14072.89
G1 X9.51 Y10.11 Z1.2 F1920.0 E14075.59
G1 X9.51 Y9.51 Z1.2 F1920.0 E14076.569
G1 X8.1 Y8.1 Z1.2 F1920.0 E14079.845
G1 X7.85 Y7.25 Z1.2 F1920.0 E14081.293
G1 X9.51 Y8.91 Z1.2 F1920.0 E14085.149
G1 X9.5 Y8.32 Z1.2 F1920.0 E14086.127
G1 X7.59 Y6.41 Z1.2 F1920.0 E14090.56
G1 X7.34 Y5.56 Z1.2 F1920.0 E14092.006
G1 X9.5 Y7.72 Z1.2 F1920.0 E14097.016
G1 X9.49 Y7.13 Z1.2 F1920.0 E14097.993
G1 X7.09 Y4.72 Z1.2 F1920.0 E14103.58
G1 X6.84 Y3.87 Z1.2 F1920.0 E14105.029
G1 X9.49 Y6.53 Z1.2 F1920.0 E14111.196
G1 X9.49 Y5.93 Z1.2 F1920.0 E14112.174
G1 X6.58 Y3.03 Z1.2 F1920.0 E14118.917
G1 X6.42 Y2.27 Z1.2 F1920.0 E14120.199
G1 X9.49 Y5.34 Z1.2 F1920.0 E14127.327
G1 X9.48 Y4.74 Z1.2 F1920.0 E14128.306
G1 X6.28 Y1.54 Z1.2 F1920.0 E14135.745
G1 X6.14 Y0.81 Z1.2 F1920.0 E14136.963
G1 X9.48 Y4.15 Z1.2 F1920.0 E14144.712
G1 X9.47 Y3.55 Z1.2 F1920.0 E14145.69
G1 X6.0 Y0.08 Z1.2 F1920.0 E14153.75
G1 X5.87 Y-0.65 Z1.2 F1920.0 E14154.969
G1 X9.47 Y2.95 Z1.2 F1920.0 E14163.339
G1 X9.47 Y2.36 Z1.2 F1920.0 E14164.317
G1 X5.73 Y-1.38 Z1.2 F1920.0 E14172.998
G1 X5.59 Y-2.11 Z1.2 F1920.0 E14174.218
G1 X9.46 Y1.76 Z1.2 F1920.0 E14183.208
G1 X9.46 Y1.17 Z1.2 F1920.0 E14184.187
G1 X5.45 Y-2.84 Z1.2 F1920.0 E14193.489
G1 X5.32 Y-3.57 Z1.2 F1920.0 E14194.707
G1 X9.46 Y0.57 Z1.2 F1920.0 E14204.32
G1 X9.45 Y-0.03 Z1.2 F1920.0 E14205.298
G1 X5.18 Y-4.3 Z1.2 F1920.0 E14215.222
G1 X4.99 Y-5.08 Z1.2 F1920.0 E14216.541
G1 X9.45 Y-0.62 Z1.2 F1920.0 E14226.894
G1 X9.45 Y-1.22 Z1.2 F1920.0 E14227.872
G1 X4.71 Y-5.95 Z1.2 F1920.0 E14238.871
;M103
G1 X9.47 Y15.88 Z1.2 F3600.0
G1 X9.33 Y16.54 Z1.2 F3600.0
G1 X7.78 Y18.44 Z1.2 F2880.0
;M101
G1 X8.12 Y18.19 Z1.2 F1920.0 E14239.566
G1 X8.13 Y18.2 Z1.2 F1920.0 E14239.579
G1 X8.51 Y17.99 Z1.2 F1920.0 E14240.293
G1 X8.53 Y18.01 Z1.2 F1920.0 E14240.348
G1 X8.89 Y17.77 Z1.2 F1920.0 E14241.052
G1 X8.94 Y17.83 Z1.2 F1920.0 E14241.174
G1 X9.27 Y17.56 Z1.2 F1920.0 E14241.865
G1 X9.35 Y17.64 Z1.2 F1920.0 E14242.055
G1 X9.65 Y17.35 Z1.2 F1920.0 E14242.743
G1 X9.76 Y17.46 Z1.2 F1920.0 E14243.001
G1 X10.17 Y17.27 Z1.2 F1920.0 E14243.737
G1 X9.88 Y16.99 Z1.2 F1920.0 E14244.4
G1 X10.04 Y16.56 Z1.2 F1920.0 E14245.155
G1 X10.63 Y17.15 Z1.2 F1920.0 E14246.518
G1 X11.19 Y17.12 Z1.2 F1920.0 E14247.447
G1 X10.15 Y16.07 Z1.2 F1920.0 E14249.873
G1 X10.1 Y15.44 Z1.2 F1920.0 E14250.923
G1 X11.79 Y17.12 Z1.2 F1920.0 E14254.843
;M103
G1 X11.36 Y17.47 Z1.2 F3600.0
;M101
G1 X10.52 Y17.51 Z1.2 F1920.0 E14256.217
G1 X6.97 Y19.1 Z1.2 F1920.0 E14262.612
G1 X5.47 Y19.98 Z1.2 F1920.0 E14265.464
G1 X5.06 Y19.78 Z1.2 F1920.0 E14266.214
G1 X6.44 Y18.73 Z1.2 F1920.0 E14269.06
G1 X9.44 Y17.06 Z1.2 F1920.0 E14274.703
G1 X9.66 Y16.66 Z1.2 F1920.0 E14275.446
G1 X9.82 Y15.89 Z1.2 F1920.0 E14276.742
G1 X9.46 Y13.9 Z1.2 F1920.0 E14280.061
G1 X6.17 Y2.88 Z1.2 F1920.0 E14298.942
G1 X4.75 Y-4.65 Z1.2 F1920.0 E14311.519
G1 X4.41 Y-5.76 Z1.2 F1920.0 E14313.433
G1 X4.09 Y-6.21 Z1.2 F1920.0 E14314.341
G1 X1.96 Y-6.37 Z1.2 F1920.0 E14317.846
G1 X0.67 Y-6.23 Z1.2 F1920.0 E14319.977
G1 X0.0 Y-5.96 Z1.2 F1920.0 E14321.152
G1 X-0.26 Y-6.2 Z1.2 F1920.0 E14321.728
G1 X0.73 Y-7.77 Z1.2 F1920.0 E14324.766
G1 X1.54 Y-8.76 Z1.2 F1920.0 E14326.864
G1 X4.16 Y-11.34 Z1.2 F1920.0 E14332.905
G1 X4.31 Y-11.59 Z1.2 F1920.0 E14333.387
G1 X4.56 Y-12.41 Z1.2 F1920.0 E14334.788
G1 X4.93 Y-15.98 Z1.2 F1920.0 E14340.689
G1 X6.49 Y-22.27 Z1.2 F1920.0 E14351.319
G1 X6.67 Y-22.7 Z1.2 F1920.0 E14352.098
G1 X7.11 Y-22.5 Z1.2 F1920.0 E14352.9
G1 X8.08 Y-20.67 Z1.2 F1920.0 E14356.305
G1 X9.59 Y-16.37 Z1.2 F1920.0 E14363.782
G1 X9.82 Y-14.72 Z1.2 F1920.0 E14366.522
G1 X9.9 Y-11.04 Z1.2 F1920.0 E14372.569
G1 X9.93 Y-10.99 Z1.2 F1920.0 E14372.655
G1 X9.78 Y-8.84 Z1.2 F1920.0 E14376.189
G1 X9.76 Y-8.8 Z1.2 F1920.0 E14376.28
G1 X9.87 Y10.75 Z1.2 F1920.0 E14408.378
G1 X10.31 Y13.68 Z1.2 F1920.0 E14413.241
G1 X11.06 Y15.78 Z1.2 F1920.0 E14416.898
G1 X12.17 Y16.91 Z1.2 F1920.0 E14419.499
G1 X13.07 Y17.45 Z1.2 F1920.0 E14421.221
G1 X13.53 Y17.88 Z1.2 F1920.0 E14422.261
G1 X13.63 Y18.07 Z1.2 F1920.0 E14422.602
G1 X13.18 Y18.25 Z1.2 F1920.0 E14423.397
G1 X12.86 Y18.02 Z1.2 F1920.0 E14424.049
G1 X11.65 Y17.45 Z1.2 F1920.0 E14426.237
G1 X11.36 Y17.47 Z1.2 F1920.0 E14426.724
;M103
;M108 S37.53
;M108 S39.41
G1 X11.57 Y17.88 Z1.2 F3600.0
;M101
G1 X10.62 Y17.92 Z1.2 F1620.0 E14428.112
G1 X7.15 Y19.48 Z1.2 F1620.0 E14433.654
G1 X5.97 Y20.14 Z1.2 F1620.0 E14435.638
G1 X4.99 Y20.87 Z1.2 F1620.0 E14437.426
G1 X4.18 Y21.8 Z1.2 F1620.0 E14439.224
G1 X3.52 Y22.99 Z1.2 F1620.0 E14441.215
G1 X3.39 Y22.91 Z1.2 F1620.0 E14441.438
G1 X3.36 Y22.82 Z1.2 F1620.0 E14441.587
G1 X3.51 Y21.52 Z1.2 F1620.0 E14443.5
G1 X3.9 Y20.57 Z1.2 F1620.0 E14444.999
G1 X4.52 Y19.82 Z1.2 F1620.0 E14446.416
G1 X5.28 Y19.1 Z1.2 F1620.0 E14447.942
G1 X6.2 Y18.39 Z1.2 F1620.0 E14449.645
G1 X7.38 Y17.67 Z1.2 F1620.0 E14451.648
G1 X9.13 Y16.74 Z1.2 F1620.0 E14454.55
G1 X9.26 Y16.51 Z1.2 F1620.0 E14454.938
G1 X9.4 Y15.88 Z1.2 F1620.0 E14455.88
G1 X9.05 Y14.0 Z1.2 F1620.0 E14458.675
G1 X5.76 Y2.98 Z1.2 F1620.0 E14475.46
G1 X4.34 Y-4.55 Z1.2 F1620.0 E14486.638
G1 X4.03 Y-5.57 Z1.2 F1620.0 E14488.204
G1 X3.86 Y-5.81 Z1.2 F1620.0 E14488.627
G1 X3.59 Y-5.77 Z1.2 F1620.0 E14489.028
G1 X3.49 Y-5.79 Z1.2 F1620.0 E14489.165
G1 X3.44 Y-5.84 Z1.2 F1620.0 E14489.276
G1 X1.96 Y-5.95 Z1.2 F1620.0 E14491.436
G1 X0.77 Y-5.82 Z1.2 F1620.0 E14493.19
G1 X-1.04 Y-5.1 Z1.2 F1620.0 E14496.037
G1 X-1.2 Y-5.13 Z1.2 F1620.0 E14496.273
G1 X-1.06 Y-5.57 Z1.2 F1620.0 E14496.951
G1 X-0.49 Y-6.66 Z1.2 F1620.0 E14498.747
G1 X0.39 Y-8.02 Z1.2 F1620.0 E14501.111
G1 X1.22 Y-9.04 Z1.2 F1620.0 E14503.042
G1 X3.83 Y-11.6 Z1.2 F1620.0 E14508.369
G1 X3.93 Y-11.76 Z1.2 F1620.0 E14508.643
G1 X4.15 Y-12.49 Z1.2 F1620.0 E14509.755
G1 X4.51 Y-16.05 Z1.2 F1620.0 E14514.974
G1 X4.95 Y-18.09 Z1.2 F1620.0 E14518.028
G1 X6.09 Y-22.4 Z1.2 F1620.0 E14524.528
G1 X6.45 Y-23.25 Z1.2 F1620.0 E14525.88
G1 X6.84 Y-23.48 Z1.2 F1620.0 E14526.539
G1 X7.42 Y-22.82 Z1.2 F1620.0 E14527.821
G1 X8.47 Y-20.84 Z1.2 F1620.0 E14531.094
G1 X9.61 Y-17.77 Z1.2 F1620.0 E14535.881
G1 X10.01 Y-16.46 Z1.2 F1620.0 E14537.871
G1 X10.23 Y-14.76 Z1.2 F1620.0 E14540.38
G1 X10.33 Y-12.89 Z1.2 F1620.0 E14543.111
G1 X10.32 Y-11.16 Z1.2 F1620.0 E14545.627
G1 X10.35 Y-11.11 Z1.2 F1620.0 E14545.724
G1 X10.2 Y-8.72 Z1.2 F1620.0 E14549.213
G1 X10.17 Y-8.69 Z1.2 F1620.0 E14549.276
G1 X10.09 Y-2.95 Z1.2 F1620.0 E14557.654
G1 X10.06 Y-2.81 Z1.2 F1620.0 E14557.857
G1 X10.11 Y6.74 Z1.2 F1620.0 E14571.802
G1 X10.29 Y10.71 Z1.2 F1620.0 E14577.604
G1 X10.72 Y13.58 Z1.2 F1620.0 E14581.837
G1 X11.42 Y15.55 Z1.2 F1620.0 E14584.894
G1 X12.44 Y16.58 Z1.2 F1620.0 E14586.995
G1 X13.32 Y17.12 Z1.2 F1620.0 E14588.511
G1 X13.88 Y17.63 Z1.2 F1620.0 E14589.621
G1 X14.17 Y18.28 Z1.2 F1620.0 E14590.659
G1 X14.29 Y19.2 Z1.2 F1620.0 E14592.018
G1 X14.22 Y19.59 Z1.2 F1620.0 E14592.586
G1 X14.17 Y19.63 Z1.2 F1620.0 E14592.681
G1 X13.6 Y19.08 Z1.2 F1620.0 E14593.823
G1 X12.64 Y18.38 Z1.2 F1620.0 E14595.561
G1 X11.57 Y17.88 Z1.2 F1620.0 E14597.294
;M103
;M108 S50.04
G1 X10.89 Y16.36 Z1.5 F3600.0
;M101
G1 X10.52 Y16.74 Z1.5 F2400.0 E14597.952
G1 X10.22 Y16.44 Z1.5 F2400.0 E14598.477
G1 X10.63 Y16.03 Z1.5 F2400.0 E14599.2
G1 X10.27 Y15.8 Z1.5 F2400.0 E14599.736
G1 X10.48 Y15.59 Z1.5 F2400.0 E14600.111
G1 X10.17 Y15.3 Z1.5 F2400.0 E14600.635
G1 X10.33 Y15.14 Z1.5 F2400.0 E14600.912
G1 X10.08 Y14.8 Z1.5 F2400.0 E14601.441
G1 X10.18 Y14.7 Z1.5 F2400.0 E14601.621
G1 X9.99 Y14.3 Z1.5 F2400.0 E14602.176
G1 X10.03 Y14.25 Z1.5 F2400.0 E14602.259
;M103
G1 X9.76 Y13.35 Z1.5 F3600.0
;M101
G1 X9.81 Y13.3 Z1.5 F2400.0 E14602.344
G1 X9.62 Y12.89 Z1.5 F2400.0 E14602.904
G1 X9.73 Y12.78 Z1.5 F2400.0 E14603.096
G1 X9.49 Y12.43 Z1.5 F2400.0 E14603.628
G1 X9.65 Y12.26 Z1.5 F2400.0 E14603.928
G1 X9.35 Y11.98 Z1.5 F2400.0 E14604.452
G1 X9.58 Y11.75 Z1.5 F2400.0 E14604.86
G1 X9.21 Y11.52 Z1.5 F2400.0 E14605.4
G1 X9.5 Y11.23 Z1.5 F2400.0 E14605.917
G1 X9.07 Y11.07 Z1.5 F2400.0 E14606.49
G1 X9.44 Y10.7 Z1.5 F2400.0 E14607.132
G1 X8.94 Y10.61 Z1.5 F2400.0 E14607.768
G1 X9.43 Y10.12 Z1.5 F2400.0 E14608.637
G1 X9.42 Y9.54 Z1.5 F2400.0 E14609.366
G1 X8.8 Y10.15 Z1.5 F2400.0 E14610.46
G1 X8.66 Y9.7 Z1.5 F2400.0 E14611.055
G1 X9.41 Y8.95 Z1.5 F2400.0 E14612.373
G1 X9.4 Y8.37 Z1.5 F2400.0 E14613.102
G1 X8.53 Y9.24 Z1.5 F2400.0 E14614.645
G1 X8.39 Y8.79 Z1.5 F2400.0 E14615.24
G1 X9.39 Y7.79 Z1.5 F2400.0 E14617.009
G1 X9.38 Y7.21 Z1.5 F2400.0 E14617.737
G1 X8.26 Y8.33 Z1.5 F2400.0 E14619.729
G1 X8.12 Y7.88 Z1.5 F2400.0 E14620.325
G1 X9.37 Y6.62 Z1.5 F2400.0 E14622.542
G1 X9.36 Y6.04 Z1.5 F2400.0 E14623.272
G1 X7.98 Y7.42 Z1.5 F2400.0 E14625.715
G1 X7.85 Y6.97 Z1.5 F2400.0 E14626.31
G1 X9.35 Y5.46 Z1.5 F2400.0 E14628.977
G1 X9.34 Y4.87 Z1.5 F2400.0 E14629.707
G1 X7.71 Y6.51 Z1.5 F2400.0 E14632.599
G1 X7.57 Y6.05 Z1.5 F2400.0 E14633.195
G1 X9.33 Y4.29 Z1.5 F2400.0 E14636.311
G1 X9.32 Y3.71 Z1.5 F2400.0 E14637.041
G1 X7.44 Y5.6 Z1.5 F2400.0 E14640.383
G1 X7.3 Y5.14 Z1.5 F2400.0 E14640.978
G1 X9.31 Y3.13 Z1.5 F2400.0 E14644.545
G1 X9.31 Y2.54 Z1.5 F2400.0 E14645.275
G1 X7.16 Y4.69 Z1.5 F2400.0 E14649.066
G1 X7.03 Y4.23 Z1.5 F2400.0 E14649.662
G1 X9.3 Y1.96 Z1.5 F2400.0 E14653.678
G1 X9.29 Y1.38 Z1.5 F2400.0 E14654.407
G1 X6.89 Y3.78 Z1.5 F2400.0 E14658.649
G1 X6.75 Y3.32 Z1.5 F2400.0 E14659.244
G1 X9.28 Y0.8 Z1.5 F2400.0 E14663.709
G1 X9.27 Y0.21 Z1.5 F2400.0 E14664.439
G1 X6.62 Y2.86 Z1.5 F2400.0 E14669.129
G1 X6.51 Y2.37 Z1.5 F2400.0 E14669.755
G1 X9.26 Y-0.37 Z1.5 F2400.0 E14674.61
G1 X9.25 Y-0.95 Z1.5 F2400.0 E14675.339
G1 X6.42 Y1.88 Z1.5 F2400.0 E14680.344
G1 X6.32 Y1.38 Z1.5 F2400.0 E14680.978
G1 X9.24 Y-1.54 Z1.5 F2400.0 E14686.133
G1 X9.23 Y-2.12 Z1.5 F2400.0 E14686.862
G1 X6.23 Y0.88 Z1.5 F2400.0 E14692.166
G1 X6.14 Y0.38 Z1.5 F2400.0 E14692.8
G1 X9.22 Y-2.7 Z1.5 F2400.0 E14698.254
G1 X9.31 Y-3.39 Z1.5 F2400.0 E14699.123
G1 X6.04 Y-0.12 Z1.5 F2400.0 E14704.914
G1 X5.95 Y-0.62 Z1.5 F2400.0 E14705.548
G1 X9.32 Y-3.99 Z1.5 F2400.0 E14711.52
G1 X9.33 Y-4.59 Z1.5 F2400.0 E14712.272
G1 X5.85 Y-1.11 Z1.5 F2400.0 E14718.427
G1 X5.76 Y-1.61 Z1.5 F2400.0 E14719.061
G1 X9.34 Y-5.19 Z1.5 F2400.0 E14725.398
G1 X9.35 Y-5.79 Z1.5 F2400.0 E14726.15
G1 X5.66 Y-2.11 Z1.5 F2400.0 E14732.669
G1 X5.57 Y-2.61 Z1.5 F2400.0 E14733.305
G1 X9.36 Y-6.4 Z1.5 F2400.0 E14740.005
G1 X9.37 Y-7.0 Z1.5 F2400.0 E14740.757
G1 X5.48 Y-3.11 Z1.5 F2400.0 E14747.64
G1 X5.38 Y-3.6 Z1.5 F2400.0 E14748.274
G1 X9.38 Y-7.6 Z1.5 F2400.0 E14755.341
G1 X9.38 Y-8.2 Z1.5 F2400.0 E14756.092
G1 X5.29 Y-4.1 Z1.5 F2400.0 E14763.342
G1 X5.19 Y-4.6 Z1.5 F2400.0 E14763.976
G1 X9.4 Y-8.81 Z1.5 F2400.0 E14771.419
G1 X9.5 Y-9.5 Z1.5 F2400.0 E14772.289
G1 X5.07 Y-5.07 Z1.5 F2400.0 E14780.112
G1 X4.93 Y-5.53 Z1.5 F2400.0 E14780.706
G1 X9.54 Y-10.13 Z1.5 F2400.0 E14788.846
G1 X9.58 Y-10.76 Z1.5 F2400.0 E14789.64
G1 X4.78 Y-5.97 Z1.5 F2400.0 E14798.12
G1 X4.53 Y-6.31 Z1.5 F2400.0 E14798.652
G1 X9.48 Y-11.26 Z1.5 F2400.0 E14807.402
G1 X9.46 Y-11.83 Z1.5 F2400.0 E14808.126
G1 X4.26 Y-6.63 Z1.5 F2400.0 E14817.328
G1 X3.84 Y-6.81 Z1.5 F2400.0 E14817.895
G1 X9.45 Y-12.41 Z1.5 F2400.0 E14827.815
G1 X9.44 Y-12.99 Z1.5 F2400.0 E14828.538
G1 X3.39 Y-6.95 Z1.5 F2400.0 E14839.233
G1 X2.86 Y-7.01 Z1.5 F2400.0 E14839.899
G1 X9.42 Y-13.57 Z1.5 F2400.0 E14851.505
G1 X9.41 Y-14.15 Z1.5 F2400.0 E14852.229
G1 X2.42 Y-7.16 Z1.5 F2400.0 E14864.587
G1 X2.0 Y-7.33 Z1.5 F2400.0 E14865.159
G1 X9.39 Y-14.72 Z1.5 F2400.0 E14878.235
G1 X9.32 Y-15.25 Z1.5 F2400.0 E14878.897
G1 X1.48 Y-7.41 Z1.5 F2400.0 E14892.766
;M103
G1 X4.39 Y-10.91 Z1.5 F3600.0
;M101
G1 X9.25 Y-15.77 Z1.5 F2400.0 E14901.371
G1 X9.18 Y-16.29 Z1.5 F2400.0 E14902.03
G1 X4.87 Y-11.98 Z1.5 F2400.0 E14909.664
G1 X5.01 Y-12.71 Z1.5 F2400.0 E14910.593
G1 X9.03 Y-16.73 Z1.5 F2400.0 E14917.716
G1 X8.88 Y-17.17 Z1.5 F2400.0 E14918.299
G1 X5.08 Y-13.37 Z1.5 F2400.0 E14925.032
G1 X5.14 Y-14.03 Z1.5 F2400.0 E14925.863
G1 X8.73 Y-17.61 Z1.5 F2400.0 E14932.206
G1 X8.58 Y-18.06 Z1.5 F2400.0 E14932.789
G1 X5.21 Y-14.69 Z1.5 F2400.0 E14938.741
G1 X5.28 Y-15.35 Z1.5 F2400.0 E14939.573
G1 X8.43 Y-18.5 Z1.5 F2400.0 E14945.136
G1 X8.27 Y-18.94 Z1.5 F2400.0 E14945.719
G1 X5.37 Y-16.03 Z1.5 F2400.0 E14950.861
G1 X5.56 Y-16.82 Z1.5 F2400.0 E14951.872
G1 X8.12 Y-19.38 Z1.5 F2400.0 E14956.405
G1 X7.97 Y-19.82 Z1.5 F2400.0 E14956.988
G1 X5.76 Y-17.6 Z1.5 F2400.0 E14960.909
G1 X5.95 Y-18.39 Z1.5 F2400.0 E14961.922
G1 X7.82 Y-20.26 Z1.5 F2400.0 E14965.233
G1 X7.65 Y-20.69 Z1.5 F2400.0 E14965.804
G1 X6.14 Y-19.17 Z1.5 F2400.0 E14968.478
G1 X6.34 Y-19.96 Z1.5 F2400.0 E14969.491
G1 X7.45 Y-21.07 Z1.5 F2400.0 E14971.458
G1 X7.24 Y-21.46 Z1.5 F2400.0 E14972.006
G1 X6.53 Y-20.75 Z1.5 F2400.0 E14973.269
G1 X6.72 Y-21.53 Z1.5 F2400.0 E14974.282
G1 X7.04 Y-21.85 Z1.5 F2400.0 E14974.838
;M103
G1 X7.34 Y-22.03 Z1.5 F3600.0
;M101
G1 X7.35 Y-22.01 Z1.5 F2400.0 E14974.868
G1 X8.04 Y-20.72 Z1.5 F2400.0 E14976.702
G1 X9.53 Y-16.37 Z1.5 F2400.0 E14982.457
G1 X9.75 Y-14.71 Z1.5 F2400.0 E14984.547
G1 X9.84 Y-11.13 Z1.5 F2400.0 E14989.029
G1 X9.95 Y-10.97 Z1.5 F2400.0 E14989.275
G1 X9.81 Y-8.81 Z1.5 F2400.0 E14991.972
G1 X9.75 Y-8.7 Z1.5 F2400.0 E14992.134
G1 X9.67 Y-3.25 Z1.5 F2400.0 E14998.957
G1 X9.57 Y-2.84 Z1.5 F2400.0 E14999.478
G1 X9.8 Y10.77 Z1.5 F2400.0 E15016.509
G1 X10.22 Y13.7 Z1.5 F2400.0 E15020.212
G1 X10.97 Y15.93 Z1.5 F2400.0 E15023.149
G1 X11.44 Y16.43 Z1.5 F2400.0 E15024.007
G1 X11.89 Y16.72 Z1.5 F2400.0 E15024.687
G1 X11.4 Y17.05 Z1.5 F2400.0 E15025.422
G1 X10.49 Y17.09 Z1.5 F2400.0 E15026.565
G1 X9.97 Y17.3 Z1.5 F2400.0 E15027.261
G1 X9.64 Y16.86 Z1.5 F2400.0 E15027.945
G1 X9.84 Y16.51 Z1.5 F2400.0 E15028.449
G1 X9.94 Y16.02 Z1.5 F2400.0 E15029.071
G1 X9.55 Y13.88 Z1.5 F2400.0 E15031.797
G1 X6.24 Y2.86 Z1.5 F2400.0 E15046.18
G1 X4.8 Y-4.75 Z1.5 F2400.0 E15055.87
G1 X4.49 Y-5.77 Z1.5 F2400.0 E15057.207
G1 X4.08 Y-6.32 Z1.5 F2400.0 E15058.066
G1 X3.46 Y-6.58 Z1.5 F2400.0 E15058.906
G1 X2.62 Y-6.68 Z1.5 F2400.0 E15059.968
G1 X1.99 Y-6.97 Z1.5 F2400.0 E15060.836
G1 X0.94 Y-7.13 Z1.5 F2400.0 E15062.163
G1 X0.87 Y-7.69 Z1.5 F2400.0 E15062.874
G1 X1.59 Y-8.56 Z1.5 F2400.0 E15064.283
G1 X4.09 Y-11.1 Z1.5 F2400.0 E15068.735
G1 X4.38 Y-11.59 Z1.5 F2400.0 E15069.449
G1 X4.61 Y-12.35 Z1.5 F2400.0 E15070.448
G1 X4.99 Y-15.98 Z1.5 F2400.0 E15075.014
G1 X6.52 Y-22.22 Z1.5 F2400.0 E15083.052
G1 X6.73 Y-22.67 Z1.5 F2400.0 E15083.672
G1 X7.11 Y-22.47 Z1.5 F2400.0 E15084.211
G1 X7.34 Y-22.03 Z1.5 F2400.0 E15084.832
;M103
;M108 S37.53
G1 X7.72 Y-22.21 Z1.5 F3600.0
;M101
G1 X8.42 Y-20.89 Z1.5 F1800.0 E15086.703
G1 X9.52 Y-17.88 Z1.5 F1800.0 E15090.714
G1 X9.95 Y-16.46 Z1.5 F1800.0 E15092.566
G1 X10.17 Y-14.75 Z1.5 F1800.0 E15094.72
G1 X10.27 Y-12.87 Z1.5 F1800.0 E15097.073
G1 X10.26 Y-11.26 Z1.5 F1800.0 E15099.095
G1 X10.37 Y-11.08 Z1.5 F1800.0 E15099.358
G1 X10.22 Y-8.69 Z1.5 F1800.0 E15102.349
G1 X10.16 Y-8.59 Z1.5 F1800.0 E15102.496
G1 X10.09 Y-3.2 Z1.5 F1800.0 E15109.246
G1 X9.99 Y-2.79 Z1.5 F1800.0 E15109.763
G1 X10.03 Y6.76 Z1.5 F1800.0 E15121.711
G1 X10.21 Y10.73 Z1.5 F1800.0 E15126.687
G1 X10.63 Y13.6 Z1.5 F1800.0 E15130.318
G1 X11.33 Y15.71 Z1.5 F1800.0 E15133.094
G1 X11.72 Y16.12 Z1.5 F1800.0 E15133.806
G1 X12.43 Y16.72 Z1.5 F1800.0 E15134.969
G1 X13.32 Y17.28 Z1.5 F1800.0 E15136.278
G1 X13.88 Y17.81 Z1.5 F1800.0 E15137.245
G1 X13.99 Y18.08 Z1.5 F1800.0 E15137.617
G1 X14.03 Y18.48 Z1.5 F1800.0 E15138.115
G1 X14.14 Y18.95 Z1.5 F1800.0 E15138.718
G1 X13.99 Y18.91 Z1.5 F1800.0 E15138.911
G1 X12.65 Y17.93 Z1.5 F1800.0 E15140.998
G1 X11.56 Y17.46 Z1.5 F1800.0 E15142.475
G1 X10.58 Y17.51 Z1.5 F1800.0 E15143.708
G1 X9.07 Y18.1 Z1.5 F1800.0 E15145.734
G1 X7.16 Y19.02 Z1.5 F1800.0 E15148.394
G1 X5.97 Y19.7 Z1.5 F1800.0 E15150.106
G1 X4.99 Y20.44 Z1.5 F1800.0 E15151.638
G1 X4.18 Y21.38 Z1.5 F1800.0 E15153.193
G1 X3.52 Y22.61 Z1.5 F1800.0 E15154.931
G1 X3.49 Y22.64 Z1.5 F1800.0 E15154.995
G1 X3.44 Y22.61 Z1.5 F1800.0 E15155.071
G1 X3.57 Y21.59 Z1.5 F1800.0 E15156.35
G1 X3.9 Y20.71 Z1.5 F1800.0 E15157.528
G1 X4.52 Y19.97 Z1.5 F1800.0 E15158.741
G1 X5.28 Y19.24 Z1.5 F1800.0 E15160.051
G1 X6.2 Y18.53 Z1.5 F1800.0 E15161.512
G1 X7.37 Y17.83 Z1.5 F1800.0 E15163.22
G1 X9.15 Y16.89 Z1.5 F1800.0 E15165.729
G1 X9.44 Y16.36 Z1.5 F1800.0 E15166.493
G1 X9.52 Y16.01 Z1.5 F1800.0 E15166.934
G1 X9.14 Y13.98 Z1.5 F1800.0 E15169.525
G1 X5.84 Y2.96 Z1.5 F1800.0 E15183.908
G1 X4.39 Y-4.65 Z1.5 F1800.0 E15193.596
G1 X4.11 Y-5.58 Z1.5 F1800.0 E15194.815
G1 X3.78 Y-6.03 Z1.5 F1800.0 E15195.517
G1 X3.55 Y-6.01 Z1.5 F1800.0 E15195.798
G1 X3.4 Y-6.16 Z1.5 F1800.0 E15196.073
G1 X2.5 Y-6.27 Z1.5 F1800.0 E15197.203
G1 X1.86 Y-6.57 Z1.5 F1800.0 E15198.084
G1 X1.14 Y-6.69 Z1.5 F1800.0 E15199.005
G1 X0.56 Y-6.73 Z1.5 F1800.0 E15199.724
G1 X-0.2 Y-6.37 Z1.5 F1800.0 E15200.78
G1 X-0.34 Y-6.67 Z1.5 F1800.0 E15201.195
G1 X0.44 Y-7.82 Z1.5 F1800.0 E15202.927
G1 X1.28 Y-8.84 Z1.5 F1800.0 E15204.584
G1 X2.85 Y-10.42 Z1.5 F1800.0 E15207.372
G1 X3.03 Y-10.66 Z1.5 F1800.0 E15207.745
G1 X3.76 Y-11.36 Z1.5 F1800.0 E15209.009
G1 X3.99 Y-11.76 Z1.5 F1800.0 E15209.586
G1 X4.2 Y-12.44 Z1.5 F1800.0 E15210.473
G1 X4.58 Y-16.05 Z1.5 F1800.0 E15215.021
G1 X5.81 Y-21.3 Z1.5 F1800.0 E15221.772
G1 X6.13 Y-22.37 Z1.5 F1800.0 E15223.16
G1 X6.51 Y-23.22 Z1.5 F1800.0 E15224.326
G1 X6.57 Y-23.23 Z1.5 F1800.0 E15224.397
G1 X6.85 Y-23.4 Z1.5 F1800.0 E15224.813
G1 X7.42 Y-22.78 Z1.5 F1800.0 E15225.859
G1 X7.72 Y-22.21 Z1.5 F1800.0 E15226.671
;M103
;M108 S50.04
G1 X-2.99 Y-14.19 Z1.5 F3600.0
;M101
G1 X-2.92 Y-14.26 Z1.5 F2400.0 E15226.794
G1 X-2.85 Y-14.92 Z1.5 F2400.0 E15227.622
G1 X-2.62 Y-15.15 Z1.5 F2400.0 E15228.028
G1 X-2.72 Y-15.65 Z1.5 F2400.0 E15228.663
G1 X-2.33 Y-16.04 Z1.5 F2400.0 E15229.351
G1 X-2.7 Y-16.26 Z1.5 F2400.0 E15229.892
G1 X-2.23 Y-16.72 Z1.5 F2400.0 E15230.717
G1 X-2.74 Y-16.81 Z1.5 F2400.0 E15231.356
G1 X-2.83 Y-16.72 Z1.5 F2400.0 E15231.522
;M103
G1 X-3.15 Y-13.44 Z1.5 F3600.0
;M101
G1 X-3.18 Y-13.41 Z1.5 F2400.0 E15231.577
G1 X-3.23 Y-12.77 Z1.5 F2400.0 E15232.383
G1 X-3.43 Y-12.56 Z1.5 F2400.0 E15232.745
G1 X-3.33 Y-12.07 Z1.5 F2400.0 E15233.37
G1 X-3.69 Y-11.72 Z1.5 F2400.0 E15234.002
G1 X-3.43 Y-11.38 Z1.5 F2400.0 E15234.53
G1 X-3.94 Y-10.87 Z1.5 F2400.0 E15235.431
G1 X-3.52 Y-10.7 Z1.5 F2400.0 E15236.0
G1 X-4.19 Y-10.02 Z1.5 F2400.0 E15237.197
G1 X-3.53 Y-10.1 Z1.5 F2400.0 E15238.036
G1 X-4.45 Y-9.18 Z1.5 F2400.0 E15239.665
G1 X-4.7 Y-8.33 Z1.5 F2400.0 E15240.769
G1 X-3.54 Y-9.5 Z1.5 F2400.0 E15242.829
G1 X-3.55 Y-8.89 Z1.5 F2400.0 E15243.582
G1 X-4.95 Y-7.49 Z1.5 F2400.0 E15246.073
G1 X-5.21 Y-6.64 Z1.5 F2400.0 E15247.178
G1 X-3.56 Y-8.29 Z1.5 F2400.0 E15250.101
G1 X-3.57 Y-7.69 Z1.5 F2400.0 E15250.855
G1 X-5.46 Y-5.79 Z1.5 F2400.0 E15254.208
G1 X-5.72 Y-4.95 Z1.5 F2400.0 E15255.313
G1 X-3.58 Y-7.09 Z1.5 F2400.0 E15259.097
G1 X-3.59 Y-6.49 Z1.5 F2400.0 E15259.85
G1 X-5.97 Y-4.1 Z1.5 F2400.0 E15264.066
G1 X-6.22 Y-3.26 Z1.5 F2400.0 E15265.171
G1 X-3.6 Y-5.88 Z1.5 F2400.0 E15269.818
G1 X-3.61 Y-5.28 Z1.5 F2400.0 E15270.572
G1 X-6.43 Y-2.46 Z1.5 F2400.0 E15275.561
G1 X-6.56 Y-1.73 Z1.5 F2400.0 E15276.492
G1 X-3.62 Y-4.68 Z1.5 F2400.0 E15281.709
G1 X-3.63 Y-4.08 Z1.5 F2400.0 E15282.462
G1 X-6.7 Y-1.0 Z1.5 F2400.0 E15287.908
G1 X-6.84 Y-0.27 Z1.5 F2400.0 E15288.837
G1 X-3.64 Y-3.47 Z1.5 F2400.0 E15294.508
G1 X-3.65 Y-2.87 Z1.5 F2400.0 E15295.262
G1 X-6.98 Y0.46 Z1.5 F2400.0 E15301.16
G1 X-7.12 Y1.19 Z1.5 F2400.0 E15302.091
G1 X-3.66 Y-2.27 Z1.5 F2400.0 E15308.218
G1 X-3.67 Y-1.67 Z1.5 F2400.0 E15308.971
G1 X-7.26 Y1.93 Z1.5 F2400.0 E15315.325
G1 X-7.4 Y2.66 Z1.5 F2400.0 E15316.256
G1 X-3.68 Y-1.06 Z1.5 F2400.0 E15322.837
G1 X-3.69 Y-0.46 Z1.5 F2400.0 E15323.59
G1 X-7.53 Y3.39 Z1.5 F2400.0 E15330.398
G1 X-7.67 Y4.12 Z1.5 F2400.0 E15331.329
G1 X-3.69 Y0.14 Z1.5 F2400.0 E15338.366
G1 X-3.7 Y0.74 Z1.5 F2400.0 E15339.119
G1 X-7.81 Y4.85 Z1.5 F2400.0 E15346.389
G1 X-8.08 Y5.71 Z1.5 F2400.0 E15347.508
G1 X-3.71 Y1.35 Z1.5 F2400.0 E15355.224
G1 X-3.72 Y1.95 Z1.5 F2400.0 E15355.977
G1 X-10.56 Y8.78 Z1.5 F2400.0 E15368.071
G1 X-10.27 Y9.09 Z1.5 F2400.0 E15368.595
G1 X-3.73 Y2.55 Z1.5 F2400.0 E15380.164
G1 X-3.69 Y3.1 Z1.5 F2400.0 E15380.851
G1 X-9.99 Y9.39 Z1.5 F2400.0 E15391.99
G1 X-9.7 Y9.7 Z1.5 F2400.0 E15392.514
G1 X-3.64 Y3.64 Z1.5 F2400.0 E15403.233
G1 X-3.63 Y4.22 Z1.5 F2400.0 E15403.964
G1 X-9.41 Y10.0 Z1.5 F2400.0 E15414.191
G1 X-9.12 Y10.31 Z1.5 F2400.0 E15414.716
G1 X-3.62 Y4.81 Z1.5 F2400.0 E15424.448
G1 X-3.61 Y5.39 Z1.5 F2400.0 E15425.177
G1 X-8.83 Y10.61 Z1.5 F2400.0 E15434.416
G1 X-8.56 Y10.92 Z1.5 F2400.0 E15434.941
G1 X-3.6 Y5.97 Z1.5 F2400.0 E15443.7
G1 X-3.6 Y6.56 Z1.5 F2400.0 E15444.43
G1 X-8.34 Y11.3 Z1.5 F2400.0 E15452.816
G1 X-8.16 Y11.72 Z1.5 F2400.0 E15453.386
G1 X-3.59 Y7.14 Z1.5 F2400.0 E15461.485
G1 X-3.58 Y7.73 Z1.5 F2400.0 E15462.216
G1 X-8.03 Y12.17 Z1.5 F2400.0 E15470.085
G1 X-7.95 Y12.69 Z1.5 F2400.0 E15470.738
G1 X-3.57 Y8.31 Z1.5 F2400.0 E15478.489
G1 X-3.53 Y8.86 Z1.5 F2400.0 E15479.179
G1 X-7.9 Y13.23 Z1.5 F2400.0 E15486.907
G1 X-7.84 Y13.76 Z1.5 F2400.0 E15487.581
G1 X-3.47 Y9.39 Z1.5 F2400.0 E15495.318
G1 X-3.43 Y9.95 Z1.5 F2400.0 E15496.016
G1 X-7.78 Y14.3 Z1.5 F2400.0 E15503.716
G1 X-7.73 Y14.84 Z1.5 F2400.0 E15504.391
G1 X-3.4 Y10.5 Z1.5 F2400.0 E15512.055
G1 X-3.48 Y11.18 Z1.5 F2400.0 E15512.903
G1 X-7.67 Y15.37 Z1.5 F2400.0 E15520.326
G1 X-7.62 Y15.91 Z1.5 F2400.0 E15521.0
G1 X-3.49 Y11.78 Z1.5 F2400.0 E15528.299
G1 X-3.51 Y12.39 Z1.5 F2400.0 E15529.057
G1 X-7.5 Y16.39 Z1.5 F2400.0 E15536.125
G1 X-7.38 Y16.86 Z1.5 F2400.0 E15536.739
G1 X-3.52 Y13.0 Z1.5 F2400.0 E15543.575
G1 X-3.53 Y13.6 Z1.5 F2400.0 E15544.333
G1 X-7.27 Y17.34 Z1.5 F2400.0 E15550.937
G1 X-7.15 Y17.81 Z1.5 F2400.0 E15551.55
G1 X-3.55 Y14.21 Z1.5 F2400.0 E15557.92
G1 X-3.58 Y14.83 Z1.5 F2400.0 E15558.701
G1 X-7.03 Y18.29 Z1.5 F2400.0 E15564.811
G1 X-6.91 Y18.76 Z1.5 F2400.0 E15565.423
G1 X-3.67 Y15.52 Z1.5 F2400.0 E15571.167
G1 X-3.76 Y16.2 Z1.5 F2400.0 E15572.029
G1 X-6.8 Y19.24 Z1.5 F2400.0 E15577.405
G1 X-6.68 Y19.71 Z1.5 F2400.0 E15578.019
G1 X-4.04 Y17.07 Z1.5 F2400.0 E15582.69
G1 X-4.35 Y17.98 Z1.5 F2400.0 E15583.885
G1 X-6.56 Y20.19 Z1.5 F2400.0 E15587.8
G1 X-6.45 Y20.66 Z1.5 F2400.0 E15588.412
G1 X-4.66 Y18.88 Z1.5 F2400.0 E15591.57
G1 X-4.97 Y19.78 Z1.5 F2400.0 E15592.764
G1 X-6.33 Y21.14 Z1.5 F2400.0 E15595.167
G1 X-6.21 Y21.61 Z1.5 F2400.0 E15595.779
G1 X-5.33 Y20.73 Z1.5 F2400.0 E15597.348
;M103
G1 X-5.99 Y21.99 Z1.5 F3600.0
;M101
G1 X-6.02 Y22.01 Z1.5 F2400.0 E15597.393
;M103
G1 X-8.89 Y11.73 Z1.5 F3600.0
G1 X-10.85 Y8.48 Z1.5 F3600.0
;M101
G1 X-9.22 Y6.85 Z1.5 F2400.0 E15600.271
G1 X-9.96 Y6.99 Z1.5 F2400.0 E15601.207
G1 X-11.14 Y8.17 Z1.5 F2400.0 E15603.296
G1 X-11.42 Y7.87 Z1.5 F2400.0 E15603.82
G1 X-10.87 Y7.32 Z1.5 F2400.0 E15604.791
G1 X-11.57 Y7.42 Z1.5 F2400.0 E15605.669
G1 X-11.71 Y7.56 Z1.5 F2400.0 E15605.915
;M103
G1 X-12.07 Y7.71 Z1.5 F3600.0
;M101
G1 X-12.08 Y7.69 Z1.5 F2400.0 E15605.944
G1 X-12.02 Y7.13 Z1.5 F2400.0 E15606.654
G1 X-10.97 Y6.97 Z1.5 F2400.0 E15607.982
G1 X-10.34 Y6.68 Z1.5 F2400.0 E15608.849
G1 X-9.49 Y6.58 Z1.5 F2400.0 E15609.912
G1 X-8.87 Y6.32 Z1.5 F2400.0 E15610.751
G1 X-8.47 Y5.77 Z1.5 F2400.0 E15611.611
G1 X-8.15 Y4.75 Z1.5 F2400.0 E15612.948
G1 X-6.71 Y-2.86 Z1.5 F2400.0 E15622.637
G1 X-3.41 Y-13.88 Z1.5 F2400.0 E15637.021
G1 X-3.01 Y-16.02 Z1.5 F2400.0 E15639.746
G1 X-3.12 Y-16.51 Z1.5 F2400.0 E15640.369
G1 X-3.32 Y-16.87 Z1.5 F2400.0 E15640.893
G1 X-3.03 Y-17.3 Z1.5 F2400.0 E15641.54
G1 X-2.46 Y-17.09 Z1.5 F2400.0 E15642.301
G1 X-1.56 Y-17.05 Z1.5 F2400.0 E15643.437
G1 X-1.06 Y-16.72 Z1.5 F2400.0 E15644.173
G1 X-1.52 Y-16.43 Z1.5 F2400.0 E15644.853
G1 X-1.99 Y-15.93 Z1.5 F2400.0 E15645.71
G1 X-2.73 Y-13.7 Z1.5 F2400.0 E15648.648
G1 X-3.16 Y-10.77 Z1.5 F2400.0 E15652.351
G1 X-3.38 Y2.84 Z1.5 F2400.0 E15669.382
G1 X-3.29 Y3.25 Z1.5 F2400.0 E15669.902
G1 X-3.21 Y8.7 Z1.5 F2400.0 E15676.726
G1 X-3.15 Y8.81 Z1.5 F2400.0 E15676.887
G1 X-3.01 Y10.97 Z1.5 F2400.0 E15679.584
G1 X-3.12 Y11.13 Z1.5 F2400.0 E15679.831
G1 X-3.2 Y14.71 Z1.5 F2400.0 E15684.313
G1 X-3.42 Y16.37 Z1.5 F2400.0 E15686.404
G1 X-4.92 Y20.72 Z1.5 F2400.0 E15692.157
G1 X-5.85 Y22.47 Z1.5 F2400.0 E15694.644
G1 X-6.23 Y22.67 Z1.5 F2400.0 E15695.183
G1 X-6.43 Y22.23 Z1.5 F2400.0 E15695.792
G1 X-7.97 Y15.98 Z1.5 F2400.0 E15703.844
G1 X-8.34 Y12.35 Z1.5 F2400.0 E15708.407
G1 X-8.58 Y11.59 Z1.5 F2400.0 E15709.407
G1 X-8.87 Y11.1 Z1.5 F2400.0 E15710.121
G1 X-12.07 Y7.71 Z1.5 F2400.0 E15715.948
;M103
;M108 S37.53
G1 X-12.52 Y7.82 Z1.5 F3600.0
;M101
G1 X-13.3 Y6.67 Z1.5 F1800.0 E15717.681
G1 X-13.15 Y6.37 Z1.5 F1800.0 E15718.096
G1 X-12.39 Y6.73 Z1.5 F1800.0 E15719.153
G1 X-11.82 Y6.69 Z1.5 F1800.0 E15719.873
G1 X-11.09 Y6.57 Z1.5 F1800.0 E15720.793
G1 X-10.45 Y6.27 Z1.5 F1800.0 E15721.674
G1 X-9.56 Y6.16 Z1.5 F1800.0 E15722.805
G1 X-9.4 Y6.01 Z1.5 F1800.0 E15723.079
G1 X-9.18 Y6.03 Z1.5 F1800.0 E15723.361
G1 X-8.85 Y5.58 Z1.5 F1800.0 E15724.062
G1 X-8.56 Y4.65 Z1.5 F1800.0 E15725.281
G1 X-7.12 Y-2.96 Z1.5 F1800.0 E15734.969
G1 X-3.82 Y-13.98 Z1.5 F1800.0 E15749.352
G1 X-3.44 Y-16.01 Z1.5 F1800.0 E15751.943
G1 X-3.51 Y-16.36 Z1.5 F1800.0 E15752.384
G1 X-3.81 Y-16.89 Z1.5 F1800.0 E15753.149
G1 X-5.58 Y-17.83 Z1.5 F1800.0 E15755.657
G1 X-6.75 Y-18.53 Z1.5 F1800.0 E15757.366
G1 X-7.68 Y-19.24 Z1.5 F1800.0 E15758.827
G1 X-8.43 Y-19.97 Z1.5 F1800.0 E15760.136
G1 X-9.06 Y-20.71 Z1.5 F1800.0 E15761.35
G1 X-9.39 Y-21.59 Z1.5 F1800.0 E15762.527
G1 X-9.52 Y-22.61 Z1.5 F1800.0 E15763.807
G1 X-9.47 Y-22.64 Z1.5 F1800.0 E15763.882
G1 X-9.43 Y-22.61 Z1.5 F1800.0 E15763.947
G1 X-8.78 Y-21.38 Z1.5 F1800.0 E15765.685
G1 X-7.97 Y-20.44 Z1.5 F1800.0 E15767.239
G1 X-6.99 Y-19.7 Z1.5 F1800.0 E15768.771
G1 X-5.8 Y-19.02 Z1.5 F1800.0 E15770.483
G1 X-3.2 Y-17.81 Z1.5 F1800.0 E15774.072
G1 X-2.38 Y-17.51 Z1.5 F1800.0 E15775.169
G1 X-1.39 Y-17.46 Z1.5 F1800.0 E15776.402
G1 X-0.31 Y-17.93 Z1.5 F1800.0 E15777.879
G1 X1.03 Y-18.91 Z1.5 F1800.0 E15779.966
G1 X1.19 Y-18.95 Z1.5 F1800.0 E15780.159
G1 X1.07 Y-18.48 Z1.5 F1800.0 E15780.762
G1 X1.04 Y-18.08 Z1.5 F1800.0 E15781.259
G1 X0.93 Y-17.81 Z1.5 F1800.0 E15781.632
G1 X0.37 Y-17.28 Z1.5 F1800.0 E15782.599
G1 X-0.52 Y-16.72 Z1.5 F1800.0 E15783.908
G1 X-1.23 Y-16.12 Z1.5 F1800.0 E15785.071
G1 X-1.62 Y-15.71 Z1.5 F1800.0 E15785.783
G1 X-2.32 Y-13.6 Z1.5 F1800.0 E15788.559
G1 X-2.74 Y-10.73 Z1.5 F1800.0 E15792.19
G1 X-2.93 Y-6.76 Z1.5 F1800.0 E15797.166
G1 X-2.96 Y2.79 Z1.5 F1800.0 E15809.114
G1 X-2.87 Y3.2 Z1.5 F1800.0 E15809.631
G1 X-2.79 Y8.59 Z1.5 F1800.0 E15816.381
G1 X-2.73 Y8.69 Z1.5 F1800.0 E15816.528
G1 X-2.58 Y11.08 Z1.5 F1800.0 E15819.519
G1 X-2.7 Y11.26 Z1.5 F1800.0 E15819.782
G1 X-2.69 Y12.87 Z1.5 F1800.0 E15821.805
G1 X-2.79 Y14.75 Z1.5 F1800.0 E15824.158
G1 X-3.01 Y16.46 Z1.5 F1800.0 E15826.312
G1 X-3.44 Y17.88 Z1.5 F1800.0 E15828.164
G1 X-4.53 Y20.89 Z1.5 F1800.0 E15832.175
G1 X-5.54 Y22.78 Z1.5 F1800.0 E15834.859
G1 X-6.1 Y23.4 Z1.5 F1800.0 E15835.904
G1 X-6.39 Y23.23 Z1.5 F1800.0 E15836.32
G1 X-6.45 Y23.22 Z1.5 F1800.0 E15836.391
G1 X-6.83 Y22.37 Z1.5 F1800.0 E15837.558
G1 X-8.38 Y16.05 Z1.5 F1800.0 E15845.694
G1 X-8.76 Y12.44 Z1.5 F1800.0 E15850.242
G1 X-8.96 Y11.76 Z1.5 F1800.0 E15851.129
G1 X-9.2 Y11.36 Z1.5 F1800.0 E15851.706
G1 X-9.93 Y10.66 Z1.5 F1800.0 E15852.97
G1 X-10.11 Y10.42 Z1.5 F1800.0 E15853.342
G1 X-11.68 Y8.84 Z1.5 F1800.0 E15856.131
G1 X-12.52 Y7.82 Z1.5 F1800.0 E15857.788
;M103
;M108 S50.04
G1 X-10.45 Y8.51 Z1.8 F3600.0
;M101
G1 X-3.7 Y15.26 Z1.8 F2400.0 E15869.734
G1 X-3.63 Y14.74 Z1.8 F2400.0 E15870.395
G1 X-10.25 Y8.11 Z1.8 F2400.0 E15882.111
G1 X-9.85 Y7.93 Z1.8 F2400.0 E15882.669
G1 X-3.61 Y14.16 Z1.8 F2400.0 E15893.705
G1 X-3.59 Y13.59 Z1.8 F2400.0 E15894.429
G1 X-9.46 Y7.72 Z1.8 F2400.0 E15904.813
G1 X-9.13 Y7.45 Z1.8 F2400.0 E15905.341
G1 X-3.58 Y13.01 Z1.8 F2400.0 E15915.168
G1 X-3.56 Y12.43 Z1.8 F2400.0 E15915.891
G1 X-8.86 Y7.14 Z1.8 F2400.0 E15925.252
G1 X-8.62 Y6.78 Z1.8 F2400.0 E15925.787
G1 X-3.55 Y11.85 Z1.8 F2400.0 E15934.758
G1 X-3.54 Y11.27 Z1.8 F2400.0 E15935.482
G1 X-8.39 Y6.42 Z1.8 F2400.0 E15944.064
G1 X-8.15 Y6.07 Z1.8 F2400.0 E15944.599
G1 X-3.36 Y10.86 Z1.8 F2400.0 E15953.074
G1 X-3.39 Y10.24 Z1.8 F2400.0 E15953.849
G1 X-7.98 Y5.65 Z1.8 F2400.0 E15961.967
G1 X-7.84 Y5.2 Z1.8 F2400.0 E15962.56
G1 X-3.43 Y9.61 Z1.8 F2400.0 E15970.362
G1 X-3.47 Y8.97 Z1.8 F2400.0 E15971.154
G1 X-7.72 Y4.72 Z1.8 F2400.0 E15978.673
G1 X-7.62 Y4.23 Z1.8 F2400.0 E15979.306
G1 X-3.58 Y8.27 Z1.8 F2400.0 E15986.459
G1 X-3.59 Y7.67 Z1.8 F2400.0 E15987.212
G1 X-7.53 Y3.73 Z1.8 F2400.0 E15994.181
G1 X-7.43 Y3.23 Z1.8 F2400.0 E15994.814
G1 X-3.6 Y7.07 Z1.8 F2400.0 E16001.599
G1 X-3.61 Y6.47 Z1.8 F2400.0 E16002.351
G1 X-7.34 Y2.73 Z1.8 F2400.0 E16008.953
G1 X-7.24 Y2.24 Z1.8 F2400.0 E16009.586
G1 X-3.61 Y5.86 Z1.8 F2400.0 E16016.006
G1 X-3.62 Y5.26 Z1.8 F2400.0 E16016.758
G1 X-7.15 Y1.74 Z1.8 F2400.0 E16022.994
G1 X-7.05 Y1.24 Z1.8 F2400.0 E16023.627
G1 X-3.63 Y4.66 Z1.8 F2400.0 E16029.679
G1 X-3.64 Y4.06 Z1.8 F2400.0 E16030.431
G1 X-6.96 Y0.74 Z1.8 F2400.0 E16036.301
G1 X-6.86 Y0.25 Z1.8 F2400.0 E16036.936
G1 X-3.67 Y3.44 Z1.8 F2400.0 E16042.581
G1 X-3.81 Y2.71 Z1.8 F2400.0 E16043.505
G1 X-6.77 Y-0.25 Z1.8 F2400.0 E16048.745
G1 X-6.67 Y-0.75 Z1.8 F2400.0 E16049.379
G1 X-3.81 Y2.12 Z1.8 F2400.0 E16054.454
G1 X-3.8 Y1.53 Z1.8 F2400.0 E16055.193
G1 X-6.58 Y-1.25 Z1.8 F2400.0 E16060.103
G1 X-6.48 Y-1.75 Z1.8 F2400.0 E16060.737
G1 X-3.8 Y0.94 Z1.8 F2400.0 E16065.482
G1 X-3.8 Y0.35 Z1.8 F2400.0 E16066.221
G1 X-6.39 Y-2.24 Z1.8 F2400.0 E16070.8
G1 X-6.29 Y-2.74 Z1.8 F2400.0 E16071.434
G1 X-3.8 Y-0.25 Z1.8 F2400.0 E16075.847
G1 X-3.8 Y-0.84 Z1.8 F2400.0 E16076.586
G1 X-6.16 Y-3.2 Z1.8 F2400.0 E16080.761
G1 X-6.02 Y-3.65 Z1.8 F2400.0 E16081.356
G1 X-3.8 Y-1.43 Z1.8 F2400.0 E16085.291
G1 X-3.8 Y-2.02 Z1.8 F2400.0 E16086.03
G1 X-5.89 Y-4.11 Z1.8 F2400.0 E16089.726
G1 X-5.75 Y-4.56 Z1.8 F2400.0 E16090.321
G1 X-3.8 Y-2.61 Z1.8 F2400.0 E16093.776
G1 X-3.79 Y-3.2 Z1.8 F2400.0 E16094.515
G1 X-5.61 Y-5.02 Z1.8 F2400.0 E16097.731
G1 X-5.47 Y-5.47 Z1.8 F2400.0 E16098.326
G1 X-3.79 Y-3.79 Z1.8 F2400.0 E16101.3
G1 X-3.79 Y-4.38 Z1.8 F2400.0 E16102.039
G1 X-5.34 Y-5.93 Z1.8 F2400.0 E16104.773
G1 X-5.2 Y-6.38 Z1.8 F2400.0 E16105.368
G1 X-3.79 Y-4.97 Z1.8 F2400.0 E16107.862
G1 X-3.79 Y-5.57 Z1.8 F2400.0 E16108.602
G1 X-5.06 Y-6.84 Z1.8 F2400.0 E16110.855
G1 X-4.93 Y-7.3 Z1.8 F2400.0 E16111.451
G1 X-3.79 Y-6.16 Z1.8 F2400.0 E16113.465
G1 X-3.79 Y-6.75 Z1.8 F2400.0 E16114.205
G1 X-4.79 Y-7.75 Z1.8 F2400.0 E16115.978
G1 X-4.65 Y-8.21 Z1.8 F2400.0 E16116.573
G1 X-3.76 Y-7.31 Z1.8 F2400.0 E16118.149
G1 X-3.73 Y-7.88 Z1.8 F2400.0 E16118.857
G1 X-4.51 Y-8.66 Z1.8 F2400.0 E16120.238
G1 X-4.38 Y-9.12 Z1.8 F2400.0 E16120.834
G1 X-3.71 Y-8.44 Z1.8 F2400.0 E16122.023
G1 X-3.68 Y-9.01 Z1.8 F2400.0 E16122.731
G1 X-4.24 Y-9.57 Z1.8 F2400.0 E16123.724
G1 X-4.1 Y-10.03 Z1.8 F2400.0 E16124.318
G1 X-3.65 Y-9.57 Z1.8 F2400.0 E16125.117
G1 X-3.62 Y-10.14 Z1.8 F2400.0 E16125.825
G1 X-3.97 Y-10.48 Z1.8 F2400.0 E16126.431
G1 X-3.6 Y-10.7 Z1.8 F2400.0 E16126.97
G1 X-3.83 Y-10.94 Z1.8 F2400.0 E16127.381
G1 X-3.53 Y-11.23 Z1.8 F2400.0 E16127.905
G1 X-3.69 Y-11.39 Z1.8 F2400.0 E16128.186
G1 X-3.46 Y-11.75 Z1.8 F2400.0 E16128.721
G1 X-3.55 Y-11.85 Z1.8 F2400.0 E16128.891
;M103
G1 X-8.29 Y11.26 Z1.8 F3600.0
;M101
G1 X-3.77 Y15.78 Z1.8 F2400.0 E16136.893
G1 X-3.84 Y16.3 Z1.8 F2400.0 E16137.549
G1 X-7.96 Y12.18 Z1.8 F2400.0 E16144.836
G1 X-7.88 Y12.86 Z1.8 F2400.0 E16145.683
G1 X-3.99 Y16.75 Z1.8 F2400.0 E16152.566
G1 X-4.14 Y17.19 Z1.8 F2400.0 E16153.151
G1 X-7.81 Y13.52 Z1.8 F2400.0 E16159.648
G1 X-7.74 Y14.18 Z1.8 F2400.0 E16160.48
G1 X-4.28 Y17.63 Z1.8 F2400.0 E16166.591
G1 X-4.43 Y18.08 Z1.8 F2400.0 E16167.177
G1 X-7.67 Y14.84 Z1.8 F2400.0 E16172.901
G1 X-7.6 Y15.51 Z1.8 F2400.0 E16173.735
G1 X-4.58 Y18.52 Z1.8 F2400.0 E16179.071
G1 X-4.73 Y18.97 Z1.8 F2400.0 E16179.657
G1 X-7.48 Y16.21 Z1.8 F2400.0 E16184.529
G1 X-7.29 Y17.0 Z1.8 F2400.0 E16185.54
G1 X-4.88 Y19.41 Z1.8 F2400.0 E16189.809
G1 X-5.03 Y19.85 Z1.8 F2400.0 E16190.395
G1 X-7.1 Y17.78 Z1.8 F2400.0 E16194.06
G1 X-6.91 Y18.57 Z1.8 F2400.0 E16195.071
G1 X-5.18 Y20.3 Z1.8 F2400.0 E16198.132
G1 X-5.34 Y20.73 Z1.8 F2400.0 E16198.707
G1 X-6.71 Y19.35 Z1.8 F2400.0 E16201.14
G1 X-6.52 Y20.14 Z1.8 F2400.0 E16202.151
G1 X-5.54 Y21.12 Z1.8 F2400.0 E16203.886
G1 X-5.74 Y21.51 Z1.8 F2400.0 E16204.435
G1 X-6.33 Y20.92 Z1.8 F2400.0 E16205.471
G1 X-6.14 Y21.71 Z1.8 F2400.0 E16206.482
G1 X-5.95 Y21.9 Z1.8 F2400.0 E16206.819
;M103
G1 X-5.48 Y21.75 Z1.8 F3600.0
;M101
G1 X-5.64 Y22.06 Z1.8 F2400.0 E16207.249
G1 X-5.88 Y22.49 Z1.8 F2400.0 E16207.868
G1 X-6.01 Y22.62 Z1.8 F2400.0 E16208.093
G1 X-6.18 Y22.67 Z1.8 F2400.0 E16208.309
G1 X-6.38 Y22.2 Z1.8 F2400.0 E16208.954
G1 X-7.91 Y15.99 Z1.8 F2400.0 E16216.946
G1 X-8.29 Y12.3 Z1.8 F2400.0 E16221.589
G1 X-8.51 Y11.58 Z1.8 F2400.0 E16222.529
G1 X-8.94 Y10.85 Z1.8 F2400.0 E16223.584
G1 X-9.47 Y10.36 Z1.8 F2400.0 E16224.49
G1 X-9.76 Y9.96 Z1.8 F2400.0 E16225.106
G1 X-10.88 Y8.82 Z1.8 F2400.0 E16227.1
G1 X-10.7 Y7.93 Z1.8 F2400.0 E16228.239
G1 X-9.75 Y7.49 Z1.8 F2400.0 E16229.548
G1 X-9.25 Y7.09 Z1.8 F2400.0 E16230.34
G1 X-8.39 Y5.78 Z1.8 F2400.0 E16232.31
G1 X-8.1 Y4.84 Z1.8 F2400.0 E16233.529
G1 X-6.64 Y-2.85 Z1.8 F2400.0 E16243.324
G1 X-3.32 Y-13.85 Z1.8 F2400.0 E16257.704
G1 X-2.99 Y-15.63 Z1.8 F2400.0 E16259.961
G1 X-2.61 Y-15.81 Z1.8 F2400.0 E16260.492
G1 X-2.27 Y-15.48 Z1.8 F2400.0 E16261.086
G1 X-2.82 Y-13.72 Z1.8 F2400.0 E16263.403
G1 X-3.24 Y-10.79 Z1.8 F2400.0 E16267.104
G1 X-3.43 Y-6.78 Z1.8 F2400.0 E16272.117
G1 X-3.45 Y2.82 Z1.8 F2400.0 E16284.136
G1 X-3.29 Y3.5 Z1.8 F2400.0 E16285.001
G1 X-3.22 Y8.6 Z1.8 F2400.0 E16291.39
G1 X-3.12 Y8.78 Z1.8 F2400.0 E16291.646
G1 X-2.99 Y10.94 Z1.8 F2400.0 E16294.345
G1 X-3.18 Y11.22 Z1.8 F2400.0 E16294.773
G1 X-3.26 Y14.7 Z1.8 F2400.0 E16299.131
G1 X-3.48 Y16.36 Z1.8 F2400.0 E16301.218
G1 X-4.96 Y20.76 Z1.8 F2400.0 E16307.031
G1 X-5.48 Y21.75 Z1.8 F2400.0 E16308.434
;M103
;M108 S37.53
G1 X-5.11 Y21.95 Z1.8 F3600.0
;M101
G1 X-5.27 Y22.25 Z1.8 F1800.0 E16308.863
G1 X-5.54 Y22.76 Z1.8 F1800.0 E16309.574
G1 X-5.8 Y22.99 Z1.8 F1800.0 E16310.006
G1 X-6.09 Y23.32 Z1.8 F1800.0 E16310.556
G1 X-6.27 Y23.21 Z1.8 F1800.0 E16310.822
G1 X-6.41 Y23.18 Z1.8 F1800.0 E16311.001
G1 X-6.78 Y22.33 Z1.8 F1800.0 E16312.155
G1 X-7.9 Y18.09 Z1.8 F1800.0 E16317.65
G1 X-8.32 Y16.06 Z1.8 F1800.0 E16320.244
G1 X-8.71 Y12.38 Z1.8 F1800.0 E16324.865
G1 X-8.9 Y11.75 Z1.8 F1800.0 E16325.691
G1 X-9.27 Y11.12 Z1.8 F1800.0 E16326.61
G1 X-9.78 Y10.63 Z1.8 F1800.0 E16327.49
G1 X-10.08 Y10.23 Z1.8 F1800.0 E16328.115
G1 X-11.33 Y8.96 Z1.8 F1800.0 E16330.351
G1 X-11.06 Y7.64 Z1.8 F1800.0 E16332.032
G1 X-9.97 Y7.13 Z1.8 F1800.0 E16333.543
G1 X-9.57 Y6.81 Z1.8 F1800.0 E16334.176
G1 X-9.41 Y6.31 Z1.8 F1800.0 E16334.84
G1 X-9.2 Y6.19 Z1.8 F1800.0 E16335.136
G1 X-8.77 Y5.59 Z1.8 F1800.0 E16336.065
G1 X-8.51 Y4.74 Z1.8 F1800.0 E16337.168
G1 X-7.04 Y-2.95 Z1.8 F1800.0 E16346.963
G1 X-3.73 Y-13.95 Z1.8 F1800.0 E16361.341
G1 X-3.36 Y-15.91 Z1.8 F1800.0 E16363.835
G1 X-2.53 Y-16.32 Z1.8 F1800.0 E16364.993
G1 X-1.79 Y-15.61 Z1.8 F1800.0 E16366.275
G1 X-2.41 Y-13.62 Z1.8 F1800.0 E16368.875
G1 X-2.82 Y-10.75 Z1.8 F1800.0 E16372.507
G1 X-3.01 Y-6.77 Z1.8 F1800.0 E16377.486
G1 X-3.03 Y2.78 Z1.8 F1800.0 E16389.431
G1 X-2.87 Y3.45 Z1.8 F1800.0 E16390.292
G1 X-2.8 Y8.49 Z1.8 F1800.0 E16396.61
G1 X-2.71 Y8.67 Z1.8 F1800.0 E16396.853
G1 X-2.56 Y11.05 Z1.8 F1800.0 E16399.843
G1 X-2.76 Y11.35 Z1.8 F1800.0 E16400.285
G1 X-2.75 Y12.86 Z1.8 F1800.0 E16402.173
G1 X-2.85 Y14.74 Z1.8 F1800.0 E16404.538
G1 X-3.07 Y16.45 Z1.8 F1800.0 E16406.695
G1 X-4.57 Y20.93 Z1.8 F1800.0 E16412.602
G1 X-5.11 Y21.95 Z1.8 F1800.0 E16414.047
;M103
;M108 S50.04
G1 X6.79 Y-21.64 Z1.8 F3600.0
;M101
G1 X7.52 Y-20.92 Z1.8 F2400.0 E16415.331
G1 X6.67 Y-21.17 Z1.8 F2400.0 E16416.44
G1 X7.9 Y-19.95 Z1.8 F2400.0 E16418.608
G1 X8.2 Y-19.06 Z1.8 F2400.0 E16419.783
G1 X6.55 Y-20.7 Z1.8 F2400.0 E16422.697
G1 X6.42 Y-20.23 Z1.8 F2400.0 E16423.304
G1 X8.49 Y-18.16 Z1.8 F2400.0 E16426.964
G1 X8.79 Y-17.27 Z1.8 F2400.0 E16428.14
G1 X6.3 Y-19.76 Z1.8 F2400.0 E16432.547
G1 X6.18 Y-19.3 Z1.8 F2400.0 E16433.154
G1 X9.09 Y-16.38 Z1.8 F2400.0 E16438.306
G1 X9.2 Y-15.68 Z1.8 F2400.0 E16439.201
G1 X6.05 Y-18.83 Z1.8 F2400.0 E16444.774
G1 X5.93 Y-18.36 Z1.8 F2400.0 E16445.381
G1 X9.29 Y-14.99 Z1.8 F2400.0 E16451.33
G1 X9.34 Y-14.35 Z1.8 F2400.0 E16452.136
G1 X5.81 Y-17.89 Z1.8 F2400.0 E16458.39
G1 X5.71 Y-17.4 Z1.8 F2400.0 E16459.016
G1 X9.36 Y-13.75 Z1.8 F2400.0 E16465.477
G1 X9.37 Y-13.14 Z1.8 F2400.0 E16466.238
G1 X5.6 Y-16.91 Z1.8 F2400.0 E16472.906
G1 X5.5 Y-16.42 Z1.8 F2400.0 E16473.532
G1 X9.39 Y-12.53 Z1.8 F2400.0 E16480.407
G1 X9.4 Y-11.92 Z1.8 F2400.0 E16481.168
G1 X5.4 Y-15.93 Z1.8 F2400.0 E16488.249
G1 X5.34 Y-15.39 Z1.8 F2400.0 E16488.923
G1 X9.42 Y-11.32 Z1.8 F2400.0 E16496.131
G1 X9.59 Y-10.56 Z1.8 F2400.0 E16497.105
G1 X5.29 Y-14.85 Z1.8 F2400.0 E16504.709
G1 X5.23 Y-14.32 Z1.8 F2400.0 E16505.383
G1 X9.55 Y-10.0 Z1.8 F2400.0 E16513.027
G1 X9.52 Y-9.44 Z1.8 F2400.0 E16513.726
G1 X5.18 Y-13.78 Z1.8 F2400.0 E16521.408
G1 X5.12 Y-13.25 Z1.8 F2400.0 E16522.082
G1 X9.48 Y-8.88 Z1.8 F2400.0 E16529.802
G1 X9.38 Y-8.39 Z1.8 F2400.0 E16530.426
G1 X5.06 Y-12.71 Z1.8 F2400.0 E16538.062
G1 X5.0 Y-12.18 Z1.8 F2400.0 E16538.728
G1 X9.37 Y-7.81 Z1.8 F2400.0 E16546.462
G1 X9.36 Y-7.23 Z1.8 F2400.0 E16547.193
G1 X4.86 Y-11.73 Z1.8 F2400.0 E16555.158
G1 X4.69 Y-11.3 Z1.8 F2400.0 E16555.729
G1 X9.35 Y-6.64 Z1.8 F2400.0 E16563.975
G1 X9.34 Y-6.06 Z1.8 F2400.0 E16564.705
G1 X4.47 Y-10.93 Z1.8 F2400.0 E16573.325
G1 X4.24 Y-10.57 Z1.8 F2400.0 E16573.859
G1 X9.34 Y-5.47 Z1.8 F2400.0 E16582.881
G1 X9.33 Y-4.89 Z1.8 F2400.0 E16583.612
G1 X3.93 Y-10.29 Z1.8 F2400.0 E16593.157
G1 X3.65 Y-9.97 Z1.8 F2400.0 E16593.683
G1 X9.32 Y-4.31 Z1.8 F2400.0 E16603.71
G1 X9.31 Y-3.72 Z1.8 F2400.0 E16604.441
G1 X3.39 Y-9.64 Z1.8 F2400.0 E16614.917
G1 X3.1 Y-9.35 Z1.8 F2400.0 E16615.441
G1 X9.23 Y-3.21 Z1.8 F2400.0 E16626.295
G1 X9.15 Y-2.7 Z1.8 F2400.0 E16626.942
G1 X2.8 Y-9.05 Z1.8 F2400.0 E16638.173
G1 X2.51 Y-8.75 Z1.8 F2400.0 E16638.696
G1 X9.15 Y-2.11 Z1.8 F2400.0 E16650.448
G1 X9.15 Y-1.51 Z1.8 F2400.0 E16651.19
G1 X4.96 Y-5.7 Z1.8 F2400.0 E16658.601
G1 X5.21 Y-4.86 Z1.8 F2400.0 E16659.701
G1 X9.15 Y-0.92 Z1.8 F2400.0 E16666.672
G1 X9.15 Y-0.32 Z1.8 F2400.0 E16667.415
G1 X5.35 Y-4.13 Z1.8 F2400.0 E16674.141
G1 X5.49 Y-3.39 Z1.8 F2400.0 E16675.074
G1 X9.15 Y0.27 Z1.8 F2400.0 E16681.554
G1 X9.16 Y0.86 Z1.8 F2400.0 E16682.297
G1 X5.63 Y-2.66 Z1.8 F2400.0 E16688.534
G1 X5.77 Y-1.93 Z1.8 F2400.0 E16689.466
G1 X9.16 Y1.46 Z1.8 F2400.0 E16695.458
G1 X9.16 Y2.05 Z1.8 F2400.0 E16696.2
G1 X5.91 Y-1.2 Z1.8 F2400.0 E16701.947
G1 X6.05 Y-0.47 Z1.8 F2400.0 E16702.88
G1 X9.16 Y2.64 Z1.8 F2400.0 E16708.382
G1 X9.16 Y3.24 Z1.8 F2400.0 E16709.125
G1 X6.19 Y0.27 Z1.8 F2400.0 E16714.385
G1 X6.33 Y1.0 Z1.8 F2400.0 E16715.317
G1 X9.16 Y3.83 Z1.8 F2400.0 E16720.332
G1 X9.16 Y4.43 Z1.8 F2400.0 E16721.074
G1 X6.47 Y1.73 Z1.8 F2400.0 E16725.843
G1 X6.61 Y2.46 Z1.8 F2400.0 E16726.776
G1 X9.17 Y5.02 Z1.8 F2400.0 E16731.301
G1 X9.17 Y5.61 Z1.8 F2400.0 E16732.044
G1 X6.82 Y3.26 Z1.8 F2400.0 E16736.205
G1 X7.07 Y4.11 Z1.8 F2400.0 E16737.314
G1 X9.17 Y6.21 Z1.8 F2400.0 E16741.024
G1 X9.17 Y6.8 Z1.8 F2400.0 E16741.767
G1 X7.33 Y4.96 Z1.8 F2400.0 E16745.029
G1 X7.58 Y5.8 Z1.8 F2400.0 E16746.137
G1 X9.2 Y7.42 Z1.8 F2400.0 E16749.001
G1 X9.23 Y8.05 Z1.8 F2400.0 E16749.781
G1 X7.84 Y6.65 Z1.8 F2400.0 E16752.248
G1 X8.09 Y7.5 Z1.8 F2400.0 E16753.355
G1 X9.26 Y8.67 Z1.8 F2400.0 E16755.422
G1 X9.29 Y9.29 Z1.8 F2400.0 E16756.202
G1 X8.35 Y8.35 Z1.8 F2400.0 E16757.872
G1 X8.6 Y9.2 Z1.8 F2400.0 E16758.98
G1 X9.32 Y9.91 Z1.8 F2400.0 E16760.251
G1 X8.86 Y10.04 Z1.8 F2400.0 E16760.854
G1 X9.35 Y10.54 Z1.8 F2400.0 E16761.728
G1 X9.11 Y10.89 Z1.8 F2400.0 E16762.261
G1 X9.42 Y11.2 Z1.8 F2400.0 E16762.801
G1 X9.37 Y11.74 Z1.8 F2400.0 E16763.482
G1 X9.52 Y11.89 Z1.8 F2400.0 E16763.745
;M103
G1 X9.82 Y11.5 Z1.8 F3600.0
;M101
G1 X9.87 Y11.84 Z1.8 F2400.0 E16764.175
G1 X10.14 Y13.72 Z1.8 F2400.0 E16766.55
G1 X10.69 Y15.48 Z1.8 F2400.0 E16768.867
G1 X10.35 Y15.81 Z1.8 F2400.0 E16769.462
G1 X9.97 Y15.63 Z1.8 F2400.0 E16769.991
G1 X9.63 Y13.85 Z1.8 F2400.0 E16772.249
G1 X6.32 Y2.85 Z1.8 F2400.0 E16786.628
G1 X4.85 Y-4.84 Z1.8 F2400.0 E16796.424
G1 X4.57 Y-5.78 Z1.8 F2400.0 E16797.643
G1 X3.7 Y-7.09 Z1.8 F2400.0 E16799.613
G1 X3.21 Y-7.49 Z1.8 F2400.0 E16800.404
G1 X2.26 Y-7.93 Z1.8 F2400.0 E16801.714
G1 X2.08 Y-8.82 Z1.8 F2400.0 E16802.852
G1 X3.2 Y-9.96 Z1.8 F2400.0 E16804.846
G1 X3.49 Y-10.36 Z1.8 F2400.0 E16805.462
G1 X4.01 Y-10.85 Z1.8 F2400.0 E16806.368
G1 X4.44 Y-11.58 Z1.8 F2400.0 E16807.423
G1 X4.66 Y-12.3 Z1.8 F2400.0 E16808.365
G1 X5.05 Y-15.99 Z1.8 F2400.0 E16813.005
G1 X5.47 Y-17.99 Z1.8 F2400.0 E16815.561
G1 X6.57 Y-22.2 Z1.8 F2400.0 E16821.001
G1 X6.85 Y-22.82 Z1.8 F2400.0 E16821.858
G1 X6.66 Y-22.77 Z1.8 F2400.0 E16822.105
G1 X6.82 Y-22.76 Z1.8 F2400.0 E16822.309
G1 X7.07 Y-22.5 Z1.8 F2400.0 E16822.759
G1 X8.0 Y-20.76 Z1.8 F2400.0 E16825.223
G1 X9.47 Y-16.36 Z1.8 F2400.0 E16831.036
G1 X9.69 Y-14.7 Z1.8 F2400.0 E16833.123
G1 X9.78 Y-11.22 Z1.8 F2400.0 E16837.481
G1 X9.97 Y-10.94 Z1.8 F2400.0 E16837.909
G1 X9.83 Y-8.78 Z1.8 F2400.0 E16840.609
G1 X9.74 Y-8.6 Z1.8 F2400.0 E16840.864
G1 X9.66 Y-3.5 Z1.8 F2400.0 E16847.253
G1 X9.5 Y-2.82 Z1.8 F2400.0 E16848.118
G1 X9.53 Y6.78 Z1.8 F2400.0 E16860.137
G1 X9.72 Y10.79 Z1.8 F2400.0 E16865.15
G1 X9.82 Y11.5 Z1.8 F2400.0 E16866.046
;M103
;M108 S37.53
G1 X10.24 Y11.44 Z1.8 F3600.0
;M101
G1 X10.28 Y11.78 Z1.8 F1800.0 E16866.476
G1 X10.55 Y13.62 Z1.8 F1800.0 E16868.808
G1 X11.17 Y15.61 Z1.8 F1800.0 E16871.408
G1 X10.43 Y16.32 Z1.8 F1800.0 E16872.69
G1 X9.59 Y15.91 Z1.8 F1800.0 E16873.847
G1 X9.23 Y13.95 Z1.8 F1800.0 E16876.341
G1 X5.91 Y2.95 Z1.8 F1800.0 E16890.719
G1 X4.45 Y-4.74 Z1.8 F1800.0 E16900.514
G1 X4.19 Y-5.59 Z1.8 F1800.0 E16901.618
G1 X3.75 Y-6.19 Z1.8 F1800.0 E16902.546
G1 X3.55 Y-6.31 Z1.8 F1800.0 E16902.842
G1 X3.38 Y-6.81 Z1.8 F1800.0 E16903.506
G1 X2.99 Y-7.13 Z1.8 F1800.0 E16904.139
G1 X1.89 Y-7.64 Z1.8 F1800.0 E16905.65
G1 X1.63 Y-8.96 Z1.8 F1800.0 E16907.331
G1 X2.88 Y-10.23 Z1.8 F1800.0 E16909.567
G1 X3.17 Y-10.63 Z1.8 F1800.0 E16910.192
G1 X3.68 Y-11.12 Z1.8 F1800.0 E16911.072
G1 X4.06 Y-11.75 Z1.8 F1800.0 E16911.991
G1 X4.25 Y-12.38 Z1.8 F1800.0 E16912.819
G1 X4.64 Y-16.05 Z1.8 F1800.0 E16917.437
G1 X5.06 Y-18.09 Z1.8 F1800.0 E16920.032
G1 X6.18 Y-22.33 Z1.8 F1800.0 E16925.527
G1 X6.55 Y-23.18 Z1.8 F1800.0 E16926.681
G1 X6.69 Y-23.21 Z1.8 F1800.0 E16926.861
G1 X6.87 Y-23.32 Z1.8 F1800.0 E16927.126
G1 X7.16 Y-22.99 Z1.8 F1800.0 E16927.676
G1 X7.41 Y-22.76 Z1.8 F1800.0 E16928.108
G1 X8.38 Y-20.93 Z1.8 F1800.0 E16930.693
G1 X9.88 Y-16.45 Z1.8 F1800.0 E16936.601
G1 X10.11 Y-14.74 Z1.8 F1800.0 E16938.757
G1 X10.21 Y-12.86 Z1.8 F1800.0 E16941.123
G1 X10.2 Y-11.35 Z1.8 F1800.0 E16943.01
G1 X10.39 Y-11.05 Z1.8 F1800.0 E16943.452
G1 X10.25 Y-8.67 Z1.8 F1800.0 E16946.443
G1 X10.15 Y-8.49 Z1.8 F1800.0 E16946.686
G1 X10.08 Y-3.45 Z1.8 F1800.0 E16953.004
G1 X9.92 Y-2.78 Z1.8 F1800.0 E16953.865
G1 X9.95 Y6.77 Z1.8 F1800.0 E16965.81
G1 X10.14 Y10.75 Z1.8 F1800.0 E16970.788
G1 X10.24 Y11.44 Z1.8 F1800.0 E16971.659
;M103
;M108 S50.04
G1 X9.29 Y10.85 Z2.1 F3600.0
;M101
G1 X9.25 Y10.89 Z2.1 F2400.0 E16971.735
G1 X9.11 Y10.44 Z2.1 F2400.0 E16972.328
G1 X9.26 Y10.29 Z2.1 F2400.0 E16972.597
G1 X8.97 Y9.99 Z2.1 F2400.0 E16973.121
G1 X9.23 Y9.72 Z2.1 F2400.0 E16973.586
G1 X8.83 Y9.53 Z2.1 F2400.0 E16974.142
G1 X9.2 Y9.16 Z2.1 F2400.0 E16974.804
G1 X8.69 Y9.08 Z2.1 F2400.0 E16975.455
G1 X9.18 Y8.6 Z2.1 F2400.0 E16976.313
G1 X9.15 Y8.03 Z2.1 F2400.0 E16977.019
G1 X8.55 Y8.63 Z2.1 F2400.0 E16978.074
G1 X8.41 Y8.18 Z2.1 F2400.0 E16978.667
G1 X9.12 Y7.47 Z2.1 F2400.0 E16979.918
G1 X9.09 Y6.9 Z2.1 F2400.0 E16980.625
G1 X8.27 Y7.72 Z2.1 F2400.0 E16982.072
G1 X8.13 Y7.27 Z2.1 F2400.0 E16982.664
G1 X9.09 Y6.32 Z2.1 F2400.0 E16984.35
G1 X9.09 Y5.73 Z2.1 F2400.0 E16985.091
G1 X7.99 Y6.82 Z2.1 F2400.0 E16987.023
G1 X7.85 Y6.36 Z2.1 F2400.0 E16987.615
G1 X9.09 Y5.13 Z2.1 F2400.0 E16989.793
G1 X9.08 Y4.54 Z2.1 F2400.0 E16990.534
G1 X7.71 Y5.91 Z2.1 F2400.0 E16992.958
G1 X7.58 Y5.46 Z2.1 F2400.0 E16993.55
G1 X9.08 Y3.95 Z2.1 F2400.0 E16996.221
G1 X9.08 Y3.36 Z2.1 F2400.0 E16996.962
G1 X7.44 Y5.01 Z2.1 F2400.0 E16999.879
G1 X7.3 Y4.55 Z2.1 F2400.0 E17000.472
G1 X9.08 Y2.76 Z2.1 F2400.0 E17003.634
G1 X9.08 Y2.17 Z2.1 F2400.0 E17004.375
G1 X7.16 Y4.1 Z2.1 F2400.0 E17007.783
G1 X7.02 Y3.65 Z2.1 F2400.0 E17008.376
G1 X9.08 Y1.58 Z2.1 F2400.0 E17012.031
G1 X9.08 Y0.99 Z2.1 F2400.0 E17012.772
G1 X6.88 Y3.19 Z2.1 F2400.0 E17016.672
G1 X6.74 Y2.74 Z2.1 F2400.0 E17017.266
G1 X9.08 Y0.4 Z2.1 F2400.0 E17021.411
G1 X9.08 Y-0.2 Z2.1 F2400.0 E17022.152
G1 X6.64 Y2.24 Z2.1 F2400.0 E17026.465
G1 X6.55 Y1.75 Z2.1 F2400.0 E17027.098
G1 X9.08 Y-0.79 Z2.1 F2400.0 E17031.58
G1 X9.08 Y-1.38 Z2.1 F2400.0 E17032.32
G1 X6.45 Y1.25 Z2.1 F2400.0 E17036.97
G1 X6.36 Y0.75 Z2.1 F2400.0 E17037.603
G1 X9.08 Y-1.97 Z2.1 F2400.0 E17042.42
G1 X9.08 Y-2.56 Z2.1 F2400.0 E17043.161
G1 X6.26 Y0.25 Z2.1 F2400.0 E17048.146
G1 X6.17 Y-0.24 Z2.1 F2400.0 E17048.779
G1 X9.18 Y-3.25 Z2.1 F2400.0 E17054.101
G1 X9.31 Y-3.97 Z2.1 F2400.0 E17055.019
G1 X6.07 Y-0.74 Z2.1 F2400.0 E17060.738
G1 X5.98 Y-1.24 Z2.1 F2400.0 E17061.371
G1 X9.31 Y-4.58 Z2.1 F2400.0 E17067.274
G1 X9.32 Y-5.18 Z2.1 F2400.0 E17068.026
G1 X5.88 Y-1.74 Z2.1 F2400.0 E17074.114
G1 X5.79 Y-2.23 Z2.1 F2400.0 E17074.747
G1 X9.33 Y-5.78 Z2.1 F2400.0 E17081.019
G1 X9.34 Y-6.38 Z2.1 F2400.0 E17081.771
G1 X5.69 Y-2.73 Z2.1 F2400.0 E17088.227
G1 X5.6 Y-3.23 Z2.1 F2400.0 E17088.86
G1 X9.35 Y-6.98 Z2.1 F2400.0 E17095.5
G1 X9.36 Y-7.58 Z2.1 F2400.0 E17096.252
G1 X5.5 Y-3.72 Z2.1 F2400.0 E17103.076
G1 X5.41 Y-4.22 Z2.1 F2400.0 E17103.709
G1 X9.37 Y-8.18 Z2.1 F2400.0 E17110.717
G1 X9.51 Y-8.92 Z2.1 F2400.0 E17111.659
G1 X5.31 Y-4.72 Z2.1 F2400.0 E17119.095
G1 X5.2 Y-5.2 Z2.1 F2400.0 E17119.713
G1 X9.55 Y-9.55 Z2.1 F2400.0 E17127.412
G1 X9.59 Y-10.18 Z2.1 F2400.0 E17128.2
G1 X5.06 Y-5.65 Z2.1 F2400.0 E17136.212
G1 X4.88 Y-6.07 Z2.1 F2400.0 E17136.776
G1 X9.63 Y-10.81 Z2.1 F2400.0 E17145.169
G1 X9.39 Y-11.16 Z2.1 F2400.0 E17145.703
G1 X4.64 Y-6.41 Z2.1 F2400.0 E17154.109
G1 X4.43 Y-6.81 Z2.1 F2400.0 E17154.66
G1 X9.35 Y-11.72 Z2.1 F2400.0 E17163.356
G1 X9.34 Y-12.3 Z2.1 F2400.0 E17164.078
G1 X4.29 Y-7.25 Z2.1 F2400.0 E17173.001
G1 X4.15 Y-7.7 Z2.1 F2400.0 E17173.591
G1 X9.32 Y-12.87 Z2.1 F2400.0 E17182.742
G1 X9.31 Y-13.45 Z2.1 F2400.0 E17183.466
G1 X4.0 Y-8.15 Z2.1 F2400.0 E17192.846
G1 X3.83 Y-8.57 Z2.1 F2400.0 E17193.411
G1 X9.29 Y-14.03 Z2.1 F2400.0 E17203.077
G1 X9.28 Y-14.61 Z2.1 F2400.0 E17203.799
G1 X3.76 Y-9.09 Z2.1 F2400.0 E17213.557
G1 X3.76 Y-9.69 Z2.1 F2400.0 E17214.303
G1 X9.21 Y-15.14 Z2.1 F2400.0 E17223.944
G1 X9.14 Y-15.66 Z2.1 F2400.0 E17224.607
G1 X4.72 Y-11.24 Z2.1 F2400.0 E17232.436
;M103
G1 X5.06 Y-12.17 Z2.1 F3600.0
;M101
G1 X9.08 Y-16.18 Z2.1 F2400.0 E17239.543
G1 X8.94 Y-16.65 Z2.1 F2400.0 E17240.142
G1 X5.13 Y-12.83 Z2.1 F2400.0 E17246.887
G1 X5.2 Y-13.5 Z2.1 F2400.0 E17247.722
G1 X8.8 Y-17.09 Z2.1 F2400.0 E17254.084
G1 X8.65 Y-17.54 Z2.1 F2400.0 E17254.671
G1 X5.27 Y-14.16 Z2.1 F2400.0 E17260.652
G1 X5.34 Y-14.82 Z2.1 F2400.0 E17261.486
G1 X8.51 Y-17.99 Z2.1 F2400.0 E17267.084
G1 X8.36 Y-18.43 Z2.1 F2400.0 E17267.671
G1 X5.41 Y-15.48 Z2.1 F2400.0 E17272.885
G1 X5.52 Y-16.19 Z2.1 F2400.0 E17273.774
G1 X8.22 Y-18.88 Z2.1 F2400.0 E17278.537
G1 X8.07 Y-19.32 Z2.1 F2400.0 E17279.124
G1 X5.72 Y-16.97 Z2.1 F2400.0 E17283.285
G1 X5.91 Y-17.76 Z2.1 F2400.0 E17284.298
G1 X7.92 Y-19.77 Z2.1 F2400.0 E17287.858
G1 X7.78 Y-20.22 Z2.1 F2400.0 E17288.446
G1 X6.1 Y-18.54 Z2.1 F2400.0 E17291.406
G1 X6.3 Y-19.33 Z2.1 F2400.0 E17292.418
G1 X7.63 Y-20.66 Z2.1 F2400.0 E17294.777
G1 X7.43 Y-21.06 Z2.1 F2400.0 E17295.33
G1 X6.49 Y-20.12 Z2.1 F2400.0 E17296.998
G1 X6.69 Y-20.9 Z2.1 F2400.0 E17298.011
G1 X7.24 Y-21.45 Z2.1 F2400.0 E17298.987
G1 X6.88 Y-21.69 Z2.1 F2400.0 E17299.521
G1 X7.04 Y-21.85 Z2.1 F2400.0 E17299.804
;M103
G1 X7.41 Y-21.85 Z2.1 F3600.0
;M101
G1 X7.96 Y-20.81 Z2.1 F2400.0 E17301.275
G1 X9.41 Y-16.36 Z2.1 F2400.0 E17307.129
G1 X9.63 Y-14.7 Z2.1 F2400.0 E17309.227
G1 X9.72 Y-11.31 Z2.1 F2400.0 E17313.463
G1 X9.99 Y-10.91 Z2.1 F2400.0 E17314.072
G1 X9.86 Y-8.75 Z2.1 F2400.0 E17316.77
G1 X9.73 Y-8.51 Z2.1 F2400.0 E17317.119
G1 X9.66 Y-3.75 Z2.1 F2400.0 E17323.077
G1 X9.44 Y-2.81 Z2.1 F2400.0 E17324.283
G1 X9.44 Y6.8 Z2.1 F2400.0 E17336.302
G1 X9.64 Y10.8 Z2.1 F2400.0 E17341.318
G1 X9.87 Y12.46 Z2.1 F2400.0 E17343.406
G1 X9.83 Y12.89 Z2.1 F2400.0 E17343.946
G1 X9.62 Y13.31 Z2.1 F2400.0 E17344.533
G1 X6.4 Y2.84 Z2.1 F2400.0 E17358.24
G1 X4.9 Y-4.94 Z2.1 F2400.0 E17368.146
G1 X4.64 Y-5.78 Z2.1 F2400.0 E17369.247
G1 X4.18 Y-6.44 Z2.1 F2400.0 E17370.259
G1 X3.6 Y-8.24 Z2.1 F2400.0 E17372.613
G1 X3.4 Y-8.6 Z2.1 F2400.0 E17373.139
G1 X3.41 Y-10.02 Z2.1 F2400.0 E17374.909
G1 X3.63 Y-10.32 Z2.1 F2400.0 E17375.38
G1 X3.94 Y-10.62 Z2.1 F2400.0 E17375.913
G1 X4.51 Y-11.58 Z2.1 F2400.0 E17377.311
G1 X4.71 Y-12.25 Z2.1 F2400.0 E17378.183
G1 X5.11 Y-16.0 Z2.1 F2400.0 E17382.901
G1 X6.62 Y-22.16 Z2.1 F2400.0 E17390.845
G1 X6.85 Y-22.69 Z2.1 F2400.0 E17391.561
G1 X7.07 Y-22.47 Z2.1 F2400.0 E17391.952
G1 X7.32 Y-22.0 Z2.1 F2400.0 E17392.621
G1 X7.41 Y-21.85 Z2.1 F2400.0 E17392.839
;M103
;M108 S37.53
G1 X7.69 Y-22.2 Z2.1 F3600.0
;M101
G1 X8.35 Y-20.97 Z2.1 F1800.0 E17394.577
G1 X9.07 Y-18.73 Z2.1 F1800.0 E17397.53
G1 X9.34 Y-18.09 Z2.1 F1800.0 E17398.388
G1 X9.82 Y-16.45 Z2.1 F1800.0 E17400.533
G1 X10.05 Y-14.74 Z2.1 F1800.0 E17402.693
G1 X10.15 Y-12.84 Z2.1 F1800.0 E17405.069
G1 X10.14 Y-11.44 Z2.1 F1800.0 E17406.823
G1 X10.41 Y-11.02 Z2.1 F1800.0 E17407.447
G1 X10.27 Y-8.64 Z2.1 F1800.0 E17410.437
G1 X10.14 Y-8.4 Z2.1 F1800.0 E17410.774
G1 X10.08 Y-3.69 Z2.1 F1800.0 E17416.661
G1 X9.86 Y-2.76 Z2.1 F1800.0 E17417.863
G1 X9.86 Y6.79 Z2.1 F1800.0 E17429.808
G1 X10.06 Y10.77 Z2.1 F1800.0 E17434.788
G1 X10.3 Y12.45 Z2.1 F1800.0 E17436.918
G1 X10.16 Y13.67 Z2.1 F1800.0 E17438.451
G1 X10.24 Y14.44 Z2.1 F1800.0 E17439.424
G1 X10.19 Y14.51 Z2.1 F1800.0 E17439.53
G1 X9.96 Y14.55 Z2.1 F1800.0 E17439.82
G1 X9.88 Y14.51 Z2.1 F1800.0 E17439.934
G1 X9.59 Y13.81 Z2.1 F1800.0 E17440.879
G1 X9.01 Y12.94 Z2.1 F1800.0 E17442.186
G1 X5.99 Y2.93 Z2.1 F1800.0 E17455.26
G1 X4.5 Y-4.84 Z2.1 F1800.0 E17465.164
G1 X4.26 Y-5.6 Z2.1 F1800.0 E17466.151
G1 X3.78 Y-6.29 Z2.1 F1800.0 E17467.211
G1 X3.75 Y-6.49 Z2.1 F1800.0 E17467.472
G1 X3.22 Y-8.07 Z2.1 F1800.0 E17469.547
G1 X3.02 Y-8.2 Z2.1 F1800.0 E17469.847
G1 X2.98 Y-8.5 Z2.1 F1800.0 E17470.226
G1 X3.01 Y-9.74 Z2.1 F1800.0 E17471.772
G1 X2.98 Y-10.14 Z2.1 F1800.0 E17472.279
G1 X3.32 Y-10.6 Z2.1 F1800.0 E17472.991
G1 X3.61 Y-10.88 Z2.1 F1800.0 E17473.497
G1 X4.12 Y-11.75 Z2.1 F1800.0 E17474.758
G1 X4.3 Y-12.33 Z2.1 F1800.0 E17475.519
G1 X4.7 Y-16.06 Z2.1 F1800.0 E17480.213
G1 X5.11 Y-18.08 Z2.1 F1800.0 E17482.795
G1 X6.22 Y-22.3 Z2.1 F1800.0 E17488.254
G1 X6.59 Y-23.14 Z2.1 F1800.0 E17489.394
G1 X6.75 Y-23.18 Z2.1 F1800.0 E17489.598
G1 X6.96 Y-23.16 Z2.1 F1800.0 E17489.871
G1 X7.41 Y-22.73 Z2.1 F1800.0 E17490.647
G1 X7.69 Y-22.2 Z2.1 F1800.0 E17491.4
;M103
;M108 S50.04
G1 X-3.68 Y-10.54 Z2.1 F3600.0
;M101
G1 X-3.88 Y-10.34 Z2.1 F2400.0 E17491.746
G1 X-3.71 Y-9.91 Z2.1 F2400.0 E17492.32
G1 X-4.14 Y-9.48 Z2.1 F2400.0 E17493.077
G1 X-3.75 Y-9.29 Z2.1 F2400.0 E17493.63
G1 X-4.41 Y-8.63 Z2.1 F2400.0 E17494.798
G1 X-3.78 Y-8.66 Z2.1 F2400.0 E17495.586
G1 X-4.67 Y-7.77 Z2.1 F2400.0 E17497.164
G1 X-4.93 Y-6.92 Z2.1 F2400.0 E17498.285
G1 X-3.81 Y-8.04 Z2.1 F2400.0 E17500.273
G1 X-3.84 Y-7.42 Z2.1 F2400.0 E17501.055
G1 X-5.2 Y-6.06 Z2.1 F2400.0 E17503.453
G1 X-5.46 Y-5.21 Z2.1 F2400.0 E17504.573
G1 X-3.87 Y-6.79 Z2.1 F2400.0 E17507.384
G1 X-3.87 Y-6.2 Z2.1 F2400.0 E17508.124
G1 X-5.72 Y-4.35 Z2.1 F2400.0 E17511.4
G1 X-5.99 Y-3.49 Z2.1 F2400.0 E17512.521
G1 X-3.87 Y-5.61 Z2.1 F2400.0 E17516.262
G1 X-3.87 Y-5.01 Z2.1 F2400.0 E17517.004
G1 X-6.23 Y-2.65 Z2.1 F2400.0 E17521.182
G1 X-6.37 Y-1.92 Z2.1 F2400.0 E17522.116
G1 X-3.87 Y-4.42 Z2.1 F2400.0 E17526.543
G1 X-3.87 Y-3.83 Z2.1 F2400.0 E17527.284
G1 X-6.51 Y-1.19 Z2.1 F2400.0 E17531.959
G1 X-6.65 Y-0.46 Z2.1 F2400.0 E17532.892
G1 X-3.87 Y-3.24 Z2.1 F2400.0 E17537.815
G1 X-3.87 Y-2.65 Z2.1 F2400.0 E17538.556
G1 X-6.79 Y0.28 Z2.1 F2400.0 E17543.726
G1 X-6.94 Y1.01 Z2.1 F2400.0 E17544.66
G1 X-3.87 Y-2.05 Z2.1 F2400.0 E17550.079
G1 X-3.87 Y-1.46 Z2.1 F2400.0 E17550.821
G1 X-7.08 Y1.74 Z2.1 F2400.0 E17556.487
G1 X-7.22 Y2.48 Z2.1 F2400.0 E17557.421
G1 X-3.87 Y-0.87 Z2.1 F2400.0 E17563.336
G1 X-3.87 Y-0.27 Z2.1 F2400.0 E17564.076
G1 X-7.36 Y3.21 Z2.1 F2400.0 E17570.24
G1 X-7.5 Y3.94 Z2.1 F2400.0 E17571.174
G1 X-3.87 Y0.32 Z2.1 F2400.0 E17577.585
G1 X-3.87 Y0.91 Z2.1 F2400.0 E17578.327
G1 X-7.64 Y4.68 Z2.1 F2400.0 E17584.986
G1 X-7.84 Y5.47 Z2.1 F2400.0 E17586.014
G1 X-3.87 Y1.5 Z2.1 F2400.0 E17593.034
G1 X-3.87 Y2.1 Z2.1 F2400.0 E17593.776
G1 X-8.49 Y6.71 Z2.1 F2400.0 E17601.943
G1 X-8.77 Y7.59 Z2.1 F2400.0 E17603.09
G1 X-3.87 Y2.69 Z2.1 F2400.0 E17611.751
G1 X-3.79 Y3.2 Z2.1 F2400.0 E17612.398
G1 X-9.09 Y8.5 Z2.1 F2400.0 E17621.775
G1 X-9.2 Y9.2 Z2.1 F2400.0 E17622.654
G1 X-3.68 Y3.68 Z2.1 F2400.0 E17632.413
G1 X-3.65 Y4.24 Z2.1 F2400.0 E17633.115
G1 X-9.19 Y9.78 Z2.1 F2400.0 E17642.925
G1 X-8.98 Y10.16 Z2.1 F2400.0 E17643.468
G1 X-3.64 Y4.82 Z2.1 F2400.0 E17652.911
G1 X-3.63 Y5.41 Z2.1 F2400.0 E17653.642
G1 X-8.69 Y10.47 Z2.1 F2400.0 E17662.592
G1 X-8.47 Y10.84 Z2.1 F2400.0 E17663.134
G1 X-3.62 Y5.99 Z2.1 F2400.0 E17671.711
G1 X-3.61 Y6.58 Z2.1 F2400.0 E17672.442
G1 X-8.25 Y11.21 Z2.1 F2400.0 E17680.645
G1 X-8.06 Y11.62 Z2.1 F2400.0 E17681.205
G1 X-3.61 Y7.16 Z2.1 F2400.0 E17689.093
G1 X-3.6 Y7.74 Z2.1 F2400.0 E17689.823
G1 X-7.93 Y12.07 Z2.1 F2400.0 E17697.482
G1 X-7.85 Y12.59 Z2.1 F2400.0 E17698.136
G1 X-3.59 Y8.33 Z2.1 F2400.0 E17705.676
G1 X-3.47 Y8.81 Z2.1 F2400.0 E17706.291
G1 X-7.79 Y13.12 Z2.1 F2400.0 E17713.932
G1 X-7.74 Y13.66 Z2.1 F2400.0 E17714.606
G1 X-3.42 Y9.34 Z2.1 F2400.0 E17722.245
G1 X-3.39 Y9.9 Z2.1 F2400.0 E17722.946
G1 X-7.68 Y14.2 Z2.1 F2400.0 E17730.543
G1 X-7.62 Y14.73 Z2.1 F2400.0 E17731.216
G1 X-3.35 Y10.46 Z2.1 F2400.0 E17738.771
G1 X-3.59 Y11.3 Z2.1 F2400.0 E17739.859
G1 X-7.57 Y15.27 Z2.1 F2400.0 E17746.884
G1 X-7.51 Y15.8 Z2.1 F2400.0 E17747.557
G1 X-3.61 Y11.9 Z2.1 F2400.0 E17754.454
G1 X-3.63 Y12.51 Z2.1 F2400.0 E17755.215
G1 X-7.41 Y16.29 Z2.1 F2400.0 E17761.903
G1 X-7.29 Y16.77 Z2.1 F2400.0 E17762.516
G1 X-3.64 Y13.12 Z2.1 F2400.0 E17768.97
G1 X-3.66 Y13.73 Z2.1 F2400.0 E17769.732
G1 X-7.17 Y17.24 Z2.1 F2400.0 E17775.949
G1 X-7.05 Y17.72 Z2.1 F2400.0 E17776.561
G1 X-3.67 Y14.34 Z2.1 F2400.0 E17782.543
G1 X-3.72 Y14.98 Z2.1 F2400.0 E17783.347
G1 X-6.94 Y18.19 Z2.1 F2400.0 E17789.036
G1 X-6.82 Y18.67 Z2.1 F2400.0 E17789.648
G1 X-3.81 Y15.66 Z2.1 F2400.0 E17794.971
G1 X-3.92 Y16.36 Z2.1 F2400.0 E17795.854
G1 X-6.7 Y19.14 Z2.1 F2400.0 E17800.783
G1 X-6.59 Y19.62 Z2.1 F2400.0 E17801.397
G1 X-4.21 Y17.24 Z2.1 F2400.0 E17805.61
G1 X-4.49 Y18.12 Z2.1 F2400.0 E17806.768
G1 X-6.47 Y20.09 Z2.1 F2400.0 E17810.265
G1 X-6.35 Y20.57 Z2.1 F2400.0 E17810.877
G1 X-4.78 Y19.0 Z2.1 F2400.0 E17813.66
G1 X-5.07 Y19.88 Z2.1 F2400.0 E17814.817
G1 X-6.24 Y21.04 Z2.1 F2400.0 E17816.883
G1 X-6.12 Y21.52 Z2.1 F2400.0 E17817.496
G1 X-5.39 Y20.79 Z2.1 F2400.0 E17818.793
;M103
G1 X-5.98 Y21.97 Z2.1 F3600.0
;M101
G1 X-6.0 Y22.0 Z2.1 F2400.0 E17818.833
;M103
G1 X-5.79 Y22.3 Z2.1 F3600.0
;M101
G1 X-5.88 Y22.47 Z2.1 F2400.0 E17819.071
G1 X-6.11 Y22.69 Z2.1 F2400.0 E17819.462
G1 X-6.34 Y22.16 Z2.1 F2400.0 E17820.179
G1 X-7.85 Y16.0 Z2.1 F2400.0 E17828.123
G1 X-8.24 Y12.25 Z2.1 F2400.0 E17832.841
G1 X-8.45 Y11.58 Z2.1 F2400.0 E17833.713
G1 X-9.01 Y10.62 Z2.1 F2400.0 E17835.111
G1 X-9.32 Y10.32 Z2.1 F2400.0 E17835.643
G1 X-9.55 Y10.02 Z2.1 F2400.0 E17836.115
G1 X-9.56 Y8.6 Z2.1 F2400.0 E17837.885
G1 X-9.35 Y8.24 Z2.1 F2400.0 E17838.41
G1 X-8.78 Y6.44 Z2.1 F2400.0 E17840.764
G1 X-8.31 Y5.78 Z2.1 F2400.0 E17841.776
G1 X-8.05 Y4.94 Z2.1 F2400.0 E17842.877
G1 X-6.56 Y-2.84 Z2.1 F2400.0 E17852.783
G1 X-3.34 Y-13.31 Z2.1 F2400.0 E17866.49
G1 X-3.13 Y-12.89 Z2.1 F2400.0 E17867.078
G1 X-3.08 Y-12.46 Z2.1 F2400.0 E17867.618
G1 X-3.31 Y-10.8 Z2.1 F2400.0 E17869.706
G1 X-3.51 Y-6.8 Z2.1 F2400.0 E17874.721
G1 X-3.52 Y2.81 Z2.1 F2400.0 E17886.741
G1 X-3.3 Y3.75 Z2.1 F2400.0 E17887.946
G1 X-3.23 Y8.51 Z2.1 F2400.0 E17893.906
G1 X-3.1 Y8.76 Z2.1 F2400.0 E17894.255
G1 X-2.97 Y10.91 Z2.1 F2400.0 E17896.952
G1 X-3.24 Y11.31 Z2.1 F2400.0 E17897.561
G1 X-3.33 Y14.7 Z2.1 F2400.0 E17901.797
G1 X-3.54 Y16.36 Z2.1 F2400.0 E17903.895
G1 X-5.0 Y20.81 Z2.1 F2400.0 E17909.749
G1 X-5.71 Y22.15 Z2.1 F2400.0 E17911.65
G1 X-5.79 Y22.3 Z2.1 F2400.0 E17911.869
;M103
;M108 S37.53
G1 X-5.34 Y22.35 Z2.1 F3600.0
;M101
G1 X-5.55 Y22.73 Z2.1 F1800.0 E17912.41
G1 X-5.99 Y23.16 Z2.1 F1800.0 E17913.186
G1 X-6.21 Y23.18 Z2.1 F1800.0 E17913.458
G1 X-6.37 Y23.14 Z2.1 F1800.0 E17913.663
G1 X-6.74 Y22.3 Z2.1 F1800.0 E17914.803
G1 X-7.84 Y18.08 Z2.1 F1800.0 E17920.261
G1 X-8.26 Y16.06 Z2.1 F1800.0 E17922.843
G1 X-8.66 Y12.33 Z2.1 F1800.0 E17927.537
G1 X-8.83 Y11.75 Z2.1 F1800.0 E17928.298
G1 X-9.35 Y10.88 Z2.1 F1800.0 E17929.558
G1 X-9.64 Y10.6 Z2.1 F1800.0 E17930.065
G1 X-9.98 Y10.14 Z2.1 F1800.0 E17930.778
G1 X-9.94 Y9.74 Z2.1 F1800.0 E17931.285
G1 X-9.98 Y8.5 Z2.1 F1800.0 E17932.83
G1 X-9.94 Y8.2 Z2.1 F1800.0 E17933.209
G1 X-9.74 Y8.07 Z2.1 F1800.0 E17933.51
G1 X-9.21 Y6.49 Z2.1 F1800.0 E17935.585
G1 X-9.18 Y6.29 Z2.1 F1800.0 E17935.844
G1 X-8.69 Y5.6 Z2.1 F1800.0 E17936.905
G1 X-8.46 Y4.84 Z2.1 F1800.0 E17937.892
G1 X-6.97 Y-2.93 Z2.1 F1800.0 E17947.796
G1 X-3.94 Y-12.94 Z2.1 F1800.0 E17960.87
G1 X-3.37 Y-13.81 Z2.1 F1800.0 E17962.177
G1 X-3.08 Y-14.51 Z2.1 F1800.0 E17963.122
G1 X-3.0 Y-14.55 Z2.1 F1800.0 E17963.236
G1 X-2.77 Y-14.51 Z2.1 F1800.0 E17963.527
G1 X-2.72 Y-14.44 Z2.1 F1800.0 E17963.632
G1 X-2.79 Y-13.67 Z2.1 F1800.0 E17964.605
G1 X-2.66 Y-12.45 Z2.1 F1800.0 E17966.138
G1 X-2.9 Y-10.77 Z2.1 F1800.0 E17968.268
G1 X-3.09 Y-6.79 Z2.1 F1800.0 E17973.248
G1 X-3.1 Y2.76 Z2.1 F1800.0 E17985.193
G1 X-2.88 Y3.69 Z2.1 F1800.0 E17986.395
G1 X-2.81 Y8.4 Z2.1 F1800.0 E17992.284
G1 X-2.68 Y8.64 Z2.1 F1800.0 E17992.621
G1 X-2.54 Y11.02 Z2.1 F1800.0 E17995.61
G1 X-2.82 Y11.44 Z2.1 F1800.0 E17996.233
G1 X-2.81 Y12.84 Z2.1 F1800.0 E17997.987
G1 X-2.91 Y14.74 Z2.1 F1800.0 E18000.364
G1 X-3.13 Y16.45 Z2.1 F1800.0 E18002.524
G1 X-3.62 Y18.09 Z2.1 F1800.0 E18004.669
G1 X-4.07 Y19.27 Z2.1 F1800.0 E18006.241
G1 X-4.61 Y20.97 Z2.1 F1800.0 E18008.479
G1 X-5.34 Y22.35 Z2.1 F1800.0 E18010.428
;M103
;M108 S50.04
G1 X-3.34 Y10.29 Z2.4 F3600.0
;M101
G1 X-7.85 Y5.77 Z2.4 F2400.0 E18018.417
G1 X-8.06 Y6.16 Z2.4 F2400.0 E18018.967
G1 X-3.36 Y10.86 Z2.4 F2400.0 E18027.271
G1 X-3.6 Y11.21 Z2.4 F2400.0 E18027.805
G1 X-8.3 Y6.51 Z2.4 F2400.0 E18036.117
G1 X-8.4 Y7.0 Z2.4 F2400.0 E18036.739
G1 X-3.66 Y11.74 Z2.4 F2400.0 E18045.126
G1 X-3.68 Y12.32 Z2.4 F2400.0 E18045.847
G1 X-8.47 Y7.52 Z2.4 F2400.0 E18054.323
G1 X-8.59 Y8.0 Z2.4 F2400.0 E18054.935
G1 X-3.7 Y12.89 Z2.4 F2400.0 E18063.591
G1 X-3.71 Y13.47 Z2.4 F2400.0 E18064.312
G1 X-8.74 Y8.44 Z2.4 F2400.0 E18073.207
G1 X-8.72 Y9.05 Z2.4 F2400.0 E18073.975
G1 X-3.73 Y14.05 Z2.4 F2400.0 E18082.805
G1 X-3.74 Y14.62 Z2.4 F2400.0 E18083.526
G1 X-8.69 Y9.67 Z2.4 F2400.0 E18092.282
G1 X-8.67 Y10.29 Z2.4 F2400.0 E18093.057
G1 X-3.81 Y15.15 Z2.4 F2400.0 E18101.653
G1 X-3.87 Y15.67 Z2.4 F2400.0 E18102.314
G1 X-8.03 Y11.52 Z2.4 F2400.0 E18109.657
G1 X-7.82 Y12.32 Z2.4 F2400.0 E18110.682
G1 X-3.94 Y16.2 Z2.4 F2400.0 E18117.548
G1 X-4.07 Y16.66 Z2.4 F2400.0 E18118.147
G1 X-7.75 Y12.98 Z2.4 F2400.0 E18124.652
G1 X-7.68 Y13.65 Z2.4 F2400.0 E18125.488
G1 X-4.22 Y17.11 Z2.4 F2400.0 E18131.614
G1 X-4.36 Y17.56 Z2.4 F2400.0 E18132.204
G1 X-7.61 Y14.31 Z2.4 F2400.0 E18137.951
G1 X-7.54 Y14.97 Z2.4 F2400.0 E18138.786
G1 X-4.5 Y18.01 Z2.4 F2400.0 E18144.152
G1 X-4.65 Y18.46 Z2.4 F2400.0 E18144.741
G1 X-7.47 Y15.64 Z2.4 F2400.0 E18149.729
G1 X-7.33 Y16.37 Z2.4 F2400.0 E18150.658
G1 X-4.79 Y18.91 Z2.4 F2400.0 E18155.149
G1 X-4.93 Y19.36 Z2.4 F2400.0 E18155.739
G1 X-7.14 Y17.15 Z2.4 F2400.0 E18159.64
G1 X-6.95 Y17.93 Z2.4 F2400.0 E18160.646
G1 X-5.08 Y19.8 Z2.4 F2400.0 E18163.958
G1 X-5.22 Y20.25 Z2.4 F2400.0 E18164.549
G1 X-6.76 Y18.72 Z2.4 F2400.0 E18167.272
G1 X-6.57 Y19.5 Z2.4 F2400.0 E18168.279
G1 X-5.36 Y20.7 Z2.4 F2400.0 E18170.412
G1 X-5.57 Y21.09 Z2.4 F2400.0 E18170.961
G1 X-6.38 Y20.28 Z2.4 F2400.0 E18172.399
G1 X-6.19 Y21.06 Z2.4 F2400.0 E18173.405
G1 X-5.77 Y21.48 Z2.4 F2400.0 E18174.142
G1 X-6.0 Y21.85 Z2.4 F2400.0 E18174.682
G1 X-5.95 Y21.89 Z2.4 F2400.0 E18174.761
;M103
G1 X-3.37 Y9.66 Z2.4 F3600.0
;M101
G1 X-7.71 Y5.32 Z2.4 F2400.0 E18182.44
G1 X-7.6 Y4.84 Z2.4 F2400.0 E18183.055
G1 X-3.41 Y9.03 Z2.4 F2400.0 E18190.468
G1 X-3.6 Y8.25 Z2.4 F2400.0 E18191.473
G1 X-7.5 Y4.34 Z2.4 F2400.0 E18198.383
G1 X-7.41 Y3.85 Z2.4 F2400.0 E18199.015
G1 X-3.61 Y7.65 Z2.4 F2400.0 E18205.741
G1 X-3.62 Y7.05 Z2.4 F2400.0 E18206.493
G1 X-7.31 Y3.35 Z2.4 F2400.0 E18213.034
G1 X-7.22 Y2.85 Z2.4 F2400.0 E18213.667
G1 X-3.62 Y6.45 Z2.4 F2400.0 E18220.023
G1 X-3.63 Y5.85 Z2.4 F2400.0 E18220.775
G1 X-7.12 Y2.36 Z2.4 F2400.0 E18226.945
G1 X-7.03 Y1.86 Z2.4 F2400.0 E18227.578
G1 X-3.64 Y5.24 Z2.4 F2400.0 E18233.564
G1 X-3.65 Y4.64 Z2.4 F2400.0 E18234.316
G1 X-6.93 Y1.37 Z2.4 F2400.0 E18240.116
G1 X-6.83 Y0.87 Z2.4 F2400.0 E18240.749
G1 X-3.66 Y4.04 Z2.4 F2400.0 E18246.364
G1 X-3.84 Y3.27 Z2.4 F2400.0 E18247.357
G1 X-6.74 Y0.37 Z2.4 F2400.0 E18252.484
G1 X-6.64 Y-0.13 Z2.4 F2400.0 E18253.117
G1 X-3.94 Y2.58 Z2.4 F2400.0 E18257.895
G1 X-3.93 Y1.99 Z2.4 F2400.0 E18258.628
G1 X-6.55 Y-0.62 Z2.4 F2400.0 E18263.249
G1 X-6.45 Y-1.12 Z2.4 F2400.0 E18263.88
G1 X-3.93 Y1.4 Z2.4 F2400.0 E18268.341
G1 X-3.92 Y0.82 Z2.4 F2400.0 E18269.075
G1 X-6.35 Y-1.62 Z2.4 F2400.0 E18273.377
G1 X-6.26 Y-2.11 Z2.4 F2400.0 E18274.009
G1 X-3.92 Y0.23 Z2.4 F2400.0 E18278.153
G1 X-3.91 Y-0.36 Z2.4 F2400.0 E18278.886
G1 X-6.16 Y-2.61 Z2.4 F2400.0 E18282.871
G1 X-6.04 Y-3.07 Z2.4 F2400.0 E18283.474
G1 X-3.9 Y-0.94 Z2.4 F2400.0 E18287.244
G1 X-3.9 Y-1.53 Z2.4 F2400.0 E18287.977
G1 X-5.9 Y-3.53 Z2.4 F2400.0 E18291.516
G1 X-5.76 Y-3.98 Z2.4 F2400.0 E18292.111
G1 X-3.89 Y-2.11 Z2.4 F2400.0 E18295.418
G1 X-3.89 Y-2.7 Z2.4 F2400.0 E18296.151
G1 X-5.62 Y-4.44 Z2.4 F2400.0 E18299.226
G1 X-5.49 Y-4.89 Z2.4 F2400.0 E18299.821
G1 X-3.88 Y-3.29 Z2.4 F2400.0 E18302.663
G1 X-3.87 Y-3.87 Z2.4 F2400.0 E18303.396
G1 X-5.35 Y-5.35 Z2.4 F2400.0 E18306.007
G1 X-5.21 Y-5.8 Z2.4 F2400.0 E18306.602
G1 X-3.87 Y-4.46 Z2.4 F2400.0 E18308.981
G1 X-3.86 Y-5.05 Z2.4 F2400.0 E18309.715
G1 X-5.07 Y-6.26 Z2.4 F2400.0 E18311.861
G1 X-4.94 Y-6.71 Z2.4 F2400.0 E18312.456
G1 X-3.86 Y-5.63 Z2.4 F2400.0 E18314.369
G1 X-3.85 Y-6.22 Z2.4 F2400.0 E18315.103
G1 X-4.8 Y-7.17 Z2.4 F2400.0 E18316.784
G1 X-4.66 Y-7.62 Z2.4 F2400.0 E18317.379
G1 X-3.84 Y-6.8 Z2.4 F2400.0 E18318.828
G1 X-3.84 Y-7.39 Z2.4 F2400.0 E18319.563
G1 X-4.52 Y-8.08 Z2.4 F2400.0 E18320.78
G1 X-4.39 Y-8.53 Z2.4 F2400.0 E18321.374
G1 X-3.83 Y-7.98 Z2.4 F2400.0 E18322.36
G1 X-3.82 Y-8.56 Z2.4 F2400.0 E18323.093
G1 X-4.25 Y-8.99 Z2.4 F2400.0 E18323.847
G1 X-3.82 Y-9.15 Z2.4 F2400.0 E18324.423
G1 X-4.11 Y-9.44 Z2.4 F2400.0 E18324.944
G1 X-3.85 Y-9.77 Z2.4 F2400.0 E18325.47
G1 X-3.98 Y-9.9 Z2.4 F2400.0 E18325.698
G1 X-3.82 Y-10.33 Z2.4 F2400.0 E18326.275
;M103
G1 X-3.57 Y-10.51 Z2.4 F3600.0
;M101
G1 X-3.55 Y-10.36 Z2.4 F2400.0 E18326.458
G1 X-3.46 Y-9.51 Z2.4 F2400.0 E18327.529
G1 X-3.59 Y2.79 Z2.4 F2400.0 E18342.917
G1 X-3.3 Y3.99 Z2.4 F2400.0 E18344.466
G1 X-3.24 Y8.41 Z2.4 F2400.0 E18349.997
G1 X-3.07 Y8.73 Z2.4 F2400.0 E18350.44
G1 X-2.95 Y10.88 Z2.4 F2400.0 E18353.136
G1 X-3.3 Y11.4 Z2.4 F2400.0 E18353.925
G1 X-3.39 Y14.69 Z2.4 F2400.0 E18358.043
G1 X-3.6 Y16.35 Z2.4 F2400.0 E18360.137
G1 X-5.04 Y20.86 Z2.4 F2400.0 E18366.053
G1 X-5.88 Y22.44 Z2.4 F2400.0 E18368.287
G1 X-6.08 Y22.62 Z2.4 F2400.0 E18368.632
G1 X-6.29 Y22.14 Z2.4 F2400.0 E18369.294
G1 X-7.79 Y15.99 Z2.4 F2400.0 E18377.202
G1 X-8.19 Y12.19 Z2.4 F2400.0 E18381.984
G1 X-8.38 Y11.58 Z2.4 F2400.0 E18382.79
G1 X-9.01 Y10.5 Z2.4 F2400.0 E18384.346
G1 X-9.1 Y8.4 Z2.4 F2400.0 E18386.979
G1 X-8.85 Y7.66 Z2.4 F2400.0 E18387.965
G1 X-8.7 Y6.47 Z2.4 F2400.0 E18389.464
G1 X-8.23 Y5.79 Z2.4 F2400.0 E18390.496
G1 X-8.0 Y5.04 Z2.4 F2400.0 E18391.474
G1 X-6.48 Y-2.82 Z2.4 F2400.0 E18401.486
G1 X-4.18 Y-10.47 Z2.4 F2400.0 E18411.481
G1 X-3.92 Y-10.86 Z2.4 F2400.0 E18412.062
G1 X-3.59 Y-10.71 Z2.4 F2400.0 E18412.507
G1 X-3.57 Y-10.51 Z2.4 F2400.0 E18412.768
;M103
;M108 S37.53
G1 X-3.14 Y-10.41 Z2.4 F3600.0
;M101
G1 X-3.04 Y-9.52 Z2.4 F1800.0 E18413.882
G1 X-3.18 Y-6.81 Z2.4 F1800.0 E18417.288
G1 X-3.17 Y2.74 Z2.4 F1800.0 E18429.229
G1 X-2.89 Y3.94 Z2.4 F1800.0 E18430.774
G1 X-2.82 Y8.31 Z2.4 F1800.0 E18436.233
G1 X-2.66 Y8.61 Z2.4 F1800.0 E18436.665
G1 X-2.52 Y10.99 Z2.4 F1800.0 E18439.652
G1 X-2.88 Y11.53 Z2.4 F1800.0 E18440.457
G1 X-2.87 Y12.82 Z2.4 F1800.0 E18442.076
G1 X-2.97 Y14.73 Z2.4 F1800.0 E18444.467
G1 X-3.19 Y16.44 Z2.4 F1800.0 E18446.629
G1 X-4.65 Y21.01 Z2.4 F1800.0 E18452.627
G1 X-5.0 Y21.75 Z2.4 F1800.0 E18453.648
G1 X-5.55 Y22.7 Z2.4 F1800.0 E18455.022
G1 X-5.98 Y23.1 Z2.4 F1800.0 E18455.759
G1 X-6.12 Y23.15 Z2.4 F1800.0 E18455.94
G1 X-6.33 Y23.1 Z2.4 F1800.0 E18456.213
G1 X-6.69 Y22.27 Z2.4 F1800.0 E18457.34
G1 X-8.2 Y16.06 Z2.4 F1800.0 E18465.33
G1 X-8.61 Y12.28 Z2.4 F1800.0 E18470.096
G1 X-8.77 Y11.74 Z2.4 F1800.0 E18470.792
G1 X-9.42 Y10.64 Z2.4 F1800.0 E18472.395
G1 X-9.53 Y10.52 Z2.4 F1800.0 E18472.594
G1 X-9.49 Y10.03 Z2.4 F1800.0 E18473.213
G1 X-9.52 Y8.34 Z2.4 F1800.0 E18475.334
G1 X-9.26 Y7.56 Z2.4 F1800.0 E18476.358
G1 X-9.1 Y6.31 Z2.4 F1800.0 E18477.93
G1 X-8.61 Y5.6 Z2.4 F1800.0 E18479.008
G1 X-8.41 Y4.94 Z2.4 F1800.0 E18479.878
G1 X-6.89 Y-2.92 Z2.4 F1800.0 E18489.889
G1 X-4.56 Y-10.65 Z2.4 F1800.0 E18499.989
G1 X-3.37 Y-12.46 Z2.4 F1800.0 E18502.701
G1 X-3.14 Y-10.41 Z2.4 F1800.0 E18505.284
;M103
;M108 S50.04
G1 X8.94 Y-11.2 Z2.4 F3600.0
;M101
G1 X5.39 Y-14.75 Z2.4 F2400.0 E18511.553
G1 X5.34 Y-14.21 Z2.4 F2400.0 E18512.226
G1 X9.6 Y-9.95 Z2.4 F2400.0 E18519.766
G1 X9.57 Y-9.39 Z2.4 F2400.0 E18520.468
G1 X5.28 Y-13.68 Z2.4 F2400.0 E18528.053
G1 X5.22 Y-13.14 Z2.4 F2400.0 E18528.726
G1 X9.53 Y-8.83 Z2.4 F2400.0 E18536.357
G1 X9.36 Y-8.41 Z2.4 F2400.0 E18536.923
G1 X5.16 Y-12.61 Z2.4 F2400.0 E18544.348
G1 X5.1 Y-12.08 Z2.4 F2400.0 E18545.013
G1 X9.35 Y-7.83 Z2.4 F2400.0 E18552.536
G1 X9.34 Y-7.24 Z2.4 F2400.0 E18553.266
G1 X4.96 Y-11.63 Z2.4 F2400.0 E18561.019
G1 X4.78 Y-11.22 Z2.4 F2400.0 E18561.579
G1 X9.33 Y-6.66 Z2.4 F2400.0 E18569.642
G1 X9.33 Y-6.08 Z2.4 F2400.0 E18570.372
G1 X4.56 Y-10.85 Z2.4 F2400.0 E18578.81
G1 X4.34 Y-10.47 Z2.4 F2400.0 E18579.35
G1 X9.32 Y-5.49 Z2.4 F2400.0 E18588.162
G1 X9.31 Y-4.91 Z2.4 F2400.0 E18588.892
G1 X4.28 Y-9.94 Z2.4 F2400.0 E18597.799
G1 X4.25 Y-9.37 Z2.4 F2400.0 E18598.512
G1 X9.3 Y-4.33 Z2.4 F2400.0 E18607.445
G1 X9.24 Y-3.79 Z2.4 F2400.0 E18608.115
G1 X4.23 Y-8.81 Z2.4 F2400.0 E18616.984
G1 X4.33 Y-8.11 Z2.4 F2400.0 E18617.863
G1 X9.13 Y-3.31 Z2.4 F2400.0 E18626.352
G1 X9.01 Y-2.83 Z2.4 F2400.0 E18626.968
G1 X4.51 Y-7.34 Z2.4 F2400.0 E18634.941
G1 X4.59 Y-6.66 Z2.4 F2400.0 E18635.796
G1 X9.02 Y-2.24 Z2.4 F2400.0 E18643.626
G1 X9.03 Y-1.64 Z2.4 F2400.0 E18644.376
G1 X5.2 Y-5.47 Z2.4 F2400.0 E18651.151
G1 X5.39 Y-4.68 Z2.4 F2400.0 E18652.158
G1 X9.03 Y-1.04 Z2.4 F2400.0 E18658.608
G1 X9.04 Y-0.44 Z2.4 F2400.0 E18659.358
G1 X5.53 Y-3.95 Z2.4 F2400.0 E18665.569
G1 X5.67 Y-3.22 Z2.4 F2400.0 E18666.504
G1 X9.04 Y0.16 Z2.4 F2400.0 E18672.475
G1 X9.05 Y0.76 Z2.4 F2400.0 E18673.225
G1 X5.81 Y-2.48 Z2.4 F2400.0 E18678.956
G1 X5.95 Y-1.75 Z2.4 F2400.0 E18679.891
G1 X9.06 Y1.36 Z2.4 F2400.0 E18685.383
G1 X9.06 Y1.95 Z2.4 F2400.0 E18686.132
G1 X6.09 Y-1.01 Z2.4 F2400.0 E18691.385
G1 X6.24 Y-0.28 Z2.4 F2400.0 E18692.32
G1 X9.07 Y2.55 Z2.4 F2400.0 E18697.334
G1 X9.07 Y3.15 Z2.4 F2400.0 E18698.082
G1 X6.38 Y0.45 Z2.4 F2400.0 E18702.855
G1 X6.52 Y1.19 Z2.4 F2400.0 E18703.79
G1 X9.08 Y3.75 Z2.4 F2400.0 E18708.324
G1 X9.09 Y4.35 Z2.4 F2400.0 E18709.072
G1 X6.66 Y1.92 Z2.4 F2400.0 E18713.366
G1 X6.8 Y2.66 Z2.4 F2400.0 E18714.301
G1 X9.09 Y4.95 Z2.4 F2400.0 E18718.356
G1 X9.1 Y5.55 Z2.4 F2400.0 E18719.104
G1 X7.05 Y3.49 Z2.4 F2400.0 E18722.737
G1 X7.3 Y4.34 Z2.4 F2400.0 E18723.845
G1 X9.11 Y6.14 Z2.4 F2400.0 E18727.037
G1 X9.11 Y6.74 Z2.4 F2400.0 E18727.786
G1 X7.56 Y5.19 Z2.4 F2400.0 E18730.535
G1 X7.81 Y6.04 Z2.4 F2400.0 E18731.644
G1 X9.12 Y7.34 Z2.4 F2400.0 E18733.951
G1 X9.12 Y7.94 Z2.4 F2400.0 E18734.7
G1 X8.07 Y6.89 Z2.4 F2400.0 E18736.564
G1 X8.33 Y7.73 Z2.4 F2400.0 E18737.672
G1 X9.13 Y8.54 Z2.4 F2400.0 E18739.094
G1 X8.58 Y8.58 Z2.4 F2400.0 E18739.782
G1 X9.14 Y9.14 Z2.4 F2400.0 E18740.762
G1 X8.84 Y9.43 Z2.4 F2400.0 E18741.287
G1 X9.12 Y9.71 Z2.4 F2400.0 E18741.777
G1 X9.13 Y10.31 Z2.4 F2400.0 E18742.534
G1 X9.14 Y10.33 Z2.4 F2400.0 E18742.554
;M103
G1 X6.89 Y-21.55 Z2.4 F3600.0
;M101
G1 X7.44 Y-20.99 Z2.4 F2400.0 E18743.54
G1 X6.77 Y-21.07 Z2.4 F2400.0 E18744.388
G1 X7.8 Y-20.04 Z2.4 F2400.0 E18746.219
G1 X8.08 Y-19.17 Z2.4 F2400.0 E18747.361
G1 X6.65 Y-20.6 Z2.4 F2400.0 E18749.887
G1 X6.54 Y-20.12 Z2.4 F2400.0 E18750.501
G1 X8.36 Y-18.3 Z2.4 F2400.0 E18753.722
G1 X8.64 Y-17.43 Z2.4 F2400.0 E18754.864
G1 X6.42 Y-19.64 Z2.4 F2400.0 E18758.781
G1 X6.31 Y-19.17 Z2.4 F2400.0 E18759.395
G1 X8.91 Y-16.56 Z2.4 F2400.0 E18764.006
G1 X9.06 Y-15.82 Z2.4 F2400.0 E18764.953
G1 X6.19 Y-18.69 Z2.4 F2400.0 E18770.033
G1 X6.08 Y-18.21 Z2.4 F2400.0 E18770.647
G1 X9.15 Y-15.14 Z2.4 F2400.0 E18776.088
G1 X9.22 Y-14.48 Z2.4 F2400.0 E18776.916
G1 X5.96 Y-17.74 Z2.4 F2400.0 E18782.678
G1 X5.84 Y-17.26 Z2.4 F2400.0 E18783.291
G1 X9.23 Y-13.87 Z2.4 F2400.0 E18789.289
G1 X9.25 Y-13.26 Z2.4 F2400.0 E18790.051
G1 X5.73 Y-16.78 Z2.4 F2400.0 E18796.283
G1 X5.61 Y-16.31 Z2.4 F2400.0 E18796.895
G1 X9.27 Y-12.65 Z2.4 F2400.0 E18803.362
G1 X9.28 Y-12.04 Z2.4 F2400.0 E18804.124
G1 X5.51 Y-15.82 Z2.4 F2400.0 E18810.801
G1 X5.45 Y-15.28 Z2.4 F2400.0 E18811.474
G1 X9.3 Y-11.43 Z2.4 F2400.0 E18818.284
G1 X9.63 Y-10.51 Z2.4 F2400.0 E18819.51
;M103
G1 X9.99 Y-10.64 Z2.4 F3600.0
;M101
G1 X9.99 Y-10.49 Z2.4 F2400.0 E18819.692
G1 X9.89 Y-8.73 Z2.4 F2400.0 E18821.902
G1 X9.72 Y-8.41 Z2.4 F2400.0 E18822.345
G1 X9.65 Y-3.99 Z2.4 F2400.0 E18827.876
G1 X9.37 Y-2.79 Z2.4 F2400.0 E18829.425
G1 X9.5 Y9.51 Z2.4 F2400.0 E18844.814
G1 X9.36 Y10.71 Z2.4 F2400.0 E18846.327
