G21 (This is GCode, generated with Skeinforge version 35 from ReplicatorG)
G21 (Ultimaker profile - Quality print - alterations/start-centered.gcode)
G21 (Metric: The unit is a millimeter)
M18 (Disable motors for now, to allow manual moving of the head)
G90 (Absolute Positioning)
G92 X0 Y0 Z0 E0 (set origin to current position)
G90 
G1 Z0.4
G92 E0 (zero the extruded length)
G21 (end of start .gcode file)
G90
G21
;M103
M105
M106
M113 S1.0
;M108 S50.04
M104 S245.0
;M108 S37.53
;M108 S39.41
G1 X-8.79 Y-10.64 Z0.3 F1620.0
;M101
G1 X-8.79 Y45.6 Z0.3 F1620.0 E82.09
G1 X47.59 Y45.6 Z0.3 F1620.0 E164.383
G1 X47.59 Y-10.64 Z0.3 F1620.0 E246.473
G1 X-8.79 Y-10.64 Z0.3 F1620.0 E328.767
;M103
G1 X0.8 Y0.51 Z0.3 F3600.0
;M101
G1 X0.94 Y0.34 Z0.3 F1620.0 E329.086
G1 X3.7 Y-2.22 Z0.3 F1620.0 E334.582
G1 X6.81 Y-4.34 Z0.3 F1620.0 E340.075
G1 X10.2 Y-5.97 Z0.3 F1620.0 E345.572
G1 X13.8 Y-7.08 Z0.3 F1620.0 E351.067
G1 X17.52 Y-7.64 Z0.3 F1620.0 E356.562
G1 X21.28 Y-7.64 Z0.3 F1620.0 E362.057
G1 X25.01 Y-7.08 Z0.3 F1620.0 E367.552
G1 X28.61 Y-5.97 Z0.3 F1620.0 E373.048
G1 X32.0 Y-4.34 Z0.3 F1620.0 E378.544
G1 X35.11 Y-2.22 Z0.3 F1620.0 E384.039
G1 X37.87 Y0.34 Z0.3 F1620.0 E389.534
G1 X40.22 Y3.29 Z0.3 F1620.0 E395.029
G1 X42.1 Y6.55 Z0.3 F1620.0 E400.525
G1 X43.47 Y10.05 Z0.3 F1620.0 E406.021
G1 X44.31 Y13.72 Z0.3 F1620.0 E411.515
G1 X44.59 Y17.48 Z0.3 F1620.0 E417.012
G1 X44.31 Y21.23 Z0.3 F1620.0 E422.506
G1 X43.47 Y24.9 Z0.3 F1620.0 E428.001
G1 X42.1 Y28.41 Z0.3 F1620.0 E433.496
G1 X40.22 Y31.67 Z0.3 F1620.0 E438.993
G1 X37.87 Y34.61 Z0.3 F1620.0 E444.487
G1 X35.11 Y37.17 Z0.3 F1620.0 E449.983
G1 X32.0 Y39.29 Z0.3 F1620.0 E455.479
G1 X28.61 Y40.92 Z0.3 F1620.0 E460.974
G1 X25.01 Y42.03 Z0.3 F1620.0 E466.47
G1 X21.28 Y42.6 Z0.3 F1620.0 E471.965
G1 X17.52 Y42.6 Z0.3 F1620.0 E477.459
G1 X13.8 Y42.03 Z0.3 F1620.0 E482.955
G1 X10.2 Y40.92 Z0.3 F1620.0 E488.45
G1 X6.81 Y39.29 Z0.3 F1620.0 E493.946
G1 X3.7 Y37.17 Z0.3 F1620.0 E499.441
G1 X0.94 Y34.61 Z0.3 F1620.0 E504.936
G1 X-1.41 Y31.67 Z0.3 F1620.0 E510.431
G1 X-3.29 Y28.41 Z0.3 F1620.0 E515.927
G1 X-4.67 Y24.9 Z0.3 F1620.0 E521.423
G1 X-5.51 Y21.23 Z0.3 F1620.0 E526.918
G1 X-5.79 Y17.48 Z0.3 F1620.0 E532.412
G1 X-5.51 Y13.72 Z0.3 F1620.0 E537.909
G1 X-4.67 Y10.05 Z0.3 F1620.0 E543.404
G1 X-3.29 Y6.55 Z0.3 F1620.0 E548.899
G1 X-1.41 Y3.29 Z0.3 F1620.0 E554.396
G1 X0.74 Y0.59 Z0.3 F1620.0 E559.427
G1 X0.8 Y0.51 Z0.3 F1620.0 E559.571
;M103
G1 X1.19 Y1.02 Z0.3 F3600.0
;M101
G1 X0.42 Y1.82 Z0.3 F1620.0 E561.19
G1 X-1.75 Y4.9 Z0.3 F1620.0 E566.691
G1 X-3.42 Y8.28 Z0.3 F1620.0 E572.19
G1 X-4.56 Y11.87 Z0.3 F1620.0 E577.689
G1 X-5.14 Y15.59 Z0.3 F1620.0 E583.189
G1 X-5.14 Y19.36 Z0.3 F1620.0 E588.688
G1 X-4.56 Y23.08 Z0.3 F1620.0 E594.188
G1 X-3.42 Y26.68 Z0.3 F1620.0 E599.689
G1 X-1.75 Y30.05 Z0.3 F1620.0 E605.186
G1 X0.42 Y33.13 Z0.3 F1620.0 E610.688
G1 X3.03 Y35.85 Z0.3 F1620.0 E616.187
G1 X6.03 Y38.13 Z0.3 F1620.0 E621.686
G1 X9.34 Y39.93 Z0.3 F1620.0 E627.186
G1 X12.88 Y41.21 Z0.3 F1620.0 E632.685
G1 X16.58 Y41.92 Z0.3 F1620.0 E638.185
G1 X20.35 Y42.07 Z0.3 F1620.0 E643.685
G1 X24.09 Y41.64 Z0.3 F1620.0 E649.185
G1 X27.72 Y40.64 Z0.3 F1620.0 E654.684
G1 X31.16 Y39.1 Z0.3 F1620.0 E660.183
G1 X34.32 Y37.05 Z0.3 F1620.0 E665.682
G1 X37.13 Y34.54 Z0.3 F1620.0 E671.182
G1 X39.53 Y31.63 Z0.3 F1620.0 E676.682
G1 X41.46 Y28.4 Z0.3 F1620.0 E682.182
G1 X42.87 Y24.9 Z0.3 F1620.0 E687.681
G1 X43.72 Y21.23 Z0.3 F1620.0 E693.181
G1 X44.01 Y17.48 Z0.3 F1620.0 E698.679
G1 X43.72 Y13.72 Z0.3 F1620.0 E704.179
G1 X42.87 Y10.05 Z0.3 F1620.0 E709.678
G1 X41.46 Y6.56 Z0.3 F1620.0 E715.178
G1 X39.53 Y3.32 Z0.3 F1620.0 E720.677
G1 X37.13 Y0.41 Z0.3 F1620.0 E726.178
G1 X34.32 Y-2.1 Z0.3 F1620.0 E731.677
G1 X31.16 Y-4.14 Z0.3 F1620.0 E737.177
G1 X27.72 Y-5.69 Z0.3 F1620.0 E742.676
G1 X24.09 Y-6.68 Z0.3 F1620.0 E748.175
G1 X20.35 Y-7.12 Z0.3 F1620.0 E753.675
G1 X16.58 Y-6.97 Z0.3 F1620.0 E759.174
G1 X12.88 Y-6.26 Z0.3 F1620.0 E764.674
G1 X9.34 Y-4.98 Z0.3 F1620.0 E770.174
G1 X6.03 Y-3.18 Z0.3 F1620.0 E775.673
G1 X3.03 Y-0.9 Z0.3 F1620.0 E781.173
G1 X1.19 Y1.02 Z0.3 F1620.0 E785.053
;M103
;M108 S50.04
;M108 S37.53
G1 X0.7 Y0.64 Z0.6 F3600.0
;M101
G1 X0.94 Y0.34 Z0.6 F1800.0 E785.521
G1 X3.7 Y-2.22 Z0.6 F1800.0 E790.231
G1 X6.81 Y-4.34 Z0.6 F1800.0 E794.94
G1 X10.2 Y-5.97 Z0.6 F1800.0 E799.651
G1 X13.8 Y-7.08 Z0.6 F1800.0 E804.36
G1 X17.52 Y-7.64 Z0.6 F1800.0 E809.07
G1 X21.28 Y-7.64 Z0.6 F1800.0 E813.779
G1 X25.01 Y-7.08 Z0.6 F1800.0 E818.489
G1 X28.61 Y-5.97 Z0.6 F1800.0 E823.2
G1 X32.0 Y-4.34 Z0.6 F1800.0 E827.91
G1 X35.11 Y-2.22 Z0.6 F1800.0 E832.619
G1 X37.87 Y0.34 Z0.6 F1800.0 E837.329
G1 X40.22 Y3.29 Z0.6 F1800.0 E842.038
G1 X42.1 Y6.55 Z0.6 F1800.0 E846.749
G1 X43.47 Y10.05 Z0.6 F1800.0 E851.459
G1 X44.31 Y13.72 Z0.6 F1800.0 E856.168
G1 X44.59 Y17.48 Z0.6 F1800.0 E860.879
G1 X44.31 Y21.23 Z0.6 F1800.0 E865.589
G1 X43.47 Y24.9 Z0.6 F1800.0 E870.298
G1 X42.1 Y28.41 Z0.6 F1800.0 E875.008
G1 X40.22 Y31.67 Z0.6 F1800.0 E879.719
G1 X37.87 Y34.61 Z0.6 F1800.0 E884.428
G1 X35.11 Y37.17 Z0.6 F1800.0 E889.138
G1 X32.0 Y39.29 Z0.6 F1800.0 E893.848
G1 X28.61 Y40.92 Z0.6 F1800.0 E898.558
G1 X25.01 Y42.03 Z0.6 F1800.0 E903.268
G1 X21.28 Y42.6 Z0.6 F1800.0 E907.978
G1 X17.52 Y42.6 Z0.6 F1800.0 E912.687
G1 X13.8 Y42.03 Z0.6 F1800.0 E917.397
G1 X10.2 Y40.92 Z0.6 F1800.0 E922.107
G1 X6.81 Y39.29 Z0.6 F1800.0 E926.817
G1 X3.7 Y37.17 Z0.6 F1800.0 E931.527
G1 X0.94 Y34.61 Z0.6 F1800.0 E936.237
G1 X-1.41 Y31.67 Z0.6 F1800.0 E940.946
G1 X-3.29 Y28.41 Z0.6 F1800.0 E945.657
G1 X-4.67 Y24.9 Z0.6 F1800.0 E950.367
G1 X-5.51 Y21.23 Z0.6 F1800.0 E955.076
G1 X-5.79 Y17.48 Z0.6 F1800.0 E959.785
G1 X-5.51 Y13.72 Z0.6 F1800.0 E964.496
G1 X-4.67 Y10.05 Z0.6 F1800.0 E969.206
G1 X-3.29 Y6.55 Z0.6 F1800.0 E973.916
G1 X-1.41 Y3.29 Z0.6 F1800.0 E978.626
G1 X0.7 Y0.64 Z0.6 F1800.0 E982.867
;M103
G1 X1.15 Y1.06 Z0.6 F3600.0
;M101
G1 X0.42 Y1.82 Z0.6 F1800.0 E984.183
G1 X-1.75 Y4.9 Z0.6 F1800.0 E988.898
G1 X-3.42 Y8.28 Z0.6 F1800.0 E993.611
G1 X-4.56 Y11.87 Z0.6 F1800.0 E998.324
G1 X-5.14 Y15.59 Z0.6 F1800.0 E1003.038
G1 X-5.14 Y19.36 Z0.6 F1800.0 E1007.751
G1 X-4.56 Y23.08 Z0.6 F1800.0 E1012.464
G1 X-3.42 Y26.68 Z0.6 F1800.0 E1017.179
G1 X-1.75 Y30.05 Z0.6 F1800.0 E1021.891
G1 X0.42 Y33.13 Z0.6 F1800.0 E1026.606
G1 X3.03 Y35.85 Z0.6 F1800.0 E1031.319
G1 X6.03 Y38.13 Z0.6 F1800.0 E1036.032
G1 X9.34 Y39.93 Z0.6 F1800.0 E1040.746
G1 X12.88 Y41.21 Z0.6 F1800.0 E1045.459
G1 X16.58 Y41.92 Z0.6 F1800.0 E1050.173
G1 X20.35 Y42.07 Z0.6 F1800.0 E1054.887
G1 X24.09 Y41.64 Z0.6 F1800.0 E1059.6
G1 X27.72 Y40.64 Z0.6 F1800.0 E1064.314
G1 X31.16 Y39.1 Z0.6 F1800.0 E1069.027
G1 X34.32 Y37.05 Z0.6 F1800.0 E1073.74
G1 X37.13 Y34.54 Z0.6 F1800.0 E1078.454
G1 X39.53 Y31.63 Z0.6 F1800.0 E1083.168
G1 X41.46 Y28.4 Z0.6 F1800.0 E1087.881
G1 X42.87 Y24.9 Z0.6 F1800.0 E1092.594
G1 X43.72 Y21.23 Z0.6 F1800.0 E1097.308
G1 X44.01 Y17.48 Z0.6 F1800.0 E1102.021
G1 X43.72 Y13.72 Z0.6 F1800.0 E1106.734
G1 X42.87 Y10.05 Z0.6 F1800.0 E1111.447
G1 X41.46 Y6.56 Z0.6 F1800.0 E1116.161
G1 X39.53 Y3.32 Z0.6 F1800.0 E1120.875
G1 X37.13 Y0.41 Z0.6 F1800.0 E1125.589
G1 X34.32 Y-2.1 Z0.6 F1800.0 E1130.302
G1 X31.16 Y-4.14 Z0.6 F1800.0 E1135.015
G1 X27.72 Y-5.69 Z0.6 F1800.0 E1139.729
G1 X24.09 Y-6.68 Z0.6 F1800.0 E1144.442
G1 X20.35 Y-7.12 Z0.6 F1800.0 E1149.155
G1 X16.58 Y-6.97 Z0.6 F1800.0 E1153.869
G1 X12.88 Y-6.26 Z0.6 F1800.0 E1158.582
G1 X9.34 Y-4.98 Z0.6 F1800.0 E1163.296
G1 X6.03 Y-3.18 Z0.6 F1800.0 E1168.01
G1 X3.03 Y-0.9 Z0.6 F1800.0 E1172.723
G1 X1.15 Y1.06 Z0.6 F1800.0 E1176.12
;M103
;M108 S50.04
;M108 S37.53
G1 X0.67 Y0.68 Z0.9 F3600.0
;M101
G1 X0.94 Y0.34 Z0.9 F1800.0 E1176.659
G1 X3.7 Y-2.22 Z0.9 F1800.0 E1181.37
G1 X6.81 Y-4.34 Z0.9 F1800.0 E1186.078
G1 X10.2 Y-5.97 Z0.9 F1800.0 E1190.789
G1 X13.8 Y-7.08 Z0.9 F1800.0 E1195.499
G1 X17.52 Y-7.64 Z0.9 F1800.0 E1200.209
G1 X21.28 Y-7.64 Z0.9 F1800.0 E1204.917
G1 X25.01 Y-7.08 Z0.9 F1800.0 E1209.628
G1 X28.61 Y-5.97 Z0.9 F1800.0 E1214.338
G1 X32.0 Y-4.34 Z0.9 F1800.0 E1219.048
G1 X35.11 Y-2.22 Z0.9 F1800.0 E1223.758
G1 X37.87 Y0.34 Z0.9 F1800.0 E1228.468
G1 X40.22 Y3.29 Z0.9 F1800.0 E1233.177
G1 X42.1 Y6.55 Z0.9 F1800.0 E1237.888
G1 X43.47 Y10.05 Z0.9 F1800.0 E1242.598
G1 X44.31 Y13.72 Z0.9 F1800.0 E1247.307
G1 X44.59 Y17.48 Z0.9 F1800.0 E1252.018
G1 X44.31 Y21.23 Z0.9 F1800.0 E1256.727
G1 X43.47 Y24.9 Z0.9 F1800.0 E1261.436
G1 X42.1 Y28.41 Z0.9 F1800.0 E1266.146
G1 X40.22 Y31.67 Z0.9 F1800.0 E1270.857
G1 X37.87 Y34.61 Z0.9 F1800.0 E1275.566
G1 X35.11 Y37.17 Z0.9 F1800.0 E1280.276
G1 X32.0 Y39.29 Z0.9 F1800.0 E1284.987
G1 X28.61 Y40.92 Z0.9 F1800.0 E1289.696
G1 X25.01 Y42.03 Z0.9 F1800.0 E1294.407
G1 X21.28 Y42.6 Z0.9 F1800.0 E1299.117
G1 X17.52 Y42.6 Z0.9 F1800.0 E1303.826
G1 X13.8 Y42.03 Z0.9 F1800.0 E1308.536
G1 X10.2 Y40.92 Z0.9 F1800.0 E1313.245
G1 X6.81 Y39.29 Z0.9 F1800.0 E1317.956
G1 X3.7 Y37.17 Z0.9 F1800.0 E1322.665
G1 X0.94 Y34.61 Z0.9 F1800.0 E1327.375
G1 X-1.41 Y31.67 Z0.9 F1800.0 E1332.084
G1 X-3.29 Y28.41 Z0.9 F1800.0 E1336.795
G1 X-4.67 Y24.9 Z0.9 F1800.0 E1341.505
G1 X-5.51 Y21.23 Z0.9 F1800.0 E1346.214
G1 X-5.79 Y17.48 Z0.9 F1800.0 E1350.924
G1 X-5.51 Y13.72 Z0.9 F1800.0 E1355.635
G1 X-4.67 Y10.05 Z0.9 F1800.0 E1360.344
G1 X-3.29 Y6.55 Z0.9 F1800.0 E1365.054
G1 X-1.41 Y3.29 Z0.9 F1800.0 E1369.765
G1 X0.67 Y0.68 Z0.9 F1800.0 E1373.935
;M103
G1 X1.11 Y1.1 Z0.9 F3600.0
;M101
G1 X0.42 Y1.82 Z0.9 F1800.0 E1375.179
G1 X-1.75 Y4.9 Z0.9 F1800.0 E1379.894
G1 X-3.42 Y8.28 Z0.9 F1800.0 E1384.607
G1 X-4.56 Y11.87 Z0.9 F1800.0 E1389.321
G1 X-5.14 Y15.59 Z0.9 F1800.0 E1394.035
G1 X-5.14 Y19.36 Z0.9 F1800.0 E1398.747
G1 X-4.56 Y23.08 Z0.9 F1800.0 E1403.461
G1 X-3.42 Y26.68 Z0.9 F1800.0 E1408.176
G1 X-1.75 Y30.05 Z0.9 F1800.0 E1412.887
G1 X0.42 Y33.13 Z0.9 F1800.0 E1417.602
G1 X3.03 Y35.85 Z0.9 F1800.0 E1422.315
G1 X6.03 Y38.13 Z0.9 F1800.0 E1427.029
G1 X9.34 Y39.93 Z0.9 F1800.0 E1431.743
G1 X12.88 Y41.21 Z0.9 F1800.0 E1436.456
G1 X16.58 Y41.92 Z0.9 F1800.0 E1441.17
G1 X20.35 Y42.07 Z0.9 F1800.0 E1445.883
G1 X24.09 Y41.64 Z0.9 F1800.0 E1450.597
G1 X27.72 Y40.64 Z0.9 F1800.0 E1455.31
G1 X31.16 Y39.1 Z0.9 F1800.0 E1460.023
G1 X34.32 Y37.05 Z0.9 F1800.0 E1464.736
G1 X37.13 Y34.54 Z0.9 F1800.0 E1469.45
G1 X39.53 Y31.63 Z0.9 F1800.0 E1474.164
G1 X41.46 Y28.4 Z0.9 F1800.0 E1478.878
G1 X42.87 Y24.9 Z0.9 F1800.0 E1483.591
G1 X43.72 Y21.23 Z0.9 F1800.0 E1488.305
G1 X44.01 Y17.48 Z0.9 F1800.0 E1493.017
G1 X43.72 Y13.72 Z0.9 F1800.0 E1497.731
G1 X42.87 Y10.05 Z0.9 F1800.0 E1502.444
G1 X41.46 Y6.56 Z0.9 F1800.0 E1507.157
G1 X39.53 Y3.32 Z0.9 F1800.0 E1511.871
G1 X37.13 Y0.41 Z0.9 F1800.0 E1516.585
G1 X34.32 Y-2.1 Z0.9 F1800.0 E1521.298
G1 X31.16 Y-4.14 Z0.9 F1800.0 E1526.012
G1 X27.72 Y-5.69 Z0.9 F1800.0 E1530.725
G1 X24.09 Y-6.68 Z0.9 F1800.0 E1535.438
G1 X20.35 Y-7.12 Z0.9 F1800.0 E1540.152
G1 X16.58 Y-6.97 Z0.9 F1800.0 E1544.865
G1 X12.88 Y-6.26 Z0.9 F1800.0 E1549.579
G1 X9.34 Y-4.98 Z0.9 F1800.0 E1554.293
G1 X6.03 Y-3.18 Z0.9 F1800.0 E1559.006
G1 X3.03 Y-0.9 Z0.9 F1800.0 E1563.72
G1 X1.11 Y1.1 Z0.9 F1800.0 E1567.187
;M103
;M108 S50.04
;M108 S37.53
G1 X0.63 Y0.72 Z1.2 F3600.0
;M101
G1 X0.94 Y0.34 Z1.2 F1800.0 E1567.797
G1 X3.7 Y-2.22 Z1.2 F1800.0 E1572.507
G1 X6.81 Y-4.34 Z1.2 F1800.0 E1577.216
G1 X10.2 Y-5.97 Z1.2 F1800.0 E1581.927
G1 X13.8 Y-7.08 Z1.2 F1800.0 E1586.636
G1 X17.52 Y-7.64 Z1.2 F1800.0 E1591.346
G1 X21.28 Y-7.64 Z1.2 F1800.0 E1596.055
G1 X25.01 Y-7.08 Z1.2 F1800.0 E1600.765
G1 X28.61 Y-5.97 Z1.2 F1800.0 E1605.476
G1 X32.0 Y-4.34 Z1.2 F1800.0 E1610.186
G1 X35.11 Y-2.22 Z1.2 F1800.0 E1614.895
G1 X37.87 Y0.34 Z1.2 F1800.0 E1619.606
G1 X40.22 Y3.29 Z1.2 F1800.0 E1624.315
G1 X42.1 Y6.55 Z1.2 F1800.0 E1629.025
G1 X43.47 Y10.05 Z1.2 F1800.0 E1633.735
G1 X44.31 Y13.72 Z1.2 F1800.0 E1638.445
G1 X44.59 Y17.48 Z1.2 F1800.0 E1643.155
G1 X44.31 Y21.23 Z1.2 F1800.0 E1647.865
G1 X43.47 Y24.9 Z1.2 F1800.0 E1652.574
G1 X42.1 Y28.41 Z1.2 F1800.0 E1657.284
G1 X40.22 Y31.67 Z1.2 F1800.0 E1661.995
G1 X37.87 Y34.61 Z1.2 F1800.0 E1666.704
G1 X35.11 Y37.17 Z1.2 F1800.0 E1671.414
G1 X32.0 Y39.29 Z1.2 F1800.0 E1676.124
G1 X28.61 Y40.92 Z1.2 F1800.0 E1680.834
G1 X25.01 Y42.03 Z1.2 F1800.0 E1685.544
G1 X21.28 Y42.6 Z1.2 F1800.0 E1690.254
G1 X17.52 Y42.6 Z1.2 F1800.0 E1694.963
G1 X13.8 Y42.03 Z1.2 F1800.0 E1699.673
G1 X10.2 Y40.92 Z1.2 F1800.0 E1704.383
G1 X6.81 Y39.29 Z1.2 F1800.0 E1709.093
G1 X3.7 Y37.17 Z1.2 F1800.0 E1713.803
G1 X0.94 Y34.61 Z1.2 F1800.0 E1718.513
G1 X-1.41 Y31.67 Z1.2 F1800.0 E1723.222
G1 X-3.29 Y28.41 Z1.2 F1800.0 E1727.933
G1 X-4.67 Y24.9 Z1.2 F1800.0 E1732.643
G1 X-5.51 Y21.23 Z1.2 F1800.0 E1737.352
G1 X-5.79 Y17.48 Z1.2 F1800.0 E1742.062
G1 X-5.51 Y13.72 Z1.2 F1800.0 E1746.772
G1 X-4.67 Y10.05 Z1.2 F1800.0 E1751.482
G1 X-3.29 Y6.55 Z1.2 F1800.0 E1756.192
G1 X-1.41 Y3.29 Z1.2 F1800.0 E1760.903
G1 X0.63 Y0.72 Z1.2 F1800.0 E1765.002
;M103
G1 X1.07 Y1.14 Z1.2 F3600.0
;M101
G1 X0.42 Y1.82 Z1.2 F1800.0 E1766.176
G1 X-1.75 Y4.9 Z1.2 F1800.0 E1770.891
G1 X-3.42 Y8.28 Z1.2 F1800.0 E1775.604
G1 X-4.56 Y11.87 Z1.2 F1800.0 E1780.317
G1 X-5.14 Y15.59 Z1.2 F1800.0 E1785.031
G1 X-5.14 Y19.36 Z1.2 F1800.0 E1789.744
G1 X-4.56 Y23.08 Z1.2 F1800.0 E1794.458
G1 X-3.42 Y26.68 Z1.2 F1800.0 E1799.172
G1 X-1.75 Y30.05 Z1.2 F1800.0 E1803.884
G1 X0.42 Y33.13 Z1.2 F1800.0 E1808.599
G1 X3.03 Y35.85 Z1.2 F1800.0 E1813.312
G1 X6.03 Y38.13 Z1.2 F1800.0 E1818.025
G1 X9.34 Y39.93 Z1.2 F1800.0 E1822.739
G1 X12.88 Y41.21 Z1.2 F1800.0 E1827.452
G1 X16.58 Y41.92 Z1.2 F1800.0 E1832.166
G1 X20.35 Y42.07 Z1.2 F1800.0 E1836.88
G1 X24.09 Y41.64 Z1.2 F1800.0 E1841.593
G1 X27.72 Y40.64 Z1.2 F1800.0 E1846.307
G1 X31.16 Y39.1 Z1.2 F1800.0 E1851.02
G1 X34.32 Y37.05 Z1.2 F1800.0 E1855.733
G1 X37.13 Y34.54 Z1.2 F1800.0 E1860.447
G1 X39.53 Y31.63 Z1.2 F1800.0 E1865.161
G1 X41.46 Y28.4 Z1.2 F1800.0 E1869.875
G1 X42.87 Y24.9 Z1.2 F1800.0 E1874.587
G1 X43.72 Y21.23 Z1.2 F1800.0 E1879.301
G1 X44.01 Y17.48 Z1.2 F1800.0 E1884.014
G1 X43.72 Y13.72 Z1.2 F1800.0 E1888.727
G1 X42.87 Y10.05 Z1.2 F1800.0 E1893.44
G1 X41.46 Y6.56 Z1.2 F1800.0 E1898.154
G1 X39.53 Y3.32 Z1.2 F1800.0 E1902.868
G1 X37.13 Y0.41 Z1.2 F1800.0 E1907.582
G1 X34.32 Y-2.1 Z1.2 F1800.0 E1912.295
G1 X31.16 Y-4.14 Z1.2 F1800.0 E1917.008
G1 X27.72 Y-5.69 Z1.2 F1800.0 E1921.722
G1 X24.09 Y-6.68 Z1.2 F1800.0 E1926.435
G1 X20.35 Y-7.12 Z1.2 F1800.0 E1931.148
G1 X16.58 Y-6.97 Z1.2 F1800.0 E1935.862
G1 X12.88 Y-6.26 Z1.2 F1800.0 E1940.576
G1 X9.34 Y-4.98 Z1.2 F1800.0 E1945.289
G1 X6.03 Y-3.18 Z1.2 F1800.0 E1950.003
G1 X3.03 Y-0.9 Z1.2 F1800.0 E1954.717
G1 X1.07 Y1.14 Z1.2 F1800.0 E1958.255
;M103
;M108 S50.04
;M108 S37.53
G1 X0.6 Y0.77 Z1.5 F3600.0
;M101
G1 X0.94 Y0.34 Z1.5 F1800.0 E1958.935
G1 X3.7 Y-2.22 Z1.5 F1800.0 E1963.645
G1 X6.81 Y-4.34 Z1.5 F1800.0 E1968.354
G1 X10.2 Y-5.97 Z1.5 F1800.0 E1973.065
G1 X13.8 Y-7.08 Z1.5 F1800.0 E1977.774
G1 X17.52 Y-7.64 Z1.5 F1800.0 E1982.484
G1 X21.28 Y-7.64 Z1.5 F1800.0 E1987.193
G1 X25.01 Y-7.08 Z1.5 F1800.0 E1991.903
G1 X28.61 Y-5.97 Z1.5 F1800.0 E1996.613
G1 X32.0 Y-4.34 Z1.5 F1800.0 E2001.323
G1 X35.11 Y-2.22 Z1.5 F1800.0 E2006.033
G1 X37.87 Y0.34 Z1.5 F1800.0 E2010.743
G1 X40.22 Y3.29 Z1.5 F1800.0 E2015.452
G1 X42.1 Y6.55 Z1.5 F1800.0 E2020.163
G1 X43.47 Y10.05 Z1.5 F1800.0 E2024.873
G1 X44.31 Y13.72 Z1.5 F1800.0 E2029.582
G1 X44.59 Y17.48 Z1.5 F1800.0 E2034.293
G1 X44.31 Y21.23 Z1.5 F1800.0 E2039.002
G1 X43.47 Y24.9 Z1.5 F1800.0 E2043.711
G1 X42.1 Y28.41 Z1.5 F1800.0 E2048.422
G1 X40.22 Y31.67 Z1.5 F1800.0 E2053.132
G1 X37.87 Y34.61 Z1.5 F1800.0 E2057.841
G1 X35.11 Y37.17 Z1.5 F1800.0 E2062.552
G1 X32.0 Y39.29 Z1.5 F1800.0 E2067.262
G1 X28.61 Y40.92 Z1.5 F1800.0 E2071.971
G1 X25.01 Y42.03 Z1.5 F1800.0 E2076.682
G1 X21.28 Y42.6 Z1.5 F1800.0 E2081.392
G1 X17.52 Y42.6 Z1.5 F1800.0 E2086.101
G1 X13.8 Y42.03 Z1.5 F1800.0 E2090.811
G1 X10.2 Y40.92 Z1.5 F1800.0 E2095.52
G1 X6.81 Y39.29 Z1.5 F1800.0 E2100.231
G1 X3.7 Y37.17 Z1.5 F1800.0 E2104.94
G1 X0.94 Y34.61 Z1.5 F1800.0 E2109.65
G1 X-1.41 Y31.67 Z1.5 F1800.0 E2114.36
G1 X-3.29 Y28.41 Z1.5 F1800.0 E2119.07
G1 X-4.67 Y24.9 Z1.5 F1800.0 E2123.78
G1 X-5.51 Y21.23 Z1.5 F1800.0 E2128.49
G1 X-5.79 Y17.48 Z1.5 F1800.0 E2133.199
G1 X-5.51 Y13.72 Z1.5 F1800.0 E2137.91
G1 X-4.67 Y10.05 Z1.5 F1800.0 E2142.619
G1 X-3.29 Y6.55 Z1.5 F1800.0 E2147.329
G1 X-1.41 Y3.29 Z1.5 F1800.0 E2152.04
G1 X0.6 Y0.77 Z1.5 F1800.0 E2156.069
;M103
G1 X1.03 Y1.18 Z1.5 F3600.0
;M101
G1 X0.42 Y1.82 Z1.5 F1800.0 E2157.173
G1 X-1.75 Y4.9 Z1.5 F1800.0 E2161.888
G1 X-3.42 Y8.28 Z1.5 F1800.0 E2166.601
G1 X-4.56 Y11.87 Z1.5 F1800.0 E2171.315
G1 X-5.14 Y15.59 Z1.5 F1800.0 E2176.029
G1 X-5.14 Y19.36 Z1.5 F1800.0 E2180.741
G1 X-4.56 Y23.08 Z1.5 F1800.0 E2185.455
G1 X-3.42 Y26.68 Z1.5 F1800.0 E2190.17
G1 X-1.75 Y30.05 Z1.5 F1800.0 E2194.881
G1 X0.42 Y33.13 Z1.5 F1800.0 E2199.596
G1 X3.03 Y35.85 Z1.5 F1800.0 E2204.309
G1 X6.03 Y38.13 Z1.5 F1800.0 E2209.023
G1 X9.34 Y39.93 Z1.5 F1800.0 E2213.737
G1 X12.88 Y41.21 Z1.5 F1800.0 E2218.45
G1 X16.58 Y41.92 Z1.5 F1800.0 E2223.164
G1 X20.35 Y42.07 Z1.5 F1800.0 E2227.877
G1 X24.09 Y41.64 Z1.5 F1800.0 E2232.591
G1 X27.72 Y40.64 Z1.5 F1800.0 E2237.304
G1 X31.16 Y39.1 Z1.5 F1800.0 E2242.017
G1 X34.32 Y37.05 Z1.5 F1800.0 E2246.73
G1 X37.13 Y34.54 Z1.5 F1800.0 E2251.444
G1 X39.53 Y31.63 Z1.5 F1800.0 E2256.158
G1 X41.46 Y28.4 Z1.5 F1800.0 E2260.872
G1 X42.87 Y24.9 Z1.5 F1800.0 E2265.585
G1 X43.72 Y21.23 Z1.5 F1800.0 E2270.299
G1 X44.01 Y17.48 Z1.5 F1800.0 E2275.011
G1 X43.72 Y13.72 Z1.5 F1800.0 E2279.725
G1 X42.87 Y10.05 Z1.5 F1800.0 E2284.438
G1 X41.46 Y6.56 Z1.5 F1800.0 E2289.151
G1 X39.53 Y3.32 Z1.5 F1800.0 E2293.865
G1 X37.13 Y0.41 Z1.5 F1800.0 E2298.579
G1 X34.32 Y-2.1 Z1.5 F1800.0 E2303.292
G1 X31.16 Y-4.14 Z1.5 F1800.0 E2308.006
G1 X27.72 Y-5.69 Z1.5 F1800.0 E2312.719
G1 X24.09 Y-6.68 Z1.5 F1800.0 E2317.432
G1 X20.35 Y-7.12 Z1.5 F1800.0 E2322.146
G1 X16.58 Y-6.97 Z1.5 F1800.0 E2326.859
G1 X12.88 Y-6.26 Z1.5 F1800.0 E2331.573
G1 X9.34 Y-4.98 Z1.5 F1800.0 E2336.287
G1 X6.03 Y-3.18 Z1.5 F1800.0 E2341.0
G1 X3.03 Y-0.9 Z1.5 F1800.0 E2345.714
G1 X1.03 Y1.18 Z1.5 F1800.0 E2349.322
;M103
;M108 S50.04
;M108 S37.53
G1 X0.56 Y0.81 Z1.8 F3600.0
;M101
G1 X0.94 Y0.34 Z1.8 F1800.0 E2350.071
G1 X3.7 Y-2.22 Z1.8 F1800.0 E2354.781
G1 X6.81 Y-4.34 Z1.8 F1800.0 E2359.489
G1 X10.2 Y-5.97 Z1.8 F1800.0 E2364.201
G1 X13.8 Y-7.08 Z1.8 F1800.0 E2368.91
G1 X17.52 Y-7.64 Z1.8 F1800.0 E2373.62
G1 X21.28 Y-7.64 Z1.8 F1800.0 E2378.329
G1 X25.01 Y-7.08 Z1.8 F1800.0 E2383.039
G1 X28.61 Y-5.97 Z1.8 F1800.0 E2387.749
G1 X32.0 Y-4.34 Z1.8 F1800.0 E2392.459
G1 X35.11 Y-2.22 Z1.8 F1800.0 E2397.169
G1 X37.87 Y0.34 Z1.8 F1800.0 E2401.879
G1 X40.22 Y3.29 Z1.8 F1800.0 E2406.588
G1 X42.1 Y6.55 Z1.8 F1800.0 E2411.299
G1 X43.47 Y10.05 Z1.8 F1800.0 E2416.009
G1 X44.31 Y13.72 Z1.8 F1800.0 E2420.718
G1 X44.59 Y17.48 Z1.8 F1800.0 E2425.429
G1 X44.31 Y21.23 Z1.8 F1800.0 E2430.138
G1 X43.47 Y24.9 Z1.8 F1800.0 E2434.847
G1 X42.1 Y28.41 Z1.8 F1800.0 E2439.557
G1 X40.22 Y31.67 Z1.8 F1800.0 E2444.268
G1 X37.87 Y34.61 Z1.8 F1800.0 E2448.977
G1 X35.11 Y37.17 Z1.8 F1800.0 E2453.688
G1 X32.0 Y39.29 Z1.8 F1800.0 E2458.398
G1 X28.61 Y40.92 Z1.8 F1800.0 E2463.107
G1 X25.01 Y42.03 Z1.8 F1800.0 E2467.818
G1 X21.28 Y42.6 Z1.8 F1800.0 E2472.528
G1 X17.52 Y42.6 Z1.8 F1800.0 E2477.237
G1 X13.8 Y42.03 Z1.8 F1800.0 E2481.947
G1 X10.2 Y40.92 Z1.8 F1800.0 E2486.656
G1 X6.81 Y39.29 Z1.8 F1800.0 E2491.367
G1 X3.7 Y37.17 Z1.8 F1800.0 E2496.076
G1 X0.94 Y34.61 Z1.8 F1800.0 E2500.786
G1 X-1.41 Y31.67 Z1.8 F1800.0 E2505.495
G1 X-3.29 Y28.41 Z1.8 F1800.0 E2510.206
G1 X-4.67 Y24.9 Z1.8 F1800.0 E2514.916
G1 X-5.51 Y21.23 Z1.8 F1800.0 E2519.626
G1 X-5.79 Y17.48 Z1.8 F1800.0 E2524.335
G1 X-5.51 Y13.72 Z1.8 F1800.0 E2529.046
G1 X-4.67 Y10.05 Z1.8 F1800.0 E2533.755
G1 X-3.29 Y6.55 Z1.8 F1800.0 E2538.465
G1 X-1.41 Y3.29 Z1.8 F1800.0 E2543.176
G1 X0.56 Y0.81 Z1.8 F1800.0 E2547.137
;M103
G1 X0.99 Y1.22 Z1.8 F3600.0
;M101
G1 X0.42 Y1.82 Z1.8 F1800.0 E2548.172
G1 X-1.75 Y4.9 Z1.8 F1800.0 E2552.887
G1 X-3.42 Y8.28 Z1.8 F1800.0 E2557.6
G1 X-4.56 Y11.87 Z1.8 F1800.0 E2562.313
G1 X-5.14 Y15.59 Z1.8 F1800.0 E2567.027
G1 X-5.14 Y19.36 Z1.8 F1800.0 E2571.739
G1 X-4.56 Y23.08 Z1.8 F1800.0 E2576.453
G1 X-3.42 Y26.68 Z1.8 F1800.0 E2581.168
G1 X-1.75 Y30.05 Z1.8 F1800.0 E2585.88
G1 X0.42 Y33.13 Z1.8 F1800.0 E2590.595
G1 X3.03 Y35.85 Z1.8 F1800.0 E2595.308
G1 X6.03 Y38.13 Z1.8 F1800.0 E2600.021
G1 X9.34 Y39.93 Z1.8 F1800.0 E2604.735
G1 X12.88 Y41.21 Z1.8 F1800.0 E2609.448
G1 X16.58 Y41.92 Z1.8 F1800.0 E2614.162
G1 X20.35 Y42.07 Z1.8 F1800.0 E2618.876
G1 X24.09 Y41.64 Z1.8 F1800.0 E2623.589
G1 X27.72 Y40.64 Z1.8 F1800.0 E2628.302
G1 X31.16 Y39.1 Z1.8 F1800.0 E2633.016
G1 X34.32 Y37.05 Z1.8 F1800.0 E2637.729
G1 X37.13 Y34.54 Z1.8 F1800.0 E2642.442
G1 X39.53 Y31.63 Z1.8 F1800.0 E2647.157
G1 X41.46 Y28.4 Z1.8 F1800.0 E2651.87
G1 X42.87 Y24.9 Z1.8 F1800.0 E2656.583
G1 X43.72 Y21.23 Z1.8 F1800.0 E2661.297
G1 X44.01 Y17.48 Z1.8 F1800.0 E2666.009
G1 X43.72 Y13.72 Z1.8 F1800.0 E2670.723
G1 X42.87 Y10.05 Z1.8 F1800.0 E2675.436
G1 X41.46 Y6.56 Z1.8 F1800.0 E2680.15
G1 X39.53 Y3.32 Z1.8 F1800.0 E2684.863
G1 X37.13 Y0.41 Z1.8 F1800.0 E2689.578
G1 X34.32 Y-2.1 Z1.8 F1800.0 E2694.291
G1 X31.16 Y-4.14 Z1.8 F1800.0 E2699.004
G1 X27.72 Y-5.69 Z1.8 F1800.0 E2703.717
G1 X24.09 Y-6.68 Z1.8 F1800.0 E2708.431
G1 X20.35 Y-7.12 Z1.8 F1800.0 E2713.144
G1 X16.58 Y-6.97 Z1.8 F1800.0 E2717.858
G1 X12.88 Y-6.26 Z1.8 F1800.0 E2722.571
G1 X9.34 Y-4.98 Z1.8 F1800.0 E2727.285
G1 X6.03 Y-3.18 Z1.8 F1800.0 E2731.998
G1 X3.03 Y-0.9 Z1.8 F1800.0 E2736.712
G1 X0.99 Y1.22 Z1.8 F1800.0 E2740.389
;M103
;M108 S50.04
;M108 S37.53
G1 X0.53 Y0.85 Z2.1 F3600.0
;M101
G1 X0.94 Y0.34 Z2.1 F1800.0 E2741.207
G1 X3.7 Y-2.22 Z2.1 F1800.0 E2745.918
G1 X6.81 Y-4.34 Z2.1 F1800.0 E2750.626
G1 X10.2 Y-5.97 Z2.1 F1800.0 E2755.337
G1 X13.8 Y-7.08 Z2.1 F1800.0 E2760.047
G1 X17.52 Y-7.64 Z2.1 F1800.0 E2764.757
G1 X21.28 Y-7.64 Z2.1 F1800.0 E2769.465
G1 X25.01 Y-7.08 Z2.1 F1800.0 E2774.175
G1 X28.61 Y-5.97 Z2.1 F1800.0 E2778.886
G1 X32.0 Y-4.34 Z2.1 F1800.0 E2783.596
G1 X35.11 Y-2.22 Z2.1 F1800.0 E2788.306
G1 X37.87 Y0.34 Z2.1 F1800.0 E2793.016
G1 X40.22 Y3.29 Z2.1 F1800.0 E2797.725
G1 X42.1 Y6.55 Z2.1 F1800.0 E2802.436
G1 X43.47 Y10.05 Z2.1 F1800.0 E2807.146
G1 X44.31 Y13.72 Z2.1 F1800.0 E2811.855
G1 X44.59 Y17.48 Z2.1 F1800.0 E2816.566
G1 X44.31 Y21.23 Z2.1 F1800.0 E2821.275
G1 X43.47 Y24.9 Z2.1 F1800.0 E2825.984
G1 X42.1 Y28.41 Z2.1 F1800.0 E2830.694
G1 X40.22 Y31.67 Z2.1 F1800.0 E2835.405
G1 X37.87 Y34.61 Z2.1 F1800.0 E2840.114
G1 X35.11 Y37.17 Z2.1 F1800.0 E2844.824
G1 X32.0 Y39.29 Z2.1 F1800.0 E2849.534
G1 X28.61 Y40.92 Z2.1 F1800.0 E2854.244
G1 X25.01 Y42.03 Z2.1 F1800.0 E2858.954
G1 X21.28 Y42.6 Z2.1 F1800.0 E2863.665
G1 X17.52 Y42.6 Z2.1 F1800.0 E2868.373
G1 X13.8 Y42.03 Z2.1 F1800.0 E2873.084
G1 X10.2 Y40.92 Z2.1 F1800.0 E2877.793
G1 X6.81 Y39.29 Z2.1 F1800.0 E2882.504
G1 X3.7 Y37.17 Z2.1 F1800.0 E2887.213
G1 X0.94 Y34.61 Z2.1 F1800.0 E2891.923
G1 X-1.41 Y31.67 Z2.1 F1800.0 E2896.632
G1 X-3.29 Y28.41 Z2.1 F1800.0 E2901.343
G1 X-4.67 Y24.9 Z2.1 F1800.0 E2906.053
G1 X-5.51 Y21.23 Z2.1 F1800.0 E2910.762
G1 X-5.79 Y17.48 Z2.1 F1800.0 E2915.472
G1 X-5.51 Y13.72 Z2.1 F1800.0 E2920.183
G1 X-4.67 Y10.05 Z2.1 F1800.0 E2924.892
G1 X-3.29 Y6.55 Z2.1 F1800.0 E2929.602
G1 X-1.41 Y3.29 Z2.1 F1800.0 E2934.313
G1 X0.53 Y0.85 Z2.1 F1800.0 E2938.204
;M103
G1 X0.95 Y1.26 Z2.1 F3600.0
;M101
G1 X0.42 Y1.82 Z2.1 F1800.0 E2939.171
G1 X-1.75 Y4.9 Z2.1 F1800.0 E2943.886
G1 X-3.42 Y8.28 Z2.1 F1800.0 E2948.599
G1 X-4.56 Y11.87 Z2.1 F1800.0 E2953.312
G1 X-5.14 Y15.59 Z2.1 F1800.0 E2958.026
G1 X-5.14 Y19.36 Z2.1 F1800.0 E2962.739
G1 X-4.56 Y23.08 Z2.1 F1800.0 E2967.453
G1 X-3.42 Y26.68 Z2.1 F1800.0 E2972.167
G1 X-1.75 Y30.05 Z2.1 F1800.0 E2976.879
G1 X0.42 Y33.13 Z2.1 F1800.0 E2981.594
G1 X3.03 Y35.85 Z2.1 F1800.0 E2986.307
G1 X6.03 Y38.13 Z2.1 F1800.0 E2991.02
G1 X9.34 Y39.93 Z2.1 F1800.0 E2995.734
G1 X12.88 Y41.21 Z2.1 F1800.0 E3000.447
G1 X16.58 Y41.92 Z2.1 F1800.0 E3005.161
G1 X20.35 Y42.07 Z2.1 F1800.0 E3009.875
G1 X24.09 Y41.64 Z2.1 F1800.0 E3014.588
G1 X27.72 Y40.64 Z2.1 F1800.0 E3019.302
G1 X31.16 Y39.1 Z2.1 F1800.0 E3024.015
G1 X34.32 Y37.05 Z2.1 F1800.0 E3028.728
G1 X37.13 Y34.54 Z2.1 F1800.0 E3033.442
G1 X39.53 Y31.63 Z2.1 F1800.0 E3038.156
G1 X41.46 Y28.4 Z2.1 F1800.0 E3042.869
G1 X42.87 Y24.9 Z2.1 F1800.0 E3047.582
G1 X43.72 Y21.23 Z2.1 F1800.0 E3052.296
G1 X44.01 Y17.48 Z2.1 F1800.0 E3057.009
G1 X43.72 Y13.72 Z2.1 F1800.0 E3061.722
G1 X42.87 Y10.05 Z2.1 F1800.0 E3066.435
G1 X41.46 Y6.56 Z2.1 F1800.0 E3071.149
G1 X39.53 Y3.32 Z2.1 F1800.0 E3075.863
G1 X37.13 Y0.41 Z2.1 F1800.0 E3080.577
G1 X34.32 Y-2.1 Z2.1 F1800.0 E3085.29
G1 X31.16 Y-4.14 Z2.1 F1800.0 E3090.003
G1 X27.72 Y-5.69 Z2.1 F1800.0 E3094.717
G1 X24.09 Y-6.68 Z2.1 F1800.0 E3099.43
G1 X20.35 Y-7.12 Z2.1 F1800.0 E3104.143
G1 X16.58 Y-6.97 Z2.1 F1800.0 E3108.857
G1 X12.88 Y-6.26 Z2.1 F1800.0 E3113.57
G1 X9.34 Y-4.98 Z2.1 F1800.0 E3118.284
G1 X6.03 Y-3.18 Z2.1 F1800.0 E3122.998
G1 X3.03 Y-0.9 Z2.1 F1800.0 E3127.712
G1 X0.95 Y1.26 Z2.1 F1800.0 E3131.457
;M103
;M108 S50.04
;M108 S37.53
G1 X0.5 Y0.9 Z2.4 F3600.0
;M101
G1 X0.94 Y0.34 Z2.4 F1800.0 E3132.343
G1 X3.7 Y-2.22 Z2.4 F1800.0 E3137.053
G1 X6.81 Y-4.34 Z2.4 F1800.0 E3141.762
G1 X10.2 Y-5.97 Z2.4 F1800.0 E3146.473
G1 X13.8 Y-7.08 Z2.4 F1800.0 E3151.182
G1 X17.52 Y-7.64 Z2.4 F1800.0 E3155.893
G1 X21.28 Y-7.64 Z2.4 F1800.0 E3160.601
G1 X25.01 Y-7.08 Z2.4 F1800.0 E3165.311
G1 X28.61 Y-5.97 Z2.4 F1800.0 E3170.022
G1 X32.0 Y-4.34 Z2.4 F1800.0 E3174.732
G1 X35.11 Y-2.22 Z2.4 F1800.0 E3179.441
G1 X37.87 Y0.34 Z2.4 F1800.0 E3184.152
G1 X40.22 Y3.29 Z2.4 F1800.0 E3188.861
G1 X42.1 Y6.55 Z2.4 F1800.0 E3193.572
G1 X43.47 Y10.05 Z2.4 F1800.0 E3198.282
G1 X44.31 Y13.72 Z2.4 F1800.0 E3202.991
G1 X44.59 Y17.48 Z2.4 F1800.0 E3207.701
G1 X44.31 Y21.23 Z2.4 F1800.0 E3212.411
G1 X43.47 Y24.9 Z2.4 F1800.0 E3217.12
G1 X42.1 Y28.41 Z2.4 F1800.0 E3221.83
G1 X40.22 Y31.67 Z2.4 F1800.0 E3226.541
G1 X37.87 Y34.61 Z2.4 F1800.0 E3231.25
G1 X35.11 Y37.17 Z2.4 F1800.0 E3235.96
G1 X32.0 Y39.29 Z2.4 F1800.0 E3240.67
G1 X28.61 Y40.92 Z2.4 F1800.0 E3245.38
G1 X25.01 Y42.03 Z2.4 F1800.0 E3250.09
G1 X21.28 Y42.6 Z2.4 F1800.0 E3254.801
G1 X17.52 Y42.6 Z2.4 F1800.0 E3259.509
G1 X13.8 Y42.03 Z2.4 F1800.0 E3264.22
G1 X10.2 Y40.92 Z2.4 F1800.0 E3268.929
G1 X6.81 Y39.29 Z2.4 F1800.0 E3273.64
G1 X3.7 Y37.17 Z2.4 F1800.0 E3278.349
G1 X0.94 Y34.61 Z2.4 F1800.0 E3283.059
G1 X-1.41 Y31.67 Z2.4 F1800.0 E3287.768
G1 X-3.29 Y28.41 Z2.4 F1800.0 E3292.479
G1 X-4.67 Y24.9 Z2.4 F1800.0 E3297.189
G1 X-5.51 Y21.23 Z2.4 F1800.0 E3301.898
G1 X-5.79 Y17.48 Z2.4 F1800.0 E3306.608
G1 X-5.51 Y13.72 Z2.4 F1800.0 E3311.318
G1 X-4.67 Y10.05 Z2.4 F1800.0 E3316.028
G1 X-3.29 Y6.55 Z2.4 F1800.0 E3320.738
G1 X-1.41 Y3.29 Z2.4 F1800.0 E3325.449
G1 X0.5 Y0.9 Z2.4 F1800.0 E3329.271
;M103
G1 X0.91 Y1.3 Z2.4 F3600.0
;M101
G1 X0.42 Y1.82 Z2.4 F1800.0 E3330.17
G1 X-1.75 Y4.9 Z2.4 F1800.0 E3334.885
G1 X-3.42 Y8.28 Z2.4 F1800.0 E3339.598
G1 X-4.56 Y11.87 Z2.4 F1800.0 E3344.311
G1 X-5.14 Y15.59 Z2.4 F1800.0 E3349.025
G1 X-5.14 Y19.36 Z2.4 F1800.0 E3353.738
G1 X-4.56 Y23.08 Z2.4 F1800.0 E3358.452
G1 X-3.42 Y26.68 Z2.4 F1800.0 E3363.166
G1 X-1.75 Y30.05 Z2.4 F1800.0 E3367.878
G1 X0.42 Y33.13 Z2.4 F1800.0 E3372.593
G1 X3.03 Y35.85 Z2.4 F1800.0 E3377.306
G1 X6.03 Y38.13 Z2.4 F1800.0 E3382.019
G1 X9.34 Y39.93 Z2.4 F1800.0 E3386.733
G1 X12.88 Y41.21 Z2.4 F1800.0 E3391.447
G1 X16.58 Y41.92 Z2.4 F1800.0 E3396.16
G1 X20.35 Y42.07 Z2.4 F1800.0 E3400.874
G1 X24.09 Y41.64 Z2.4 F1800.0 E3405.588
G1 X27.72 Y40.64 Z2.4 F1800.0 E3410.301
G1 X31.16 Y39.1 Z2.4 F1800.0 E3415.014
G1 X34.32 Y37.05 Z2.4 F1800.0 E3419.727
G1 X37.13 Y34.54 Z2.4 F1800.0 E3424.441
G1 X39.53 Y31.63 Z2.4 F1800.0 E3429.155
G1 X41.46 Y28.4 Z2.4 F1800.0 E3433.869
G1 X42.87 Y24.9 Z2.4 F1800.0 E3438.581
G1 X43.72 Y21.23 Z2.4 F1800.0 E3443.295
G1 X44.01 Y17.48 Z2.4 F1800.0 E3448.008
G1 X43.72 Y13.72 Z2.4 F1800.0 E3452.722
G1 X42.87 Y10.05 Z2.4 F1800.0 E3457.434
G1 X41.46 Y6.56 Z2.4 F1800.0 E3462.148
G1 X39.53 Y3.32 Z2.4 F1800.0 E3466.862
G1 X37.13 Y0.41 Z2.4 F1800.0 E3471.576
G1 X34.32 Y-2.1 Z2.4 F1800.0 E3476.289
G1 X31.16 Y-4.14 Z2.4 F1800.0 E3481.003
G1 X27.72 Y-5.69 Z2.4 F1800.0 E3485.716
G1 X24.09 Y-6.68 Z2.4 F1800.0 E3490.429
G1 X20.35 Y-7.12 Z2.4 F1800.0 E3495.143
G1 X16.58 Y-6.97 Z2.4 F1800.0 E3499.856
G1 X12.88 Y-6.26 Z2.4 F1800.0 E3504.57
G1 X9.34 Y-4.98 Z2.4 F1800.0 E3509.283
G1 X6.03 Y-3.18 Z2.4 F1800.0 E3513.997
G1 X3.03 Y-0.9 Z2.4 F1800.0 E3518.711
G1 X0.91 Y1.3 Z2.4 F1800.0 E3522.524
;M103
;M108 S50.04
;M108 S37.53
G1 X0.46 Y0.94 Z2.7 F3600.0
;M101
G1 X0.94 Y0.34 Z2.7 F1800.0 E3523.477
G1 X3.7 Y-2.22 Z2.7 F1800.0 E3528.188
G1 X6.81 Y-4.34 Z2.7 F1800.0 E3532.896
G1 X10.2 Y-5.97 Z2.7 F1800.0 E3537.607
G1 X13.8 Y-7.08 Z2.7 F1800.0 E3542.317
G1 X17.52 Y-7.64 Z2.7 F1800.0 E3547.027
G1 X21.28 Y-7.64 Z2.7 F1800.0 E3551.735
G1 X25.01 Y-7.08 Z2.7 F1800.0 E3556.446
G1 X28.61 Y-5.97 Z2.7 F1800.0 E3561.156
G1 X32.0 Y-4.34 Z2.7 F1800.0 E3565.866
G1 X35.11 Y-2.22 Z2.7 F1800.0 E3570.576
G1 X37.87 Y0.34 Z2.7 F1800.0 E3575.286
G1 X40.22 Y3.29 Z2.7 F1800.0 E3579.995
G1 X42.1 Y6.55 Z2.7 F1800.0 E3584.706
G1 X43.47 Y10.05 Z2.7 F1800.0 E3589.416
G1 X44.31 Y13.72 Z2.7 F1800.0 E3594.125
G1 X44.59 Y17.48 Z2.7 F1800.0 E3598.836
G1 X44.31 Y21.23 Z2.7 F1800.0 E3603.545
G1 X43.47 Y24.9 Z2.7 F1800.0 E3608.254
G1 X42.1 Y28.41 Z2.7 F1800.0 E3612.964
G1 X40.22 Y31.67 Z2.7 F1800.0 E3617.675
G1 X37.87 Y34.61 Z2.7 F1800.0 E3622.384
G1 X35.11 Y37.17 Z2.7 F1800.0 E3627.094
G1 X32.0 Y39.29 Z2.7 F1800.0 E3631.805
G1 X28.61 Y40.92 Z2.7 F1800.0 E3636.514
G1 X25.01 Y42.03 Z2.7 F1800.0 E3641.225
G1 X21.28 Y42.6 Z2.7 F1800.0 E3645.935
G1 X17.52 Y42.6 Z2.7 F1800.0 E3650.644
G1 X13.8 Y42.03 Z2.7 F1800.0 E3655.354
G1 X10.2 Y40.92 Z2.7 F1800.0 E3660.063
G1 X6.81 Y39.29 Z2.7 F1800.0 E3664.774
G1 X3.7 Y37.17 Z2.7 F1800.0 E3669.483
G1 X0.94 Y34.61 Z2.7 F1800.0 E3674.193
G1 X-1.41 Y31.67 Z2.7 F1800.0 E3678.902
G1 X-3.29 Y28.41 Z2.7 F1800.0 E3683.613
G1 X-4.67 Y24.9 Z2.7 F1800.0 E3688.323
G1 X-5.51 Y21.23 Z2.7 F1800.0 E3693.032
G1 X-5.79 Y17.48 Z2.7 F1800.0 E3697.742
G1 X-5.51 Y13.72 Z2.7 F1800.0 E3702.453
G1 X-4.67 Y10.05 Z2.7 F1800.0 E3707.162
G1 X-3.29 Y6.55 Z2.7 F1800.0 E3711.872
G1 X-1.41 Y3.29 Z2.7 F1800.0 E3716.583
G1 X0.46 Y0.94 Z2.7 F1800.0 E3720.338
;M103
G1 X0.88 Y1.34 Z2.7 F3600.0
;M101
G1 X0.42 Y1.82 Z2.7 F1800.0 E3721.17
G1 X-1.75 Y4.9 Z2.7 F1800.0 E3725.885
G1 X-3.42 Y8.28 Z2.7 F1800.0 E3730.598
G1 X-4.56 Y11.87 Z2.7 F1800.0 E3735.311
G1 X-5.14 Y15.59 Z2.7 F1800.0 E3740.025
G1 X-5.14 Y19.36 Z2.7 F1800.0 E3744.738
G1 X-4.56 Y23.08 Z2.7 F1800.0 E3749.452
G1 X-3.42 Y26.68 Z2.7 F1800.0 E3754.166
G1 X-1.75 Y30.05 Z2.7 F1800.0 E3758.878
G1 X0.42 Y33.13 Z2.7 F1800.0 E3763.593
G1 X3.03 Y35.85 Z2.7 F1800.0 E3768.306
G1 X6.03 Y38.13 Z2.7 F1800.0 E3773.019
G1 X9.34 Y39.93 Z2.7 F1800.0 E3777.733
G1 X12.88 Y41.21 Z2.7 F1800.0 E3782.447
G1 X16.58 Y41.92 Z2.7 F1800.0 E3787.161
G1 X20.35 Y42.07 Z2.7 F1800.0 E3791.874
G1 X24.09 Y41.64 Z2.7 F1800.0 E3796.588
G1 X27.72 Y40.64 Z2.7 F1800.0 E3801.301
G1 X31.16 Y39.1 Z2.7 F1800.0 E3806.014
G1 X34.32 Y37.05 Z2.7 F1800.0 E3810.727
G1 X37.13 Y34.54 Z2.7 F1800.0 E3815.441
G1 X39.53 Y31.63 Z2.7 F1800.0 E3820.155
G1 X41.46 Y28.4 Z2.7 F1800.0 E3824.869
G1 X42.87 Y24.9 Z2.7 F1800.0 E3829.581
G1 X43.72 Y21.23 Z2.7 F1800.0 E3834.295
G1 X44.01 Y17.48 Z2.7 F1800.0 E3839.008
G1 X43.72 Y13.72 Z2.7 F1800.0 E3843.722
G1 X42.87 Y10.05 Z2.7 F1800.0 E3848.435
G1 X41.46 Y6.56 Z2.7 F1800.0 E3853.148
G1 X39.53 Y3.32 Z2.7 F1800.0 E3857.862
G1 X37.13 Y0.41 Z2.7 F1800.0 E3862.576
G1 X34.32 Y-2.1 Z2.7 F1800.0 E3867.289
G1 X31.16 Y-4.14 Z2.7 F1800.0 E3872.003
G1 X27.72 Y-5.69 Z2.7 F1800.0 E3876.716
G1 X24.09 Y-6.68 Z2.7 F1800.0 E3881.429
G1 X20.35 Y-7.12 Z2.7 F1800.0 E3886.143
G1 X16.58 Y-6.97 Z2.7 F1800.0 E3890.856
G1 X12.88 Y-6.26 Z2.7 F1800.0 E3895.57
G1 X9.34 Y-4.98 Z2.7 F1800.0 E3900.283
G1 X6.03 Y-3.18 Z2.7 F1800.0 E3904.997
G1 X3.03 Y-0.9 Z2.7 F1800.0 E3909.711
G1 X0.88 Y1.34 Z2.7 F1800.0 E3913.591
;M103
;M108 S50.04
;M108 S37.53
G1 X0.43 Y0.98 Z3.0 F3600.0
;M101
G1 X0.94 Y0.34 Z3.0 F1800.0 E3914.612
G1 X3.7 Y-2.22 Z3.0 F1800.0 E3919.323
G1 X6.81 Y-4.34 Z3.0 F1800.0 E3924.031
G1 X10.2 Y-5.97 Z3.0 F1800.0 E3928.742
G1 X13.8 Y-7.08 Z3.0 F1800.0 E3933.452
G1 X17.52 Y-7.64 Z3.0 F1800.0 E3938.162
G1 X21.28 Y-7.64 Z3.0 F1800.0 E3942.87
G1 X25.01 Y-7.08 Z3.0 F1800.0 E3947.58
G1 X28.61 Y-5.97 Z3.0 F1800.0 E3952.291
G1 X32.0 Y-4.34 Z3.0 F1800.0 E3957.001
G1 X35.11 Y-2.22 Z3.0 F1800.0 E3961.711
G1 X37.87 Y0.34 Z3.0 F1800.0 E3966.421
G1 X40.22 Y3.29 Z3.0 F1800.0 E3971.13
G1 X42.1 Y6.55 Z3.0 F1800.0 E3975.841
G1 X43.47 Y10.05 Z3.0 F1800.0 E3980.551
G1 X44.31 Y13.72 Z3.0 F1800.0 E3985.26
G1 X44.59 Y17.48 Z3.0 F1800.0 E3989.97
G1 X44.31 Y21.23 Z3.0 F1800.0 E3994.68
G1 X43.47 Y24.9 Z3.0 F1800.0 E3999.389
G1 X42.1 Y28.41 Z3.0 F1800.0 E4004.099
G1 X40.22 Y31.67 Z3.0 F1800.0 E4008.81
G1 X37.87 Y34.61 Z3.0 F1800.0 E4013.519
G1 X35.11 Y37.17 Z3.0 F1800.0 E4018.229
G1 X32.0 Y39.29 Z3.0 F1800.0 E4022.939
G1 X28.61 Y40.92 Z3.0 F1800.0 E4027.649
G1 X25.01 Y42.03 Z3.0 F1800.0 E4032.359
G1 X21.28 Y42.6 Z3.0 F1800.0 E4037.07
G1 X17.52 Y42.6 Z3.0 F1800.0 E4041.778
G1 X13.8 Y42.03 Z3.0 F1800.0 E4046.489
G1 X10.2 Y40.92 Z3.0 F1800.0 E4051.198
G1 X6.81 Y39.29 Z3.0 F1800.0 E4055.909
G1 X3.7 Y37.17 Z3.0 F1800.0 E4060.618
G1 X0.94 Y34.61 Z3.0 F1800.0 E4065.328
G1 X-1.41 Y31.67 Z3.0 F1800.0 E4070.037
G1 X-3.29 Y28.41 Z3.0 F1800.0 E4074.748
G1 X-4.67 Y24.9 Z3.0 F1800.0 E4079.458
G1 X-5.51 Y21.23 Z3.0 F1800.0 E4084.167
G1 X-5.79 Y17.48 Z3.0 F1800.0 E4088.877
G1 X-5.51 Y13.72 Z3.0 F1800.0 E4093.588
G1 X-4.67 Y10.05 Z3.0 F1800.0 E4098.297
G1 X-3.29 Y6.55 Z3.0 F1800.0 E4103.007
G1 X-1.41 Y3.29 Z3.0 F1800.0 E4107.718
G1 X0.43 Y0.98 Z3.0 F1800.0 E4111.406
;M103
G1 X0.84 Y1.38 Z3.0 F3600.0
;M101
G1 X0.42 Y1.82 Z3.0 F1800.0 E4112.171
G1 X-1.75 Y4.9 Z3.0 F1800.0 E4116.886
G1 X-3.42 Y8.28 Z3.0 F1800.0 E4121.599
G1 X-4.56 Y11.87 Z3.0 F1800.0 E4126.312
G1 X-5.14 Y15.59 Z3.0 F1800.0 E4131.026
G1 X-5.14 Y19.36 Z3.0 F1800.0 E4135.739
G1 X-4.56 Y23.08 Z3.0 F1800.0 E4140.453
G1 X-3.42 Y26.68 Z3.0 F1800.0 E4145.167
G1 X-1.75 Y30.05 Z3.0 F1800.0 E4149.879
G1 X0.42 Y33.13 Z3.0 F1800.0 E4154.594
G1 X3.03 Y35.85 Z3.0 F1800.0 E4159.307
G1 X6.03 Y38.13 Z3.0 F1800.0 E4164.02
G1 X9.34 Y39.93 Z3.0 F1800.0 E4168.734
G1 X12.88 Y41.21 Z3.0 F1800.0 E4173.448
G1 X16.58 Y41.92 Z3.0 F1800.0 E4178.162
G1 X20.35 Y42.07 Z3.0 F1800.0 E4182.875
G1 X24.09 Y41.64 Z3.0 F1800.0 E4187.589
G1 X27.72 Y40.64 Z3.0 F1800.0 E4192.302
G1 X31.16 Y39.1 Z3.0 F1800.0 E4197.015
G1 X34.32 Y37.05 Z3.0 F1800.0 E4201.728
G1 X37.13 Y34.54 Z3.0 F1800.0 E4206.442
G1 X39.53 Y31.63 Z3.0 F1800.0 E4211.156
G1 X41.46 Y28.4 Z3.0 F1800.0 E4215.87
G1 X42.87 Y24.9 Z3.0 F1800.0 E4220.582
G1 X43.72 Y21.23 Z3.0 F1800.0 E4225.296
G1 X44.01 Y17.48 Z3.0 F1800.0 E4230.009
G1 X43.72 Y13.72 Z3.0 F1800.0 E4234.723
G1 X42.87 Y10.05 Z3.0 F1800.0 E4239.436
G1 X41.46 Y6.56 Z3.0 F1800.0 E4244.149
G1 X39.53 Y3.32 Z3.0 F1800.0 E4248.863
G1 X37.13 Y0.41 Z3.0 F1800.0 E4253.577
G1 X34.32 Y-2.1 Z3.0 F1800.0 E4258.29
G1 X31.16 Y-4.14 Z3.0 F1800.0 E4263.004
G1 X27.72 Y-5.69 Z3.0 F1800.0 E4267.717
G1 X24.09 Y-6.68 Z3.0 F1800.0 E4272.43
G1 X20.35 Y-7.12 Z3.0 F1800.0 E4277.144
G1 X16.58 Y-6.97 Z3.0 F1800.0 E4281.857
G1 X12.88 Y-6.26 Z3.0 F1800.0 E4286.571
G1 X9.34 Y-4.98 Z3.0 F1800.0 E4291.284
G1 X6.03 Y-3.18 Z3.0 F1800.0 E4295.998
G1 X3.03 Y-0.9 Z3.0 F1800.0 E4300.712
G1 X0.84 Y1.38 Z3.0 F1800.0 E4304.659
;M103
;M108 S50.04
;M108 S37.53
G1 X0.4 Y1.02 Z3.3 F3600.0
;M101
G1 X0.94 Y0.34 Z3.3 F1800.0 E4305.747
G1 X3.7 Y-2.22 Z3.3 F1800.0 E4310.457
G1 X6.81 Y-4.34 Z3.3 F1800.0 E4315.165
G1 X10.2 Y-5.97 Z3.3 F1800.0 E4319.876
G1 X13.8 Y-7.08 Z3.3 F1800.0 E4324.586
G1 X17.52 Y-7.64 Z3.3 F1800.0 E4329.296
G1 X21.28 Y-7.64 Z3.3 F1800.0 E4334.005
G1 X25.01 Y-7.08 Z3.3 F1800.0 E4338.715
G1 X28.61 Y-5.97 Z3.3 F1800.0 E4343.425
G1 X32.0 Y-4.34 Z3.3 F1800.0 E4348.135
G1 X35.11 Y-2.22 Z3.3 F1800.0 E4352.845
G1 X37.87 Y0.34 Z3.3 F1800.0 E4357.555
G1 X40.22 Y3.29 Z3.3 F1800.0 E4362.264
G1 X42.1 Y6.55 Z3.3 F1800.0 E4366.975
G1 X43.47 Y10.05 Z3.3 F1800.0 E4371.685
G1 X44.31 Y13.72 Z3.3 F1800.0 E4376.394
G1 X44.59 Y17.48 Z3.3 F1800.0 E4381.105
G1 X44.31 Y21.23 Z3.3 F1800.0 E4385.814
G1 X43.47 Y24.9 Z3.3 F1800.0 E4390.523
G1 X42.1 Y28.41 Z3.3 F1800.0 E4395.233
G1 X40.22 Y31.67 Z3.3 F1800.0 E4399.944
G1 X37.87 Y34.61 Z3.3 F1800.0 E4404.653
G1 X35.11 Y37.17 Z3.3 F1800.0 E4409.363
G1 X32.0 Y39.29 Z3.3 F1800.0 E4414.074
G1 X28.61 Y40.92 Z3.3 F1800.0 E4418.783
G1 X25.01 Y42.03 Z3.3 F1800.0 E4423.494
G1 X21.28 Y42.6 Z3.3 F1800.0 E4428.204
G1 X17.52 Y42.6 Z3.3 F1800.0 E4432.913
G1 X13.8 Y42.03 Z3.3 F1800.0 E4437.623
G1 X10.2 Y40.92 Z3.3 F1800.0 E4442.332
G1 X6.81 Y39.29 Z3.3 F1800.0 E4447.043
G1 X3.7 Y37.17 Z3.3 F1800.0 E4451.752
G1 X0.94 Y34.61 Z3.3 F1800.0 E4456.462
G1 X-1.41 Y31.67 Z3.3 F1800.0 E4461.171
G1 X-3.29 Y28.41 Z3.3 F1800.0 E4465.882
G1 X-4.67 Y24.9 Z3.3 F1800.0 E4470.592
G1 X-5.51 Y21.23 Z3.3 F1800.0 E4475.301
G1 X-5.79 Y17.48 Z3.3 F1800.0 E4480.011
G1 X-5.51 Y13.72 Z3.3 F1800.0 E4484.722
G1 X-4.67 Y10.05 Z3.3 F1800.0 E4489.431
G1 X-3.29 Y6.55 Z3.3 F1800.0 E4494.141
G1 X-1.41 Y3.29 Z3.3 F1800.0 E4498.852
G1 X0.4 Y1.02 Z3.3 F1800.0 E4502.473
;M103
G1 X0.8 Y1.42 Z3.3 F3600.0
;M101
G1 X0.42 Y1.82 Z3.3 F1800.0 E4503.171
G1 X-1.75 Y4.9 Z3.3 F1800.0 E4507.886
G1 X-3.42 Y8.28 Z3.3 F1800.0 E4512.599
G1 X-4.56 Y11.87 Z3.3 F1800.0 E4517.312
G1 X-5.14 Y15.59 Z3.3 F1800.0 E4522.026
G1 X-5.14 Y19.36 Z3.3 F1800.0 E4526.739
G1 X-4.56 Y23.08 Z3.3 F1800.0 E4531.453
G1 X-3.42 Y26.68 Z3.3 F1800.0 E4536.167
G1 X-1.75 Y30.05 Z3.3 F1800.0 E4540.879
G1 X0.42 Y33.13 Z3.3 F1800.0 E4545.594
G1 X3.03 Y35.85 Z3.3 F1800.0 E4550.307
G1 X6.03 Y38.13 Z3.3 F1800.0 E4555.02
G1 X9.34 Y39.93 Z3.3 F1800.0 E4559.735
G1 X12.88 Y41.21 Z3.3 F1800.0 E4564.448
G1 X16.58 Y41.92 Z3.3 F1800.0 E4569.162
G1 X20.35 Y42.07 Z3.3 F1800.0 E4573.875
G1 X24.09 Y41.64 Z3.3 F1800.0 E4578.589
G1 X27.72 Y40.64 Z3.3 F1800.0 E4583.302
G1 X31.16 Y39.1 Z3.3 F1800.0 E4588.015
G1 X34.32 Y37.05 Z3.3 F1800.0 E4592.728
G1 X37.13 Y34.54 Z3.3 F1800.0 E4597.442
G1 X39.53 Y31.63 Z3.3 F1800.0 E4602.156
G1 X41.46 Y28.4 Z3.3 F1800.0 E4606.87
G1 X42.87 Y24.9 Z3.3 F1800.0 E4611.582
G1 X43.72 Y21.23 Z3.3 F1800.0 E4616.296
G1 X44.01 Y17.48 Z3.3 F1800.0 E4621.009
G1 X43.72 Y13.72 Z3.3 F1800.0 E4625.723
G1 X42.87 Y10.05 Z3.3 F1800.0 E4630.436
G1 X41.46 Y6.56 Z3.3 F1800.0 E4635.149
G1 X39.53 Y3.32 Z3.3 F1800.0 E4639.863
G1 X37.13 Y0.41 Z3.3 F1800.0 E4644.577
G1 X34.32 Y-2.1 Z3.3 F1800.0 E4649.29
G1 X31.16 Y-4.14 Z3.3 F1800.0 E4654.004
G1 X27.72 Y-5.69 Z3.3 F1800.0 E4658.717
G1 X24.09 Y-6.68 Z3.3 F1800.0 E4663.43
G1 X20.35 Y-7.12 Z3.3 F1800.0 E4668.144
G1 X16.58 Y-6.97 Z3.3 F1800.0 E4672.857
G1 X12.88 Y-6.26 Z3.3 F1800.0 E4677.571
G1 X9.34 Y-4.98 Z3.3 F1800.0 E4682.284
G1 X6.03 Y-3.18 Z3.3 F1800.0 E4686.998
G1 X3.03 Y-0.9 Z3.3 F1800.0 E4691.712
G1 X0.8 Y1.42 Z3.3 F1800.0 E4695.726
;M103
;M108 S50.04
;M108 S37.53
G1 X0.36 Y1.06 Z3.6 F3600.0
;M101
G1 X0.94 Y0.34 Z3.6 F1800.0 E4696.88
G1 X3.7 Y-2.22 Z3.6 F1800.0 E4701.59
G1 X6.81 Y-4.34 Z3.6 F1800.0 E4706.298
G1 X10.2 Y-5.97 Z3.6 F1800.0 E4711.01
G1 X13.8 Y-7.08 Z3.6 F1800.0 E4715.719
G1 X17.52 Y-7.64 Z3.6 F1800.0 E4720.429
G1 X21.28 Y-7.64 Z3.6 F1800.0 E4725.138
G1 X25.01 Y-7.08 Z3.6 F1800.0 E4729.848
G1 X28.61 Y-5.97 Z3.6 F1800.0 E4734.558
G1 X32.0 Y-4.34 Z3.6 F1800.0 E4739.268
G1 X35.11 Y-2.22 Z3.6 F1800.0 E4743.978
G1 X37.87 Y0.34 Z3.6 F1800.0 E4748.688
G1 X40.22 Y3.29 Z3.6 F1800.0 E4753.397
G1 X42.1 Y6.55 Z3.6 F1800.0 E4758.108
G1 X43.47 Y10.05 Z3.6 F1800.0 E4762.818
G1 X44.31 Y13.72 Z3.6 F1800.0 E4767.527
G1 X44.59 Y17.48 Z3.6 F1800.0 E4772.238
G1 X44.31 Y21.23 Z3.6 F1800.0 E4776.947
G1 X43.47 Y24.9 Z3.6 F1800.0 E4781.656
G1 X42.1 Y28.41 Z3.6 F1800.0 E4786.366
G1 X40.22 Y31.67 Z3.6 F1800.0 E4791.077
G1 X37.87 Y34.61 Z3.6 F1800.0 E4795.786
G1 X35.11 Y37.17 Z3.6 F1800.0 E4800.496
G1 X32.0 Y39.29 Z3.6 F1800.0 E4805.207
G1 X28.61 Y40.92 Z3.6 F1800.0 E4809.916
G1 X25.01 Y42.03 Z3.6 F1800.0 E4814.627
G1 X21.28 Y42.6 Z3.6 F1800.0 E4819.337
G1 X17.52 Y42.6 Z3.6 F1800.0 E4824.046
G1 X13.8 Y42.03 Z3.6 F1800.0 E4828.756
G1 X10.2 Y40.92 Z3.6 F1800.0 E4833.465
G1 X6.81 Y39.29 Z3.6 F1800.0 E4838.176
G1 X3.7 Y37.17 Z3.6 F1800.0 E4842.885
G1 X0.94 Y34.61 Z3.6 F1800.0 E4847.595
G1 X-1.41 Y31.67 Z3.6 F1800.0 E4852.304
G1 X-3.29 Y28.41 Z3.6 F1800.0 E4857.015
G1 X-4.67 Y24.9 Z3.6 F1800.0 E4861.725
G1 X-5.51 Y21.23 Z3.6 F1800.0 E4866.435
G1 X-5.79 Y17.48 Z3.6 F1800.0 E4871.144
G1 X-5.51 Y13.72 Z3.6 F1800.0 E4875.855
G1 X-4.67 Y10.05 Z3.6 F1800.0 E4880.564
G1 X-3.29 Y6.55 Z3.6 F1800.0 E4885.274
G1 X-1.41 Y3.29 Z3.6 F1800.0 E4889.985
G1 X0.36 Y1.06 Z3.6 F1800.0 E4893.54
;M103
G1 X0.77 Y1.45 Z3.6 F3600.0
;M101
G1 X0.42 Y1.82 Z3.6 F1800.0 E4894.174
G1 X-1.75 Y4.9 Z3.6 F1800.0 E4898.889
G1 X-3.42 Y8.28 Z3.6 F1800.0 E4903.602
G1 X-4.56 Y11.87 Z3.6 F1800.0 E4908.315
G1 X-5.14 Y15.59 Z3.6 F1800.0 E4913.029
G1 X-5.14 Y19.36 Z3.6 F1800.0 E4917.742
G1 X-4.56 Y23.08 Z3.6 F1800.0 E4922.456
G1 X-3.42 Y26.68 Z3.6 F1800.0 E4927.17
G1 X-1.75 Y30.05 Z3.6 F1800.0 E4931.882
G1 X0.42 Y33.13 Z3.6 F1800.0 E4936.597
G1 X3.03 Y35.85 Z3.6 F1800.0 E4941.31
G1 X6.03 Y38.13 Z3.6 F1800.0 E4946.023
G1 X9.34 Y39.93 Z3.6 F1800.0 E4950.737
G1 X12.88 Y41.21 Z3.6 F1800.0 E4955.451
G1 X16.58 Y41.92 Z3.6 F1800.0 E4960.164
G1 X20.35 Y42.07 Z3.6 F1800.0 E4964.878
G1 X24.09 Y41.64 Z3.6 F1800.0 E4969.592
G1 X27.72 Y40.64 Z3.6 F1800.0 E4974.305
G1 X31.16 Y39.1 Z3.6 F1800.0 E4979.018
G1 X34.32 Y37.05 Z3.6 F1800.0 E4983.731
G1 X37.13 Y34.54 Z3.6 F1800.0 E4988.445
G1 X39.53 Y31.63 Z3.6 F1800.0 E4993.159
G1 X41.46 Y28.4 Z3.6 F1800.0 E4997.873
G1 X42.87 Y24.9 Z3.6 F1800.0 E5002.585
G1 X43.72 Y21.23 Z3.6 F1800.0 E5007.299
G1 X44.01 Y17.48 Z3.6 F1800.0 E5012.012
G1 X43.72 Y13.72 Z3.6 F1800.0 E5016.726
G1 X42.87 Y10.05 Z3.6 F1800.0 E5021.438
G1 X41.46 Y6.56 Z3.6 F1800.0 E5026.152
G1 X39.53 Y3.32 Z3.6 F1800.0 E5030.866
G1 X37.13 Y0.41 Z3.6 F1800.0 E5035.58
G1 X34.32 Y-2.1 Z3.6 F1800.0 E5040.293
G1 X31.16 Y-4.14 Z3.6 F1800.0 E5045.006
G1 X27.72 Y-5.69 Z3.6 F1800.0 E5049.72
G1 X24.09 Y-6.68 Z3.6 F1800.0 E5054.433
G1 X20.35 Y-7.12 Z3.6 F1800.0 E5059.147
G1 X16.58 Y-6.97 Z3.6 F1800.0 E5063.86
G1 X12.88 Y-6.26 Z3.6 F1800.0 E5068.574
G1 X9.34 Y-4.98 Z3.6 F1800.0 E5073.287
G1 X6.03 Y-3.18 Z3.6 F1800.0 E5078.001
G1 X3.03 Y-0.9 Z3.6 F1800.0 E5082.715
G1 X0.77 Y1.45 Z3.6 F1800.0 E5086.793
;M103
;M108 S50.04
;M108 S37.53
G1 X0.33 Y1.1 Z3.9 F3600.0
;M101
G1 X0.94 Y0.34 Z3.9 F1800.0 E5088.012
G1 X3.7 Y-2.22 Z3.9 F1800.0 E5092.722
G1 X6.81 Y-4.34 Z3.9 F1800.0 E5097.431
G1 X10.2 Y-5.97 Z3.9 F1800.0 E5102.142
G1 X13.8 Y-7.08 Z3.9 F1800.0 E5106.851
G1 X17.52 Y-7.64 Z3.9 F1800.0 E5111.561
G1 X21.28 Y-7.64 Z3.9 F1800.0 E5116.27
G1 X25.01 Y-7.08 Z3.9 F1800.0 E5120.98
G1 X28.61 Y-5.97 Z3.9 F1800.0 E5125.691
G1 X32.0 Y-4.34 Z3.9 F1800.0 E5130.401
G1 X35.11 Y-2.22 Z3.9 F1800.0 E5135.11
G1 X37.87 Y0.34 Z3.9 F1800.0 E5139.82
G1 X40.22 Y3.29 Z3.9 F1800.0 E5144.53
G1 X42.1 Y6.55 Z3.9 F1800.0 E5149.24
G1 X43.47 Y10.05 Z3.9 F1800.0 E5153.95
G1 X44.31 Y13.72 Z3.9 F1800.0 E5158.659
G1 X44.59 Y17.48 Z3.9 F1800.0 E5163.37
G1 X44.31 Y21.23 Z3.9 F1800.0 E5168.08
G1 X43.47 Y24.9 Z3.9 F1800.0 E5172.789
G1 X42.1 Y28.41 Z3.9 F1800.0 E5177.499
G1 X40.22 Y31.67 Z3.9 F1800.0 E5182.21
G1 X37.87 Y34.61 Z3.9 F1800.0 E5186.919
G1 X35.11 Y37.17 Z3.9 F1800.0 E5191.629
G1 X32.0 Y39.29 Z3.9 F1800.0 E5196.339
G1 X28.61 Y40.92 Z3.9 F1800.0 E5201.049
G1 X25.01 Y42.03 Z3.9 F1800.0 E5205.759
G1 X21.28 Y42.6 Z3.9 F1800.0 E5210.469
G1 X17.52 Y42.6 Z3.9 F1800.0 E5215.178
G1 X13.8 Y42.03 Z3.9 F1800.0 E5219.888
G1 X10.2 Y40.92 Z3.9 F1800.0 E5224.598
G1 X6.81 Y39.29 Z3.9 F1800.0 E5229.308
G1 X3.7 Y37.17 Z3.9 F1800.0 E5234.018
G1 X0.94 Y34.61 Z3.9 F1800.0 E5238.728
G1 X-1.41 Y31.67 Z3.9 F1800.0 E5243.437
G1 X-3.29 Y28.41 Z3.9 F1800.0 E5248.148
G1 X-4.67 Y24.9 Z3.9 F1800.0 E5252.858
G1 X-5.51 Y21.23 Z3.9 F1800.0 E5257.567
G1 X-5.79 Y17.48 Z3.9 F1800.0 E5262.277
G1 X-5.51 Y13.72 Z3.9 F1800.0 E5266.987
G1 X-4.67 Y10.05 Z3.9 F1800.0 E5271.697
G1 X-3.29 Y6.55 Z3.9 F1800.0 E5276.407
G1 X-1.41 Y3.29 Z3.9 F1800.0 E5281.117
G1 X0.33 Y1.1 Z3.9 F1800.0 E5284.608
;M103
G1 X0.73 Y1.49 Z3.9 F3600.0
;M101
G1 X0.42 Y1.82 Z3.9 F1800.0 E5285.176
G1 X-1.75 Y4.9 Z3.9 F1800.0 E5289.891
G1 X-3.42 Y8.28 Z3.9 F1800.0 E5294.604
G1 X-4.56 Y11.87 Z3.9 F1800.0 E5299.317
G1 X-5.14 Y15.59 Z3.9 F1800.0 E5304.031
G1 X-5.14 Y19.36 Z3.9 F1800.0 E5308.744
G1 X-4.56 Y23.08 Z3.9 F1800.0 E5313.457
G1 X-3.42 Y26.68 Z3.9 F1800.0 E5318.172
G1 X-1.75 Y30.05 Z3.9 F1800.0 E5322.884
G1 X0.42 Y33.13 Z3.9 F1800.0 E5327.599
G1 X3.03 Y35.85 Z3.9 F1800.0 E5332.312
G1 X6.03 Y38.13 Z3.9 F1800.0 E5337.025
G1 X9.34 Y39.93 Z3.9 F1800.0 E5341.739
G1 X12.88 Y41.21 Z3.9 F1800.0 E5346.452
G1 X16.58 Y41.92 Z3.9 F1800.0 E5351.166
G1 X20.35 Y42.07 Z3.9 F1800.0 E5355.88
G1 X24.09 Y41.64 Z3.9 F1800.0 E5360.593
G1 X27.72 Y40.64 Z3.9 F1800.0 E5365.307
G1 X31.16 Y39.1 Z3.9 F1800.0 E5370.02
G1 X34.32 Y37.05 Z3.9 F1800.0 E5374.733
G1 X37.13 Y34.54 Z3.9 F1800.0 E5379.447
G1 X39.53 Y31.63 Z3.9 F1800.0 E5384.161
G1 X41.46 Y28.4 Z3.9 F1800.0 E5388.874
G1 X42.87 Y24.9 Z3.9 F1800.0 E5393.587
G1 X43.72 Y21.23 Z3.9 F1800.0 E5398.301
G1 X44.01 Y17.48 Z3.9 F1800.0 E5403.014
G1 X43.72 Y13.72 Z3.9 F1800.0 E5407.727
G1 X42.87 Y10.05 Z3.9 F1800.0 E5412.44
G1 X41.46 Y6.56 Z3.9 F1800.0 E5417.154
G1 X39.53 Y3.32 Z3.9 F1800.0 E5421.867
G1 X37.13 Y0.41 Z3.9 F1800.0 E5426.582
G1 X34.32 Y-2.1 Z3.9 F1800.0 E5431.295
G1 X31.16 Y-4.14 Z3.9 F1800.0 E5436.008
G1 X27.72 Y-5.69 Z3.9 F1800.0 E5440.722
G1 X24.09 Y-6.68 Z3.9 F1800.0 E5445.435
G1 X20.35 Y-7.12 Z3.9 F1800.0 E5450.148
G1 X16.58 Y-6.97 Z3.9 F1800.0 E5454.862
G1 X12.88 Y-6.26 Z3.9 F1800.0 E5459.575
G1 X9.34 Y-4.98 Z3.9 F1800.0 E5464.289
G1 X6.03 Y-3.18 Z3.9 F1800.0 E5469.003
G1 X3.03 Y-0.9 Z3.9 F1800.0 E5473.716
G1 X0.73 Y1.49 Z3.9 F1800.0 E5477.861
;M103
;M108 S50.04
;M108 S37.53
G1 X0.3 Y1.14 Z4.2 F3600.0
;M101
G1 X0.94 Y0.34 Z4.2 F1800.0 E5479.144
G1 X3.7 Y-2.22 Z4.2 F1800.0 E5483.854
G1 X6.81 Y-4.34 Z4.2 F1800.0 E5488.563
G1 X10.2 Y-5.97 Z4.2 F1800.0 E5493.274
G1 X13.8 Y-7.08 Z4.2 F1800.0 E5497.983
G1 X17.52 Y-7.64 Z4.2 F1800.0 E5502.694
G1 X21.28 Y-7.64 Z4.2 F1800.0 E5507.402
G1 X25.01 Y-7.08 Z4.2 F1800.0 E5512.112
G1 X28.61 Y-5.97 Z4.2 F1800.0 E5516.823
G1 X32.0 Y-4.34 Z4.2 F1800.0 E5521.533
G1 X35.11 Y-2.22 Z4.2 F1800.0 E5526.242
G1 X37.87 Y0.34 Z4.2 F1800.0 E5530.953
G1 X40.22 Y3.29 Z4.2 F1800.0 E5535.662
G1 X42.1 Y6.55 Z4.2 F1800.0 E5540.372
G1 X43.47 Y10.05 Z4.2 F1800.0 E5545.083
G1 X44.31 Y13.72 Z4.2 F1800.0 E5549.792
G1 X44.59 Y17.48 Z4.2 F1800.0 E5554.502
G1 X44.31 Y21.23 Z4.2 F1800.0 E5559.212
G1 X43.47 Y24.9 Z4.2 F1800.0 E5563.921
G1 X42.1 Y28.41 Z4.2 F1800.0 E5568.631
G1 X40.22 Y31.67 Z4.2 F1800.0 E5573.342
G1 X37.87 Y34.61 Z4.2 F1800.0 E5578.051
G1 X35.11 Y37.17 Z4.2 F1800.0 E5582.761
G1 X32.0 Y39.29 Z4.2 F1800.0 E5587.471
G1 X28.61 Y40.92 Z4.2 F1800.0 E5592.181
G1 X25.01 Y42.03 Z4.2 F1800.0 E5596.891
G1 X21.28 Y42.6 Z4.2 F1800.0 E5601.602
G1 X17.52 Y42.6 Z4.2 F1800.0 E5606.31
G1 X13.8 Y42.03 Z4.2 F1800.0 E5611.021
G1 X10.2 Y40.92 Z4.2 F1800.0 E5615.73
G1 X6.81 Y39.29 Z4.2 F1800.0 E5620.44
G1 X3.7 Y37.17 Z4.2 F1800.0 E5625.15
G1 X0.94 Y34.61 Z4.2 F1800.0 E5629.86
G1 X-1.41 Y31.67 Z4.2 F1800.0 E5634.569
G1 X-3.29 Y28.41 Z4.2 F1800.0 E5639.28
G1 X-4.67 Y24.9 Z4.2 F1800.0 E5643.99
G1 X-5.51 Y21.23 Z4.2 F1800.0 E5648.699
G1 X-5.79 Y17.48 Z4.2 F1800.0 E5653.409
G1 X-5.51 Y13.72 Z4.2 F1800.0 E5658.119
G1 X-4.67 Y10.05 Z4.2 F1800.0 E5662.829
G1 X-3.29 Y6.55 Z4.2 F1800.0 E5667.539
G1 X-1.41 Y3.29 Z4.2 F1800.0 E5672.25
G1 X0.3 Y1.14 Z4.2 F1800.0 E5675.675
;M103
G1 X0.7 Y1.53 Z4.2 F3600.0
;M101
G1 X0.42 Y1.82 Z4.2 F1800.0 E5676.179
G1 X-1.75 Y4.9 Z4.2 F1800.0 E5680.894
G1 X-3.42 Y8.28 Z4.2 F1800.0 E5685.606
G1 X-4.56 Y11.87 Z4.2 F1800.0 E5690.32
G1 X-5.14 Y15.59 Z4.2 F1800.0 E5695.034
G1 X-5.14 Y19.36 Z4.2 F1800.0 E5699.746
G1 X-4.56 Y23.08 Z4.2 F1800.0 E5704.46
G1 X-3.42 Y26.68 Z4.2 F1800.0 E5709.175
G1 X-1.75 Y30.05 Z4.2 F1800.0 E5713.887
G1 X0.42 Y33.13 Z4.2 F1800.0 E5718.602
G1 X3.03 Y35.85 Z4.2 F1800.0 E5723.315
G1 X6.03 Y38.13 Z4.2 F1800.0 E5728.028
G1 X9.34 Y39.93 Z4.2 F1800.0 E5732.742
G1 X12.88 Y41.21 Z4.2 F1800.0 E5737.455
G1 X16.58 Y41.92 Z4.2 F1800.0 E5742.169
G1 X20.35 Y42.07 Z4.2 F1800.0 E5746.882
G1 X24.09 Y41.64 Z4.2 F1800.0 E5751.596
G1 X27.72 Y40.64 Z4.2 F1800.0 E5756.309
G1 X31.16 Y39.1 Z4.2 F1800.0 E5761.023
G1 X34.32 Y37.05 Z4.2 F1800.0 E5765.735
G1 X37.13 Y34.54 Z4.2 F1800.0 E5770.449
G1 X39.53 Y31.63 Z4.2 F1800.0 E5775.164
G1 X41.46 Y28.4 Z4.2 F1800.0 E5779.877
G1 X42.87 Y24.9 Z4.2 F1800.0 E5784.59
G1 X43.72 Y21.23 Z4.2 F1800.0 E5789.304
G1 X44.01 Y17.48 Z4.2 F1800.0 E5794.016
G1 X43.72 Y13.72 Z4.2 F1800.0 E5798.73
G1 X42.87 Y10.05 Z4.2 F1800.0 E5803.443
G1 X41.46 Y6.56 Z4.2 F1800.0 E5808.157
G1 X39.53 Y3.32 Z4.2 F1800.0 E5812.87
G1 X37.13 Y0.41 Z4.2 F1800.0 E5817.585
G1 X34.32 Y-2.1 Z4.2 F1800.0 E5822.297
G1 X31.16 Y-4.14 Z4.2 F1800.0 E5827.011
G1 X27.72 Y-5.69 Z4.2 F1800.0 E5831.724
G1 X24.09 Y-6.68 Z4.2 F1800.0 E5836.438
G1 X20.35 Y-7.12 Z4.2 F1800.0 E5841.151
G1 X16.58 Y-6.97 Z4.2 F1800.0 E5845.865
G1 X12.88 Y-6.26 Z4.2 F1800.0 E5850.578
G1 X9.34 Y-4.98 Z4.2 F1800.0 E5855.292
G1 X6.03 Y-3.18 Z4.2 F1800.0 E5860.005
G1 X3.03 Y-0.9 Z4.2 F1800.0 E5864.719
G1 X0.7 Y1.53 Z4.2 F1800.0 E5868.928
;M103
;M108 S50.04
;M108 S37.53
G1 X0.27 Y1.18 Z4.5 F3600.0
;M101
G1 X0.94 Y0.34 Z4.5 F1800.0 E5870.276
G1 X3.7 Y-2.22 Z4.5 F1800.0 E5874.986
G1 X6.81 Y-4.34 Z4.5 F1800.0 E5879.694
G1 X10.2 Y-5.97 Z4.5 F1800.0 E5884.406
G1 X13.8 Y-7.08 Z4.5 F1800.0 E5889.115
G1 X17.52 Y-7.64 Z4.5 F1800.0 E5893.825
G1 X21.28 Y-7.64 Z4.5 F1800.0 E5898.534
G1 X25.01 Y-7.08 Z4.5 F1800.0 E5903.244
G1 X28.61 Y-5.97 Z4.5 F1800.0 E5907.954
G1 X32.0 Y-4.34 Z4.5 F1800.0 E5912.664
G1 X35.11 Y-2.22 Z4.5 F1800.0 E5917.374
G1 X37.87 Y0.34 Z4.5 F1800.0 E5922.084
G1 X40.22 Y3.29 Z4.5 F1800.0 E5926.793
G1 X42.1 Y6.55 Z4.5 F1800.0 E5931.504
G1 X43.47 Y10.05 Z4.5 F1800.0 E5936.214
G1 X44.31 Y13.72 Z4.5 F1800.0 E5940.923
G1 X44.59 Y17.48 Z4.5 F1800.0 E5945.634
G1 X44.31 Y21.23 Z4.5 F1800.0 E5950.343
G1 X43.47 Y24.9 Z4.5 F1800.0 E5955.052
G1 X42.1 Y28.41 Z4.5 F1800.0 E5959.762
G1 X40.22 Y31.67 Z4.5 F1800.0 E5964.473
G1 X37.87 Y34.61 Z4.5 F1800.0 E5969.182
G1 X35.11 Y37.17 Z4.5 F1800.0 E5973.892
G1 X32.0 Y39.29 Z4.5 F1800.0 E5978.603
G1 X28.61 Y40.92 Z4.5 F1800.0 E5983.312
G1 X25.01 Y42.03 Z4.5 F1800.0 E5988.023
G1 X21.28 Y42.6 Z4.5 F1800.0 E5992.733
G1 X17.52 Y42.6 Z4.5 F1800.0 E5997.442
G1 X13.8 Y42.03 Z4.5 F1800.0 E6002.152
G1 X10.2 Y40.92 Z4.5 F1800.0 E6006.861
G1 X6.81 Y39.29 Z4.5 F1800.0 E6011.572
G1 X3.7 Y37.17 Z4.5 F1800.0 E6016.281
G1 X0.94 Y34.61 Z4.5 F1800.0 E6020.991
G1 X-1.41 Y31.67 Z4.5 F1800.0 E6025.7
G1 X-3.29 Y28.41 Z4.5 F1800.0 E6030.411
G1 X-4.67 Y24.9 Z4.5 F1800.0 E6035.121
G1 X-5.51 Y21.23 Z4.5 F1800.0 E6039.831
G1 X-5.79 Y17.48 Z4.5 F1800.0 E6044.54
G1 X-5.51 Y13.72 Z4.5 F1800.0 E6049.251
G1 X-4.67 Y10.05 Z4.5 F1800.0 E6053.96
G1 X-3.29 Y6.55 Z4.5 F1800.0 E6058.67
G1 X-1.41 Y3.29 Z4.5 F1800.0 E6063.381
G1 X0.27 Y1.18 Z4.5 F1800.0 E6066.742
;M103
G1 X0.66 Y1.56 Z4.5 F3600.0
;M101
G1 X0.42 Y1.82 Z4.5 F1800.0 E6067.182
G1 X-1.75 Y4.9 Z4.5 F1800.0 E6071.897
G1 X-3.42 Y8.28 Z4.5 F1800.0 E6076.61
G1 X-4.56 Y11.87 Z4.5 F1800.0 E6081.323
G1 X-5.14 Y15.59 Z4.5 F1800.0 E6086.037
G1 X-5.14 Y19.36 Z4.5 F1800.0 E6090.75
G1 X-4.56 Y23.08 Z4.5 F1800.0 E6095.464
G1 X-3.42 Y26.68 Z4.5 F1800.0 E6100.178
G1 X-1.75 Y30.05 Z4.5 F1800.0 E6104.89
G1 X0.42 Y33.13 Z4.5 F1800.0 E6109.605
G1 X3.03 Y35.85 Z4.5 F1800.0 E6114.318
G1 X6.03 Y38.13 Z4.5 F1800.0 E6119.031
G1 X9.34 Y39.93 Z4.5 F1800.0 E6123.745
G1 X12.88 Y41.21 Z4.5 F1800.0 E6128.459
G1 X16.58 Y41.92 Z4.5 F1800.0 E6133.173
G1 X20.35 Y42.07 Z4.5 F1800.0 E6137.886
G1 X24.09 Y41.64 Z4.5 F1800.0 E6142.6
G1 X27.72 Y40.64 Z4.5 F1800.0 E6147.313
G1 X31.16 Y39.1 Z4.5 F1800.0 E6152.026
G1 X34.32 Y37.05 Z4.5 F1800.0 E6156.739
G1 X37.13 Y34.54 Z4.5 F1800.0 E6161.453
G1 X39.53 Y31.63 Z4.5 F1800.0 E6166.167
G1 X41.46 Y28.4 Z4.5 F1800.0 E6170.881
G1 X42.87 Y24.9 Z4.5 F1800.0 E6175.593
G1 X43.72 Y21.23 Z4.5 F1800.0 E6180.307
G1 X44.01 Y17.48 Z4.5 F1800.0 E6185.02
G1 X43.72 Y13.72 Z4.5 F1800.0 E6189.734
G1 X42.87 Y10.05 Z4.5 F1800.0 E6194.447
G1 X41.46 Y6.56 Z4.5 F1800.0 E6199.16
G1 X39.53 Y3.32 Z4.5 F1800.0 E6203.874
G1 X37.13 Y0.41 Z4.5 F1800.0 E6208.588
G1 X34.32 Y-2.1 Z4.5 F1800.0 E6213.301
G1 X31.16 Y-4.14 Z4.5 F1800.0 E6218.015
G1 X27.72 Y-5.69 Z4.5 F1800.0 E6222.728
G1 X24.09 Y-6.68 Z4.5 F1800.0 E6227.441
G1 X20.35 Y-7.12 Z4.5 F1800.0 E6232.155
G1 X16.58 Y-6.97 Z4.5 F1800.0 E6236.868
G1 X12.88 Y-6.26 Z4.5 F1800.0 E6241.582
G1 X9.34 Y-4.98 Z4.5 F1800.0 E6246.295
G1 X6.03 Y-3.18 Z4.5 F1800.0 E6251.009
G1 X3.03 Y-0.9 Z4.5 F1800.0 E6255.723
G1 X0.66 Y1.56 Z4.5 F1800.0 E6259.995
;M103
;M108 S50.04
;M108 S37.53
G1 X0.23 Y1.22 Z4.8 F3600.0
;M101
G1 X0.94 Y0.34 Z4.8 F1800.0 E6261.406
G1 X3.7 Y-2.22 Z4.8 F1800.0 E6266.116
G1 X6.81 Y-4.34 Z4.8 F1800.0 E6270.825
G1 X10.2 Y-5.97 Z4.8 F1800.0 E6275.536
G1 X13.8 Y-7.08 Z4.8 F1800.0 E6280.245
G1 X17.52 Y-7.64 Z4.8 F1800.0 E6284.956
G1 X21.28 Y-7.64 Z4.8 F1800.0 E6289.664
G1 X25.01 Y-7.08 Z4.8 F1800.0 E6294.374
G1 X28.61 Y-5.97 Z4.8 F1800.0 E6299.085
G1 X32.0 Y-4.34 Z4.8 F1800.0 E6303.795
G1 X35.11 Y-2.22 Z4.8 F1800.0 E6308.504
G1 X37.87 Y0.34 Z4.8 F1800.0 E6313.215
G1 X40.22 Y3.29 Z4.8 F1800.0 E6317.924
G1 X42.1 Y6.55 Z4.8 F1800.0 E6322.635
G1 X43.47 Y10.05 Z4.8 F1800.0 E6327.345
G1 X44.31 Y13.72 Z4.8 F1800.0 E6332.054
G1 X44.59 Y17.48 Z4.8 F1800.0 E6336.764
G1 X44.31 Y21.23 Z4.8 F1800.0 E6341.474
G1 X43.47 Y24.9 Z4.8 F1800.0 E6346.183
G1 X42.1 Y28.41 Z4.8 F1800.0 E6350.893
G1 X40.22 Y31.67 Z4.8 F1800.0 E6355.604
G1 X37.87 Y34.61 Z4.8 F1800.0 E6360.313
G1 X35.11 Y37.17 Z4.8 F1800.0 E6365.023
G1 X32.0 Y39.29 Z4.8 F1800.0 E6369.733
G1 X28.61 Y40.92 Z4.8 F1800.0 E6374.443
G1 X25.01 Y42.03 Z4.8 F1800.0 E6379.153
G1 X21.28 Y42.6 Z4.8 F1800.0 E6383.864
G1 X17.52 Y42.6 Z4.8 F1800.0 E6388.572
G1 X13.8 Y42.03 Z4.8 F1800.0 E6393.283
G1 X10.2 Y40.92 Z4.8 F1800.0 E6397.992
G1 X6.81 Y39.29 Z4.8 F1800.0 E6402.703
G1 X3.7 Y37.17 Z4.8 F1800.0 E6407.412
G1 X0.94 Y34.61 Z4.8 F1800.0 E6412.122
G1 X-1.41 Y31.67 Z4.8 F1800.0 E6416.831
G1 X-3.29 Y28.41 Z4.8 F1800.0 E6421.542
G1 X-4.67 Y24.9 Z4.8 F1800.0 E6426.252
G1 X-5.51 Y21.23 Z4.8 F1800.0 E6430.961
G1 X-5.79 Y17.48 Z4.8 F1800.0 E6435.671
G1 X-5.51 Y13.72 Z4.8 F1800.0 E6440.381
G1 X-4.67 Y10.05 Z4.8 F1800.0 E6445.091
G1 X-3.29 Y6.55 Z4.8 F1800.0 E6449.801
G1 X-1.41 Y3.29 Z4.8 F1800.0 E6454.512
G1 X0.23 Y1.22 Z4.8 F1800.0 E6457.81
;M103
G1 X0.63 Y1.6 Z4.8 F3600.0
;M101
G1 X0.42 Y1.82 Z4.8 F1800.0 E6458.187
G1 X-1.75 Y4.9 Z4.8 F1800.0 E6462.902
G1 X-3.42 Y8.28 Z4.8 F1800.0 E6467.615
G1 X-4.56 Y11.87 Z4.8 F1800.0 E6472.328
G1 X-5.14 Y15.59 Z4.8 F1800.0 E6477.042
G1 X-5.14 Y19.36 Z4.8 F1800.0 E6481.754
G1 X-4.56 Y23.08 Z4.8 F1800.0 E6486.468
G1 X-3.42 Y26.68 Z4.8 F1800.0 E6491.183
G1 X-1.75 Y30.05 Z4.8 F1800.0 E6495.895
G1 X0.42 Y33.13 Z4.8 F1800.0 E6500.61
G1 X3.03 Y35.85 Z4.8 F1800.0 E6505.323
G1 X6.03 Y38.13 Z4.8 F1800.0 E6510.036
G1 X9.34 Y39.93 Z4.8 F1800.0 E6514.75
G1 X12.88 Y41.21 Z4.8 F1800.0 E6519.463
G1 X16.58 Y41.92 Z4.8 F1800.0 E6524.177
G1 X20.35 Y42.07 Z4.8 F1800.0 E6528.891
G1 X24.09 Y41.64 Z4.8 F1800.0 E6533.604
G1 X27.72 Y40.64 Z4.8 F1800.0 E6538.317
G1 X31.16 Y39.1 Z4.8 F1800.0 E6543.031
G1 X34.32 Y37.05 Z4.8 F1800.0 E6547.744
G1 X37.13 Y34.54 Z4.8 F1800.0 E6552.457
G1 X39.53 Y31.63 Z4.8 F1800.0 E6557.172
G1 X41.46 Y28.4 Z4.8 F1800.0 E6561.885
G1 X42.87 Y24.9 Z4.8 F1800.0 E6566.598
G1 X43.72 Y21.23 Z4.8 F1800.0 E6571.312
G1 X44.01 Y17.48 Z4.8 F1800.0 E6576.024
G1 X43.72 Y13.72 Z4.8 F1800.0 E6580.738
G1 X42.87 Y10.05 Z4.8 F1800.0 E6585.451
G1 X41.46 Y6.56 Z4.8 F1800.0 E6590.165
G1 X39.53 Y3.32 Z4.8 F1800.0 E6594.878
G1 X37.13 Y0.41 Z4.8 F1800.0 E6599.593
G1 X34.32 Y-2.1 Z4.8 F1800.0 E6604.306
G1 X31.16 Y-4.14 Z4.8 F1800.0 E6609.019
G1 X27.72 Y-5.69 Z4.8 F1800.0 E6613.732
G1 X24.09 Y-6.68 Z4.8 F1800.0 E6618.446
G1 X20.35 Y-7.12 Z4.8 F1800.0 E6623.159
G1 X16.58 Y-6.97 Z4.8 F1800.0 E6627.873
G1 X12.88 Y-6.26 Z4.8 F1800.0 E6632.586
G1 X9.34 Y-4.98 Z4.8 F1800.0 E6637.3
G1 X6.03 Y-3.18 Z4.8 F1800.0 E6642.013
G1 X3.03 Y-0.9 Z4.8 F1800.0 E6646.727
G1 X0.63 Y1.6 Z4.8 F1800.0 E6651.063
;M103
;M108 S50.04
;M108 S37.53
G1 X0.2 Y1.26 Z5.1 F3600.0
;M101
G1 X0.94 Y0.34 Z5.1 F1800.0 E6652.537
G1 X3.7 Y-2.22 Z5.1 F1800.0 E6657.247
G1 X6.81 Y-4.34 Z5.1 F1800.0 E6661.955
G1 X10.2 Y-5.97 Z5.1 F1800.0 E6666.667
G1 X13.8 Y-7.08 Z5.1 F1800.0 E6671.376
G1 X17.52 Y-7.64 Z5.1 F1800.0 E6676.086
G1 X21.28 Y-7.64 Z5.1 F1800.0 E6680.795
G1 X25.01 Y-7.08 Z5.1 F1800.0 E6685.505
G1 X28.61 Y-5.97 Z5.1 F1800.0 E6690.215
G1 X32.0 Y-4.34 Z5.1 F1800.0 E6694.925
G1 X35.11 Y-2.22 Z5.1 F1800.0 E6699.635
G1 X37.87 Y0.34 Z5.1 F1800.0 E6704.345
G1 X40.22 Y3.29 Z5.1 F1800.0 E6709.054
G1 X42.1 Y6.55 Z5.1 F1800.0 E6713.765
G1 X43.47 Y10.05 Z5.1 F1800.0 E6718.475
G1 X44.31 Y13.72 Z5.1 F1800.0 E6723.184
G1 X44.59 Y17.48 Z5.1 F1800.0 E6727.895
G1 X44.31 Y21.23 Z5.1 F1800.0 E6732.604
G1 X43.47 Y24.9 Z5.1 F1800.0 E6737.313
G1 X42.1 Y28.41 Z5.1 F1800.0 E6742.023
G1 X40.22 Y31.67 Z5.1 F1800.0 E6746.734
G1 X37.87 Y34.61 Z5.1 F1800.0 E6751.443
G1 X35.11 Y37.17 Z5.1 F1800.0 E6756.154
G1 X32.0 Y39.29 Z5.1 F1800.0 E6760.864
G1 X28.61 Y40.92 Z5.1 F1800.0 E6765.573
G1 X25.01 Y42.03 Z5.1 F1800.0 E6770.284
G1 X21.28 Y42.6 Z5.1 F1800.0 E6774.994
G1 X17.52 Y42.6 Z5.1 F1800.0 E6779.703
G1 X13.8 Y42.03 Z5.1 F1800.0 E6784.413
G1 X10.2 Y40.92 Z5.1 F1800.0 E6789.122
G1 X6.81 Y39.29 Z5.1 F1800.0 E6793.833
G1 X3.7 Y37.17 Z5.1 F1800.0 E6798.542
G1 X0.94 Y34.61 Z5.1 F1800.0 E6803.252
G1 X-1.41 Y31.67 Z5.1 F1800.0 E6807.961
G1 X-3.29 Y28.41 Z5.1 F1800.0 E6812.672
G1 X-4.67 Y24.9 Z5.1 F1800.0 E6817.382
G1 X-5.51 Y21.23 Z5.1 F1800.0 E6822.092
G1 X-5.79 Y17.48 Z5.1 F1800.0 E6826.801
G1 X-5.51 Y13.72 Z5.1 F1800.0 E6831.512
G1 X-4.67 Y10.05 Z5.1 F1800.0 E6836.221
G1 X-3.29 Y6.55 Z5.1 F1800.0 E6840.931
G1 X-1.41 Y3.29 Z5.1 F1800.0 E6845.642
G1 X0.2 Y1.26 Z5.1 F1800.0 E6848.877
;M103
G1 X0.59 Y1.64 Z5.1 F3600.0
;M101
G1 X0.42 Y1.82 Z5.1 F1800.0 E6849.191
G1 X-1.75 Y4.9 Z5.1 F1800.0 E6853.906
G1 X-3.42 Y8.28 Z5.1 F1800.0 E6858.619
G1 X-4.56 Y11.87 Z5.1 F1800.0 E6863.332
G1 X-5.14 Y15.59 Z5.1 F1800.0 E6868.046
G1 X-5.14 Y19.36 Z5.1 F1800.0 E6872.759
G1 X-4.56 Y23.08 Z5.1 F1800.0 E6877.473
G1 X-3.42 Y26.68 Z5.1 F1800.0 E6882.187
G1 X-1.75 Y30.05 Z5.1 F1800.0 E6886.899
G1 X0.42 Y33.13 Z5.1 F1800.0 E6891.614
G1 X3.03 Y35.85 Z5.1 F1800.0 E6896.327
G1 X6.03 Y38.13 Z5.1 F1800.0 E6901.04
G1 X9.34 Y39.93 Z5.1 F1800.0 E6905.755
G1 X12.88 Y41.21 Z5.1 F1800.0 E6910.468
G1 X16.58 Y41.92 Z5.1 F1800.0 E6915.182
G1 X20.35 Y42.07 Z5.1 F1800.0 E6919.895
G1 X24.09 Y41.64 Z5.1 F1800.0 E6924.609
G1 X27.72 Y40.64 Z5.1 F1800.0 E6929.322
G1 X31.16 Y39.1 Z5.1 F1800.0 E6934.035
G1 X34.32 Y37.05 Z5.1 F1800.0 E6938.748
G1 X37.13 Y34.54 Z5.1 F1800.0 E6943.462
G1 X39.53 Y31.63 Z5.1 F1800.0 E6948.176
G1 X41.46 Y28.4 Z5.1 F1800.0 E6952.89
G1 X42.87 Y24.9 Z5.1 F1800.0 E6957.602
G1 X43.72 Y21.23 Z5.1 F1800.0 E6962.316
G1 X44.01 Y17.48 Z5.1 F1800.0 E6967.029
G1 X43.72 Y13.72 Z5.1 F1800.0 E6971.743
G1 X42.87 Y10.05 Z5.1 F1800.0 E6976.456
G1 X41.46 Y6.56 Z5.1 F1800.0 E6981.169
G1 X39.53 Y3.32 Z5.1 F1800.0 E6985.883
G1 X37.13 Y0.41 Z5.1 F1800.0 E6990.597
G1 X34.32 Y-2.1 Z5.1 F1800.0 E6995.31
G1 X31.16 Y-4.14 Z5.1 F1800.0 E7000.024
G1 X27.72 Y-5.69 Z5.1 F1800.0 E7004.737
G1 X24.09 Y-6.68 Z5.1 F1800.0 E7009.45
G1 X20.35 Y-7.12 Z5.1 F1800.0 E7014.164
G1 X16.58 Y-6.97 Z5.1 F1800.0 E7018.877
G1 X12.88 Y-6.26 Z5.1 F1800.0 E7023.591
G1 X9.34 Y-4.98 Z5.1 F1800.0 E7028.304
G1 X6.03 Y-3.18 Z5.1 F1800.0 E7033.018
G1 X3.03 Y-0.9 Z5.1 F1800.0 E7037.732
G1 X0.59 Y1.64 Z5.1 F1800.0 E7042.13
;M103
;M108 S50.04
;M108 S37.53
G1 X0.17 Y1.3 Z5.4 F3600.0
;M101
G1 X0.94 Y0.34 Z5.4 F1800.0 E7043.666
G1 X3.7 Y-2.22 Z5.4 F1800.0 E7048.377
G1 X6.81 Y-4.34 Z5.4 F1800.0 E7053.085
G1 X10.2 Y-5.97 Z5.4 F1800.0 E7057.796
G1 X13.8 Y-7.08 Z5.4 F1800.0 E7062.506
G1 X17.52 Y-7.64 Z5.4 F1800.0 E7067.216
G1 X21.28 Y-7.64 Z5.4 F1800.0 E7071.924
G1 X25.01 Y-7.08 Z5.4 F1800.0 E7076.634
G1 X28.61 Y-5.97 Z5.4 F1800.0 E7081.345
G1 X32.0 Y-4.34 Z5.4 F1800.0 E7086.055
G1 X35.11 Y-2.22 Z5.4 F1800.0 E7090.765
G1 X37.87 Y0.34 Z5.4 F1800.0 E7095.475
G1 X40.22 Y3.29 Z5.4 F1800.0 E7100.184
G1 X42.1 Y6.55 Z5.4 F1800.0 E7104.895
G1 X43.47 Y10.05 Z5.4 F1800.0 E7109.605
G1 X44.31 Y13.72 Z5.4 F1800.0 E7114.314
G1 X44.59 Y17.48 Z5.4 F1800.0 E7119.024
G1 X44.31 Y21.23 Z5.4 F1800.0 E7123.734
G1 X43.47 Y24.9 Z5.4 F1800.0 E7128.443
G1 X42.1 Y28.41 Z5.4 F1800.0 E7133.153
G1 X40.22 Y31.67 Z5.4 F1800.0 E7137.864
G1 X37.87 Y34.61 Z5.4 F1800.0 E7142.573
G1 X35.11 Y37.17 Z5.4 F1800.0 E7147.283
G1 X32.0 Y39.29 Z5.4 F1800.0 E7151.993
G1 X28.61 Y40.92 Z5.4 F1800.0 E7156.703
G1 X25.01 Y42.03 Z5.4 F1800.0 E7161.413
G1 X21.28 Y42.6 Z5.4 F1800.0 E7166.124
G1 X17.52 Y42.6 Z5.4 F1800.0 E7170.832
G1 X13.8 Y42.03 Z5.4 F1800.0 E7175.543
G1 X10.2 Y40.92 Z5.4 F1800.0 E7180.252
G1 X6.81 Y39.29 Z5.4 F1800.0 E7184.963
G1 X3.7 Y37.17 Z5.4 F1800.0 E7189.672
G1 X0.94 Y34.61 Z5.4 F1800.0 E7194.382
G1 X-1.41 Y31.67 Z5.4 F1800.0 E7199.091
G1 X-3.29 Y28.41 Z5.4 F1800.0 E7203.802
G1 X-4.67 Y24.9 Z5.4 F1800.0 E7208.512
G1 X-5.51 Y21.23 Z5.4 F1800.0 E7213.221
G1 X-5.79 Y17.48 Z5.4 F1800.0 E7217.931
G1 X-5.51 Y13.72 Z5.4 F1800.0 E7222.642
G1 X-4.67 Y10.05 Z5.4 F1800.0 E7227.351
G1 X-3.29 Y6.55 Z5.4 F1800.0 E7232.061
G1 X-1.41 Y3.29 Z5.4 F1800.0 E7236.772
G1 X0.17 Y1.3 Z5.4 F1800.0 E7239.944
;M103
G1 X0.42 Y1.82 Z5.4 F3600.0
;M101
G1 X-1.75 Y4.9 Z5.4 F1800.0 E7244.659
G1 X-3.42 Y8.28 Z5.4 F1800.0 E7249.372
G1 X-4.56 Y11.87 Z5.4 F1800.0 E7254.086
G1 X-5.14 Y15.59 Z5.4 F1800.0 E7258.8
G1 X-5.14 Y19.36 Z5.4 F1800.0 E7263.512
G1 X-4.56 Y23.08 Z5.4 F1800.0 E7268.226
G1 X-3.42 Y26.68 Z5.4 F1800.0 E7272.941
G1 X-1.75 Y30.05 Z5.4 F1800.0 E7277.652
G1 X0.42 Y33.13 Z5.4 F1800.0 E7282.367
G1 X3.03 Y35.85 Z5.4 F1800.0 E7287.081
G1 X6.03 Y38.13 Z5.4 F1800.0 E7291.794
G1 X9.34 Y39.93 Z5.4 F1800.0 E7296.508
G1 X12.88 Y41.21 Z5.4 F1800.0 E7301.221
G1 X16.58 Y41.92 Z5.4 F1800.0 E7305.935
G1 X20.35 Y42.07 Z5.4 F1800.0 E7310.648
G1 X24.09 Y41.64 Z5.4 F1800.0 E7315.362
G1 X27.72 Y40.64 Z5.4 F1800.0 E7320.075
G1 X31.16 Y39.1 Z5.4 F1800.0 E7324.788
G1 X34.32 Y37.05 Z5.4 F1800.0 E7329.501
G1 X37.13 Y34.54 Z5.4 F1800.0 E7334.215
G1 X39.53 Y31.63 Z5.4 F1800.0 E7338.929
G1 X41.46 Y28.4 Z5.4 F1800.0 E7343.643
G1 X42.87 Y24.9 Z5.4 F1800.0 E7348.356
G1 X43.72 Y21.23 Z5.4 F1800.0 E7353.07
G1 X44.01 Y17.48 Z5.4 F1800.0 E7357.782
G1 X43.72 Y13.72 Z5.4 F1800.0 E7362.496
G1 X42.87 Y10.05 Z5.4 F1800.0 E7367.209
G1 X41.46 Y6.56 Z5.4 F1800.0 E7371.923
G1 X39.53 Y3.32 Z5.4 F1800.0 E7376.636
G1 X37.13 Y0.41 Z5.4 F1800.0 E7381.35
G1 X34.32 Y-2.1 Z5.4 F1800.0 E7386.063
G1 X31.16 Y-4.14 Z5.4 F1800.0 E7390.777
G1 X27.72 Y-5.69 Z5.4 F1800.0 E7395.49
G1 X24.09 Y-6.68 Z5.4 F1800.0 E7400.203
G1 X20.35 Y-7.12 Z5.4 F1800.0 E7404.917
G1 X16.58 Y-6.97 Z5.4 F1800.0 E7409.63
G1 X12.88 Y-6.26 Z5.4 F1800.0 E7414.344
G1 X9.34 Y-4.98 Z5.4 F1800.0 E7419.058
G1 X6.03 Y-3.18 Z5.4 F1800.0 E7423.771
G1 X3.03 Y-0.9 Z5.4 F1800.0 E7428.485
G1 X0.42 Y1.82 Z5.4 F1800.0 E7433.197
;M103
;M108 S50.04
;M108 S37.53
G1 X0.02 Y1.5 Z5.7 F3600.0
;M101
G1 X0.94 Y0.34 Z5.7 F1800.0 E7435.047
G1 X3.7 Y-2.22 Z5.7 F1800.0 E7439.757
G1 X6.81 Y-4.34 Z5.7 F1800.0 E7444.466
G1 X10.2 Y-5.97 Z5.7 F1800.0 E7449.177
G1 X13.8 Y-7.08 Z5.7 F1800.0 E7453.886
G1 X17.52 Y-7.64 Z5.7 F1800.0 E7458.596
G1 X21.28 Y-7.64 Z5.7 F1800.0 E7463.305
G1 X25.01 Y-7.08 Z5.7 F1800.0 E7468.015
G1 X28.61 Y-5.97 Z5.7 F1800.0 E7472.726
G1 X32.0 Y-4.34 Z5.7 F1800.0 E7477.436
G1 X35.11 Y-2.22 Z5.7 F1800.0 E7482.145
G1 X37.87 Y0.34 Z5.7 F1800.0 E7486.855
G1 X40.22 Y3.29 Z5.7 F1800.0 E7491.565
G1 X42.1 Y6.55 Z5.7 F1800.0 E7496.275
G1 X43.47 Y10.05 Z5.7 F1800.0 E7500.985
G1 X44.31 Y13.72 Z5.7 F1800.0 E7505.694
G1 X44.59 Y17.48 Z5.7 F1800.0 E7510.405
G1 X44.31 Y21.23 Z5.7 F1800.0 E7515.115
G1 X43.47 Y24.9 Z5.7 F1800.0 E7519.824
G1 X42.1 Y28.41 Z5.7 F1800.0 E7524.534
G1 X40.22 Y31.67 Z5.7 F1800.0 E7529.245
G1 X37.87 Y34.61 Z5.7 F1800.0 E7533.954
G1 X35.11 Y37.17 Z5.7 F1800.0 E7538.664
G1 X32.0 Y39.29 Z5.7 F1800.0 E7543.374
G1 X28.61 Y40.92 Z5.7 F1800.0 E7548.084
G1 X25.01 Y42.03 Z5.7 F1800.0 E7552.794
G1 X21.28 Y42.6 Z5.7 F1800.0 E7557.504
G1 X17.52 Y42.6 Z5.7 F1800.0 E7562.213
G1 X13.8 Y42.03 Z5.7 F1800.0 E7566.923
G1 X10.2 Y40.92 Z5.7 F1800.0 E7571.633
G1 X6.81 Y39.29 Z5.7 F1800.0 E7576.343
G1 X3.7 Y37.17 Z5.7 F1800.0 E7581.053
G1 X0.94 Y34.61 Z5.7 F1800.0 E7585.763
G1 X-1.41 Y31.67 Z5.7 F1800.0 E7590.472
G1 X-3.29 Y28.41 Z5.7 F1800.0 E7595.183
G1 X-4.67 Y24.9 Z5.7 F1800.0 E7599.893
G1 X-5.51 Y21.23 Z5.7 F1800.0 E7604.602
G1 X-5.79 Y17.48 Z5.7 F1800.0 E7609.312
G1 X-5.51 Y13.72 Z5.7 F1800.0 E7614.022
G1 X-4.67 Y10.05 Z5.7 F1800.0 E7618.732
G1 X-3.29 Y6.55 Z5.7 F1800.0 E7623.442
G1 X-1.41 Y3.29 Z5.7 F1800.0 E7628.152
G1 X0.02 Y1.5 Z5.7 F1800.0 E7631.012
;M103
G1 X0.42 Y1.82 Z5.7 F3600.0
;M101
G1 X-1.75 Y4.9 Z5.7 F1800.0 E7635.727
G1 X-3.42 Y8.28 Z5.7 F1800.0 E7640.44
G1 X-4.56 Y11.87 Z5.7 F1800.0 E7645.153
G1 X-5.14 Y15.59 Z5.7 F1800.0 E7649.867
G1 X-5.14 Y19.36 Z5.7 F1800.0 E7654.579
G1 X-4.56 Y23.08 Z5.7 F1800.0 E7659.293
G1 X-3.42 Y26.68 Z5.7 F1800.0 E7664.008
G1 X-1.75 Y30.05 Z5.7 F1800.0 E7668.72
G1 X0.42 Y33.13 Z5.7 F1800.0 E7673.435
G1 X3.03 Y35.85 Z5.7 F1800.0 E7678.148
G1 X6.03 Y38.13 Z5.7 F1800.0 E7682.861
G1 X9.34 Y39.93 Z5.7 F1800.0 E7687.575
G1 X12.88 Y41.21 Z5.7 F1800.0 E7692.288
G1 X16.58 Y41.92 Z5.7 F1800.0 E7697.002
G1 X20.35 Y42.07 Z5.7 F1800.0 E7701.716
G1 X24.09 Y41.64 Z5.7 F1800.0 E7706.429
G1 X27.72 Y40.64 Z5.7 F1800.0 E7711.143
G1 X31.16 Y39.1 Z5.7 F1800.0 E7715.856
G1 X34.32 Y37.05 Z5.7 F1800.0 E7720.569
G1 X37.13 Y34.54 Z5.7 F1800.0 E7725.282
G1 X39.53 Y31.63 Z5.7 F1800.0 E7729.997
G1 X41.46 Y28.4 Z5.7 F1800.0 E7734.71
G1 X42.87 Y24.9 Z5.7 F1800.0 E7739.423
G1 X43.72 Y21.23 Z5.7 F1800.0 E7744.137
G1 X44.01 Y17.48 Z5.7 F1800.0 E7748.85
G1 X43.72 Y13.72 Z5.7 F1800.0 E7753.563
G1 X42.87 Y10.05 Z5.7 F1800.0 E7758.276
G1 X41.46 Y6.56 Z5.7 F1800.0 E7762.99
G1 X39.53 Y3.32 Z5.7 F1800.0 E7767.703
G1 X37.13 Y0.41 Z5.7 F1800.0 E7772.418
G1 X34.32 Y-2.1 Z5.7 F1800.0 E7777.131
G1 X31.16 Y-4.14 Z5.7 F1800.0 E7781.844
G1 X27.72 Y-5.69 Z5.7 F1800.0 E7786.557
G1 X24.09 Y-6.68 Z5.7 F1800.0 E7791.271
G1 X20.35 Y-7.12 Z5.7 F1800.0 E7795.984
G1 X16.58 Y-6.97 Z5.7 F1800.0 E7800.698
G1 X12.88 Y-6.26 Z5.7 F1800.0 E7805.411
G1 X9.34 Y-4.98 Z5.7 F1800.0 E7810.125
G1 X6.03 Y-3.18 Z5.7 F1800.0 E7814.839
G1 X3.03 Y-0.9 Z5.7 F1800.0 E7819.552
G1 X0.42 Y1.82 Z5.7 F1800.0 E7824.265
;M103
;M108 S50.04
;M108 S37.53
G1 X0.02 Y1.5 Z6.0 F3600.0
;M101
G1 X0.94 Y0.34 Z6.0 F1800.0 E7826.114
G1 X3.7 Y-2.22 Z6.0 F1800.0 E7830.825
G1 X6.81 Y-4.34 Z6.0 F1800.0 E7835.533
G1 X10.2 Y-5.97 Z6.0 F1800.0 E7840.244
G1 X13.8 Y-7.08 Z6.0 F1800.0 E7844.954
G1 X17.52 Y-7.64 Z6.0 F1800.0 E7849.664
G1 X21.28 Y-7.64 Z6.0 F1800.0 E7854.372
G1 X25.01 Y-7.08 Z6.0 F1800.0 E7859.082
G1 X28.61 Y-5.97 Z6.0 F1800.0 E7863.793
G1 X32.0 Y-4.34 Z6.0 F1800.0 E7868.503
G1 X35.11 Y-2.22 Z6.0 F1800.0 E7873.213
G1 X37.87 Y0.34 Z6.0 F1800.0 E7877.923
G1 X40.22 Y3.29 Z6.0 F1800.0 E7882.632
G1 X42.1 Y6.55 Z6.0 F1800.0 E7887.343
G1 X43.47 Y10.05 Z6.0 F1800.0 E7892.053
G1 X44.31 Y13.72 Z6.0 F1800.0 E7896.762
G1 X44.59 Y17.48 Z6.0 F1800.0 E7901.473
G1 X44.31 Y21.23 Z6.0 F1800.0 E7906.182
G1 X43.47 Y24.9 Z6.0 F1800.0 E7910.891
G1 X42.1 Y28.41 Z6.0 F1800.0 E7915.601
G1 X40.22 Y31.67 Z6.0 F1800.0 E7920.312
G1 X37.87 Y34.61 Z6.0 F1800.0 E7925.021
G1 X35.11 Y37.17 Z6.0 F1800.0 E7929.731
G1 X32.0 Y39.29 Z6.0 F1800.0 E7934.442
G1 X28.61 Y40.92 Z6.0 F1800.0 E7939.151
G1 X25.01 Y42.03 Z6.0 F1800.0 E7943.861
G1 X21.28 Y42.6 Z6.0 F1800.0 E7948.572
G1 X17.52 Y42.6 Z6.0 F1800.0 E7953.28
G1 X13.8 Y42.03 Z6.0 F1800.0 E7957.991
G1 X10.2 Y40.92 Z6.0 F1800.0 E7962.7
G1 X6.81 Y39.29 Z6.0 F1800.0 E7967.411
G1 X3.7 Y37.17 Z6.0 F1800.0 E7972.12
G1 X0.94 Y34.61 Z6.0 F1800.0 E7976.83
G1 X-1.41 Y31.67 Z6.0 F1800.0 E7981.539
G1 X-3.29 Y28.41 Z6.0 F1800.0 E7986.25
G1 X-4.67 Y24.9 Z6.0 F1800.0 E7990.96
G1 X-5.51 Y21.23 Z6.0 F1800.0 E7995.669
G1 X-5.79 Y17.48 Z6.0 F1800.0 E8000.379
G1 X-5.51 Y13.72 Z6.0 F1800.0 E8005.09
G1 X-4.67 Y10.05 Z6.0 F1800.0 E8009.799
G1 X-3.29 Y6.55 Z6.0 F1800.0 E8014.509
G1 X-1.41 Y3.29 Z6.0 F1800.0 E8019.22
G1 X0.02 Y1.5 Z6.0 F1800.0 E8022.079
;M103
G1 X0.42 Y1.82 Z6.0 F3600.0
;M101
G1 X-1.75 Y4.9 Z6.0 F1800.0 E8026.794
G1 X-3.42 Y8.28 Z6.0 F1800.0 E8031.507
G1 X-4.56 Y11.87 Z6.0 F1800.0 E8036.22
G1 X-5.14 Y15.59 Z6.0 F1800.0 E8040.934
G1 X-5.14 Y19.36 Z6.0 F1800.0 E8045.647
G1 X-4.56 Y23.08 Z6.0 F1800.0 E8050.361
G1 X-3.42 Y26.68 Z6.0 F1800.0 E8055.075
G1 X-1.75 Y30.05 Z6.0 F1800.0 E8059.787
G1 X0.42 Y33.13 Z6.0 F1800.0 E8064.502
G1 X3.03 Y35.85 Z6.0 F1800.0 E8069.215
G1 X6.03 Y38.13 Z6.0 F1800.0 E8073.928
G1 X9.34 Y39.93 Z6.0 F1800.0 E8078.642
G1 X12.88 Y41.21 Z6.0 F1800.0 E8083.356
G1 X16.58 Y41.92 Z6.0 F1800.0 E8088.069
G1 X20.35 Y42.07 Z6.0 F1800.0 E8092.783
G1 X24.09 Y41.64 Z6.0 F1800.0 E8097.497
G1 X27.72 Y40.64 Z6.0 F1800.0 E8102.21
G1 X31.16 Y39.1 Z6.0 F1800.0 E8106.923
G1 X34.32 Y37.05 Z6.0 F1800.0 E8111.636
G1 X37.13 Y34.54 Z6.0 F1800.0 E8116.35
G1 X39.53 Y31.63 Z6.0 F1800.0 E8121.064
G1 X41.46 Y28.4 Z6.0 F1800.0 E8125.778
G1 X42.87 Y24.9 Z6.0 F1800.0 E8130.49
G1 X43.72 Y21.23 Z6.0 F1800.0 E8135.204
G1 X44.01 Y17.48 Z6.0 F1800.0 E8139.917
G1 X43.72 Y13.72 Z6.0 F1800.0 E8144.631
G1 X42.87 Y10.05 Z6.0 F1800.0 E8149.343
G1 X41.46 Y6.56 Z6.0 F1800.0 E8154.057
G1 X39.53 Y3.32 Z6.0 F1800.0 E8158.771
G1 X37.13 Y0.41 Z6.0 F1800.0 E8163.485
G1 X34.32 Y-2.1 Z6.0 F1800.0 E8168.198
G1 X31.16 Y-4.14 Z6.0 F1800.0 E8172.912
G1 X27.72 Y-5.69 Z6.0 F1800.0 E8177.625
G1 X24.09 Y-6.68 Z6.0 F1800.0 E8182.338
G1 X20.35 Y-7.12 Z6.0 F1800.0 E8187.052
G1 X16.58 Y-6.97 Z6.0 F1800.0 E8191.765
G1 X12.88 Y-6.26 Z6.0 F1800.0 E8196.479
G1 X9.34 Y-4.98 Z6.0 F1800.0 E8201.192
G1 X6.03 Y-3.18 Z6.0 F1800.0 E8205.906
G1 X3.03 Y-0.9 Z6.0 F1800.0 E8210.62
G1 X0.42 Y1.82 Z6.0 F1800.0 E8215.332
;M103
;M108 S50.04
;M108 S37.53
G1 X0.02 Y1.5 Z6.3 F3600.0
;M101
G1 X0.94 Y0.34 Z6.3 F1800.0 E8217.182
G1 X3.7 Y-2.22 Z6.3 F1800.0 E8221.892
G1 X6.81 Y-4.34 Z6.3 F1800.0 E8226.6
G1 X10.2 Y-5.97 Z6.3 F1800.0 E8231.312
G1 X13.8 Y-7.08 Z6.3 F1800.0 E8236.021
G1 X17.52 Y-7.64 Z6.3 F1800.0 E8240.731
G1 X21.28 Y-7.64 Z6.3 F1800.0 E8245.44
G1 X25.01 Y-7.08 Z6.3 F1800.0 E8250.15
G1 X28.61 Y-5.97 Z6.3 F1800.0 E8254.86
G1 X32.0 Y-4.34 Z6.3 F1800.0 E8259.57
G1 X35.11 Y-2.22 Z6.3 F1800.0 E8264.28
G1 X37.87 Y0.34 Z6.3 F1800.0 E8268.99
G1 X40.22 Y3.29 Z6.3 F1800.0 E8273.699
G1 X42.1 Y6.55 Z6.3 F1800.0 E8278.41
G1 X43.47 Y10.05 Z6.3 F1800.0 E8283.12
G1 X44.31 Y13.72 Z6.3 F1800.0 E8287.829
G1 X44.59 Y17.48 Z6.3 F1800.0 E8292.54
G1 X44.31 Y21.23 Z6.3 F1800.0 E8297.249
G1 X43.47 Y24.9 Z6.3 F1800.0 E8301.958
G1 X42.1 Y28.41 Z6.3 F1800.0 E8306.668
G1 X40.22 Y31.67 Z6.3 F1800.0 E8311.379
G1 X37.87 Y34.61 Z6.3 F1800.0 E8316.088
G1 X35.11 Y37.17 Z6.3 F1800.0 E8320.799
G1 X32.0 Y39.29 Z6.3 F1800.0 E8325.509
G1 X28.61 Y40.92 Z6.3 F1800.0 E8330.218
G1 X25.01 Y42.03 Z6.3 F1800.0 E8334.929
G1 X21.28 Y42.6 Z6.3 F1800.0 E8339.639
G1 X17.52 Y42.6 Z6.3 F1800.0 E8344.348
G1 X13.8 Y42.03 Z6.3 F1800.0 E8349.058
G1 X10.2 Y40.92 Z6.3 F1800.0 E8353.767
G1 X6.81 Y39.29 Z6.3 F1800.0 E8358.478
G1 X3.7 Y37.17 Z6.3 F1800.0 E8363.187
G1 X0.94 Y34.61 Z6.3 F1800.0 E8367.897
G1 X-1.41 Y31.67 Z6.3 F1800.0 E8372.607
G1 X-3.29 Y28.41 Z6.3 F1800.0 E8377.317
G1 X-4.67 Y24.9 Z6.3 F1800.0 E8382.027
G1 X-5.51 Y21.23 Z6.3 F1800.0 E8386.737
G1 X-5.79 Y17.48 Z6.3 F1800.0 E8391.446
G1 X-5.51 Y13.72 Z6.3 F1800.0 E8396.157
G1 X-4.67 Y10.05 Z6.3 F1800.0 E8400.866
G1 X-3.29 Y6.55 Z6.3 F1800.0 E8405.576
G1 X-1.41 Y3.29 Z6.3 F1800.0 E8410.287
G1 X0.02 Y1.5 Z6.3 F1800.0 E8413.146
;M103
G1 X0.42 Y1.82 Z6.3 F3600.0
;M101
G1 X-1.75 Y4.9 Z6.3 F1800.0 E8417.861
G1 X-3.42 Y8.28 Z6.3 F1800.0 E8422.574
G1 X-4.56 Y11.87 Z6.3 F1800.0 E8427.288
G1 X-5.14 Y15.59 Z6.3 F1800.0 E8432.002
G1 X-5.14 Y19.36 Z6.3 F1800.0 E8436.714
G1 X-4.56 Y23.08 Z6.3 F1800.0 E8441.428
G1 X-3.42 Y26.68 Z6.3 F1800.0 E8446.143
G1 X-1.75 Y30.05 Z6.3 F1800.0 E8450.854
G1 X0.42 Y33.13 Z6.3 F1800.0 E8455.569
G1 X3.03 Y35.85 Z6.3 F1800.0 E8460.283
G1 X6.03 Y38.13 Z6.3 F1800.0 E8464.996
G1 X9.34 Y39.93 Z6.3 F1800.0 E8469.71
G1 X12.88 Y41.21 Z6.3 F1800.0 E8474.423
G1 X16.58 Y41.92 Z6.3 F1800.0 E8479.137
G1 X20.35 Y42.07 Z6.3 F1800.0 E8483.85
G1 X24.09 Y41.64 Z6.3 F1800.0 E8488.564
G1 X27.72 Y40.64 Z6.3 F1800.0 E8493.277
G1 X31.16 Y39.1 Z6.3 F1800.0 E8497.99
G1 X34.32 Y37.05 Z6.3 F1800.0 E8502.703
G1 X37.13 Y34.54 Z6.3 F1800.0 E8507.417
G1 X39.53 Y31.63 Z6.3 F1800.0 E8512.131
G1 X41.46 Y28.4 Z6.3 F1800.0 E8516.845
G1 X42.87 Y24.9 Z6.3 F1800.0 E8521.558
G1 X43.72 Y21.23 Z6.3 F1800.0 E8526.272
G1 X44.01 Y17.48 Z6.3 F1800.0 E8530.984
G1 X43.72 Y13.72 Z6.3 F1800.0 E8535.698
G1 X42.87 Y10.05 Z6.3 F1800.0 E8540.411
G1 X41.46 Y6.56 Z6.3 F1800.0 E8545.125
G1 X39.53 Y3.32 Z6.3 F1800.0 E8549.838
G1 X37.13 Y0.41 Z6.3 F1800.0 E8554.552
G1 X34.32 Y-2.1 Z6.3 F1800.0 E8559.265
G1 X31.16 Y-4.14 Z6.3 F1800.0 E8563.979
G1 X27.72 Y-5.69 Z6.3 F1800.0 E8568.692
G1 X24.09 Y-6.68 Z6.3 F1800.0 E8573.405
G1 X20.35 Y-7.12 Z6.3 F1800.0 E8578.119
G1 X16.58 Y-6.97 Z6.3 F1800.0 E8582.832
G1 X12.88 Y-6.26 Z6.3 F1800.0 E8587.546
G1 X9.34 Y-4.98 Z6.3 F1800.0 E8592.26
G1 X6.03 Y-3.18 Z6.3 F1800.0 E8596.973
G1 X3.03 Y-0.9 Z6.3 F1800.0 E8601.687
G1 X0.42 Y1.82 Z6.3 F1800.0 E8606.399
;M103
;M108 S50.04
;M108 S37.53
G1 X0.02 Y1.5 Z6.6 F3600.0
;M101
G1 X0.94 Y0.34 Z6.6 F1800.0 E8608.249
G1 X3.7 Y-2.22 Z6.6 F1800.0 E8612.959
G1 X6.81 Y-4.34 Z6.6 F1800.0 E8617.668
G1 X10.2 Y-5.97 Z6.6 F1800.0 E8622.379
G1 X13.8 Y-7.08 Z6.6 F1800.0 E8627.088
G1 X17.52 Y-7.64 Z6.6 F1800.0 E8631.798
G1 X21.28 Y-7.64 Z6.6 F1800.0 E8636.507
G1 X25.01 Y-7.08 Z6.6 F1800.0 E8641.217
G1 X28.61 Y-5.97 Z6.6 F1800.0 E8645.928
G1 X32.0 Y-4.34 Z6.6 F1800.0 E8650.638
G1 X35.11 Y-2.22 Z6.6 F1800.0 E8655.347
G1 X37.87 Y0.34 Z6.6 F1800.0 E8660.057
G1 X40.22 Y3.29 Z6.6 F1800.0 E8664.767
G1 X42.1 Y6.55 Z6.6 F1800.0 E8669.477
G1 X43.47 Y10.05 Z6.6 F1800.0 E8674.187
G1 X44.31 Y13.72 Z6.6 F1800.0 E8678.896
G1 X44.59 Y17.48 Z6.6 F1800.0 E8683.607
G1 X44.31 Y21.23 Z6.6 F1800.0 E8688.317
G1 X43.47 Y24.9 Z6.6 F1800.0 E8693.026
G1 X42.1 Y28.41 Z6.6 F1800.0 E8697.736
G1 X40.22 Y31.67 Z6.6 F1800.0 E8702.447
G1 X37.87 Y34.61 Z6.6 F1800.0 E8707.156
G1 X35.11 Y37.17 Z6.6 F1800.0 E8711.866
G1 X32.0 Y39.29 Z6.6 F1800.0 E8716.576
G1 X28.61 Y40.92 Z6.6 F1800.0 E8721.286
G1 X25.01 Y42.03 Z6.6 F1800.0 E8725.996
G1 X21.28 Y42.6 Z6.6 F1800.0 E8730.706
G1 X17.52 Y42.6 Z6.6 F1800.0 E8735.415
G1 X13.8 Y42.03 Z6.6 F1800.0 E8740.125
G1 X10.2 Y40.92 Z6.6 F1800.0 E8744.835
G1 X6.81 Y39.29 Z6.6 F1800.0 E8749.545
G1 X3.7 Y37.17 Z6.6 F1800.0 E8754.255
G1 X0.94 Y34.61 Z6.6 F1800.0 E8758.965
G1 X-1.41 Y31.67 Z6.6 F1800.0 E8763.674
G1 X-3.29 Y28.41 Z6.6 F1800.0 E8768.385
G1 X-4.67 Y24.9 Z6.6 F1800.0 E8773.095
G1 X-5.51 Y21.23 Z6.6 F1800.0 E8777.804
G1 X-5.79 Y17.48 Z6.6 F1800.0 E8782.514
G1 X-5.51 Y13.72 Z6.6 F1800.0 E8787.224
G1 X-4.67 Y10.05 Z6.6 F1800.0 E8791.934
G1 X-3.29 Y6.55 Z6.6 F1800.0 E8796.644
G1 X-1.41 Y3.29 Z6.6 F1800.0 E8801.354
G1 X0.02 Y1.5 Z6.6 F1800.0 E8804.214
;M103
G1 X0.42 Y1.82 Z6.6 F3600.0
;M101
G1 X-1.75 Y4.9 Z6.6 F1800.0 E8808.929
G1 X-3.42 Y8.28 Z6.6 F1800.0 E8813.642
G1 X-4.56 Y11.87 Z6.6 F1800.0 E8818.355
G1 X-5.14 Y15.59 Z6.6 F1800.0 E8823.069
G1 X-5.14 Y19.36 Z6.6 F1800.0 E8827.781
G1 X-4.56 Y23.08 Z6.6 F1800.0 E8832.495
G1 X-3.42 Y26.68 Z6.6 F1800.0 E8837.21
G1 X-1.75 Y30.05 Z6.6 F1800.0 E8841.922
G1 X0.42 Y33.13 Z6.6 F1800.0 E8846.637
G1 X3.03 Y35.85 Z6.6 F1800.0 E8851.35
G1 X6.03 Y38.13 Z6.6 F1800.0 E8856.063
G1 X9.34 Y39.93 Z6.6 F1800.0 E8860.777
G1 X12.88 Y41.21 Z6.6 F1800.0 E8865.49
G1 X16.58 Y41.92 Z6.6 F1800.0 E8870.204
G1 X20.35 Y42.07 Z6.6 F1800.0 E8874.918
G1 X24.09 Y41.64 Z6.6 F1800.0 E8879.631
G1 X27.72 Y40.64 Z6.6 F1800.0 E8884.345
G1 X31.16 Y39.1 Z6.6 F1800.0 E8889.058
G1 X34.32 Y37.05 Z6.6 F1800.0 E8893.771
G1 X37.13 Y34.54 Z6.6 F1800.0 E8898.484
G1 X39.53 Y31.63 Z6.6 F1800.0 E8903.199
G1 X41.46 Y28.4 Z6.6 F1800.0 E8907.912
G1 X42.87 Y24.9 Z6.6 F1800.0 E8912.625
G1 X43.72 Y21.23 Z6.6 F1800.0 E8917.339
G1 X44.01 Y17.48 Z6.6 F1800.0 E8922.052
G1 X43.72 Y13.72 Z6.6 F1800.0 E8926.765
G1 X42.87 Y10.05 Z6.6 F1800.0 E8931.478
G1 X41.46 Y6.56 Z6.6 F1800.0 E8936.192
G1 X39.53 Y3.32 Z6.6 F1800.0 E8940.905
G1 X37.13 Y0.41 Z6.6 F1800.0 E8945.62
G1 X34.32 Y-2.1 Z6.6 F1800.0 E8950.333
G1 X31.16 Y-4.14 Z6.6 F1800.0 E8955.046
G1 X27.72 Y-5.69 Z6.6 F1800.0 E8959.759
G1 X24.09 Y-6.68 Z6.6 F1800.0 E8964.473
G1 X20.35 Y-7.12 Z6.6 F1800.0 E8969.186
G1 X16.58 Y-6.97 Z6.6 F1800.0 E8973.9
G1 X12.88 Y-6.26 Z6.6 F1800.0 E8978.613
G1 X9.34 Y-4.98 Z6.6 F1800.0 E8983.327
G1 X6.03 Y-3.18 Z6.6 F1800.0 E8988.04
G1 X3.03 Y-0.9 Z6.6 F1800.0 E8992.754
G1 X0.42 Y1.82 Z6.6 F1800.0 E8997.467
;M103
;M108 S50.04
;M108 S37.53
G1 X0.02 Y1.5 Z6.9 F3600.0
;M101
G1 X0.94 Y0.34 Z6.9 F1800.0 E8999.316
G1 X3.7 Y-2.22 Z6.9 F1800.0 E9004.027
G1 X6.81 Y-4.34 Z6.9 F1800.0 E9008.735
G1 X10.2 Y-5.97 Z6.9 F1800.0 E9013.446
G1 X13.8 Y-7.08 Z6.9 F1800.0 E9018.156
G1 X17.52 Y-7.64 Z6.9 F1800.0 E9022.866
G1 X21.28 Y-7.64 Z6.9 F1800.0 E9027.574
G1 X25.01 Y-7.08 Z6.9 F1800.0 E9032.284
G1 X28.61 Y-5.97 Z6.9 F1800.0 E9036.995
G1 X32.0 Y-4.34 Z6.9 F1800.0 E9041.705
G1 X35.11 Y-2.22 Z6.9 F1800.0 E9046.415
G1 X37.87 Y0.34 Z6.9 F1800.0 E9051.125
G1 X40.22 Y3.29 Z6.9 F1800.0 E9055.834
G1 X42.1 Y6.55 Z6.9 F1800.0 E9060.545
G1 X43.47 Y10.05 Z6.9 F1800.0 E9065.255
G1 X44.31 Y13.72 Z6.9 F1800.0 E9069.964
G1 X44.59 Y17.48 Z6.9 F1800.0 E9074.675
G1 X44.31 Y21.23 Z6.9 F1800.0 E9079.384
G1 X43.47 Y24.9 Z6.9 F1800.0 E9084.093
G1 X42.1 Y28.41 Z6.9 F1800.0 E9088.803
G1 X40.22 Y31.67 Z6.9 F1800.0 E9093.514
G1 X37.87 Y34.61 Z6.9 F1800.0 E9098.223
G1 X35.11 Y37.17 Z6.9 F1800.0 E9102.933
G1 X32.0 Y39.29 Z6.9 F1800.0 E9107.644
G1 X28.61 Y40.92 Z6.9 F1800.0 E9112.353
G1 X25.01 Y42.03 Z6.9 F1800.0 E9117.063
G1 X21.28 Y42.6 Z6.9 F1800.0 E9121.774
G1 X17.52 Y42.6 Z6.9 F1800.0 E9126.482
G1 X13.8 Y42.03 Z6.9 F1800.0 E9131.193
G1 X10.2 Y40.92 Z6.9 F1800.0 E9135.902
G1 X6.81 Y39.29 Z6.9 F1800.0 E9140.613
G1 X3.7 Y37.17 Z6.9 F1800.0 E9145.322
G1 X0.94 Y34.61 Z6.9 F1800.0 E9150.032
G1 X-1.41 Y31.67 Z6.9 F1800.0 E9154.741
G1 X-3.29 Y28.41 Z6.9 F1800.0 E9159.452
G1 X-4.67 Y24.9 Z6.9 F1800.0 E9164.162
G1 X-5.51 Y21.23 Z6.9 F1800.0 E9168.871
G1 X-5.79 Y17.48 Z6.9 F1800.0 E9173.581
G1 X-5.51 Y13.72 Z6.9 F1800.0 E9178.292
G1 X-4.67 Y10.05 Z6.9 F1800.0 E9183.001
G1 X-3.29 Y6.55 Z6.9 F1800.0 E9187.711
G1 X-1.41 Y3.29 Z6.9 F1800.0 E9192.422
G1 X0.02 Y1.5 Z6.9 F1800.0 E9195.281
;M103
G1 X0.42 Y1.82 Z6.9 F3600.0
;M101
G1 X-1.75 Y4.9 Z6.9 F1800.0 E9199.996
G1 X-3.42 Y8.28 Z6.9 F1800.0 E9204.709
G1 X-4.56 Y11.87 Z6.9 F1800.0 E9209.422
G1 X-5.14 Y15.59 Z6.9 F1800.0 E9214.136
G1 X-5.14 Y19.36 Z6.9 F1800.0 E9218.849
G1 X-4.56 Y23.08 Z6.9 F1800.0 E9223.563
G1 X-3.42 Y26.68 Z6.9 F1800.0 E9228.277
G1 X-1.75 Y30.05 Z6.9 F1800.0 E9232.989
G1 X0.42 Y33.13 Z6.9 F1800.0 E9237.704
G1 X3.03 Y35.85 Z6.9 F1800.0 E9242.417
G1 X6.03 Y38.13 Z6.9 F1800.0 E9247.13
G1 X9.34 Y39.93 Z6.9 F1800.0 E9251.844
G1 X12.88 Y41.21 Z6.9 F1800.0 E9256.558
G1 X16.58 Y41.92 Z6.9 F1800.0 E9261.271
G1 X20.35 Y42.07 Z6.9 F1800.0 E9265.985
G1 X24.09 Y41.64 Z6.9 F1800.0 E9270.699
G1 X27.72 Y40.64 Z6.9 F1800.0 E9275.412
G1 X31.16 Y39.1 Z6.9 F1800.0 E9280.125
G1 X34.32 Y37.05 Z6.9 F1800.0 E9284.838
G1 X37.13 Y34.54 Z6.9 F1800.0 E9289.552
G1 X39.53 Y31.63 Z6.9 F1800.0 E9294.266
G1 X41.46 Y28.4 Z6.9 F1800.0 E9298.98
G1 X42.87 Y24.9 Z6.9 F1800.0 E9303.692
G1 X43.72 Y21.23 Z6.9 F1800.0 E9308.406
G1 X44.01 Y17.48 Z6.9 F1800.0 E9313.119
G1 X43.72 Y13.72 Z6.9 F1800.0 E9317.833
G1 X42.87 Y10.05 Z6.9 F1800.0 E9322.545
G1 X41.46 Y6.56 Z6.9 F1800.0 E9327.259
G1 X39.53 Y3.32 Z6.9 F1800.0 E9331.973
G1 X37.13 Y0.41 Z6.9 F1800.0 E9336.687
G1 X34.32 Y-2.1 Z6.9 F1800.0 E9341.4
G1 X31.16 Y-4.14 Z6.9 F1800.0 E9346.114
G1 X27.72 Y-5.69 Z6.9 F1800.0 E9350.827
G1 X24.09 Y-6.68 Z6.9 F1800.0 E9355.54
G1 X20.35 Y-7.12 Z6.9 F1800.0 E9360.254
G1 X16.58 Y-6.97 Z6.9 F1800.0 E9364.967
G1 X12.88 Y-6.26 Z6.9 F1800.0 E9369.681
G1 X9.34 Y-4.98 Z6.9 F1800.0 E9374.394
G1 X6.03 Y-3.18 Z6.9 F1800.0 E9379.108
G1 X3.03 Y-0.9 Z6.9 F1800.0 E9383.822
G1 X0.42 Y1.82 Z6.9 F1800.0 E9388.534
;M103
;M108 S50.04
;M108 S37.53
G1 X0.02 Y1.5 Z7.2 F3600.0
;M101
G1 X0.94 Y0.34 Z7.2 F1800.0 E9390.384
G1 X3.7 Y-2.22 Z7.2 F1800.0 E9395.094
G1 X6.81 Y-4.34 Z7.2 F1800.0 E9399.802
G1 X10.2 Y-5.97 Z7.2 F1800.0 E9404.514
G1 X13.8 Y-7.08 Z7.2 F1800.0 E9409.223
G1 X17.52 Y-7.64 Z7.2 F1800.0 E9413.933
G1 X21.28 Y-7.64 Z7.2 F1800.0 E9418.642
G1 X25.01 Y-7.08 Z7.2 F1800.0 E9423.352
G1 X28.61 Y-5.97 Z7.2 F1800.0 E9428.062
G1 X32.0 Y-4.34 Z7.2 F1800.0 E9432.772
G1 X35.11 Y-2.22 Z7.2 F1800.0 E9437.482
G1 X37.87 Y0.34 Z7.2 F1800.0 E9442.192
G1 X40.22 Y3.29 Z7.2 F1800.0 E9446.901
G1 X42.1 Y6.55 Z7.2 F1800.0 E9451.612
G1 X43.47 Y10.05 Z7.2 F1800.0 E9456.322
G1 X44.31 Y13.72 Z7.2 F1800.0 E9461.031
G1 X44.59 Y17.48 Z7.2 F1800.0 E9465.742
G1 X44.31 Y21.23 Z7.2 F1800.0 E9470.451
G1 X43.47 Y24.9 Z7.2 F1800.0 E9475.16
G1 X42.1 Y28.41 Z7.2 F1800.0 E9479.87
G1 X40.22 Y31.67 Z7.2 F1800.0 E9484.581
G1 X37.87 Y34.61 Z7.2 F1800.0 E9489.29
G1 X35.11 Y37.17 Z7.2 F1800.0 E9494.001
G1 X32.0 Y39.29 Z7.2 F1800.0 E9498.711
G1 X28.61 Y40.92 Z7.2 F1800.0 E9503.42
G1 X25.01 Y42.03 Z7.2 F1800.0 E9508.131
G1 X21.28 Y42.6 Z7.2 F1800.0 E9512.841
G1 X17.52 Y42.6 Z7.2 F1800.0 E9517.55
G1 X13.8 Y42.03 Z7.2 F1800.0 E9522.26
G1 X10.2 Y40.92 Z7.2 F1800.0 E9526.969
G1 X6.81 Y39.29 Z7.2 F1800.0 E9531.68
G1 X3.7 Y37.17 Z7.2 F1800.0 E9536.389
G1 X0.94 Y34.61 Z7.2 F1800.0 E9541.099
G1 X-1.41 Y31.67 Z7.2 F1800.0 E9545.808
G1 X-3.29 Y28.41 Z7.2 F1800.0 E9550.519
G1 X-4.67 Y24.9 Z7.2 F1800.0 E9555.229
G1 X-5.51 Y21.23 Z7.2 F1800.0 E9559.939
G1 X-5.79 Y17.48 Z7.2 F1800.0 E9564.648
G1 X-5.51 Y13.72 Z7.2 F1800.0 E9569.359
G1 X-4.67 Y10.05 Z7.2 F1800.0 E9574.068
G1 X-3.29 Y6.55 Z7.2 F1800.0 E9578.778
G1 X-1.41 Y3.29 Z7.2 F1800.0 E9583.489
G1 X0.02 Y1.5 Z7.2 F1800.0 E9586.348
;M103
G1 X0.42 Y1.82 Z7.2 F3600.0
;M101
G1 X-1.75 Y4.9 Z7.2 F1800.0 E9591.063
G1 X-3.42 Y8.28 Z7.2 F1800.0 E9595.776
G1 X-4.56 Y11.87 Z7.2 F1800.0 E9600.49
G1 X-5.14 Y15.59 Z7.2 F1800.0 E9605.204
G1 X-5.14 Y19.36 Z7.2 F1800.0 E9609.916
G1 X-4.56 Y23.08 Z7.2 F1800.0 E9614.63
G1 X-3.42 Y26.68 Z7.2 F1800.0 E9619.345
G1 X-1.75 Y30.05 Z7.2 F1800.0 E9624.056
G1 X0.42 Y33.13 Z7.2 F1800.0 E9628.771
G1 X3.03 Y35.85 Z7.2 F1800.0 E9633.484
G1 X6.03 Y38.13 Z7.2 F1800.0 E9638.198
G1 X9.34 Y39.93 Z7.2 F1800.0 E9642.912
G1 X12.88 Y41.21 Z7.2 F1800.0 E9647.625
G1 X16.58 Y41.92 Z7.2 F1800.0 E9652.339
G1 X20.35 Y42.07 Z7.2 F1800.0 E9657.052
G1 X24.09 Y41.64 Z7.2 F1800.0 E9661.766
G1 X27.72 Y40.64 Z7.2 F1800.0 E9666.479
G1 X31.16 Y39.1 Z7.2 F1800.0 E9671.192
G1 X34.32 Y37.05 Z7.2 F1800.0 E9675.905
G1 X37.13 Y34.54 Z7.2 F1800.0 E9680.619
G1 X39.53 Y31.63 Z7.2 F1800.0 E9685.333
G1 X41.46 Y28.4 Z7.2 F1800.0 E9690.047
G1 X42.87 Y24.9 Z7.2 F1800.0 E9694.76
G1 X43.72 Y21.23 Z7.2 F1800.0 E9699.474
G1 X44.01 Y17.48 Z7.2 F1800.0 E9704.186
G1 X43.72 Y13.72 Z7.2 F1800.0 E9708.9
G1 X42.87 Y10.05 Z7.2 F1800.0 E9713.613
G1 X41.46 Y6.56 Z7.2 F1800.0 E9718.326
G1 X39.53 Y3.32 Z7.2 F1800.0 E9723.04
G1 X37.13 Y0.41 Z7.2 F1800.0 E9727.754
G1 X34.32 Y-2.1 Z7.2 F1800.0 E9732.467
G1 X31.16 Y-4.14 Z7.2 F1800.0 E9737.181
G1 X27.72 Y-5.69 Z7.2 F1800.0 E9741.894
G1 X24.09 Y-6.68 Z7.2 F1800.0 E9746.607
G1 X20.35 Y-7.12 Z7.2 F1800.0 E9751.321
G1 X16.58 Y-6.97 Z7.2 F1800.0 E9756.034
G1 X12.88 Y-6.26 Z7.2 F1800.0 E9760.748
G1 X9.34 Y-4.98 Z7.2 F1800.0 E9765.462
G1 X6.03 Y-3.18 Z7.2 F1800.0 E9770.175
G1 X3.03 Y-0.9 Z7.2 F1800.0 E9774.889
G1 X0.42 Y1.82 Z7.2 F1800.0 E9779.601
;M103
;M108 S50.04
;M108 S37.53
G1 X0.02 Y1.5 Z7.5 F3600.0
;M101
G1 X0.94 Y0.34 Z7.5 F1800.0 E9781.451
G1 X3.7 Y-2.22 Z7.5 F1800.0 E9786.161
G1 X6.81 Y-4.34 Z7.5 F1800.0 E9790.87
G1 X10.2 Y-5.97 Z7.5 F1800.0 E9795.581
G1 X13.8 Y-7.08 Z7.5 F1800.0 E9800.29
G1 X17.52 Y-7.64 Z7.5 F1800.0 E9805.0
G1 X21.28 Y-7.64 Z7.5 F1800.0 E9809.709
G1 X25.01 Y-7.08 Z7.5 F1800.0 E9814.419
G1 X28.61 Y-5.97 Z7.5 F1800.0 E9819.13
G1 X32.0 Y-4.34 Z7.5 F1800.0 E9823.84
G1 X35.11 Y-2.22 Z7.5 F1800.0 E9828.549
G1 X37.87 Y0.34 Z7.5 F1800.0 E9833.259
G1 X40.22 Y3.29 Z7.5 F1800.0 E9837.969
G1 X42.1 Y6.55 Z7.5 F1800.0 E9842.679
G1 X43.47 Y10.05 Z7.5 F1800.0 E9847.389
G1 X44.31 Y13.72 Z7.5 F1800.0 E9852.098
G1 X44.59 Y17.48 Z7.5 F1800.0 E9856.809
G1 X44.31 Y21.23 Z7.5 F1800.0 E9861.519
G1 X43.47 Y24.9 Z7.5 F1800.0 E9866.228
G1 X42.1 Y28.41 Z7.5 F1800.0 E9870.938
G1 X40.22 Y31.67 Z7.5 F1800.0 E9875.649
G1 X37.87 Y34.61 Z7.5 F1800.0 E9880.358
G1 X35.11 Y37.17 Z7.5 F1800.0 E9885.068
G1 X32.0 Y39.29 Z7.5 F1800.0 E9889.778
G1 X28.61 Y40.92 Z7.5 F1800.0 E9894.488
G1 X25.01 Y42.03 Z7.5 F1800.0 E9899.198
G1 X21.28 Y42.6 Z7.5 F1800.0 E9903.908
G1 X17.52 Y42.6 Z7.5 F1800.0 E9908.617
G1 X13.8 Y42.03 Z7.5 F1800.0 E9913.327
G1 X10.2 Y40.92 Z7.5 F1800.0 E9918.037
G1 X6.81 Y39.29 Z7.5 F1800.0 E9922.747
G1 X3.7 Y37.17 Z7.5 F1800.0 E9927.457
G1 X0.94 Y34.61 Z7.5 F1800.0 E9932.167
G1 X-1.41 Y31.67 Z7.5 F1800.0 E9936.876
G1 X-3.29 Y28.41 Z7.5 F1800.0 E9941.587
G1 X-4.67 Y24.9 Z7.5 F1800.0 E9946.297
G1 X-5.51 Y21.23 Z7.5 F1800.0 E9951.006
G1 X-5.79 Y17.48 Z7.5 F1800.0 E9955.716
G1 X-5.51 Y13.72 Z7.5 F1800.0 E9960.426
G1 X-4.67 Y10.05 Z7.5 F1800.0 E9965.136
G1 X-3.29 Y6.55 Z7.5 F1800.0 E9969.846
G1 X-1.41 Y3.29 Z7.5 F1800.0 E9974.556
G1 X0.02 Y1.5 Z7.5 F1800.0 E9977.416
;M103
G1 X0.42 Y1.82 Z7.5 F3600.0
;M101
G1 X-1.75 Y4.9 Z7.5 F1800.0 E9982.131
G1 X-3.42 Y8.28 Z7.5 F1800.0 E9986.844
G1 X-4.56 Y11.87 Z7.5 F1800.0 E9991.557
G1 X-5.14 Y15.59 Z7.5 F1800.0 E9996.271
G1 X-5.14 Y19.36 Z7.5 F1800.0 E10000.983
G1 X-4.56 Y23.08 Z7.5 F1800.0 E10005.697
G1 X-3.42 Y26.68 Z7.5 F1800.0 E10010.412
G1 X-1.75 Y30.05 Z7.5 F1800.0 E10015.124
G1 X0.42 Y33.13 Z7.5 F1800.0 E10019.839
G1 X3.03 Y35.85 Z7.5 F1800.0 E10024.552
G1 X6.03 Y38.13 Z7.5 F1800.0 E10029.265
G1 X9.34 Y39.93 Z7.5 F1800.0 E10033.979
G1 X12.88 Y41.21 Z7.5 F1800.0 E10038.692
G1 X16.58 Y41.92 Z7.5 F1800.0 E10043.406
G1 X20.35 Y42.07 Z7.5 F1800.0 E10048.12
G1 X24.09 Y41.64 Z7.5 F1800.0 E10052.833
G1 X27.72 Y40.64 Z7.5 F1800.0 E10057.547
G1 X31.16 Y39.1 Z7.5 F1800.0 E10062.26
G1 X34.32 Y37.05 Z7.5 F1800.0 E10066.973
G1 X37.13 Y34.54 Z7.5 F1800.0 E10071.686
G1 X39.53 Y31.63 Z7.5 F1800.0 E10076.401
G1 X41.46 Y28.4 Z7.5 F1800.0 E10081.114
G1 X42.87 Y24.9 Z7.5 F1800.0 E10085.827
G1 X43.72 Y21.23 Z7.5 F1800.0 E10090.541
G1 X44.01 Y17.48 Z7.5 F1800.0 E10095.253
G1 X43.72 Y13.72 Z7.5 F1800.0 E10099.967
G1 X42.87 Y10.05 Z7.5 F1800.0 E10104.68
G1 X41.46 Y6.56 Z7.5 F1800.0 E10109.394
G1 X39.53 Y3.32 Z7.5 F1800.0 E10114.107
G1 X37.13 Y0.41 Z7.5 F1800.0 E10118.822
G1 X34.32 Y-2.1 Z7.5 F1800.0 E10123.535
G1 X31.16 Y-4.14 Z7.5 F1800.0 E10128.248
G1 X27.72 Y-5.69 Z7.5 F1800.0 E10132.961
G1 X24.09 Y-6.68 Z7.5 F1800.0 E10137.675
G1 X20.35 Y-7.12 Z7.5 F1800.0 E10142.388
G1 X16.58 Y-6.97 Z7.5 F1800.0 E10147.102
G1 X12.88 Y-6.26 Z7.5 F1800.0 E10151.815
G1 X9.34 Y-4.98 Z7.5 F1800.0 E10156.529
G1 X6.03 Y-3.18 Z7.5 F1800.0 E10161.242
G1 X3.03 Y-0.9 Z7.5 F1800.0 E10165.956
G1 X0.42 Y1.82 Z7.5 F1800.0 E10170.669
;M103
;M108 S50.04
;M108 S37.53
G1 X0.02 Y1.5 Z7.8 F3600.0
;M101
G1 X0.94 Y0.34 Z7.8 F1800.0 E10172.518
G1 X3.7 Y-2.22 Z7.8 F1800.0 E10177.229
G1 X6.81 Y-4.34 Z7.8 F1800.0 E10181.937
G1 X10.2 Y-5.97 Z7.8 F1800.0 E10186.648
G1 X13.8 Y-7.08 Z7.8 F1800.0 E10191.358
G1 X17.52 Y-7.64 Z7.8 F1800.0 E10196.068
G1 X21.28 Y-7.64 Z7.8 F1800.0 E10200.776
G1 X25.01 Y-7.08 Z7.8 F1800.0 E10205.486
G1 X28.61 Y-5.97 Z7.8 F1800.0 E10210.197
G1 X32.0 Y-4.34 Z7.8 F1800.0 E10214.907
G1 X35.11 Y-2.22 Z7.8 F1800.0 E10219.617
G1 X37.87 Y0.34 Z7.8 F1800.0 E10224.327
G1 X40.22 Y3.29 Z7.8 F1800.0 E10229.036
G1 X42.1 Y6.55 Z7.8 F1800.0 E10233.747
G1 X43.47 Y10.05 Z7.8 F1800.0 E10238.457
G1 X44.31 Y13.72 Z7.8 F1800.0 E10243.166
G1 X44.59 Y17.48 Z7.8 F1800.0 E10247.876
G1 X44.31 Y21.23 Z7.8 F1800.0 E10252.586
G1 X43.47 Y24.9 Z7.8 F1800.0 E10257.295
G1 X42.1 Y28.41 Z7.8 F1800.0 E10262.005
G1 X40.22 Y31.67 Z7.8 F1800.0 E10266.716
G1 X37.87 Y34.61 Z7.8 F1800.0 E10271.425
G1 X35.11 Y37.17 Z7.8 F1800.0 E10276.135
G1 X32.0 Y39.29 Z7.8 F1800.0 E10280.845
G1 X28.61 Y40.92 Z7.8 F1800.0 E10285.555
G1 X25.01 Y42.03 Z7.8 F1800.0 E10290.265
G1 X21.28 Y42.6 Z7.8 F1800.0 E10294.976
G1 X17.52 Y42.6 Z7.8 F1800.0 E10299.684
G1 X13.8 Y42.03 Z7.8 F1800.0 E10304.395
G1 X10.2 Y40.92 Z7.8 F1800.0 E10309.104
G1 X6.81 Y39.29 Z7.8 F1800.0 E10313.815
G1 X3.7 Y37.17 Z7.8 F1800.0 E10318.524
G1 X0.94 Y34.61 Z7.8 F1800.0 E10323.234
G1 X-1.41 Y31.67 Z7.8 F1800.0 E10327.943
G1 X-3.29 Y28.41 Z7.8 F1800.0 E10332.654
G1 X-4.67 Y24.9 Z7.8 F1800.0 E10337.364
G1 X-5.51 Y21.23 Z7.8 F1800.0 E10342.073
G1 X-5.79 Y17.48 Z7.8 F1800.0 E10346.783
G1 X-5.51 Y13.72 Z7.8 F1800.0 E10351.494
G1 X-4.67 Y10.05 Z7.8 F1800.0 E10356.203
G1 X-3.29 Y6.55 Z7.8 F1800.0 E10360.913
G1 X-1.41 Y3.29 Z7.8 F1800.0 E10365.624
G1 X0.02 Y1.5 Z7.8 F1800.0 E10368.483
;M103
G1 X0.42 Y1.82 Z7.8 F3600.0
;M101
G1 X-1.75 Y4.9 Z7.8 F1800.0 E10373.198
G1 X-3.42 Y8.28 Z7.8 F1800.0 E10377.911
G1 X-4.56 Y11.87 Z7.8 F1800.0 E10382.624
G1 X-5.14 Y15.59 Z7.8 F1800.0 E10387.338
G1 X-5.14 Y19.36 Z7.8 F1800.0 E10392.051
G1 X-4.56 Y23.08 Z7.8 F1800.0 E10396.765
G1 X-3.42 Y26.68 Z7.8 F1800.0 E10401.479
G1 X-1.75 Y30.05 Z7.8 F1800.0 E10406.191
G1 X0.42 Y33.13 Z7.8 F1800.0 E10410.906
G1 X3.03 Y35.85 Z7.8 F1800.0 E10415.619
G1 X6.03 Y38.13 Z7.8 F1800.0 E10420.332
G1 X9.34 Y39.93 Z7.8 F1800.0 E10425.046
G1 X12.88 Y41.21 Z7.8 F1800.0 E10429.76
G1 X16.58 Y41.92 Z7.8 F1800.0 E10434.473
G1 X20.35 Y42.07 Z7.8 F1800.0 E10439.187
G1 X24.09 Y41.64 Z7.8 F1800.0 E10443.901
G1 X27.72 Y40.64 Z7.8 F1800.0 E10448.614
G1 X31.16 Y39.1 Z7.8 F1800.0 E10453.327
G1 X34.32 Y37.05 Z7.8 F1800.0 E10458.04
G1 X37.13 Y34.54 Z7.8 F1800.0 E10462.754
G1 X39.53 Y31.63 Z7.8 F1800.0 E10467.468
G1 X41.46 Y28.4 Z7.8 F1800.0 E10472.182
G1 X42.87 Y24.9 Z7.8 F1800.0 E10476.894
G1 X43.72 Y21.23 Z7.8 F1800.0 E10481.608
G1 X44.01 Y17.48 Z7.8 F1800.0 E10486.321
G1 X43.72 Y13.72 Z7.8 F1800.0 E10491.035
G1 X42.87 Y10.05 Z7.8 F1800.0 E10495.747
G1 X41.46 Y6.56 Z7.8 F1800.0 E10500.461
G1 X39.53 Y3.32 Z7.8 F1800.0 E10505.175
G1 X37.13 Y0.41 Z7.8 F1800.0 E10509.889
G1 X34.32 Y-2.1 Z7.8 F1800.0 E10514.602
G1 X31.16 Y-4.14 Z7.8 F1800.0 E10519.316
G1 X27.72 Y-5.69 Z7.8 F1800.0 E10524.029
G1 X24.09 Y-6.68 Z7.8 F1800.0 E10528.742
G1 X20.35 Y-7.12 Z7.8 F1800.0 E10533.456
G1 X16.58 Y-6.97 Z7.8 F1800.0 E10538.169
G1 X12.88 Y-6.26 Z7.8 F1800.0 E10542.883
G1 X9.34 Y-4.98 Z7.8 F1800.0 E10547.596
G1 X6.03 Y-3.18 Z7.8 F1800.0 E10552.31
G1 X3.03 Y-0.9 Z7.8 F1800.0 E10557.024
G1 X0.42 Y1.82 Z7.8 F1800.0 E10561.736
;M103
;M108 S50.04
;M108 S37.53
G1 X0.02 Y1.5 Z8.1 F3600.0
;M101
G1 X0.94 Y0.34 Z8.1 F1800.0 E10563.586
G1 X3.7 Y-2.22 Z8.1 F1800.0 E10568.296
G1 X6.81 Y-4.34 Z8.1 F1800.0 E10573.004
G1 X10.2 Y-5.97 Z8.1 F1800.0 E10577.716
G1 X13.8 Y-7.08 Z8.1 F1800.0 E10582.425
G1 X17.52 Y-7.64 Z8.1 F1800.0 E10587.135
G1 X21.28 Y-7.64 Z8.1 F1800.0 E10591.844
G1 X25.01 Y-7.08 Z8.1 F1800.0 E10596.554
G1 X28.61 Y-5.97 Z8.1 F1800.0 E10601.264
G1 X32.0 Y-4.34 Z8.1 F1800.0 E10605.974
G1 X35.11 Y-2.22 Z8.1 F1800.0 E10610.684
G1 X37.87 Y0.34 Z8.1 F1800.0 E10615.394
G1 X40.22 Y3.29 Z8.1 F1800.0 E10620.103
G1 X42.1 Y6.55 Z8.1 F1800.0 E10624.814
G1 X43.47 Y10.05 Z8.1 F1800.0 E10629.524
G1 X44.31 Y13.72 Z8.1 F1800.0 E10634.233
G1 X44.59 Y17.48 Z8.1 F1800.0 E10638.944
G1 X44.31 Y21.23 Z8.1 F1800.0 E10643.653
G1 X43.47 Y24.9 Z8.1 F1800.0 E10648.362
G1 X42.1 Y28.41 Z8.1 F1800.0 E10653.072
G1 X40.22 Y31.67 Z8.1 F1800.0 E10657.783
G1 X37.87 Y34.61 Z8.1 F1800.0 E10662.492
G1 X35.11 Y37.17 Z8.1 F1800.0 E10667.203
G1 X32.0 Y39.29 Z8.1 F1800.0 E10671.913
G1 X28.61 Y40.92 Z8.1 F1800.0 E10676.622
G1 X25.01 Y42.03 Z8.1 F1800.0 E10681.333
G1 X21.28 Y42.6 Z8.1 F1800.0 E10686.043
G1 X17.52 Y42.6 Z8.1 F1800.0 E10690.752
G1 X13.8 Y42.03 Z8.1 F1800.0 E10695.462
G1 X10.2 Y40.92 Z8.1 F1800.0 E10700.171
G1 X6.81 Y39.29 Z8.1 F1800.0 E10704.882
G1 X3.7 Y37.17 Z8.1 F1800.0 E10709.591
G1 X0.94 Y34.61 Z8.1 F1800.0 E10714.301
G1 X-1.41 Y31.67 Z8.1 F1800.0 E10719.01
G1 X-3.29 Y28.41 Z8.1 F1800.0 E10723.721
G1 X-4.67 Y24.9 Z8.1 F1800.0 E10728.431
G1 X-5.51 Y21.23 Z8.1 F1800.0 E10733.141
G1 X-5.79 Y17.48 Z8.1 F1800.0 E10737.85
G1 X-5.51 Y13.72 Z8.1 F1800.0 E10742.561
G1 X-4.67 Y10.05 Z8.1 F1800.0 E10747.27
G1 X-3.29 Y6.55 Z8.1 F1800.0 E10751.98
G1 X-1.41 Y3.29 Z8.1 F1800.0 E10756.691
G1 X0.02 Y1.5 Z8.1 F1800.0 E10759.55
;M103
G1 X0.42 Y1.82 Z8.1 F3600.0
;M101
G1 X-1.75 Y4.9 Z8.1 F1800.0 E10764.265
G1 X-3.42 Y8.28 Z8.1 F1800.0 E10768.978
G1 X-4.56 Y11.87 Z8.1 F1800.0 E10773.692
G1 X-5.14 Y15.59 Z8.1 F1800.0 E10778.406
G1 X-5.14 Y19.36 Z8.1 F1800.0 E10783.118
G1 X-4.56 Y23.08 Z8.1 F1800.0 E10787.832
G1 X-3.42 Y26.68 Z8.1 F1800.0 E10792.547
G1 X-1.75 Y30.05 Z8.1 F1800.0 E10797.258
G1 X0.42 Y33.13 Z8.1 F1800.0 E10801.973
G1 X3.03 Y35.85 Z8.1 F1800.0 E10806.686
G1 X6.03 Y38.13 Z8.1 F1800.0 E10811.4
G1 X9.34 Y39.93 Z8.1 F1800.0 E10816.114
G1 X12.88 Y41.21 Z8.1 F1800.0 E10820.827
G1 X16.58 Y41.92 Z8.1 F1800.0 E10825.541
G1 X20.35 Y42.07 Z8.1 F1800.0 E10830.254
G1 X24.09 Y41.64 Z8.1 F1800.0 E10834.968
G1 X27.72 Y40.64 Z8.1 F1800.0 E10839.681
G1 X31.16 Y39.1 Z8.1 F1800.0 E10844.394
G1 X34.32 Y37.05 Z8.1 F1800.0 E10849.107
G1 X37.13 Y34.54 Z8.1 F1800.0 E10853.821
G1 X39.53 Y31.63 Z8.1 F1800.0 E10858.535
G1 X41.46 Y28.4 Z8.1 F1800.0 E10863.249
G1 X42.87 Y24.9 Z8.1 F1800.0 E10867.962
G1 X43.72 Y21.23 Z8.1 F1800.0 E10872.676
G1 X44.01 Y17.48 Z8.1 F1800.0 E10877.388
G1 X43.72 Y13.72 Z8.1 F1800.0 E10882.102
G1 X42.87 Y10.05 Z8.1 F1800.0 E10886.815
G1 X41.46 Y6.56 Z8.1 F1800.0 E10891.528
G1 X39.53 Y3.32 Z8.1 F1800.0 E10896.242
G1 X37.13 Y0.41 Z8.1 F1800.0 E10900.956
G1 X34.32 Y-2.1 Z8.1 F1800.0 E10905.669
G1 X31.16 Y-4.14 Z8.1 F1800.0 E10910.383
G1 X27.72 Y-5.69 Z8.1 F1800.0 E10915.096
G1 X24.09 Y-6.68 Z8.1 F1800.0 E10919.809
G1 X20.35 Y-7.12 Z8.1 F1800.0 E10924.523
G1 X16.58 Y-6.97 Z8.1 F1800.0 E10929.236
G1 X12.88 Y-6.26 Z8.1 F1800.0 E10933.95
G1 X9.34 Y-4.98 Z8.1 F1800.0 E10938.664
G1 X6.03 Y-3.18 Z8.1 F1800.0 E10943.377
G1 X3.03 Y-0.9 Z8.1 F1800.0 E10948.091
G1 X0.42 Y1.82 Z8.1 F1800.0 E10952.803
;M103
;M108 S50.04
;M108 S37.53
G1 X0.02 Y1.5 Z8.4 F3600.0
;M101
G1 X0.94 Y0.34 Z8.4 F1800.0 E10954.653
G1 X3.7 Y-2.22 Z8.4 F1800.0 E10959.363
G1 X6.81 Y-4.34 Z8.4 F1800.0 E10964.072
G1 X10.2 Y-5.97 Z8.4 F1800.0 E10968.783
G1 X13.8 Y-7.08 Z8.4 F1800.0 E10973.492
G1 X17.52 Y-7.64 Z8.4 F1800.0 E10978.202
G1 X21.28 Y-7.64 Z8.4 F1800.0 E10982.911
G1 X25.01 Y-7.08 Z8.4 F1800.0 E10987.621
G1 X28.61 Y-5.97 Z8.4 F1800.0 E10992.332
G1 X32.0 Y-4.34 Z8.4 F1800.0 E10997.042
G1 X35.11 Y-2.22 Z8.4 F1800.0 E11001.751
G1 X37.87 Y0.34 Z8.4 F1800.0 E11006.461
G1 X40.22 Y3.29 Z8.4 F1800.0 E11011.17
G1 X42.1 Y6.55 Z8.4 F1800.0 E11015.881
G1 X43.47 Y10.05 Z8.4 F1800.0 E11020.591
G1 X44.31 Y13.72 Z8.4 F1800.0 E11025.3
G1 X44.59 Y17.48 Z8.4 F1800.0 E11030.011
G1 X44.31 Y21.23 Z8.4 F1800.0 E11034.721
G1 X43.47 Y24.9 Z8.4 F1800.0 E11039.43
G1 X42.1 Y28.41 Z8.4 F1800.0 E11044.14
G1 X40.22 Y31.67 Z8.4 F1800.0 E11048.851
G1 X37.87 Y34.61 Z8.4 F1800.0 E11053.56
G1 X35.11 Y37.17 Z8.4 F1800.0 E11058.27
G1 X32.0 Y39.29 Z8.4 F1800.0 E11062.98
G1 X28.61 Y40.92 Z8.4 F1800.0 E11067.69
G1 X25.01 Y42.03 Z8.4 F1800.0 E11072.4
G1 X21.28 Y42.6 Z8.4 F1800.0 E11077.11
G1 X17.52 Y42.6 Z8.4 F1800.0 E11081.819
G1 X13.8 Y42.03 Z8.4 F1800.0 E11086.529
G1 X10.2 Y40.92 Z8.4 F1800.0 E11091.239
G1 X6.81 Y39.29 Z8.4 F1800.0 E11095.949
G1 X3.7 Y37.17 Z8.4 F1800.0 E11100.659
G1 X0.94 Y34.61 Z8.4 F1800.0 E11105.369
G1 X-1.41 Y31.67 Z8.4 F1800.0 E11110.078
G1 X-3.29 Y28.41 Z8.4 F1800.0 E11114.789
G1 X-4.67 Y24.9 Z8.4 F1800.0 E11119.499
G1 X-5.51 Y21.23 Z8.4 F1800.0 E11124.208
G1 X-5.79 Y17.48 Z8.4 F1800.0 E11128.917
G1 X-5.51 Y13.72 Z8.4 F1800.0 E11133.628
G1 X-4.67 Y10.05 Z8.4 F1800.0 E11138.338
G1 X-3.29 Y6.55 Z8.4 F1800.0 E11143.048
G1 X-1.41 Y3.29 Z8.4 F1800.0 E11147.758
G1 X0.02 Y1.5 Z8.4 F1800.0 E11150.618
;M103
G1 X0.42 Y1.82 Z8.4 F3600.0
;M101
G1 X-1.75 Y4.9 Z8.4 F1800.0 E11155.333
G1 X-3.42 Y8.28 Z8.4 F1800.0 E11160.046
G1 X-4.56 Y11.87 Z8.4 F1800.0 E11164.759
G1 X-5.14 Y15.59 Z8.4 F1800.0 E11169.473
G1 X-5.14 Y19.36 Z8.4 F1800.0 E11174.185
G1 X-4.56 Y23.08 Z8.4 F1800.0 E11178.899
G1 X-3.42 Y26.68 Z8.4 F1800.0 E11183.614
G1 X-1.75 Y30.05 Z8.4 F1800.0 E11188.326
G1 X0.42 Y33.13 Z8.4 F1800.0 E11193.041
G1 X3.03 Y35.85 Z8.4 F1800.0 E11197.754
G1 X6.03 Y38.13 Z8.4 F1800.0 E11202.467
G1 X9.34 Y39.93 Z8.4 F1800.0 E11207.181
G1 X12.88 Y41.21 Z8.4 F1800.0 E11211.894
G1 X16.58 Y41.92 Z8.4 F1800.0 E11216.608
G1 X20.35 Y42.07 Z8.4 F1800.0 E11221.322
G1 X24.09 Y41.64 Z8.4 F1800.0 E11226.035
G1 X27.72 Y40.64 Z8.4 F1800.0 E11230.749
G1 X31.16 Y39.1 Z8.4 F1800.0 E11235.462
G1 X34.32 Y37.05 Z8.4 F1800.0 E11240.175
G1 X37.13 Y34.54 Z8.4 F1800.0 E11244.888
G1 X39.53 Y31.63 Z8.4 F1800.0 E11249.603
G1 X41.46 Y28.4 Z8.4 F1800.0 E11254.316
G1 X42.87 Y24.9 Z8.4 F1800.0 E11259.029
G1 X43.72 Y21.23 Z8.4 F1800.0 E11263.743
G1 X44.01 Y17.48 Z8.4 F1800.0 E11268.455
G1 X43.72 Y13.72 Z8.4 F1800.0 E11273.169
G1 X42.87 Y10.05 Z8.4 F1800.0 E11277.882
G1 X41.46 Y6.56 Z8.4 F1800.0 E11282.596
G1 X39.53 Y3.32 Z8.4 F1800.0 E11287.309
G1 X37.13 Y0.41 Z8.4 F1800.0 E11292.024
G1 X34.32 Y-2.1 Z8.4 F1800.0 E11296.737
G1 X31.16 Y-4.14 Z8.4 F1800.0 E11301.45
G1 X27.72 Y-5.69 Z8.4 F1800.0 E11306.163
G1 X24.09 Y-6.68 Z8.4 F1800.0 E11310.877
G1 X20.35 Y-7.12 Z8.4 F1800.0 E11315.59
G1 X16.58 Y-6.97 Z8.4 F1800.0 E11320.304
G1 X12.88 Y-6.26 Z8.4 F1800.0 E11325.017
G1 X9.34 Y-4.98 Z8.4 F1800.0 E11329.731
G1 X6.03 Y-3.18 Z8.4 F1800.0 E11334.444
G1 X3.03 Y-0.9 Z8.4 F1800.0 E11339.158
G1 X0.42 Y1.82 Z8.4 F1800.0 E11343.871
;M103
;M108 S50.04
;M108 S37.53
G1 X0.02 Y1.5 Z8.7 F3600.0
;M101
G1 X0.94 Y0.34 Z8.7 F1800.0 E11345.72
G1 X3.7 Y-2.22 Z8.7 F1800.0 E11350.431
G1 X6.81 Y-4.34 Z8.7 F1800.0 E11355.139
G1 X10.2 Y-5.97 Z8.7 F1800.0 E11359.85
G1 X13.8 Y-7.08 Z8.7 F1800.0 E11364.56
G1 X17.52 Y-7.64 Z8.7 F1800.0 E11369.27
G1 X21.28 Y-7.64 Z8.7 F1800.0 E11373.978
G1 X25.01 Y-7.08 Z8.7 F1800.0 E11378.688
G1 X28.61 Y-5.97 Z8.7 F1800.0 E11383.399
G1 X32.0 Y-4.34 Z8.7 F1800.0 E11388.109
G1 X35.11 Y-2.22 Z8.7 F1800.0 E11392.819
G1 X37.87 Y0.34 Z8.7 F1800.0 E11397.529
G1 X40.22 Y3.29 Z8.7 F1800.0 E11402.238
G1 X42.1 Y6.55 Z8.7 F1800.0 E11406.949
G1 X43.47 Y10.05 Z8.7 F1800.0 E11411.659
G1 X44.31 Y13.72 Z8.7 F1800.0 E11416.368
G1 X44.59 Y17.48 Z8.7 F1800.0 E11421.078
G1 X44.31 Y21.23 Z8.7 F1800.0 E11425.788
G1 X43.47 Y24.9 Z8.7 F1800.0 E11430.497
G1 X42.1 Y28.41 Z8.7 F1800.0 E11435.207
G1 X40.22 Y31.67 Z8.7 F1800.0 E11439.918
G1 X37.87 Y34.61 Z8.7 F1800.0 E11444.627
G1 X35.11 Y37.17 Z8.7 F1800.0 E11449.337
G1 X32.0 Y39.29 Z8.7 F1800.0 E11454.047
G1 X28.61 Y40.92 Z8.7 F1800.0 E11458.757
G1 X25.01 Y42.03 Z8.7 F1800.0 E11463.467
G1 X21.28 Y42.6 Z8.7 F1800.0 E11468.178
G1 X17.52 Y42.6 Z8.7 F1800.0 E11472.886
G1 X13.8 Y42.03 Z8.7 F1800.0 E11477.597
G1 X10.2 Y40.92 Z8.7 F1800.0 E11482.306
G1 X6.81 Y39.29 Z8.7 F1800.0 E11487.017
G1 X3.7 Y37.17 Z8.7 F1800.0 E11491.726
G1 X0.94 Y34.61 Z8.7 F1800.0 E11496.436
G1 X-1.41 Y31.67 Z8.7 F1800.0 E11501.145
G1 X-3.29 Y28.41 Z8.7 F1800.0 E11505.856
G1 X-4.67 Y24.9 Z8.7 F1800.0 E11510.566
G1 X-5.51 Y21.23 Z8.7 F1800.0 E11515.275
G1 X-5.79 Y17.48 Z8.7 F1800.0 E11519.985
G1 X-5.51 Y13.72 Z8.7 F1800.0 E11524.696
G1 X-4.67 Y10.05 Z8.7 F1800.0 E11529.405
G1 X-3.29 Y6.55 Z8.7 F1800.0 E11534.115
G1 X-1.41 Y3.29 Z8.7 F1800.0 E11538.826
G1 X0.02 Y1.5 Z8.7 F1800.0 E11541.685
;M103
G1 X0.42 Y1.82 Z8.7 F3600.0
;M101
G1 X-1.75 Y4.9 Z8.7 F1800.0 E11546.4
G1 X-3.42 Y8.28 Z8.7 F1800.0 E11551.113
G1 X-4.56 Y11.87 Z8.7 F1800.0 E11555.826
G1 X-5.14 Y15.59 Z8.7 F1800.0 E11560.54
G1 X-5.14 Y19.36 Z8.7 F1800.0 E11565.253
G1 X-4.56 Y23.08 Z8.7 F1800.0 E11569.967
G1 X-3.42 Y26.68 Z8.7 F1800.0 E11574.681
G1 X-1.75 Y30.05 Z8.7 F1800.0 E11579.393
G1 X0.42 Y33.13 Z8.7 F1800.0 E11584.108
G1 X3.03 Y35.85 Z8.7 F1800.0 E11588.821
G1 X6.03 Y38.13 Z8.7 F1800.0 E11593.534
G1 X9.34 Y39.93 Z8.7 F1800.0 E11598.248
G1 X12.88 Y41.21 Z8.7 F1800.0 E11602.962
G1 X16.58 Y41.92 Z8.7 F1800.0 E11607.675
G1 X20.35 Y42.07 Z8.7 F1800.0 E11612.389
G1 X24.09 Y41.64 Z8.7 F1800.0 E11617.103
G1 X27.72 Y40.64 Z8.7 F1800.0 E11621.816
G1 X31.16 Y39.1 Z8.7 F1800.0 E11626.529
G1 X34.32 Y37.05 Z8.7 F1800.0 E11631.242
G1 X37.13 Y34.54 Z8.7 F1800.0 E11635.956
G1 X39.53 Y31.63 Z8.7 F1800.0 E11640.67
G1 X41.46 Y28.4 Z8.7 F1800.0 E11645.384
G1 X42.87 Y24.9 Z8.7 F1800.0 E11650.096
G1 X43.72 Y21.23 Z8.7 F1800.0 E11654.81
G1 X44.01 Y17.48 Z8.7 F1800.0 E11659.523
G1 X43.72 Y13.72 Z8.7 F1800.0 E11664.237
G1 X42.87 Y10.05 Z8.7 F1800.0 E11668.949
G1 X41.46 Y6.56 Z8.7 F1800.0 E11673.663
G1 X39.53 Y3.32 Z8.7 F1800.0 E11678.377
G1 X37.13 Y0.41 Z8.7 F1800.0 E11683.091
