G21 (This is GCode, generated with Skeinforge version 35 from ReplicatorG)
G21 (Ultimaker profile - Quality print from alterations/start.gcode)
G21 (Metric: The unit is a millimeter)
M18 (Disable motors for now, to allow manual moving of the head)
G90 (Absolute positioning)
G92 X0 Y0 Z0 E0 (set origin to current position)
G91 (Relative positioning)
;G1 Z35.0 F400 (lower platform for cleaning nozzle)
;G92 E0 (zero the extruded length)
;G1 E260 F1000 (extrude some to get the flow going)
;G1 E-20 F3000 (reverse a little)
;G92 E0 (zero the extruded length)
;M1 (Clean the nozzle and press YES to continue...)
;G1 Z-1.0 F100 (rise platform again)
;G1 Z-34.0 F400 (rise platform again)
G90 (Absolute positioning)
;G1 Z0.4 (Tool slightly above the platform)
;G92 Z0.4 E0 (zero the extruded length)
G21 (end of start.txt)
G90
G21
;M103
M105
M106
M113 S1.0
;M108 S50.04
M104 S245.0
;M108 S52.54
G1 X-12.79 Y-14.31 Z0.3 F1620.0
;M101
G1 X-12.79 Y14.31 Z0.3 F1620.0 E55.673
G1 X12.79 Y14.31 Z0.3 F1620.0 E105.454
G1 X12.79 Y-14.31 Z0.3 F1620.0 E161.127
G1 X-12.79 Y-14.31 Z0.3 F1620.0 E210.907
;M103
G1 X0.75 Y-3.4 Z0.3 F2880.0
;M101
G1 X-3.97 Y-8.12 Z0.3 F1920.0 E221.87
G1 X-4.35 Y-7.9 Z0.3 F1920.0 E222.583
G1 X0.07 Y-3.48 Z0.3 F1920.0 E232.844
G1 X-0.48 Y-3.45 Z0.3 F1920.0 E233.759
G1 X-4.72 Y-7.68 Z0.3 F1920.0 E243.599
G1 X-5.1 Y-7.47 Z0.3 F1920.0 E244.312
G1 X-0.97 Y-3.34 Z0.3 F1920.0 E253.9
G1 X-1.4 Y-3.18 Z0.3 F1920.0 E254.66
G1 X-5.47 Y-7.25 Z0.3 F1920.0 E264.111
G1 X-5.85 Y-7.03 Z0.3 F1920.0 E264.823
G1 X-1.8 Y-2.98 Z0.3 F1920.0 E274.229
G1 X-2.15 Y-2.74 Z0.3 F1920.0 E274.928
G1 X-6.22 Y-6.82 Z0.3 F1920.0 E284.396
G1 X-6.6 Y-6.6 Z0.3 F1920.0 E285.109
G1 X-2.46 Y-2.46 Z0.3 F1920.0 E294.729
G1 X-2.74 Y-2.15 Z0.3 F1920.0 E295.417
G1 X-6.98 Y-6.38 Z0.3 F1920.0 E305.254
G1 X-7.35 Y-6.17 Z0.3 F1920.0 E305.965
G1 X-2.98 Y-1.8 Z0.3 F1920.0 E316.107
G1 X-3.18 Y-1.4 Z0.3 F1920.0 E316.832
G1 X-7.73 Y-5.95 Z0.3 F1920.0 E327.39
G1 X-8.1 Y-5.73 Z0.3 F1920.0 E328.101
G1 X-3.34 Y-0.97 Z0.3 F1920.0 E339.164
G1 X-3.45 Y-0.48 Z0.3 F1920.0 E339.979
G1 X-8.48 Y-5.52 Z0.3 F1920.0 E351.663
G1 X-8.85 Y-5.3 Z0.3 F1920.0 E352.374
G1 X-3.48 Y0.07 Z0.3 F1920.0 E364.845
G1 X-3.4 Y0.75 Z0.3 F1920.0 E365.967
G1 X-9.02 Y-4.87 Z0.3 F1920.0 E379.016
G1 X-9.02 Y-4.28 Z0.3 F1920.0 E379.989
G1 X3.6 Y8.34 Z0.3 F1920.0 E409.272
G1 X3.97 Y8.12 Z0.3 F1920.0 E409.984
G1 X-0.75 Y3.4 Z0.3 F1920.0 E420.948
G1 X-0.07 Y3.48 Z0.3 F1920.0 E422.07
G1 X4.35 Y7.9 Z0.3 F1920.0 E432.33
G1 X4.72 Y7.68 Z0.3 F1920.0 E433.042
G1 X0.48 Y3.45 Z0.3 F1920.0 E442.882
G1 X0.97 Y3.34 Z0.3 F1920.0 E443.696
G1 X5.1 Y7.47 Z0.3 F1920.0 E453.285
G1 X5.47 Y7.25 Z0.3 F1920.0 E453.996
G1 X1.4 Y3.18 Z0.3 F1920.0 E463.447
G1 X1.8 Y2.98 Z0.3 F1920.0 E464.171
G1 X5.85 Y7.03 Z0.3 F1920.0 E473.578
G1 X6.22 Y6.82 Z0.3 F1920.0 E474.289
G1 X2.15 Y2.74 Z0.3 F1920.0 E483.757
G1 X2.46 Y2.46 Z0.3 F1920.0 E484.445
G1 X6.6 Y6.6 Z0.3 F1920.0 E494.065
G1 X6.98 Y6.38 Z0.3 F1920.0 E494.778
G1 X2.74 Y2.15 Z0.3 F1920.0 E504.615
G1 X2.98 Y1.8 Z0.3 F1920.0 E505.314
G1 X7.35 Y6.17 Z0.3 F1920.0 E515.456
G1 X7.73 Y5.95 Z0.3 F1920.0 E516.168
G1 X3.18 Y1.4 Z0.3 F1920.0 E526.726
G1 X3.34 Y0.97 Z0.3 F1920.0 E527.486
G1 X8.1 Y5.73 Z0.3 F1920.0 E538.549
G1 X8.48 Y5.52 Z0.3 F1920.0 E539.262
G1 X3.45 Y0.48 Z0.3 F1920.0 E550.946
G1 X3.48 Y-0.07 Z0.3 F1920.0 E551.861
G1 X8.85 Y5.3 Z0.3 F1920.0 E564.332
G1 X9.02 Y4.87 Z0.3 F1920.0 E565.087
G1 X3.4 Y-0.75 Z0.3 F1920.0 E578.135
G1 X3.04 Y-1.7 Z0.3 F1920.0 E579.792
;M103
G1 X3.76 Y-0.98 Z0.3 F2880.0
;M101
G1 X9.02 Y4.28 Z0.3 F1920.0 E592.002
;M103
G1 X3.22 Y8.55 Z0.3 F2880.0
;M101
G1 X-9.02 Y-3.68 Z0.3 F1920.0 E620.413
G1 X-9.02 Y-3.09 Z0.3 F1920.0 E621.385
G1 X2.84 Y8.77 Z0.3 F1920.0 E648.923
G1 X2.47 Y8.99 Z0.3 F1920.0 E649.635
G1 X-9.02 Y-2.5 Z0.3 F1920.0 E676.301
G1 X-9.02 Y-1.91 Z0.3 F1920.0 E677.273
G1 X2.09 Y9.2 Z0.3 F1920.0 E703.068
G1 X1.72 Y9.42 Z0.3 F1920.0 E703.779
G1 X-9.02 Y-1.32 Z0.3 F1920.0 E728.703
G1 X-9.02 Y-0.72 Z0.3 F1920.0 E729.677
G1 X1.34 Y9.64 Z0.3 F1920.0 E753.726
G1 X0.97 Y9.85 Z0.3 F1920.0 E754.438
G1 X-9.02 Y-0.13 Z0.3 F1920.0 E777.617
G1 X-9.02 Y0.46 Z0.3 F1920.0 E778.59
G1 X0.59 Y10.07 Z0.3 F1920.0 E800.896
G1 X0.22 Y10.29 Z0.3 F1920.0 E801.609
G1 X-9.02 Y1.06 Z0.3 F1920.0 E823.043
G1 X-9.02 Y1.65 Z0.3 F1920.0 E824.015
G1 X-0.6 Y10.07 Z0.3 F1920.0 E843.561
;M103
G1 X-2.0 Y9.26 Z0.3 F2880.0
;M101
G1 X-9.02 Y2.24 Z0.3 F1920.0 E859.853
G1 X-9.02 Y2.83 Z0.3 F1920.0 E860.825
G1 X-3.4 Y8.45 Z0.3 F1920.0 E873.863
;M103
G1 X-4.8 Y7.64 Z0.3 F2880.0
;M101
G1 X-9.02 Y3.43 Z0.3 F1920.0 E883.647
G1 X-9.02 Y4.02 Z0.3 F1920.0 E884.619
G1 X-6.2 Y6.83 Z0.3 F1920.0 E891.149
;M103
G1 X-7.61 Y6.02 Z0.3 F2880.0
;M101
G1 X-9.02 Y4.61 Z0.3 F1920.0 E894.426
G1 X-9.01 Y5.21 Z0.3 F1920.0 E895.414
;M103
G1 X1.74 Y-8.92 Z0.3 F2880.0
;M101
G1 X9.02 Y-1.65 Z0.3 F1920.0 E912.304
G1 X9.02 Y-1.06 Z0.3 F1920.0 E913.276
G1 X-0.22 Y-10.29 Z0.3 F1920.0 E934.71
G1 X-0.59 Y-10.07 Z0.3 F1920.0 E935.423
G1 X9.02 Y-0.46 Z0.3 F1920.0 E957.729
G1 X9.02 Y0.13 Z0.3 F1920.0 E958.703
G1 X-0.97 Y-9.85 Z0.3 F1920.0 E981.882
G1 X-1.34 Y-9.64 Z0.3 F1920.0 E982.593
G1 X9.02 Y0.72 Z0.3 F1920.0 E1006.643
G1 X9.02 Y1.32 Z0.3 F1920.0 E1007.616
G1 X-1.72 Y-9.42 Z0.3 F1920.0 E1032.54
G1 X-2.09 Y-9.2 Z0.3 F1920.0 E1033.252
G1 X9.02 Y1.91 Z0.3 F1920.0 E1059.046
G1 X9.02 Y2.5 Z0.3 F1920.0 E1060.018
G1 X-2.47 Y-8.99 Z0.3 F1920.0 E1086.685
G1 X-2.84 Y-8.77 Z0.3 F1920.0 E1087.396
G1 X9.02 Y3.09 Z0.3 F1920.0 E1114.935
G1 X9.02 Y3.68 Z0.3 F1920.0 E1115.907
G1 X-3.22 Y-8.55 Z0.3 F1920.0 E1144.317
G1 X-3.6 Y-8.34 Z0.3 F1920.0 E1145.027
G1 X1.7 Y-3.04 Z0.3 F1920.0 E1157.313
;M103
G1 X4.55 Y-7.3 Z0.3 F2880.0
;M101
G1 X9.02 Y-2.83 Z0.3 F1920.0 E1167.694
G1 X9.02 Y-2.24 Z0.3 F1920.0 E1168.666
G1 X2.0 Y-9.26 Z0.3 F1920.0 E1184.959
G1 X0.6 Y-10.07 Z0.3 F1920.0 E1187.615
;M103
G1 X7.35 Y-5.69 Z0.3 F2880.0
;M101
G1 X9.02 Y-4.02 Z0.3 F1920.0 E1191.488
G1 X9.02 Y-3.43 Z0.3 F1920.0 E1192.46
G1 X4.8 Y-7.64 Z0.3 F1920.0 E1202.243
G1 X3.4 Y-8.45 Z0.3 F1920.0 E1204.9
;M103
G1 X9.01 Y-5.21 Z0.3 F2880.0
;M101
G1 X9.02 Y-4.61 Z0.3 F1920.0 E1205.888
G1 X7.61 Y-6.02 Z0.3 F1920.0 E1209.164
G1 X6.2 Y-6.83 Z0.3 F1920.0 E1211.822
;M103
G1 X1.93 Y-2.46 Z0.3 F3600.0
;M101
G1 X1.57 Y-2.71 Z0.3 F1920.0 E1212.557
G1 X1.07 Y-2.94 Z0.3 F1920.0 E1213.452
G1 X0.54 Y-3.08 Z0.3 F1920.0 E1214.348
G1 X0.0 Y-3.13 Z0.3 F1920.0 E1215.244
G1 X-0.54 Y-3.08 Z0.3 F1920.0 E1216.141
G1 X-1.07 Y-2.94 Z0.3 F1920.0 E1217.037
G1 X-1.57 Y-2.71 Z0.3 F1920.0 E1217.932
G1 X-2.01 Y-2.4 Z0.3 F1920.0 E1218.83
G1 X-2.4 Y-2.01 Z0.3 F1920.0 E1219.723
G1 X-2.71 Y-1.57 Z0.3 F1920.0 E1220.621
G1 X-2.94 Y-1.07 Z0.3 F1920.0 E1221.516
G1 X-3.08 Y-0.54 Z0.3 F1920.0 E1222.412
G1 X-3.13 Y0.0 Z0.3 F1920.0 E1223.309
G1 X-3.08 Y0.54 Z0.3 F1920.0 E1224.205
G1 X-2.94 Y1.07 Z0.3 F1920.0 E1225.101
G1 X-2.71 Y1.57 Z0.3 F1920.0 E1225.996
G1 X-2.4 Y2.01 Z0.3 F1920.0 E1226.894
G1 X-2.01 Y2.4 Z0.3 F1920.0 E1227.787
G1 X-1.57 Y2.71 Z0.3 F1920.0 E1228.685
G1 X-1.07 Y2.94 Z0.3 F1920.0 E1229.58
G1 X-0.54 Y3.08 Z0.3 F1920.0 E1230.476
G1 X0.0 Y3.13 Z0.3 F1920.0 E1231.373
G1 X0.54 Y3.08 Z0.3 F1920.0 E1232.269
G1 X1.07 Y2.94 Z0.3 F1920.0 E1233.165
G1 X1.57 Y2.71 Z0.3 F1920.0 E1234.06
G1 X2.01 Y2.4 Z0.3 F1920.0 E1234.958
G1 X2.4 Y2.01 Z0.3 F1920.0 E1235.852
G1 X2.71 Y1.57 Z0.3 F1920.0 E1236.749
G1 X2.94 Y1.07 Z0.3 F1920.0 E1237.644
G1 X3.08 Y0.54 Z0.3 F1920.0 E1238.54
G1 X3.13 Y0.0 Z0.3 F1920.0 E1239.437
G1 X3.08 Y-0.54 Z0.3 F1920.0 E1240.333
G1 X2.94 Y-1.07 Z0.3 F1920.0 E1241.229
G1 X2.71 Y-1.57 Z0.3 F1920.0 E1242.124
G1 X2.4 Y-2.01 Z0.3 F1920.0 E1243.022
G1 X2.01 Y-2.4 Z0.3 F1920.0 E1243.916
G1 X1.93 Y-2.46 Z0.3 F1920.0 E1244.078
;M103
G1 X5.16 Y-7.84 Z0.3 F3600.0
;M101
G1 X9.37 Y-5.41 Z0.3 F1920.0 E1252.069
G1 X9.37 Y5.41 Z0.3 F1920.0 E1269.837
G1 X0.0 Y10.82 Z0.3 F1920.0 E1287.605
G1 X-9.37 Y5.41 Z0.3 F1920.0 E1305.372
G1 X-9.37 Y-5.41 Z0.3 F1920.0 E1323.14
G1 X0.0 Y-10.82 Z0.3 F1920.0 E1340.908
G1 X5.16 Y-7.84 Z0.3 F1920.0 E1350.684
;M103
;M108 S37.53
;M108 S39.41
G1 X5.37 Y-8.21 Z0.3 F3600.0
;M101
G1 X9.79 Y-5.65 Z0.3 F1620.0 E1358.142
G1 X9.79 Y5.65 Z0.3 F1620.0 E1374.644
G1 X0.0 Y11.31 Z0.3 F1620.0 E1391.146
G1 X-9.79 Y5.65 Z0.3 F1620.0 E1407.647
G1 X-9.79 Y-5.65 Z0.3 F1620.0 E1424.15
G1 X0.0 Y-11.31 Z0.3 F1620.0 E1440.651
G1 X5.37 Y-8.21 Z0.3 F1620.0 E1449.695
;M103
G1 X1.36 Y-2.35 Z0.3 F3600.0
;M101
G1 X0.93 Y-2.55 Z0.3 F1620.0 E1450.385
G1 X0.47 Y-2.67 Z0.3 F1620.0 E1451.074
G1 X0.0 Y-2.71 Z0.3 F1620.0 E1451.764
G1 X-0.47 Y-2.67 Z0.3 F1620.0 E1452.454
G1 X-0.93 Y-2.55 Z0.3 F1620.0 E1453.143
G1 X-1.36 Y-2.35 Z0.3 F1620.0 E1453.833
G1 X-1.74 Y-2.08 Z0.3 F1620.0 E1454.522
G1 X-2.08 Y-1.74 Z0.3 F1620.0 E1455.212
G1 X-2.35 Y-1.36 Z0.3 F1620.0 E1455.901
G1 X-2.55 Y-0.93 Z0.3 F1620.0 E1456.591
G1 X-2.67 Y-0.47 Z0.3 F1620.0 E1457.28
G1 X-2.71 Y0.0 Z0.3 F1620.0 E1457.97
G1 X-2.67 Y0.47 Z0.3 F1620.0 E1458.66
G1 X-2.55 Y0.93 Z0.3 F1620.0 E1459.349
G1 X-2.35 Y1.36 Z0.3 F1620.0 E1460.039
G1 X-2.08 Y1.74 Z0.3 F1620.0 E1460.728
G1 X-1.74 Y2.08 Z0.3 F1620.0 E1461.418
G1 X-1.36 Y2.35 Z0.3 F1620.0 E1462.107
G1 X-0.93 Y2.55 Z0.3 F1620.0 E1462.797
G1 X-0.47 Y2.67 Z0.3 F1620.0 E1463.486
G1 X0.0 Y2.71 Z0.3 F1620.0 E1464.176
G1 X0.47 Y2.67 Z0.3 F1620.0 E1464.866
G1 X0.93 Y2.55 Z0.3 F1620.0 E1465.555
G1 X1.36 Y2.35 Z0.3 F1620.0 E1466.245
G1 X1.74 Y2.08 Z0.3 F1620.0 E1466.934
G1 X2.08 Y1.74 Z0.3 F1620.0 E1467.624
G1 X2.35 Y1.36 Z0.3 F1620.0 E1468.313
G1 X2.55 Y0.93 Z0.3 F1620.0 E1469.003
G1 X2.67 Y0.47 Z0.3 F1620.0 E1469.692
G1 X2.71 Y0.0 Z0.3 F1620.0 E1470.382
G1 X2.67 Y-0.47 Z0.3 F1620.0 E1471.072
G1 X2.55 Y-0.93 Z0.3 F1620.0 E1471.761
G1 X2.35 Y-1.36 Z0.3 F1620.0 E1472.451
G1 X2.08 Y-1.74 Z0.3 F1620.0 E1473.14
G1 X1.74 Y-2.08 Z0.3 F1620.0 E1473.83
G1 X1.36 Y-2.35 Z0.3 F1620.0 E1474.519
;M103
;M108 S50.04
G1 X2.14 Y-1.8 Z0.6 F3600.0
G1 X3.76 Y0.98 Z0.6 F3600.0
;M101
G1 X9.02 Y-4.28 Z0.6 F2400.0 E1483.823
;M103
G1 X3.22 Y-8.55 Z0.6 F3600.0
;M101
G1 X-9.02 Y3.68 Z0.6 F2400.0 E1505.469
G1 X-9.02 Y3.09 Z0.6 F2400.0 E1506.21
G1 X2.84 Y-8.77 Z0.6 F2400.0 E1527.192
G1 X2.47 Y-8.99 Z0.6 F2400.0 E1527.734
G1 X-9.02 Y2.5 Z0.6 F2400.0 E1548.053
G1 X-9.02 Y1.91 Z0.6 F2400.0 E1548.793
G1 X2.09 Y-9.2 Z0.6 F2400.0 E1568.447
G1 X1.72 Y-9.42 Z0.6 F2400.0 E1568.989
G1 X-9.02 Y1.32 Z0.6 F2400.0 E1587.979
G1 X-9.02 Y0.72 Z0.6 F2400.0 E1588.721
G1 X1.34 Y-9.64 Z0.6 F2400.0 E1607.046
G1 X0.97 Y-9.85 Z0.6 F2400.0 E1607.588
G1 X-9.02 Y0.13 Z0.6 F2400.0 E1625.248
G1 X-9.02 Y-0.46 Z0.6 F2400.0 E1625.99
G1 X0.59 Y-10.07 Z0.6 F2400.0 E1642.986
G1 X0.22 Y-10.29 Z0.6 F2400.0 E1643.529
G1 X-9.02 Y-1.06 Z0.6 F2400.0 E1659.86
G1 X-9.02 Y-1.65 Z0.6 F2400.0 E1660.601
G1 X-0.6 Y-10.07 Z0.6 F2400.0 E1675.494
;M103
G1 X-2.0 Y-9.26 Z0.6 F3600.0
;M101
G1 X-9.02 Y-2.24 Z0.6 F2400.0 E1687.907
G1 X-9.02 Y-2.83 Z0.6 F2400.0 E1688.648
G1 X-3.4 Y-8.45 Z0.6 F2400.0 E1698.582
;M103
G1 X-4.8 Y-7.64 Z0.6 F3600.0
;M101
G1 X-9.02 Y-3.43 Z0.6 F2400.0 E1706.036
G1 X-9.02 Y-4.02 Z0.6 F2400.0 E1706.777
G1 X-6.2 Y-6.83 Z0.6 F2400.0 E1711.753
;M103
G1 X-7.61 Y-6.02 Z0.6 F3600.0
;M101
G1 X-9.02 Y-4.61 Z0.6 F2400.0 E1714.249
G1 X-9.01 Y-5.21 Z0.6 F2400.0 E1715.002
;M103
G1 X-1.4 Y2.42 Z0.6 F3600.0
G1 X0.75 Y3.4 Z0.6 F3600.0
;M101
G1 X-3.97 Y8.12 Z0.6 F2400.0 E1723.355
G1 X-4.35 Y7.9 Z0.6 F2400.0 E1723.899
G1 X0.07 Y3.48 Z0.6 F2400.0 E1731.717
G1 X-0.48 Y3.45 Z0.6 F2400.0 E1732.414
G1 X-4.72 Y7.68 Z0.6 F2400.0 E1739.911
G1 X-5.1 Y7.47 Z0.6 F2400.0 E1740.454
G1 X-0.97 Y3.34 Z0.6 F2400.0 E1747.76
G1 X-1.4 Y3.18 Z0.6 F2400.0 E1748.339
G1 X-5.47 Y7.25 Z0.6 F2400.0 E1755.54
G1 X-5.85 Y7.03 Z0.6 F2400.0 E1756.082
G1 X-1.8 Y2.98 Z0.6 F2400.0 E1763.249
G1 X-2.15 Y2.74 Z0.6 F2400.0 E1763.782
G1 X-6.22 Y6.82 Z0.6 F2400.0 E1770.996
G1 X-6.6 Y6.6 Z0.6 F2400.0 E1771.539
G1 X-2.46 Y2.46 Z0.6 F2400.0 E1778.869
G1 X-2.74 Y2.15 Z0.6 F2400.0 E1779.393
G1 X-6.98 Y6.38 Z0.6 F2400.0 E1786.888
G1 X-7.35 Y6.17 Z0.6 F2400.0 E1787.43
G1 X-2.98 Y1.8 Z0.6 F2400.0 E1795.158
G1 X-3.18 Y1.4 Z0.6 F2400.0 E1795.71
G1 X-7.73 Y5.95 Z0.6 F2400.0 E1803.754
G1 X-8.1 Y5.73 Z0.6 F2400.0 E1804.296
G1 X-3.34 Y0.97 Z0.6 F2400.0 E1812.726
G1 X-3.45 Y0.48 Z0.6 F2400.0 E1813.346
G1 X-8.48 Y5.52 Z0.6 F2400.0 E1822.249
G1 X-8.85 Y5.3 Z0.6 F2400.0 E1822.791
G1 X-3.48 Y-0.07 Z0.6 F2400.0 E1832.293
G1 X-3.4 Y-0.75 Z0.6 F2400.0 E1833.148
G1 X-9.02 Y4.87 Z0.6 F2400.0 E1843.09
G1 X-9.02 Y4.28 Z0.6 F2400.0 E1843.832
G1 X3.6 Y-8.34 Z0.6 F2400.0 E1866.143
G1 X3.97 Y-8.12 Z0.6 F2400.0 E1866.686
G1 X-0.75 Y-3.4 Z0.6 F2400.0 E1875.039
G1 X-0.07 Y-3.48 Z0.6 F2400.0 E1875.894
G1 X4.35 Y-7.9 Z0.6 F2400.0 E1883.712
G1 X4.72 Y-7.68 Z0.6 F2400.0 E1884.254
G1 X0.48 Y-3.45 Z0.6 F2400.0 E1891.752
G1 X0.97 Y-3.34 Z0.6 F2400.0 E1892.372
G1 X5.1 Y-7.47 Z0.6 F2400.0 E1899.678
G1 X5.47 Y-7.25 Z0.6 F2400.0 E1900.22
G1 X1.4 Y-3.18 Z0.6 F2400.0 E1907.421
G1 X1.8 Y-2.98 Z0.6 F2400.0 E1907.973
G1 X5.85 Y-7.03 Z0.6 F2400.0 E1915.14
G1 X6.22 Y-6.82 Z0.6 F2400.0 E1915.682
G1 X2.15 Y-2.74 Z0.6 F2400.0 E1922.896
G1 X2.46 Y-2.46 Z0.6 F2400.0 E1923.42
G1 X6.6 Y-6.6 Z0.6 F2400.0 E1930.75
G1 X6.98 Y-6.38 Z0.6 F2400.0 E1931.293
G1 X2.74 Y-2.15 Z0.6 F2400.0 E1938.788
G1 X2.98 Y-1.8 Z0.6 F2400.0 E1939.321
G1 X7.35 Y-6.17 Z0.6 F2400.0 E1947.048
G1 X7.73 Y-5.95 Z0.6 F2400.0 E1947.591
G1 X3.18 Y-1.4 Z0.6 F2400.0 E1955.635
G1 X3.34 Y-0.97 Z0.6 F2400.0 E1956.214
G1 X8.1 Y-5.73 Z0.6 F2400.0 E1964.643
G1 X8.48 Y-5.52 Z0.6 F2400.0 E1965.187
G1 X3.45 Y-0.48 Z0.6 F2400.0 E1974.089
G1 X3.48 Y0.07 Z0.6 F2400.0 E1974.786
G1 X8.85 Y-5.3 Z0.6 F2400.0 E1984.288
G1 X9.02 Y-4.87 Z0.6 F2400.0 E1984.864
G1 X3.4 Y0.75 Z0.6 F2400.0 E1994.806
G1 X3.04 Y1.7 Z0.6 F2400.0 E1996.068
;M103
G1 X1.74 Y8.92 Z0.6 F3600.0
;M101
G1 X9.02 Y1.65 Z0.6 F2400.0 E2008.937
G1 X9.02 Y1.06 Z0.6 F2400.0 E2009.678
G1 X-0.22 Y10.29 Z0.6 F2400.0 E2026.009
G1 X-0.59 Y10.07 Z0.6 F2400.0 E2026.552
G1 X9.02 Y0.46 Z0.6 F2400.0 E2043.548
G1 X9.02 Y-0.13 Z0.6 F2400.0 E2044.29
G1 X-0.97 Y9.85 Z0.6 F2400.0 E2061.951
G1 X-1.34 Y9.64 Z0.6 F2400.0 E2062.493
G1 X9.02 Y-0.72 Z0.6 F2400.0 E2080.817
G1 X9.02 Y-1.32 Z0.6 F2400.0 E2081.559
G1 X-1.72 Y9.42 Z0.6 F2400.0 E2100.549
G1 X-2.09 Y9.2 Z0.6 F2400.0 E2101.091
G1 X9.02 Y-1.91 Z0.6 F2400.0 E2120.745
G1 X9.02 Y-2.5 Z0.6 F2400.0 E2121.486
G1 X-2.47 Y8.99 Z0.6 F2400.0 E2141.804
G1 X-2.84 Y8.77 Z0.6 F2400.0 E2142.346
G1 X9.02 Y-3.09 Z0.6 F2400.0 E2163.328
G1 X9.02 Y-3.68 Z0.6 F2400.0 E2164.069
G1 X-3.22 Y8.55 Z0.6 F2400.0 E2185.716
G1 X-3.6 Y8.34 Z0.6 F2400.0 E2186.257
G1 X1.7 Y3.04 Z0.6 F2400.0 E2195.618
;M103
G1 X4.55 Y7.3 Z0.6 F3600.0
;M101
G1 X9.02 Y2.83 Z0.6 F2400.0 E2203.528
G1 X9.02 Y2.24 Z0.6 F2400.0 E2204.268
G1 X2.0 Y9.26 Z0.6 F2400.0 E2216.682
G1 X0.6 Y10.07 Z0.6 F2400.0 E2218.706
;M103
G1 X7.35 Y5.69 Z0.6 F3600.0
;M101
G1 X9.02 Y4.02 Z0.6 F2400.0 E2221.657
G1 X9.02 Y3.43 Z0.6 F2400.0 E2222.397
G1 X4.8 Y7.64 Z0.6 F2400.0 E2229.852
G1 X3.4 Y8.45 Z0.6 F2400.0 E2231.876
;M103
G1 X9.02 Y5.2 Z0.6 F3600.0
;M101
G1 X9.01 Y5.21 Z0.6 F2400.0 E2231.892
G1 X9.02 Y4.61 Z0.6 F2400.0 E2232.646
G1 X7.61 Y6.02 Z0.6 F2400.0 E2235.142
G1 X6.2 Y6.83 Z0.6 F2400.0 E2237.167
;M103
G1 X1.83 Y2.53 Z0.6 F3600.0
;M101
G1 X2.01 Y2.4 Z0.6 F2400.0 E2237.444
G1 X2.4 Y2.01 Z0.6 F2400.0 E2238.125
G1 X2.71 Y1.57 Z0.6 F2400.0 E2238.808
G1 X2.94 Y1.07 Z0.6 F2400.0 E2239.491
G1 X3.08 Y0.54 Z0.6 F2400.0 E2240.173
G1 X3.13 Y0.0 Z0.6 F2400.0 E2240.856
G1 X3.08 Y-0.54 Z0.6 F2400.0 E2241.539
G1 X2.94 Y-1.07 Z0.6 F2400.0 E2242.222
G1 X2.71 Y-1.57 Z0.6 F2400.0 E2242.904
G1 X2.4 Y-2.01 Z0.6 F2400.0 E2243.588
G1 X2.01 Y-2.4 Z0.6 F2400.0 E2244.269
G1 X1.57 Y-2.71 Z0.6 F2400.0 E2244.953
G1 X1.07 Y-2.94 Z0.6 F2400.0 E2245.635
G1 X0.54 Y-3.08 Z0.6 F2400.0 E2246.317
G1 X0.0 Y-3.13 Z0.6 F2400.0 E2247.0
G1 X-0.54 Y-3.08 Z0.6 F2400.0 E2247.684
G1 X-1.07 Y-2.94 Z0.6 F2400.0 E2248.366
G1 X-1.57 Y-2.71 Z0.6 F2400.0 E2249.048
G1 X-2.01 Y-2.4 Z0.6 F2400.0 E2249.732
G1 X-2.4 Y-2.01 Z0.6 F2400.0 E2250.413
G1 X-2.71 Y-1.57 Z0.6 F2400.0 E2251.097
G1 X-2.94 Y-1.07 Z0.6 F2400.0 E2251.779
G1 X-3.08 Y-0.54 Z0.6 F2400.0 E2252.462
G1 X-3.13 Y0.0 Z0.6 F2400.0 E2253.145
G1 X-3.08 Y0.54 Z0.6 F2400.0 E2253.828
G1 X-2.94 Y1.07 Z0.6 F2400.0 E2254.51
G1 X-2.71 Y1.57 Z0.6 F2400.0 E2255.193
G1 X-2.4 Y2.01 Z0.6 F2400.0 E2255.876
G1 X-2.01 Y2.4 Z0.6 F2400.0 E2256.557
G1 X-1.57 Y2.71 Z0.6 F2400.0 E2257.241
G1 X-1.07 Y2.94 Z0.6 F2400.0 E2257.923
G1 X-0.54 Y3.08 Z0.6 F2400.0 E2258.606
G1 X0.0 Y3.13 Z0.6 F2400.0 E2259.289
G1 X0.54 Y3.08 Z0.6 F2400.0 E2259.972
G1 X1.07 Y2.94 Z0.6 F2400.0 E2260.655
G1 X1.57 Y2.71 Z0.6 F2400.0 E2261.337
G1 X1.83 Y2.53 Z0.6 F2400.0 E2261.744
;M103
G1 X4.97 Y7.95 Z0.6 F3600.0
;M101
G1 X0.0 Y10.82 Z0.6 F2400.0 E2268.917
G1 X-9.37 Y5.41 Z0.6 F2400.0 E2282.455
G1 X-9.37 Y-5.41 Z0.6 F2400.0 E2295.993
G1 X0.0 Y-10.82 Z0.6 F2400.0 E2309.531
G1 X9.37 Y-5.41 Z0.6 F2400.0 E2323.068
G1 X9.37 Y5.41 Z0.6 F2400.0 E2336.607
G1 X5.16 Y7.84 Z0.6 F2400.0 E2342.695
G1 X4.97 Y7.95 Z0.6 F2400.0 E2342.971
;M103
;M108 S37.53
G1 X5.18 Y8.32 Z0.6 F3600.0
;M101
G1 X0.0 Y11.31 Z0.6 F1800.0 E2350.446
G1 X-9.79 Y5.65 Z0.6 F1800.0 E2364.589
G1 X-9.79 Y-5.65 Z0.6 F1800.0 E2378.733
G1 X0.0 Y-11.31 Z0.6 F1800.0 E2392.876
G1 X9.79 Y-5.65 Z0.6 F1800.0 E2407.019
G1 X9.79 Y5.65 Z0.6 F1800.0 E2421.163
G1 X5.37 Y8.21 Z0.6 F1800.0 E2427.554
G1 X5.18 Y8.32 Z0.6 F1800.0 E2427.83
;M103
G1 X1.36 Y2.35 Z0.6 F3600.0
;M101
G1 X1.74 Y2.08 Z0.6 F1800.0 E2428.421
G1 X2.08 Y1.74 Z0.6 F1800.0 E2429.012
G1 X2.35 Y1.36 Z0.6 F1800.0 E2429.603
G1 X2.55 Y0.93 Z0.6 F1800.0 E2430.194
G1 X2.67 Y0.47 Z0.6 F1800.0 E2430.784
G1 X2.71 Y0.0 Z0.6 F1800.0 E2431.376
G1 X2.67 Y-0.47 Z0.6 F1800.0 E2431.967
G1 X2.55 Y-0.93 Z0.6 F1800.0 E2432.558
G1 X2.35 Y-1.36 Z0.6 F1800.0 E2433.149
G1 X2.08 Y-1.74 Z0.6 F1800.0 E2433.74
G1 X1.74 Y-2.08 Z0.6 F1800.0 E2434.331
G1 X1.36 Y-2.35 Z0.6 F1800.0 E2434.922
G1 X0.93 Y-2.55 Z0.6 F1800.0 E2435.513
G1 X0.47 Y-2.67 Z0.6 F1800.0 E2436.103
G1 X0.0 Y-2.71 Z0.6 F1800.0 E2436.695
G1 X-0.47 Y-2.67 Z0.6 F1800.0 E2437.286
G1 X-0.93 Y-2.55 Z0.6 F1800.0 E2437.877
G1 X-1.36 Y-2.35 Z0.6 F1800.0 E2438.468
G1 X-1.74 Y-2.08 Z0.6 F1800.0 E2439.059
G1 X-2.08 Y-1.74 Z0.6 F1800.0 E2439.65
G1 X-2.35 Y-1.36 Z0.6 F1800.0 E2440.241
G1 X-2.55 Y-0.93 Z0.6 F1800.0 E2440.832
G1 X-2.67 Y-0.47 Z0.6 F1800.0 E2441.422
G1 X-2.71 Y0.0 Z0.6 F1800.0 E2442.014
G1 X-2.67 Y0.47 Z0.6 F1800.0 E2442.605
G1 X-2.55 Y0.93 Z0.6 F1800.0 E2443.196
G1 X-2.35 Y1.36 Z0.6 F1800.0 E2443.787
G1 X-2.08 Y1.74 Z0.6 F1800.0 E2444.378
G1 X-1.74 Y2.08 Z0.6 F1800.0 E2444.969
G1 X-1.36 Y2.35 Z0.6 F1800.0 E2445.56
G1 X-0.93 Y2.55 Z0.6 F1800.0 E2446.151
G1 X-0.47 Y2.67 Z0.6 F1800.0 E2446.741
G1 X0.0 Y2.71 Z0.6 F1800.0 E2447.333
G1 X0.47 Y2.67 Z0.6 F1800.0 E2447.924
G1 X0.93 Y2.55 Z0.6 F1800.0 E2448.515
G1 X1.36 Y2.35 Z0.6 F1800.0 E2449.106
;M103
;M108 S50.04
G1 X2.14 Y1.8 Z0.9 F3600.0
G1 X3.76 Y-0.98 Z0.9 F3600.0
;M101
G1 X9.02 Y4.28 Z0.9 F2400.0 E2458.409
;M103
G1 X3.22 Y8.55 Z0.9 F3600.0
;M101
G1 X-9.02 Y-3.68 Z0.9 F2400.0 E2480.056
G1 X-9.02 Y-3.09 Z0.9 F2400.0 E2480.796
G1 X2.84 Y8.77 Z0.9 F2400.0 E2501.779
G1 X2.47 Y8.99 Z0.9 F2400.0 E2502.321
G1 X-9.02 Y-2.5 Z0.9 F2400.0 E2522.639
G1 X-9.02 Y-1.91 Z0.9 F2400.0 E2523.38
G1 X2.09 Y9.2 Z0.9 F2400.0 E2543.033
G1 X1.72 Y9.42 Z0.9 F2400.0 E2543.575
G1 X-9.02 Y-1.32 Z0.9 F2400.0 E2562.566
G1 X-9.02 Y-0.72 Z0.9 F2400.0 E2563.308
G1 X1.34 Y9.64 Z0.9 F2400.0 E2581.632
G1 X0.97 Y9.85 Z0.9 F2400.0 E2582.174
G1 X-9.02 Y-0.13 Z0.9 F2400.0 E2599.835
G1 X-9.02 Y0.46 Z0.9 F2400.0 E2600.577
G1 X0.59 Y10.07 Z0.9 F2400.0 E2617.572
G1 X0.22 Y10.29 Z0.9 F2400.0 E2618.115
G1 X-9.02 Y1.06 Z0.9 F2400.0 E2634.447
G1 X-9.02 Y1.65 Z0.9 F2400.0 E2635.187
G1 X-0.6 Y10.07 Z0.9 F2400.0 E2650.08
;M103
G1 X-2.0 Y9.26 Z0.9 F3600.0
;M101
G1 X-9.02 Y2.24 Z0.9 F2400.0 E2662.494
G1 X-9.02 Y2.83 Z0.9 F2400.0 E2663.234
G1 X-3.4 Y8.45 Z0.9 F2400.0 E2673.168
;M103
G1 X-4.8 Y7.64 Z0.9 F3600.0
;M101
G1 X-9.02 Y3.43 Z0.9 F2400.0 E2680.623
G1 X-9.02 Y4.02 Z0.9 F2400.0 E2681.363
G1 X-6.2 Y6.83 Z0.9 F2400.0 E2686.339
;M103
G1 X-7.61 Y6.02 Z0.9 F3600.0
;M101
G1 X-9.02 Y4.61 Z0.9 F2400.0 E2688.835
G1 X-9.01 Y5.21 Z0.9 F2400.0 E2689.589
;M103
G1 X-1.4 Y-2.42 Z0.9 F3600.0
G1 X0.75 Y-3.4 Z0.9 F3600.0
;M101
G1 X-3.97 Y-8.12 Z0.9 F2400.0 E2697.942
G1 X-4.35 Y-7.9 Z0.9 F2400.0 E2698.485
G1 X0.07 Y-3.48 Z0.9 F2400.0 E2706.303
G1 X-0.48 Y-3.45 Z0.9 F2400.0 E2707.0
G1 X-4.72 Y-7.68 Z0.9 F2400.0 E2714.498
G1 X-5.1 Y-7.47 Z0.9 F2400.0 E2715.041
G1 X-0.97 Y-3.34 Z0.9 F2400.0 E2722.347
G1 X-1.4 Y-3.18 Z0.9 F2400.0 E2722.926
G1 X-5.47 Y-7.25 Z0.9 F2400.0 E2730.126
G1 X-5.85 Y-7.03 Z0.9 F2400.0 E2730.669
G1 X-1.8 Y-2.98 Z0.9 F2400.0 E2737.836
G1 X-2.15 Y-2.74 Z0.9 F2400.0 E2738.368
G1 X-6.22 Y-6.82 Z0.9 F2400.0 E2745.582
G1 X-6.6 Y-6.6 Z0.9 F2400.0 E2746.125
G1 X-2.46 Y-2.46 Z0.9 F2400.0 E2753.455
G1 X-2.74 Y-2.15 Z0.9 F2400.0 E2753.979
G1 X-6.98 Y-6.38 Z0.9 F2400.0 E2761.474
G1 X-7.35 Y-6.17 Z0.9 F2400.0 E2762.016
G1 X-2.98 Y-1.8 Z0.9 F2400.0 E2769.744
G1 X-3.18 Y-1.4 Z0.9 F2400.0 E2770.296
G1 X-7.73 Y-5.95 Z0.9 F2400.0 E2778.341
G1 X-8.1 Y-5.73 Z0.9 F2400.0 E2778.883
G1 X-3.34 Y-0.97 Z0.9 F2400.0 E2787.312
G1 X-3.45 Y-0.48 Z0.9 F2400.0 E2787.932
G1 X-8.48 Y-5.52 Z0.9 F2400.0 E2796.835
G1 X-8.85 Y-5.3 Z0.9 F2400.0 E2797.377
G1 X-3.48 Y0.07 Z0.9 F2400.0 E2806.879
G1 X-3.4 Y0.75 Z0.9 F2400.0 E2807.734
G1 X-9.02 Y-4.87 Z0.9 F2400.0 E2817.676
G1 X-9.02 Y-4.28 Z0.9 F2400.0 E2818.418
G1 X3.6 Y8.34 Z0.9 F2400.0 E2840.729
G1 X3.97 Y8.12 Z0.9 F2400.0 E2841.272
G1 X-0.75 Y3.4 Z0.9 F2400.0 E2849.625
G1 X-0.07 Y3.48 Z0.9 F2400.0 E2850.48
G1 X4.35 Y7.9 Z0.9 F2400.0 E2858.298
G1 X4.72 Y7.68 Z0.9 F2400.0 E2858.84
G1 X0.48 Y3.45 Z0.9 F2400.0 E2866.338
G1 X0.97 Y3.34 Z0.9 F2400.0 E2866.959
G1 X5.1 Y7.47 Z0.9 F2400.0 E2874.264
G1 X5.47 Y7.25 Z0.9 F2400.0 E2874.806
G1 X1.4 Y3.18 Z0.9 F2400.0 E2882.007
G1 X1.8 Y2.98 Z0.9 F2400.0 E2882.559
G1 X5.85 Y7.03 Z0.9 F2400.0 E2889.726
G1 X6.22 Y6.82 Z0.9 F2400.0 E2890.268
G1 X2.15 Y2.74 Z0.9 F2400.0 E2897.482
G1 X2.46 Y2.46 Z0.9 F2400.0 E2898.006
G1 X6.6 Y6.6 Z0.9 F2400.0 E2905.336
G1 X6.98 Y6.38 Z0.9 F2400.0 E2905.879
G1 X2.74 Y2.15 Z0.9 F2400.0 E2913.374
G1 X2.98 Y1.8 Z0.9 F2400.0 E2913.907
G1 X7.35 Y6.17 Z0.9 F2400.0 E2921.635
G1 X7.73 Y5.95 Z0.9 F2400.0 E2922.177
G1 X3.18 Y1.4 Z0.9 F2400.0 E2930.222
G1 X3.34 Y0.97 Z0.9 F2400.0 E2930.801
G1 X8.1 Y5.73 Z0.9 F2400.0 E2939.23
G1 X8.48 Y5.52 Z0.9 F2400.0 E2939.773
G1 X3.45 Y0.48 Z0.9 F2400.0 E2948.675
G1 X3.48 Y-0.07 Z0.9 F2400.0 E2949.372
G1 X8.85 Y5.3 Z0.9 F2400.0 E2958.875
G1 X9.02 Y4.87 Z0.9 F2400.0 E2959.45
G1 X3.4 Y-0.75 Z0.9 F2400.0 E2969.392
G1 X3.04 Y-1.7 Z0.9 F2400.0 E2970.655
;M103
G1 X1.74 Y-8.92 Z0.9 F3600.0
;M101
G1 X9.02 Y-1.65 Z0.9 F2400.0 E2983.524
G1 X9.02 Y-1.06 Z0.9 F2400.0 E2984.264
G1 X-0.22 Y-10.29 Z0.9 F2400.0 E3000.596
G1 X-0.59 Y-10.07 Z0.9 F2400.0 E3001.139
G1 X9.02 Y-0.46 Z0.9 F2400.0 E3018.134
G1 X9.02 Y0.13 Z0.9 F2400.0 E3018.876
G1 X-0.97 Y-9.85 Z0.9 F2400.0 E3036.537
G1 X-1.34 Y-9.64 Z0.9 F2400.0 E3037.079
G1 X9.02 Y0.72 Z0.9 F2400.0 E3055.403
G1 X9.02 Y1.32 Z0.9 F2400.0 E3056.145
G1 X-1.72 Y-9.42 Z0.9 F2400.0 E3075.135
G1 X-2.09 Y-9.2 Z0.9 F2400.0 E3075.678
G1 X9.02 Y1.91 Z0.9 F2400.0 E3095.331
G1 X9.02 Y2.5 Z0.9 F2400.0 E3096.072
G1 X-2.47 Y-8.99 Z0.9 F2400.0 E3116.39
G1 X-2.84 Y-8.77 Z0.9 F2400.0 E3116.932
G1 X9.02 Y3.09 Z0.9 F2400.0 E3137.915
G1 X9.02 Y3.68 Z0.9 F2400.0 E3138.655
G1 X-3.22 Y-8.55 Z0.9 F2400.0 E3160.302
G1 X-3.6 Y-8.34 Z0.9 F2400.0 E3160.843
G1 X1.7 Y-3.04 Z0.9 F2400.0 E3170.204
;M103
G1 X4.55 Y-7.3 Z0.9 F3600.0
;M101
G1 X9.02 Y-2.83 Z0.9 F2400.0 E3178.114
G1 X9.02 Y-2.24 Z0.9 F2400.0 E3178.855
G1 X2.0 Y-9.26 Z0.9 F2400.0 E3191.268
G1 X0.6 Y-10.07 Z0.9 F2400.0 E3193.292
;M103
G1 X7.35 Y-5.69 Z0.9 F3600.0
;M101
G1 X9.02 Y-4.02 Z0.9 F2400.0 E3196.243
G1 X9.02 Y-3.43 Z0.9 F2400.0 E3196.984
G1 X4.8 Y-7.64 Z0.9 F2400.0 E3204.438
G1 X3.4 Y-8.45 Z0.9 F2400.0 E3206.462
;M103
G1 X9.01 Y-5.21 Z0.9 F3600.0
;M101
G1 X9.02 Y-4.61 Z0.9 F2400.0 E3207.215
G1 X7.61 Y-6.02 Z0.9 F2400.0 E3209.711
G1 X6.2 Y-6.83 Z0.9 F2400.0 E3211.736
;M103
G1 X1.77 Y-2.57 Z0.9 F3600.0
;M101
G1 X1.57 Y-2.71 Z0.9 F2400.0 E3212.049
G1 X1.07 Y-2.94 Z0.9 F2400.0 E3212.731
G1 X0.54 Y-3.08 Z0.9 F2400.0 E3213.414
G1 X0.0 Y-3.13 Z0.9 F2400.0 E3214.097
G1 X-0.54 Y-3.08 Z0.9 F2400.0 E3214.78
G1 X-1.07 Y-2.94 Z0.9 F2400.0 E3215.463
G1 X-1.57 Y-2.71 Z0.9 F2400.0 E3216.145
G1 X-2.01 Y-2.4 Z0.9 F2400.0 E3216.829
G1 X-2.4 Y-2.01 Z0.9 F2400.0 E3217.51
G1 X-2.71 Y-1.57 Z0.9 F2400.0 E3218.193
G1 X-2.94 Y-1.07 Z0.9 F2400.0 E3218.876
G1 X-3.08 Y-0.54 Z0.9 F2400.0 E3219.558
G1 X-3.13 Y0.0 Z0.9 F2400.0 E3220.241
G1 X-3.08 Y0.54 Z0.9 F2400.0 E3220.924
G1 X-2.94 Y1.07 Z0.9 F2400.0 E3221.607
G1 X-2.71 Y1.57 Z0.9 F2400.0 E3222.289
G1 X-2.4 Y2.01 Z0.9 F2400.0 E3222.973
G1 X-2.01 Y2.4 Z0.9 F2400.0 E3223.654
G1 X-1.57 Y2.71 Z0.9 F2400.0 E3224.338
G1 X-1.07 Y2.94 Z0.9 F2400.0 E3225.02
G1 X-0.54 Y3.08 Z0.9 F2400.0 E3225.702
G1 X0.0 Y3.13 Z0.9 F2400.0 E3226.385
G1 X0.54 Y3.08 Z0.9 F2400.0 E3227.069
G1 X1.07 Y2.94 Z0.9 F2400.0 E3227.751
G1 X1.57 Y2.71 Z0.9 F2400.0 E3228.433
G1 X2.01 Y2.4 Z0.9 F2400.0 E3229.117
G1 X2.4 Y2.01 Z0.9 F2400.0 E3229.798
G1 X2.71 Y1.57 Z0.9 F2400.0 E3230.482
G1 X2.94 Y1.07 Z0.9 F2400.0 E3231.164
G1 X3.08 Y0.54 Z0.9 F2400.0 E3231.847
G1 X3.13 Y0.0 Z0.9 F2400.0 E3232.53
G1 X3.08 Y-0.54 Z0.9 F2400.0 E3233.213
G1 X2.94 Y-1.07 Z0.9 F2400.0 E3233.895
G1 X2.71 Y-1.57 Z0.9 F2400.0 E3234.578
G1 X2.4 Y-2.01 Z0.9 F2400.0 E3235.261
G1 X2.01 Y-2.4 Z0.9 F2400.0 E3235.942
G1 X1.77 Y-2.57 Z0.9 F2400.0 E3236.313
;M103
G1 X4.9 Y-7.99 Z0.9 F3600.0
;M101
G1 X5.16 Y-7.84 Z0.9 F2400.0 E3236.683
G1 X9.37 Y-5.41 Z0.9 F2400.0 E3242.772
G1 X9.37 Y5.41 Z0.9 F2400.0 E3256.31
G1 X0.0 Y10.82 Z0.9 F2400.0 E3269.848
G1 X-9.37 Y5.41 Z0.9 F2400.0 E3283.385
G1 X-9.37 Y-5.41 Z0.9 F2400.0 E3296.923
G1 X0.0 Y-10.82 Z0.9 F2400.0 E3310.461
G1 X4.9 Y-7.99 Z0.9 F2400.0 E3317.54
;M103
;M108 S37.53
G1 X5.11 Y-8.36 Z0.9 F3600.0
;M101
G1 X5.37 Y-8.21 Z0.9 F1800.0 E3317.91
G1 X9.79 Y-5.65 Z0.9 F1800.0 E3324.302
G1 X9.79 Y5.65 Z0.9 F1800.0 E3338.446
G1 X0.0 Y11.31 Z0.9 F1800.0 E3352.588
G1 X-9.79 Y5.65 Z0.9 F1800.0 E3366.731
G1 X-9.79 Y-5.65 Z0.9 F1800.0 E3380.875
G1 X0.0 Y-11.31 Z0.9 F1800.0 E3395.018
G1 X5.11 Y-8.36 Z0.9 F1800.0 E3402.399
;M103
G1 X1.36 Y-2.35 Z0.9 F3600.0
;M101
G1 X0.93 Y-2.55 Z0.9 F1800.0 E3402.99
G1 X0.47 Y-2.67 Z0.9 F1800.0 E3403.581
G1 X0.0 Y-2.71 Z0.9 F1800.0 E3404.172
G1 X-0.47 Y-2.67 Z0.9 F1800.0 E3404.764
G1 X-0.93 Y-2.55 Z0.9 F1800.0 E3405.354
G1 X-1.36 Y-2.35 Z0.9 F1800.0 E3405.945
G1 X-1.74 Y-2.08 Z0.9 F1800.0 E3406.536
G1 X-2.08 Y-1.74 Z0.9 F1800.0 E3407.127
G1 X-2.35 Y-1.36 Z0.9 F1800.0 E3407.718
G1 X-2.55 Y-0.93 Z0.9 F1800.0 E3408.309
G1 X-2.67 Y-0.47 Z0.9 F1800.0 E3408.9
G1 X-2.71 Y0.0 Z0.9 F1800.0 E3409.491
G1 X-2.67 Y0.47 Z0.9 F1800.0 E3410.083
G1 X-2.55 Y0.93 Z0.9 F1800.0 E3410.673
G1 X-2.35 Y1.36 Z0.9 F1800.0 E3411.264
G1 X-2.08 Y1.74 Z0.9 F1800.0 E3411.855
G1 X-1.74 Y2.08 Z0.9 F1800.0 E3412.446
G1 X-1.36 Y2.35 Z0.9 F1800.0 E3413.037
G1 X-0.93 Y2.55 Z0.9 F1800.0 E3413.628
G1 X-0.47 Y2.67 Z0.9 F1800.0 E3414.219
G1 X0.0 Y2.71 Z0.9 F1800.0 E3414.81
G1 X0.47 Y2.67 Z0.9 F1800.0 E3415.402
G1 X0.93 Y2.55 Z0.9 F1800.0 E3415.992
G1 X1.36 Y2.35 Z0.9 F1800.0 E3416.583
G1 X1.74 Y2.08 Z0.9 F1800.0 E3417.174
G1 X2.08 Y1.74 Z0.9 F1800.0 E3417.765
G1 X2.35 Y1.36 Z0.9 F1800.0 E3418.356
G1 X2.55 Y0.93 Z0.9 F1800.0 E3418.947
G1 X2.67 Y0.47 Z0.9 F1800.0 E3419.538
G1 X2.71 Y0.0 Z0.9 F1800.0 E3420.129
G1 X2.67 Y-0.47 Z0.9 F1800.0 E3420.721
G1 X2.55 Y-0.93 Z0.9 F1800.0 E3421.311
G1 X2.35 Y-1.36 Z0.9 F1800.0 E3421.902
G1 X2.08 Y-1.74 Z0.9 F1800.0 E3422.493
G1 X1.74 Y-2.08 Z0.9 F1800.0 E3423.084
G1 X1.36 Y-2.35 Z0.9 F1800.0 E3423.675
;M103
;M108 S50.04
G1 X1.4 Y-3.18 Z1.2 F3600.0
;M101
G1 X1.8 Y-2.98 Z1.2 F2400.0 E3424.227
G1 X2.15 Y-2.74 Z1.2 F2400.0 E3424.76
G1 X6.22 Y-6.82 Z1.2 F2400.0 E3431.974
G1 X3.97 Y-8.12 Z1.2 F2400.0 E3435.229
G1 X0.97 Y-3.34 Z1.2 F2400.0 E3442.29
G1 X0.48 Y-3.45 Z1.2 F2400.0 E3442.911
G1 X-0.07 Y-3.48 Z1.2 F2400.0 E3443.608
G1 X-0.75 Y-3.4 Z1.2 F2400.0 E3444.463
G1 X-1.7 Y-3.04 Z1.2 F2400.0 E3445.726
;M103
G1 X-3.04 Y-1.7 Z1.2 F3600.0
;M101
G1 X-3.4 Y-0.75 Z1.2 F2400.0 E3446.988
G1 X-3.48 Y-0.07 Z1.2 F2400.0 E3447.843
G1 X-3.45 Y0.48 Z1.2 F2400.0 E3448.54
G1 X-3.34 Y0.97 Z1.2 F2400.0 E3449.161
G1 X-9.02 Y4.87 Z1.2 F2400.0 E3457.779
G1 X-8.85 Y5.3 Z1.2 F2400.0 E3458.354
G1 X-6.98 Y6.38 Z1.2 F2400.0 E3461.066
G1 X-2.74 Y2.15 Z1.2 F2400.0 E3468.561
G1 X-2.98 Y1.8 Z1.2 F2400.0 E3469.093
G1 X-3.18 Y1.4 Z1.2 F2400.0 E3469.646
;M103
G1 X-1.8 Y2.98 Z1.2 F3600.0
;M101
G1 X-2.46 Y2.46 Z1.2 F2400.0 E3470.7
G1 X-6.6 Y6.6 Z1.2 F2400.0 E3478.03
G1 X-4.35 Y7.9 Z1.2 F2400.0 E3481.285
G1 X-1.4 Y3.18 Z1.2 F2400.0 E3488.245
G1 X-0.48 Y3.45 Z1.2 F2400.0 E3489.442
G1 X0.07 Y3.48 Z1.2 F2400.0 E3490.139
G1 X0.75 Y3.4 Z1.2 F2400.0 E3490.994
G1 X1.7 Y3.04 Z1.2 F2400.0 E3492.257
G1 X1.84 Y3.44 Z1.2 F2400.0 E3492.78
G1 X-3.22 Y8.55 Z1.2 F2400.0 E3501.782
G1 X-3.97 Y8.12 Z1.2 F2400.0 E3502.867
;M103
G1 X-0.22 Y10.29 Z1.2 F3600.0
;M101
G1 X0.6 Y10.07 Z1.2 F2400.0 E3503.921
G1 X3.4 Y8.45 Z1.2 F2400.0 E3507.97
G1 X9.02 Y2.83 Z1.2 F2400.0 E3517.904
G1 X9.02 Y-0.72 Z1.2 F2400.0 E3522.35
G1 X-0.59 Y10.07 Z1.2 F2400.0 E3540.424
G1 X-2.47 Y8.99 Z1.2 F2400.0 E3543.137
G1 X3.28 Y2.04 Z1.2 F2400.0 E3554.421
G1 X9.02 Y-1.32 Z1.2 F2400.0 E3562.728
G1 X9.02 Y-4.87 Z1.2 F2400.0 E3567.174
G1 X3.4 Y0.75 Z1.2 F2400.0 E3577.116
G1 X3.34 Y-0.97 Z1.2 F2400.0 E3579.266
G1 X3.18 Y-1.4 Z1.2 F2400.0 E3579.845
G1 X8.85 Y-5.3 Z1.2 F2400.0 E3588.455
G1 X6.6 Y-6.6 Z1.2 F2400.0 E3591.709
G1 X2.46 Y-2.46 Z1.2 F2400.0 E3599.039
G1 X2.98 Y-1.8 Z1.2 F2400.0 E3600.094
;M103
G1 X0.49 Y-2.75 Z1.2 F3600.0
G1 X0.0 Y-2.79 Z1.2 F3600.0
G1 X-0.49 Y-2.75 Z1.2 F3600.0
G1 X-0.96 Y-2.62 Z1.2 F3600.0
G1 X-1.4 Y-2.42 Z1.2 F3600.0
G1 X-9.02 Y4.28 Z1.2 F3600.0
;M101
G1 X-9.02 Y1.91 Z1.2 F2400.0 E3603.058
G1 X3.6 Y-8.34 Z1.2 F2400.0 E3623.381
G1 X1.34 Y-9.64 Z1.2 F2400.0 E3626.635
G1 X-9.02 Y1.32 Z1.2 F2400.0 E3645.492
G1 X-9.02 Y-1.06 Z1.2 F2400.0 E3648.456
G1 X-0.6 Y-10.07 Z1.2 F2400.0 E3663.882
G1 X0.22 Y-10.29 Z1.2 F2400.0 E3664.936
G1 X0.97 Y-9.85 Z1.2 F2400.0 E3666.022
;M103
G1 X-2.0 Y-9.26 Z1.2 F3600.0
;M101
G1 X-6.2 Y-6.83 Z1.2 F2400.0 E3672.095
G1 X-9.02 Y-1.65 Z1.2 F2400.0 E3679.471
G1 X-9.02 Y-4.61 Z1.2 F2400.0 E3683.177
G1 X-7.61 Y-6.02 Z1.2 F2400.0 E3685.673
;M103
G1 X-9.01 Y-5.21 Z1.2 F3600.0
;M101
G1 X-9.02 Y-5.2 Z1.2 F2400.0 E3685.69
;M103
G1 X-1.4 Y2.42 Z1.2 F3600.0
G1 X9.02 Y5.2 Z1.2 F3600.0
;M101
G1 X9.01 Y5.21 Z1.2 F2400.0 E3685.707
G1 X9.02 Y3.43 Z1.2 F2400.0 E3687.941
G1 X7.61 Y6.02 Z1.2 F2400.0 E3691.636
G1 X4.8 Y7.64 Z1.2 F2400.0 E3695.685
;M103
G1 X1.54 Y2.72 Z1.2 F3600.0
;M101
G1 X1.57 Y2.71 Z1.2 F2400.0 E3695.714
G1 X2.01 Y2.4 Z1.2 F2400.0 E3696.398
G1 X2.4 Y2.01 Z1.2 F2400.0 E3697.079
G1 X2.71 Y1.57 Z1.2 F2400.0 E3697.762
G1 X2.94 Y1.07 Z1.2 F2400.0 E3698.445
G1 X3.08 Y0.54 Z1.2 F2400.0 E3699.127
G1 X3.13 Y0.0 Z1.2 F2400.0 E3699.81
G1 X3.08 Y-0.54 Z1.2 F2400.0 E3700.494
G1 X2.94 Y-1.07 Z1.2 F2400.0 E3701.176
G1 X2.71 Y-1.57 Z1.2 F2400.0 E3701.858
G1 X2.4 Y-2.01 Z1.2 F2400.0 E3702.542
G1 X2.01 Y-2.4 Z1.2 F2400.0 E3703.223
G1 X1.57 Y-2.71 Z1.2 F2400.0 E3703.907
G1 X1.07 Y-2.94 Z1.2 F2400.0 E3704.589
G1 X0.54 Y-3.08 Z1.2 F2400.0 E3705.271
G1 X0.0 Y-3.13 Z1.2 F2400.0 E3705.955
G1 X-0.54 Y-3.08 Z1.2 F2400.0 E3706.638
G1 X-1.07 Y-2.94 Z1.2 F2400.0 E3707.32
G1 X-1.57 Y-2.71 Z1.2 F2400.0 E3708.002
G1 X-2.01 Y-2.4 Z1.2 F2400.0 E3708.686
G1 X-2.4 Y-2.01 Z1.2 F2400.0 E3709.367
G1 X-2.71 Y-1.57 Z1.2 F2400.0 E3710.051
G1 X-2.94 Y-1.07 Z1.2 F2400.0 E3710.733
G1 X-3.08 Y-0.54 Z1.2 F2400.0 E3711.416
G1 X-3.13 Y0.0 Z1.2 F2400.0 E3712.099
G1 X-3.08 Y0.54 Z1.2 F2400.0 E3712.782
G1 X-2.94 Y1.07 Z1.2 F2400.0 E3713.465
G1 X-2.71 Y1.57 Z1.2 F2400.0 E3714.147
G1 X-2.4 Y2.01 Z1.2 F2400.0 E3714.83
G1 X-2.01 Y2.4 Z1.2 F2400.0 E3715.512
G1 X-1.57 Y2.71 Z1.2 F2400.0 E3716.195
G1 X-1.07 Y2.94 Z1.2 F2400.0 E3716.877
G1 X-0.54 Y3.08 Z1.2 F2400.0 E3717.56
G1 X0.0 Y3.13 Z1.2 F2400.0 E3718.243
G1 X0.54 Y3.08 Z1.2 F2400.0 E3718.926
G1 X1.07 Y2.94 Z1.2 F2400.0 E3719.609
G1 X1.54 Y2.72 Z1.2 F2400.0 E3720.262
;M103
G1 X4.69 Y8.12 Z1.2 F3600.0
;M101
G1 X0.0 Y10.82 Z1.2 F2400.0 E3727.031
G1 X-9.37 Y5.41 Z1.2 F2400.0 E3740.568
G1 X-9.37 Y-5.41 Z1.2 F2400.0 E3754.107
G1 X0.0 Y-10.82 Z1.2 F2400.0 E3767.644
G1 X9.37 Y-5.41 Z1.2 F2400.0 E3781.182
G1 X9.37 Y5.41 Z1.2 F2400.0 E3794.72
G1 X4.69 Y8.12 Z1.2 F2400.0 E3801.489
;M103
;M108 S37.53
G1 X4.89 Y8.48 Z1.2 F3600.0
;M101
G1 X0.0 Y11.31 Z1.2 F1800.0 E3808.56
G1 X-9.79 Y5.65 Z1.2 F1800.0 E3822.703
G1 X-9.79 Y-5.65 Z1.2 F1800.0 E3836.846
G1 X0.0 Y-11.31 Z1.2 F1800.0 E3850.989
G1 X9.79 Y-5.65 Z1.2 F1800.0 E3865.132
G1 X9.79 Y5.65 Z1.2 F1800.0 E3879.276
G1 X4.89 Y8.48 Z1.2 F1800.0 E3886.348
;M103
G1 X1.36 Y2.35 Z1.2 F3600.0
;M101
G1 X1.74 Y2.08 Z1.2 F1800.0 E3886.939
G1 X2.08 Y1.74 Z1.2 F1800.0 E3887.53
G1 X2.35 Y1.36 Z1.2 F1800.0 E3888.121
G1 X2.55 Y0.93 Z1.2 F1800.0 E3888.712
G1 X2.67 Y0.47 Z1.2 F1800.0 E3889.302
G1 X2.71 Y0.0 Z1.2 F1800.0 E3889.894
G1 X2.67 Y-0.47 Z1.2 F1800.0 E3890.485
G1 X2.55 Y-0.93 Z1.2 F1800.0 E3891.076
G1 X2.35 Y-1.36 Z1.2 F1800.0 E3891.667
G1 X2.08 Y-1.74 Z1.2 F1800.0 E3892.258
G1 X1.74 Y-2.08 Z1.2 F1800.0 E3892.849
G1 X1.36 Y-2.35 Z1.2 F1800.0 E3893.44
G1 X0.93 Y-2.55 Z1.2 F1800.0 E3894.031
G1 X0.47 Y-2.67 Z1.2 F1800.0 E3894.621
G1 X0.0 Y-2.71 Z1.2 F1800.0 E3895.213
G1 X-0.47 Y-2.67 Z1.2 F1800.0 E3895.804
G1 X-0.93 Y-2.55 Z1.2 F1800.0 E3896.395
G1 X-1.36 Y-2.35 Z1.2 F1800.0 E3896.986
G1 X-1.74 Y-2.08 Z1.2 F1800.0 E3897.577
G1 X-2.08 Y-1.74 Z1.2 F1800.0 E3898.168
G1 X-2.35 Y-1.36 Z1.2 F1800.0 E3898.759
G1 X-2.55 Y-0.93 Z1.2 F1800.0 E3899.35
G1 X-2.67 Y-0.47 Z1.2 F1800.0 E3899.94
G1 X-2.71 Y0.0 Z1.2 F1800.0 E3900.532
G1 X-2.67 Y0.47 Z1.2 F1800.0 E3901.123
G1 X-2.55 Y0.93 Z1.2 F1800.0 E3901.714
G1 X-2.35 Y1.36 Z1.2 F1800.0 E3902.305
G1 X-2.08 Y1.74 Z1.2 F1800.0 E3902.896
G1 X-1.74 Y2.08 Z1.2 F1800.0 E3903.487
G1 X-1.36 Y2.35 Z1.2 F1800.0 E3904.078
G1 X-0.93 Y2.55 Z1.2 F1800.0 E3904.669
G1 X-0.47 Y2.67 Z1.2 F1800.0 E3905.259
G1 X0.0 Y2.71 Z1.2 F1800.0 E3905.851
G1 X0.47 Y2.67 Z1.2 F1800.0 E3906.442
G1 X0.93 Y2.55 Z1.2 F1800.0 E3907.033
G1 X1.36 Y2.35 Z1.2 F1800.0 E3907.624
;M103
;M108 S50.04
G1 X1.4 Y3.18 Z1.5 F3600.0
;M101
G1 X1.8 Y2.98 Z1.5 F2400.0 E3908.176
G1 X2.15 Y2.74 Z1.5 F2400.0 E3908.708
G1 X6.22 Y6.82 Z1.5 F2400.0 E3915.922
G1 X3.97 Y8.12 Z1.5 F2400.0 E3919.177
G1 X0.97 Y3.34 Z1.5 F2400.0 E3926.239
G1 X0.48 Y3.45 Z1.5 F2400.0 E3926.859
G1 X-0.07 Y3.48 Z1.5 F2400.0 E3927.556
G1 X-0.75 Y3.4 Z1.5 F2400.0 E3928.411
G1 X-1.7 Y3.04 Z1.5 F2400.0 E3929.674
G1 X-3.04 Y1.7 Z1.5 F2400.0 E3932.059
G1 X-3.4 Y0.75 Z1.5 F2400.0 E3933.322
G1 X-3.48 Y0.07 Z1.5 F2400.0 E3934.177
G1 X-3.45 Y-0.48 Z1.5 F2400.0 E3934.874
G1 X-3.34 Y-0.97 Z1.5 F2400.0 E3935.494
G1 X-9.02 Y-4.87 Z1.5 F2400.0 E3944.112
G1 X-8.85 Y-5.3 Z1.5 F2400.0 E3944.687
G1 X-6.98 Y-6.38 Z1.5 F2400.0 E3947.399
G1 X-2.74 Y-2.15 Z1.5 F2400.0 E3954.894
G1 X-2.98 Y-1.8 Z1.5 F2400.0 E3955.427
G1 X-3.18 Y-1.4 Z1.5 F2400.0 E3955.979
;M103
G1 X-1.8 Y-2.98 Z1.5 F3600.0
;M101
G1 X-2.46 Y-2.46 Z1.5 F2400.0 E3957.034
G1 X-6.6 Y-6.6 Z1.5 F2400.0 E3964.363
G1 X-4.35 Y-7.9 Z1.5 F2400.0 E3967.618
G1 X-1.4 Y-3.18 Z1.5 F2400.0 E3974.578
G1 X-0.48 Y-3.45 Z1.5 F2400.0 E3975.775
G1 X0.07 Y-3.48 Z1.5 F2400.0 E3976.472
G1 X0.75 Y-3.4 Z1.5 F2400.0 E3977.327
G1 X-3.22 Y-8.55 Z1.5 F2400.0 E3985.467
G1 X-3.97 Y-8.12 Z1.5 F2400.0 E3986.551
;M103
G1 X-0.22 Y-10.29 Z1.5 F3600.0
;M101
G1 X0.6 Y-10.07 Z1.5 F2400.0 E3987.605
G1 X3.4 Y-8.45 Z1.5 F2400.0 E3991.654
G1 X9.02 Y-2.83 Z1.5 F2400.0 E4001.588
G1 X9.02 Y0.72 Z1.5 F2400.0 E4006.034
G1 X-0.59 Y-10.07 Z1.5 F2400.0 E4024.108
G1 X-2.84 Y-8.77 Z1.5 F2400.0 E4027.363
G1 X3.04 Y-1.7 Z1.5 F2400.0 E4038.875
G1 X9.02 Y1.32 Z1.5 F2400.0 E4047.242
G1 X9.02 Y4.87 Z1.5 F2400.0 E4051.688
G1 X3.4 Y-0.75 Z1.5 F2400.0 E4061.63
G1 X3.34 Y0.97 Z1.5 F2400.0 E4063.78
G1 X3.18 Y1.4 Z1.5 F2400.0 E4064.359
G1 X8.85 Y5.3 Z1.5 F2400.0 E4072.969
G1 X6.6 Y6.6 Z1.5 F2400.0 E4076.223
G1 X2.46 Y2.46 Z1.5 F2400.0 E4083.553
G1 X2.98 Y1.8 Z1.5 F2400.0 E4084.608
;M103
G1 X0.49 Y2.75 Z1.5 F3600.0
G1 X0.0 Y2.79 Z1.5 F3600.0
G1 X-0.49 Y2.75 Z1.5 F3600.0
G1 X-0.96 Y2.62 Z1.5 F3600.0
G1 X-1.4 Y2.42 Z1.5 F3600.0
G1 X-9.02 Y-4.28 Z1.5 F3600.0
;M101
G1 X-9.02 Y-1.91 Z1.5 F2400.0 E4087.571
G1 X3.6 Y8.34 Z1.5 F2400.0 E4107.895
G1 X1.34 Y9.64 Z1.5 F2400.0 E4111.149
G1 X-9.02 Y-1.32 Z1.5 F2400.0 E4130.006
G1 X-9.02 Y1.06 Z1.5 F2400.0 E4132.97
G1 X-0.6 Y10.07 Z1.5 F2400.0 E4148.396
G1 X0.22 Y10.29 Z1.5 F2400.0 E4149.45
G1 X0.97 Y9.85 Z1.5 F2400.0 E4150.536
;M103
G1 X-2.0 Y9.26 Z1.5 F3600.0
;M101
G1 X-6.2 Y6.83 Z1.5 F2400.0 E4156.609
G1 X-9.02 Y1.65 Z1.5 F2400.0 E4163.985
G1 X-9.02 Y4.61 Z1.5 F2400.0 E4167.691
G1 X-7.61 Y6.02 Z1.5 F2400.0 E4170.187
;M103
G1 X-9.01 Y5.21 Z1.5 F3600.0
;M101
G1 X-9.02 Y5.2 Z1.5 F2400.0 E4170.204
;M103
G1 X-1.4 Y-2.42 Z1.5 F3600.0
G1 X9.01 Y-5.21 Z1.5 F3600.0
;M101
G1 X9.02 Y-3.43 Z1.5 F2400.0 E4172.438
G1 X7.61 Y-6.02 Z1.5 F2400.0 E4176.133
G1 X4.8 Y-7.64 Z1.5 F2400.0 E4180.182
;M103
G1 X1.85 Y-2.51 Z1.5 F3600.0
;M101
G1 X1.57 Y-2.71 Z1.5 F2400.0 E4180.612
G1 X1.07 Y-2.94 Z1.5 F2400.0 E4181.295
G1 X0.54 Y-3.08 Z1.5 F2400.0 E4181.977
G1 X0.0 Y-3.13 Z1.5 F2400.0 E4182.66
G1 X-0.54 Y-3.08 Z1.5 F2400.0 E4183.343
G1 X-1.07 Y-2.94 Z1.5 F2400.0 E4184.026
G1 X-1.57 Y-2.71 Z1.5 F2400.0 E4184.708
G1 X-2.01 Y-2.4 Z1.5 F2400.0 E4185.392
G1 X-2.4 Y-2.01 Z1.5 F2400.0 E4186.073
G1 X-2.71 Y-1.57 Z1.5 F2400.0 E4186.757
G1 X-2.94 Y-1.07 Z1.5 F2400.0 E4187.439
G1 X-3.08 Y-0.54 Z1.5 F2400.0 E4188.121
G1 X-3.13 Y0.0 Z1.5 F2400.0 E4188.804
G1 X-3.08 Y0.54 Z1.5 F2400.0 E4189.488
G1 X-2.94 Y1.07 Z1.5 F2400.0 E4190.17
G1 X-2.71 Y1.57 Z1.5 F2400.0 E4190.852
G1 X-2.4 Y2.01 Z1.5 F2400.0 E4191.536
G1 X-2.01 Y2.4 Z1.5 F2400.0 E4192.217
G1 X-1.57 Y2.71 Z1.5 F2400.0 E4192.901
G1 X-1.07 Y2.94 Z1.5 F2400.0 E4193.583
G1 X-0.54 Y3.08 Z1.5 F2400.0 E4194.266
G1 X0.0 Y3.13 Z1.5 F2400.0 E4194.949
G1 X0.54 Y3.08 Z1.5 F2400.0 E4195.632
G1 X1.07 Y2.94 Z1.5 F2400.0 E4196.314
G1 X1.57 Y2.71 Z1.5 F2400.0 E4196.997
G1 X2.01 Y2.4 Z1.5 F2400.0 E4197.68
G1 X2.4 Y2.01 Z1.5 F2400.0 E4198.361
G1 X2.71 Y1.57 Z1.5 F2400.0 E4199.045
G1 X2.94 Y1.07 Z1.5 F2400.0 E4199.727
G1 X3.08 Y0.54 Z1.5 F2400.0 E4200.41
G1 X3.13 Y0.0 Z1.5 F2400.0 E4201.093
G1 X3.08 Y-0.54 Z1.5 F2400.0 E4201.776
G1 X2.94 Y-1.07 Z1.5 F2400.0 E4202.459
G1 X2.71 Y-1.57 Z1.5 F2400.0 E4203.141
G1 X2.4 Y-2.01 Z1.5 F2400.0 E4203.825
G1 X2.01 Y-2.4 Z1.5 F2400.0 E4204.506
G1 X1.85 Y-2.51 Z1.5 F2400.0 E4204.759
;M103
G1 X4.98 Y-7.95 Z1.5 F3600.0
;M101
G1 X9.37 Y-5.41 Z1.5 F2400.0 E4211.1
G1 X9.37 Y5.41 Z1.5 F2400.0 E4224.638
G1 X0.0 Y10.82 Z1.5 F2400.0 E4238.176
G1 X-9.37 Y5.41 Z1.5 F2400.0 E4251.714
G1 X-9.37 Y-5.41 Z1.5 F2400.0 E4265.252
G1 X0.0 Y-10.82 Z1.5 F2400.0 E4278.789
G1 X4.69 Y-8.12 Z1.5 F2400.0 E4285.558
G1 X4.98 Y-7.95 Z1.5 F2400.0 E4285.986
;M103
;M108 S37.53
G1 X5.19 Y-8.31 Z1.5 F3600.0
;M101
G1 X9.79 Y-5.65 Z1.5 F1800.0 E4292.63
G1 X9.79 Y5.65 Z1.5 F1800.0 E4306.774
G1 X0.0 Y11.31 Z1.5 F1800.0 E4320.917
G1 X-9.79 Y5.65 Z1.5 F1800.0 E4335.06
G1 X-9.79 Y-5.65 Z1.5 F1800.0 E4349.204
G1 X0.0 Y-11.31 Z1.5 F1800.0 E4363.346
G1 X4.89 Y-8.48 Z1.5 F1800.0 E4370.417
G1 X5.19 Y-8.31 Z1.5 F1800.0 E4370.845
;M103
G1 X1.36 Y-2.35 Z1.5 F3600.0
;M101
G1 X0.93 Y-2.55 Z1.5 F1800.0 E4371.436
G1 X0.47 Y-2.67 Z1.5 F1800.0 E4372.027
G1 X0.0 Y-2.71 Z1.5 F1800.0 E4372.618
G1 X-0.47 Y-2.67 Z1.5 F1800.0 E4373.209
G1 X-0.93 Y-2.55 Z1.5 F1800.0 E4373.8
G1 X-1.36 Y-2.35 Z1.5 F1800.0 E4374.391
G1 X-1.74 Y-2.08 Z1.5 F1800.0 E4374.982
G1 X-2.08 Y-1.74 Z1.5 F1800.0 E4375.573
G1 X-2.35 Y-1.36 Z1.5 F1800.0 E4376.164
G1 X-2.55 Y-0.93 Z1.5 F1800.0 E4376.755
G1 X-2.67 Y-0.47 Z1.5 F1800.0 E4377.345
G1 X-2.71 Y0.0 Z1.5 F1800.0 E4377.937
G1 X-2.67 Y0.47 Z1.5 F1800.0 E4378.528
G1 X-2.55 Y0.93 Z1.5 F1800.0 E4379.119
G1 X-2.35 Y1.36 Z1.5 F1800.0 E4379.71
G1 X-2.08 Y1.74 Z1.5 F1800.0 E4380.301
G1 X-1.74 Y2.08 Z1.5 F1800.0 E4380.892
G1 X-1.36 Y2.35 Z1.5 F1800.0 E4381.483
G1 X-0.93 Y2.55 Z1.5 F1800.0 E4382.074
G1 X-0.47 Y2.67 Z1.5 F1800.0 E4382.664
G1 X0.0 Y2.71 Z1.5 F1800.0 E4383.256
G1 X0.47 Y2.67 Z1.5 F1800.0 E4383.847
G1 X0.93 Y2.55 Z1.5 F1800.0 E4384.438
G1 X1.36 Y2.35 Z1.5 F1800.0 E4385.029
G1 X1.74 Y2.08 Z1.5 F1800.0 E4385.62
G1 X2.08 Y1.74 Z1.5 F1800.0 E4386.211
G1 X2.35 Y1.36 Z1.5 F1800.0 E4386.802
G1 X2.55 Y0.93 Z1.5 F1800.0 E4387.393
G1 X2.67 Y0.47 Z1.5 F1800.0 E4387.983
G1 X2.71 Y0.0 Z1.5 F1800.0 E4388.575
G1 X2.67 Y-0.47 Z1.5 F1800.0 E4389.166
G1 X2.55 Y-0.93 Z1.5 F1800.0 E4389.757
G1 X2.35 Y-1.36 Z1.5 F1800.0 E4390.348
G1 X2.08 Y-1.74 Z1.5 F1800.0 E4390.939
G1 X1.74 Y-2.08 Z1.5 F1800.0 E4391.53
G1 X1.36 Y-2.35 Z1.5 F1800.0 E4392.121
;M103
;M108 S50.04
G1 X1.4 Y-3.18 Z1.8 F3600.0
;M101
G1 X1.8 Y-2.98 Z1.8 F2400.0 E4392.673
G1 X2.15 Y-2.74 Z1.8 F2400.0 E4393.206
G1 X6.22 Y-6.82 Z1.8 F2400.0 E4400.419
G1 X3.97 Y-8.12 Z1.8 F2400.0 E4403.674
G1 X0.97 Y-3.34 Z1.8 F2400.0 E4410.736
G1 X0.48 Y-3.45 Z1.8 F2400.0 E4411.356
G1 X-0.07 Y-3.48 Z1.8 F2400.0 E4412.053
G1 X-0.75 Y-3.4 Z1.8 F2400.0 E4412.908
G1 X-1.7 Y-3.04 Z1.8 F2400.0 E4414.171
;M103
G1 X-3.04 Y-1.7 Z1.8 F3600.0
;M101
G1 X-3.4 Y-0.75 Z1.8 F2400.0 E4415.434
G1 X-3.48 Y-0.07 Z1.8 F2400.0 E4416.289
G1 X-3.45 Y0.48 Z1.8 F2400.0 E4416.986
G1 X-3.34 Y0.97 Z1.8 F2400.0 E4417.606
G1 X-9.02 Y4.87 Z1.8 F2400.0 E4426.224
G1 X-8.85 Y5.3 Z1.8 F2400.0 E4426.8
G1 X-6.98 Y6.38 Z1.8 F2400.0 E4429.511
G1 X-2.74 Y2.15 Z1.8 F2400.0 E4437.006
G1 X-2.98 Y1.8 Z1.8 F2400.0 E4437.539
G1 X-3.18 Y1.4 Z1.8 F2400.0 E4438.091
;M103
G1 X-1.8 Y2.98 Z1.8 F3600.0
;M101
G1 X-2.46 Y2.46 Z1.8 F2400.0 E4439.146
G1 X-6.6 Y6.6 Z1.8 F2400.0 E4446.476
G1 X-4.35 Y7.9 Z1.8 F2400.0 E4449.73
G1 X-1.4 Y3.18 Z1.8 F2400.0 E4456.691
G1 X-0.48 Y3.45 Z1.8 F2400.0 E4457.887
G1 X0.07 Y3.48 Z1.8 F2400.0 E4458.584
G1 X0.75 Y3.4 Z1.8 F2400.0 E4459.439
G1 X1.7 Y3.04 Z1.8 F2400.0 E4460.702
G1 X1.84 Y3.44 Z1.8 F2400.0 E4461.225
G1 X-3.22 Y8.55 Z1.8 F2400.0 E4470.228
G1 X-3.97 Y8.12 Z1.8 F2400.0 E4471.313
;M103
G1 X-0.22 Y10.29 Z1.8 F3600.0
;M101
G1 X0.6 Y10.07 Z1.8 F2400.0 E4472.367
G1 X3.4 Y8.45 Z1.8 F2400.0 E4476.415
G1 X9.02 Y2.83 Z1.8 F2400.0 E4486.349
G1 X9.02 Y-0.72 Z1.8 F2400.0 E4490.795
G1 X-0.59 Y10.07 Z1.8 F2400.0 E4508.87
G1 X-2.47 Y8.99 Z1.8 F2400.0 E4511.582
G1 X3.28 Y2.04 Z1.8 F2400.0 E4522.866
G1 X9.02 Y-1.32 Z1.8 F2400.0 E4531.174
G1 X9.02 Y-4.87 Z1.8 F2400.0 E4535.62
G1 X3.4 Y0.75 Z1.8 F2400.0 E4545.562
G1 X3.34 Y-0.97 Z1.8 F2400.0 E4547.712
G1 X3.18 Y-1.4 Z1.8 F2400.0 E4548.291
G1 X8.85 Y-5.3 Z1.8 F2400.0 E4556.9
G1 X6.6 Y-6.6 Z1.8 F2400.0 E4560.155
G1 X2.46 Y-2.46 Z1.8 F2400.0 E4567.485
G1 X2.98 Y-1.8 Z1.8 F2400.0 E4568.54
;M103
G1 X0.49 Y-2.75 Z1.8 F3600.0
G1 X0.0 Y-2.79 Z1.8 F3600.0
G1 X-0.49 Y-2.75 Z1.8 F3600.0
G1 X-0.96 Y-2.62 Z1.8 F3600.0
G1 X-1.4 Y-2.42 Z1.8 F3600.0
G1 X-9.02 Y4.28 Z1.8 F3600.0
;M101
G1 X-9.02 Y1.91 Z1.8 F2400.0 E4571.503
G1 X3.6 Y-8.34 Z1.8 F2400.0 E4591.827
G1 X1.34 Y-9.64 Z1.8 F2400.0 E4595.081
G1 X-9.02 Y1.32 Z1.8 F2400.0 E4613.937
G1 X-9.02 Y-1.06 Z1.8 F2400.0 E4616.902
G1 X-0.6 Y-10.07 Z1.8 F2400.0 E4632.328
G1 X0.22 Y-10.29 Z1.8 F2400.0 E4633.382
G1 X0.97 Y-9.85 Z1.8 F2400.0 E4634.468
;M103
G1 X-2.0 Y-9.26 Z1.8 F3600.0
;M101
G1 X-6.2 Y-6.83 Z1.8 F2400.0 E4640.54
G1 X-9.02 Y-1.65 Z1.8 F2400.0 E4647.917
G1 X-9.02 Y-4.61 Z1.8 F2400.0 E4651.622
G1 X-7.61 Y-6.02 Z1.8 F2400.0 E4654.118
;M103
G1 X-9.01 Y-5.21 Z1.8 F3600.0
;M101
G1 X-9.02 Y-5.2 Z1.8 F2400.0 E4654.135
;M103
G1 X-1.4 Y2.42 Z1.8 F3600.0
G1 X9.02 Y5.2 Z1.8 F3600.0
;M101
G1 X9.01 Y5.21 Z1.8 F2400.0 E4654.152
G1 X9.02 Y3.43 Z1.8 F2400.0 E4656.386
G1 X7.61 Y6.02 Z1.8 F2400.0 E4660.082
G1 X4.8 Y7.64 Z1.8 F2400.0 E4664.13
;M103
G1 X1.71 Y2.61 Z1.8 F3600.0
;M101
G1 X2.01 Y2.4 Z1.8 F2400.0 E4664.596
G1 X2.4 Y2.01 Z1.8 F2400.0 E4665.277
G1 X2.71 Y1.57 Z1.8 F2400.0 E4665.961
G1 X2.94 Y1.07 Z1.8 F2400.0 E4666.643
G1 X3.08 Y0.54 Z1.8 F2400.0 E4667.325
G1 X3.13 Y0.0 Z1.8 F2400.0 E4668.009
G1 X3.08 Y-0.54 Z1.8 F2400.0 E4668.692
G1 X2.94 Y-1.07 Z1.8 F2400.0 E4669.374
G1 X2.71 Y-1.57 Z1.8 F2400.0 E4670.056
G1 X2.4 Y-2.01 Z1.8 F2400.0 E4670.74
G1 X2.01 Y-2.4 Z1.8 F2400.0 E4671.421
G1 X1.57 Y-2.71 Z1.8 F2400.0 E4672.105
G1 X1.07 Y-2.94 Z1.8 F2400.0 E4672.787
G1 X0.54 Y-3.08 Z1.8 F2400.0 E4673.47
G1 X0.0 Y-3.13 Z1.8 F2400.0 E4674.153
G1 X-0.54 Y-3.08 Z1.8 F2400.0 E4674.836
G1 X-1.07 Y-2.94 Z1.8 F2400.0 E4675.518
G1 X-1.57 Y-2.71 Z1.8 F2400.0 E4676.201
G1 X-2.01 Y-2.4 Z1.8 F2400.0 E4676.884
G1 X-2.4 Y-2.01 Z1.8 F2400.0 E4677.566
G1 X-2.71 Y-1.57 Z1.8 F2400.0 E4678.249
G1 X-2.94 Y-1.07 Z1.8 F2400.0 E4678.931
G1 X-3.08 Y-0.54 Z1.8 F2400.0 E4679.614
G1 X-3.13 Y0.0 Z1.8 F2400.0 E4680.297
G1 X-3.08 Y0.54 Z1.8 F2400.0 E4680.98
G1 X-2.94 Y1.07 Z1.8 F2400.0 E4681.663
G1 X-2.71 Y1.57 Z1.8 F2400.0 E4682.345
G1 X-2.4 Y2.01 Z1.8 F2400.0 E4683.029
G1 X-2.01 Y2.4 Z1.8 F2400.0 E4683.71
G1 X-1.57 Y2.71 Z1.8 F2400.0 E4684.393
G1 X-1.07 Y2.94 Z1.8 F2400.0 E4685.076
G1 X-0.54 Y3.08 Z1.8 F2400.0 E4685.758
G1 X0.0 Y3.13 Z1.8 F2400.0 E4686.441
G1 X0.54 Y3.08 Z1.8 F2400.0 E4687.125
G1 X1.07 Y2.94 Z1.8 F2400.0 E4687.807
G1 X1.57 Y2.71 Z1.8 F2400.0 E4688.489
G1 X1.71 Y2.61 Z1.8 F2400.0 E4688.707
;M103
G1 X4.69 Y8.12 Z1.8 F3600.0
;M101
G1 X0.0 Y10.82 Z1.8 F2400.0 E4695.476
G1 X-9.37 Y5.41 Z1.8 F2400.0 E4709.014
G1 X-9.37 Y-5.41 Z1.8 F2400.0 E4722.552
G1 X0.0 Y-10.82 Z1.8 F2400.0 E4736.09
G1 X9.37 Y-5.41 Z1.8 F2400.0 E4749.627
G1 X9.37 Y5.41 Z1.8 F2400.0 E4763.166
G1 X4.69 Y8.12 Z1.8 F2400.0 E4769.934
;M103
;M108 S37.53
G1 X4.89 Y8.48 Z1.8 F3600.0
;M101
G1 X0.0 Y11.31 Z1.8 F1800.0 E4777.005
G1 X-9.79 Y5.65 Z1.8 F1800.0 E4791.148
G1 X-9.79 Y-5.65 Z1.8 F1800.0 E4805.292
G1 X0.0 Y-11.31 Z1.8 F1800.0 E4819.435
G1 X9.79 Y-5.65 Z1.8 F1800.0 E4833.578
G1 X9.79 Y5.65 Z1.8 F1800.0 E4847.721
G1 X4.89 Y8.48 Z1.8 F1800.0 E4854.793
;M103
G1 X1.36 Y2.35 Z1.8 F3600.0
;M101
G1 X1.74 Y2.08 Z1.8 F1800.0 E4855.385
G1 X2.08 Y1.74 Z1.8 F1800.0 E4855.975
G1 X2.35 Y1.36 Z1.8 F1800.0 E4856.566
G1 X2.55 Y0.93 Z1.8 F1800.0 E4857.157
G1 X2.67 Y0.47 Z1.8 F1800.0 E4857.748
G1 X2.71 Y0.0 Z1.8 F1800.0 E4858.339
G1 X2.67 Y-0.47 Z1.8 F1800.0 E4858.931
G1 X2.55 Y-0.93 Z1.8 F1800.0 E4859.521
G1 X2.35 Y-1.36 Z1.8 F1800.0 E4860.112
G1 X2.08 Y-1.74 Z1.8 F1800.0 E4860.703
G1 X1.74 Y-2.08 Z1.8 F1800.0 E4861.294
G1 X1.36 Y-2.35 Z1.8 F1800.0 E4861.885
G1 X0.93 Y-2.55 Z1.8 F1800.0 E4862.476
G1 X0.47 Y-2.67 Z1.8 F1800.0 E4863.067
G1 X0.0 Y-2.71 Z1.8 F1800.0 E4863.658
G1 X-0.47 Y-2.67 Z1.8 F1800.0 E4864.25
G1 X-0.93 Y-2.55 Z1.8 F1800.0 E4864.84
G1 X-1.36 Y-2.35 Z1.8 F1800.0 E4865.431
G1 X-1.74 Y-2.08 Z1.8 F1800.0 E4866.022
G1 X-2.08 Y-1.74 Z1.8 F1800.0 E4866.613
G1 X-2.35 Y-1.36 Z1.8 F1800.0 E4867.204
G1 X-2.55 Y-0.93 Z1.8 F1800.0 E4867.795
G1 X-2.67 Y-0.47 Z1.8 F1800.0 E4868.386
G1 X-2.71 Y0.0 Z1.8 F1800.0 E4868.977
G1 X-2.67 Y0.47 Z1.8 F1800.0 E4869.569
G1 X-2.55 Y0.93 Z1.8 F1800.0 E4870.159
G1 X-2.35 Y1.36 Z1.8 F1800.0 E4870.75
G1 X-2.08 Y1.74 Z1.8 F1800.0 E4871.341
G1 X-1.74 Y2.08 Z1.8 F1800.0 E4871.932
G1 X-1.36 Y2.35 Z1.8 F1800.0 E4872.523
G1 X-0.93 Y2.55 Z1.8 F1800.0 E4873.114
G1 X-0.47 Y2.67 Z1.8 F1800.0 E4873.705
G1 X0.0 Y2.71 Z1.8 F1800.0 E4874.296
G1 X0.47 Y2.67 Z1.8 F1800.0 E4874.888
G1 X0.93 Y2.55 Z1.8 F1800.0 E4875.478
G1 X1.36 Y2.35 Z1.8 F1800.0 E4876.069
;M103
;M108 S50.04
G1 X1.4 Y3.18 Z2.1 F3600.0
;M101
G1 X1.8 Y2.98 Z2.1 F2400.0 E4876.621
G1 X2.15 Y2.74 Z2.1 F2400.0 E4877.154
G1 X6.22 Y6.82 Z2.1 F2400.0 E4884.368
G1 X3.97 Y8.12 Z2.1 F2400.0 E4887.623
G1 X0.97 Y3.34 Z2.1 F2400.0 E4894.685
G1 X0.48 Y3.45 Z2.1 F2400.0 E4895.305
G1 X-0.07 Y3.48 Z2.1 F2400.0 E4896.002
G1 X-0.75 Y3.4 Z2.1 F2400.0 E4896.857
G1 X-1.7 Y3.04 Z2.1 F2400.0 E4898.12
G1 X-3.04 Y1.7 Z2.1 F2400.0 E4900.504
G1 X-3.4 Y0.75 Z2.1 F2400.0 E4901.767
G1 X-3.48 Y0.07 Z2.1 F2400.0 E4902.622
G1 X-3.45 Y-0.48 Z2.1 F2400.0 E4903.319
G1 X-3.34 Y-0.97 Z2.1 F2400.0 E4903.94
G1 X-9.02 Y-4.87 Z2.1 F2400.0 E4912.558
G1 X-8.85 Y-5.3 Z2.1 F2400.0 E4913.133
G1 X-6.98 Y-6.38 Z2.1 F2400.0 E4915.844
G1 X-2.74 Y-2.15 Z2.1 F2400.0 E4923.34
G1 X-2.98 Y-1.8 Z2.1 F2400.0 E4923.872
G1 X-3.18 Y-1.4 Z2.1 F2400.0 E4924.424
;M103
G1 X-1.8 Y-2.98 Z2.1 F3600.0
;M101
G1 X-2.46 Y-2.46 Z2.1 F2400.0 E4925.479
G1 X-6.6 Y-6.6 Z2.1 F2400.0 E4932.809
G1 X-4.35 Y-7.9 Z2.1 F2400.0 E4936.064
G1 X-1.4 Y-3.18 Z2.1 F2400.0 E4943.024
G1 X-0.48 Y-3.45 Z2.1 F2400.0 E4944.221
G1 X0.07 Y-3.48 Z2.1 F2400.0 E4944.918
G1 X0.75 Y-3.4 Z2.1 F2400.0 E4945.773
G1 X-3.22 Y-8.55 Z2.1 F2400.0 E4953.912
G1 X-3.97 Y-8.12 Z2.1 F2400.0 E4954.997
;M103
G1 X-0.22 Y-10.29 Z2.1 F3600.0
;M101
G1 X0.6 Y-10.07 Z2.1 F2400.0 E4956.051
G1 X3.4 Y-8.45 Z2.1 F2400.0 E4960.1
G1 X9.02 Y-2.83 Z2.1 F2400.0 E4970.034
G1 X9.02 Y0.72 Z2.1 F2400.0 E4974.48
G1 X-0.59 Y-10.07 Z2.1 F2400.0 E4992.554
G1 X-2.84 Y-8.77 Z2.1 F2400.0 E4995.809
G1 X3.04 Y-1.7 Z2.1 F2400.0 E5007.321
G1 X9.02 Y1.32 Z2.1 F2400.0 E5015.688
G1 X9.02 Y4.87 Z2.1 F2400.0 E5020.134
G1 X3.4 Y-0.75 Z2.1 F2400.0 E5030.075
G1 X3.34 Y0.97 Z2.1 F2400.0 E5032.226
G1 X3.18 Y1.4 Z2.1 F2400.0 E5032.805
G1 X8.85 Y5.3 Z2.1 F2400.0 E5041.414
G1 X6.6 Y6.6 Z2.1 F2400.0 E5044.669
G1 X2.46 Y2.46 Z2.1 F2400.0 E5051.999
G1 X2.98 Y1.8 Z2.1 F2400.0 E5053.053
;M103
G1 X0.49 Y2.75 Z2.1 F3600.0
G1 X0.0 Y2.79 Z2.1 F3600.0
G1 X-0.49 Y2.75 Z2.1 F3600.0
G1 X-0.96 Y2.62 Z2.1 F3600.0
G1 X-1.4 Y2.42 Z2.1 F3600.0
G1 X-9.02 Y-4.28 Z2.1 F3600.0
;M101
G1 X-9.02 Y-1.91 Z2.1 F2400.0 E5056.017
G1 X3.6 Y8.34 Z2.1 F2400.0 E5076.341
G1 X1.34 Y9.64 Z2.1 F2400.0 E5079.595
G1 X-9.02 Y-1.32 Z2.1 F2400.0 E5098.451
G1 X-9.02 Y1.06 Z2.1 F2400.0 E5101.416
G1 X-0.6 Y10.07 Z2.1 F2400.0 E5116.842
G1 X0.22 Y10.29 Z2.1 F2400.0 E5117.896
G1 X0.97 Y9.85 Z2.1 F2400.0 E5118.982
;M103
G1 X-2.0 Y9.26 Z2.1 F3600.0
;M101
G1 X-6.2 Y6.83 Z2.1 F2400.0 E5125.054
G1 X-9.02 Y1.65 Z2.1 F2400.0 E5132.431
G1 X-9.02 Y4.61 Z2.1 F2400.0 E5136.136
G1 X-7.61 Y6.02 Z2.1 F2400.0 E5138.632
;M103
G1 X-9.01 Y5.21 Z2.1 F3600.0
;M101
G1 X-9.02 Y5.2 Z2.1 F2400.0 E5138.649
;M103
G1 X-1.4 Y-2.42 Z2.1 F3600.0
G1 X9.01 Y-5.21 Z2.1 F3600.0
;M101
G1 X9.02 Y-3.43 Z2.1 F2400.0 E5140.884
G1 X7.61 Y-6.02 Z2.1 F2400.0 E5144.579
G1 X4.8 Y-7.64 Z2.1 F2400.0 E5148.628
;M103
G1 X1.68 Y-2.63 Z2.1 F3600.0
;M101
G1 X1.57 Y-2.71 Z2.1 F2400.0 E5148.809
G1 X1.07 Y-2.94 Z2.1 F2400.0 E5149.491
G1 X0.54 Y-3.08 Z2.1 F2400.0 E5150.174
G1 X0.0 Y-3.13 Z2.1 F2400.0 E5150.857
G1 X-0.54 Y-3.08 Z2.1 F2400.0 E5151.54
G1 X-1.07 Y-2.94 Z2.1 F2400.0 E5152.223
G1 X-1.57 Y-2.71 Z2.1 F2400.0 E5152.905
G1 X-2.01 Y-2.4 Z2.1 F2400.0 E5153.589
G1 X-2.4 Y-2.01 Z2.1 F2400.0 E5154.27
G1 X-2.71 Y-1.57 Z2.1 F2400.0 E5154.953
G1 X-2.94 Y-1.07 Z2.1 F2400.0 E5155.636
G1 X-3.08 Y-0.54 Z2.1 F2400.0 E5156.318
G1 X-3.13 Y0.0 Z2.1 F2400.0 E5157.001
G1 X-3.08 Y0.54 Z2.1 F2400.0 E5157.684
G1 X-2.94 Y1.07 Z2.1 F2400.0 E5158.367
G1 X-2.71 Y1.57 Z2.1 F2400.0 E5159.049
G1 X-2.4 Y2.01 Z2.1 F2400.0 E5159.733
G1 X-2.01 Y2.4 Z2.1 F2400.0 E5160.414
G1 X-1.57 Y2.71 Z2.1 F2400.0 E5161.098
G1 X-1.07 Y2.94 Z2.1 F2400.0 E5161.78
G1 X-0.54 Y3.08 Z2.1 F2400.0 E5162.462
G1 X0.0 Y3.13 Z2.1 F2400.0 E5163.145
G1 X0.54 Y3.08 Z2.1 F2400.0 E5163.829
G1 X1.07 Y2.94 Z2.1 F2400.0 E5164.511
G1 X1.57 Y2.71 Z2.1 F2400.0 E5165.193
G1 X2.01 Y2.4 Z2.1 F2400.0 E5165.877
G1 X2.4 Y2.01 Z2.1 F2400.0 E5166.558
G1 X2.71 Y1.57 Z2.1 F2400.0 E5167.242
G1 X2.94 Y1.07 Z2.1 F2400.0 E5167.924
G1 X3.08 Y0.54 Z2.1 F2400.0 E5168.607
G1 X3.13 Y0.0 Z2.1 F2400.0 E5169.29
G1 X3.08 Y-0.54 Z2.1 F2400.0 E5169.973
G1 X2.94 Y-1.07 Z2.1 F2400.0 E5170.655
G1 X2.71 Y-1.57 Z2.1 F2400.0 E5171.338
G1 X2.4 Y-2.01 Z2.1 F2400.0 E5172.021
G1 X2.01 Y-2.4 Z2.1 F2400.0 E5172.702
G1 X1.68 Y-2.63 Z2.1 F2400.0 E5173.205
;M103
G1 X4.69 Y-8.12 Z2.1 F3600.0
;M101
G1 X9.37 Y-5.41 Z2.1 F2400.0 E5179.973
G1 X9.37 Y5.41 Z2.1 F2400.0 E5193.512
G1 X0.0 Y10.82 Z2.1 F2400.0 E5207.049
G1 X-9.37 Y5.41 Z2.1 F2400.0 E5220.587
G1 X-9.37 Y-5.41 Z2.1 F2400.0 E5234.125
G1 X0.0 Y-10.82 Z2.1 F2400.0 E5247.663
G1 X4.69 Y-8.12 Z2.1 F2400.0 E5254.431
;M103
;M108 S37.53
G1 X4.89 Y-8.48 Z2.1 F3600.0
;M101
G1 X9.79 Y-5.65 Z2.1 F1800.0 E5261.503
G1 X9.79 Y5.65 Z2.1 F1800.0 E5275.647
G1 X0.0 Y11.31 Z2.1 F1800.0 E5289.79
G1 X-9.79 Y5.65 Z2.1 F1800.0 E5303.933
G1 X-9.79 Y-5.65 Z2.1 F1800.0 E5318.077
G1 X0.0 Y-11.31 Z2.1 F1800.0 E5332.22
G1 X4.89 Y-8.48 Z2.1 F1800.0 E5339.291
;M103
G1 X1.36 Y-2.35 Z2.1 F3600.0
;M101
G1 X0.93 Y-2.55 Z2.1 F1800.0 E5339.882
G1 X0.47 Y-2.67 Z2.1 F1800.0 E5340.472
G1 X0.0 Y-2.71 Z2.1 F1800.0 E5341.064
G1 X-0.47 Y-2.67 Z2.1 F1800.0 E5341.655
G1 X-0.93 Y-2.55 Z2.1 F1800.0 E5342.246
G1 X-1.36 Y-2.35 Z2.1 F1800.0 E5342.837
G1 X-1.74 Y-2.08 Z2.1 F1800.0 E5343.428
G1 X-2.08 Y-1.74 Z2.1 F1800.0 E5344.018
G1 X-2.35 Y-1.36 Z2.1 F1800.0 E5344.61
G1 X-2.55 Y-0.93 Z2.1 F1800.0 E5345.201
G1 X-2.67 Y-0.47 Z2.1 F1800.0 E5345.791
G1 X-2.71 Y0.0 Z2.1 F1800.0 E5346.382
G1 X-2.67 Y0.47 Z2.1 F1800.0 E5346.974
G1 X-2.55 Y0.93 Z2.1 F1800.0 E5347.564
G1 X-2.35 Y1.36 Z2.1 F1800.0 E5348.155
G1 X-2.08 Y1.74 Z2.1 F1800.0 E5348.746
G1 X-1.74 Y2.08 Z2.1 F1800.0 E5349.337
G1 X-1.36 Y2.35 Z2.1 F1800.0 E5349.928
G1 X-0.93 Y2.55 Z2.1 F1800.0 E5350.519
G1 X-0.47 Y2.67 Z2.1 F1800.0 E5351.11
G1 X0.0 Y2.71 Z2.1 F1800.0 E5351.701
G1 X0.47 Y2.67 Z2.1 F1800.0 E5352.293
G1 X0.93 Y2.55 Z2.1 F1800.0 E5352.883
G1 X1.36 Y2.35 Z2.1 F1800.0 E5353.474
G1 X1.74 Y2.08 Z2.1 F1800.0 E5354.065
G1 X2.08 Y1.74 Z2.1 F1800.0 E5354.656
G1 X2.35 Y1.36 Z2.1 F1800.0 E5355.247
G1 X2.55 Y0.93 Z2.1 F1800.0 E5355.838
G1 X2.67 Y0.47 Z2.1 F1800.0 E5356.429
G1 X2.71 Y0.0 Z2.1 F1800.0 E5357.02
G1 X2.67 Y-0.47 Z2.1 F1800.0 E5357.612
G1 X2.55 Y-0.93 Z2.1 F1800.0 E5358.202
G1 X2.35 Y-1.36 Z2.1 F1800.0 E5358.793
G1 X2.08 Y-1.74 Z2.1 F1800.0 E5359.384
G1 X1.74 Y-2.08 Z2.1 F1800.0 E5359.975
G1 X1.36 Y-2.35 Z2.1 F1800.0 E5360.566
;M103
;M108 S50.04
G1 X1.4 Y-3.18 Z2.4 F3600.0
;M101
G1 X1.8 Y-2.98 Z2.4 F2400.0 E5361.118
G1 X2.15 Y-2.74 Z2.4 F2400.0 E5361.651
G1 X6.22 Y-6.82 Z2.4 F2400.0 E5368.865
G1 X3.97 Y-8.12 Z2.4 F2400.0 E5372.12
G1 X0.97 Y-3.34 Z2.4 F2400.0 E5379.182
G1 X0.48 Y-3.45 Z2.4 F2400.0 E5379.802
G1 X-0.07 Y-3.48 Z2.4 F2400.0 E5380.499
G1 X-0.75 Y-3.4 Z2.4 F2400.0 E5381.354
G1 X-1.7 Y-3.04 Z2.4 F2400.0 E5382.617
;M103
G1 X-3.04 Y-1.7 Z2.4 F3600.0
;M101
G1 X-3.4 Y-0.75 Z2.4 F2400.0 E5383.879
G1 X-3.48 Y-0.07 Z2.4 F2400.0 E5384.734
G1 X-3.45 Y0.48 Z2.4 F2400.0 E5385.431
G1 X-3.34 Y0.97 Z2.4 F2400.0 E5386.052
G1 X-9.02 Y4.87 Z2.4 F2400.0 E5394.67
G1 X-8.85 Y5.3 Z2.4 F2400.0 E5395.245
G1 X-6.98 Y6.38 Z2.4 F2400.0 E5397.957
G1 X-2.74 Y2.15 Z2.4 F2400.0 E5405.452
G1 X-2.98 Y1.8 Z2.4 F2400.0 E5405.985
G1 X-3.18 Y1.4 Z2.4 F2400.0 E5406.537
;M103
G1 X-1.8 Y2.98 Z2.4 F3600.0
;M101
G1 X-2.46 Y2.46 Z2.4 F2400.0 E5407.592
G1 X-6.6 Y6.6 Z2.4 F2400.0 E5414.921
G1 X-4.35 Y7.9 Z2.4 F2400.0 E5418.176
G1 X-1.4 Y3.18 Z2.4 F2400.0 E5425.136
G1 X-0.48 Y3.45 Z2.4 F2400.0 E5426.333
G1 X0.07 Y3.48 Z2.4 F2400.0 E5427.03
G1 X0.75 Y3.4 Z2.4 F2400.0 E5427.885
G1 X1.7 Y3.04 Z2.4 F2400.0 E5429.148
G1 X1.84 Y3.44 Z2.4 F2400.0 E5429.671
G1 X-3.22 Y8.55 Z2.4 F2400.0 E5438.674
G1 X-3.97 Y8.12 Z2.4 F2400.0 E5439.758
;M103
G1 X-0.22 Y10.29 Z2.4 F3600.0
;M101
G1 X0.6 Y10.07 Z2.4 F2400.0 E5440.812
G1 X3.4 Y8.45 Z2.4 F2400.0 E5444.861
G1 X9.02 Y2.83 Z2.4 F2400.0 E5454.795
G1 X9.02 Y-0.72 Z2.4 F2400.0 E5459.241
G1 X-0.59 Y10.07 Z2.4 F2400.0 E5477.315
G1 X-2.47 Y8.99 Z2.4 F2400.0 E5480.028
G1 X3.28 Y2.04 Z2.4 F2400.0 E5491.312
G1 X9.02 Y-1.32 Z2.4 F2400.0 E5499.619
G1 X9.02 Y-4.87 Z2.4 F2400.0 E5504.065
G1 X3.4 Y0.75 Z2.4 F2400.0 E5514.007
G1 X3.34 Y-0.97 Z2.4 F2400.0 E5516.158
G1 X3.18 Y-1.4 Z2.4 F2400.0 E5516.737
G1 X8.85 Y-5.3 Z2.4 F2400.0 E5525.346
G1 X6.6 Y-6.6 Z2.4 F2400.0 E5528.601
G1 X2.46 Y-2.46 Z2.4 F2400.0 E5535.93
G1 X2.98 Y-1.8 Z2.4 F2400.0 E5536.985
;M103
G1 X0.49 Y-2.75 Z2.4 F3600.0
G1 X0.0 Y-2.79 Z2.4 F3600.0
G1 X-0.49 Y-2.75 Z2.4 F3600.0
G1 X-0.96 Y-2.62 Z2.4 F3600.0
G1 X-1.4 Y-2.42 Z2.4 F3600.0
G1 X-9.02 Y4.28 Z2.4 F3600.0
;M101
G1 X-9.02 Y1.91 Z2.4 F2400.0 E5539.949
G1 X3.6 Y-8.34 Z2.4 F2400.0 E5560.273
G1 X1.34 Y-9.64 Z2.4 F2400.0 E5563.527
G1 X-9.02 Y1.32 Z2.4 F2400.0 E5582.383
G1 X-9.02 Y-1.06 Z2.4 F2400.0 E5585.348
G1 X-0.6 Y-10.07 Z2.4 F2400.0 E5600.773
G1 X0.22 Y-10.29 Z2.4 F2400.0 E5601.827
G1 X0.97 Y-9.85 Z2.4 F2400.0 E5602.913
;M103
G1 X-2.0 Y-9.26 Z2.4 F3600.0
;M101
G1 X-6.2 Y-6.83 Z2.4 F2400.0 E5608.986
G1 X-9.02 Y-1.65 Z2.4 F2400.0 E5616.362
G1 X-9.02 Y-4.61 Z2.4 F2400.0 E5620.068
G1 X-7.61 Y-6.02 Z2.4 F2400.0 E5622.564
;M103
G1 X-9.01 Y-5.21 Z2.4 F3600.0
;M101
G1 X-9.02 Y-5.2 Z2.4 F2400.0 E5622.581
;M103
G1 X-1.4 Y2.42 Z2.4 F3600.0
G1 X9.02 Y5.2 Z2.4 F3600.0
;M101
G1 X9.01 Y5.21 Z2.4 F2400.0 E5622.598
G1 X9.02 Y3.43 Z2.4 F2400.0 E5624.832
G1 X7.61 Y6.02 Z2.4 F2400.0 E5628.527
G1 X4.8 Y7.64 Z2.4 F2400.0 E5632.576
;M103
G1 X1.87 Y2.5 Z2.4 F3600.0
;M101
G1 X2.01 Y2.4 Z2.4 F2400.0 E5632.794
G1 X2.4 Y2.01 Z2.4 F2400.0 E5633.475
G1 X2.71 Y1.57 Z2.4 F2400.0 E5634.159
G1 X2.94 Y1.07 Z2.4 F2400.0 E5634.841
G1 X3.08 Y0.54 Z2.4 F2400.0 E5635.524
G1 X3.13 Y0.0 Z2.4 F2400.0 E5636.207
G1 X3.08 Y-0.54 Z2.4 F2400.0 E5636.89
G1 X2.94 Y-1.07 Z2.4 F2400.0 E5637.573
G1 X2.71 Y-1.57 Z2.4 F2400.0 E5638.255
G1 X2.4 Y-2.01 Z2.4 F2400.0 E5638.939
G1 X2.01 Y-2.4 Z2.4 F2400.0 E5639.62
G1 X1.57 Y-2.71 Z2.4 F2400.0 E5640.303
G1 X1.07 Y-2.94 Z2.4 F2400.0 E5640.986
G1 X0.54 Y-3.08 Z2.4 F2400.0 E5641.668
G1 X0.0 Y-3.13 Z2.4 F2400.0 E5642.351
G1 X-0.54 Y-3.08 Z2.4 F2400.0 E5643.034
G1 X-1.07 Y-2.94 Z2.4 F2400.0 E5643.717
G1 X-1.57 Y-2.71 Z2.4 F2400.0 E5644.399
G1 X-2.01 Y-2.4 Z2.4 F2400.0 E5645.083
G1 X-2.4 Y-2.01 Z2.4 F2400.0 E5645.764
G1 X-2.71 Y-1.57 Z2.4 F2400.0 E5646.448
G1 X-2.94 Y-1.07 Z2.4 F2400.0 E5647.13
G1 X-3.08 Y-0.54 Z2.4 F2400.0 E5647.812
G1 X-3.13 Y0.0 Z2.4 F2400.0 E5648.496
G1 X-3.08 Y0.54 Z2.4 F2400.0 E5649.179
G1 X-2.94 Y1.07 Z2.4 F2400.0 E5649.861
G1 X-2.71 Y1.57 Z2.4 F2400.0 E5650.543
G1 X-2.4 Y2.01 Z2.4 F2400.0 E5651.227
G1 X-2.01 Y2.4 Z2.4 F2400.0 E5651.908
G1 X-1.57 Y2.71 Z2.4 F2400.0 E5652.592
G1 X-1.07 Y2.94 Z2.4 F2400.0 E5653.274
G1 X-0.54 Y3.08 Z2.4 F2400.0 E5653.957
G1 X0.0 Y3.13 Z2.4 F2400.0 E5654.64
G1 X0.54 Y3.08 Z2.4 F2400.0 E5655.323
G1 X1.07 Y2.94 Z2.4 F2400.0 E5656.005
G1 X1.57 Y2.71 Z2.4 F2400.0 E5656.688
G1 X1.87 Y2.5 Z2.4 F2400.0 E5657.153
;M103
G1 X5.01 Y7.93 Z2.4 F3600.0
;M101
G1 X4.69 Y8.12 Z2.4 F2400.0 E5657.617
G1 X0.0 Y10.82 Z2.4 F2400.0 E5664.385
G1 X-9.37 Y5.41 Z2.4 F2400.0 E5677.923
G1 X-9.37 Y-5.41 Z2.4 F2400.0 E5691.461
G1 X0.0 Y-10.82 Z2.4 F2400.0 E5704.999
G1 X9.37 Y-5.41 Z2.4 F2400.0 E5718.536
G1 X9.37 Y5.41 Z2.4 F2400.0 E5732.075
G1 X5.01 Y7.93 Z2.4 F2400.0 E5738.38
;M103
;M108 S37.53
G1 X5.22 Y8.29 Z2.4 F3600.0
;M101
G1 X4.89 Y8.48 Z2.4 F1800.0 E5738.843
G1 X0.0 Y11.31 Z2.4 F1800.0 E5745.914
G1 X-9.79 Y5.65 Z2.4 F1800.0 E5760.057
G1 X-9.79 Y-5.65 Z2.4 F1800.0 E5774.201
G1 X0.0 Y-11.31 Z2.4 F1800.0 E5788.344
G1 X9.79 Y-5.65 Z2.4 F1800.0 E5802.487
G1 X9.79 Y5.65 Z2.4 F1800.0 E5816.631
G1 X5.22 Y8.29 Z2.4 F1800.0 E5823.239
;M103
G1 X1.36 Y2.35 Z2.4 F3600.0
;M101
G1 X1.74 Y2.08 Z2.4 F1800.0 E5823.83
G1 X2.08 Y1.74 Z2.4 F1800.0 E5824.421
G1 X2.35 Y1.36 Z2.4 F1800.0 E5825.012
G1 X2.55 Y0.93 Z2.4 F1800.0 E5825.603
G1 X2.67 Y0.47 Z2.4 F1800.0 E5826.194
G1 X2.71 Y0.0 Z2.4 F1800.0 E5826.785
G1 X2.67 Y-0.47 Z2.4 F1800.0 E5827.376
G1 X2.55 Y-0.93 Z2.4 F1800.0 E5827.967
G1 X2.35 Y-1.36 Z2.4 F1800.0 E5828.558
G1 X2.08 Y-1.74 Z2.4 F1800.0 E5829.149
G1 X1.74 Y-2.08 Z2.4 F1800.0 E5829.74
G1 X1.36 Y-2.35 Z2.4 F1800.0 E5830.331
G1 X0.93 Y-2.55 Z2.4 F1800.0 E5830.922
G1 X0.47 Y-2.67 Z2.4 F1800.0 E5831.512
G1 X0.0 Y-2.71 Z2.4 F1800.0 E5832.104
G1 X-0.47 Y-2.67 Z2.4 F1800.0 E5832.695
G1 X-0.93 Y-2.55 Z2.4 F1800.0 E5833.286
G1 X-1.36 Y-2.35 Z2.4 F1800.0 E5833.877
G1 X-1.74 Y-2.08 Z2.4 F1800.0 E5834.468
G1 X-2.08 Y-1.74 Z2.4 F1800.0 E5835.059
G1 X-2.35 Y-1.36 Z2.4 F1800.0 E5835.65
G1 X-2.55 Y-0.93 Z2.4 F1800.0 E5836.241
G1 X-2.67 Y-0.47 Z2.4 F1800.0 E5836.831
G1 X-2.71 Y0.0 Z2.4 F1800.0 E5837.423
G1 X-2.67 Y0.47 Z2.4 F1800.0 E5838.014
G1 X-2.55 Y0.93 Z2.4 F1800.0 E5838.605
G1 X-2.35 Y1.36 Z2.4 F1800.0 E5839.196
G1 X-2.08 Y1.74 Z2.4 F1800.0 E5839.787
G1 X-1.74 Y2.08 Z2.4 F1800.0 E5840.378
G1 X-1.36 Y2.35 Z2.4 F1800.0 E5840.969
G1 X-0.93 Y2.55 Z2.4 F1800.0 E5841.56
G1 X-0.47 Y2.67 Z2.4 F1800.0 E5842.15
G1 X0.0 Y2.71 Z2.4 F1800.0 E5842.742
G1 X0.47 Y2.67 Z2.4 F1800.0 E5843.333
G1 X0.93 Y2.55 Z2.4 F1800.0 E5843.924
G1 X1.36 Y2.35 Z2.4 F1800.0 E5844.515
;M103
;M108 S50.04
G1 X1.4 Y3.18 Z2.7 F3600.0
;M101
G1 X1.8 Y2.98 Z2.7 F2400.0 E5845.067
G1 X2.15 Y2.74 Z2.7 F2400.0 E5845.6
G1 X6.22 Y6.82 Z2.7 F2400.0 E5852.813
G1 X3.97 Y8.12 Z2.7 F2400.0 E5856.068
G1 X0.97 Y3.34 Z2.7 F2400.0 E5863.13
G1 X0.48 Y3.45 Z2.7 F2400.0 E5863.75
G1 X-0.07 Y3.48 Z2.7 F2400.0 E5864.447
G1 X-0.75 Y3.4 Z2.7 F2400.0 E5865.302
G1 X-1.7 Y3.04 Z2.7 F2400.0 E5866.565
G1 X-3.04 Y1.7 Z2.7 F2400.0 E5868.95
G1 X-3.4 Y0.75 Z2.7 F2400.0 E5870.213
G1 X-3.48 Y0.07 Z2.7 F2400.0 E5871.068
G1 X-3.45 Y-0.48 Z2.7 F2400.0 E5871.765
G1 X-3.34 Y-0.97 Z2.7 F2400.0 E5872.385
G1 X-9.02 Y-4.87 Z2.7 F2400.0 E5881.003
G1 X-8.85 Y-5.3 Z2.7 F2400.0 E5881.578
G1 X-6.98 Y-6.38 Z2.7 F2400.0 E5884.29
G1 X-2.74 Y-2.15 Z2.7 F2400.0 E5891.785
G1 X-2.98 Y-1.8 Z2.7 F2400.0 E5892.318
G1 X-3.18 Y-1.4 Z2.7 F2400.0 E5892.87
;M103
G1 X-1.8 Y-2.98 Z2.7 F3600.0
;M101
G1 X-2.46 Y-2.46 Z2.7 F2400.0 E5893.925
G1 X-6.6 Y-6.6 Z2.7 F2400.0 E5901.255
G1 X-4.35 Y-7.9 Z2.7 F2400.0 E5904.509
G1 X-1.4 Y-3.18 Z2.7 F2400.0 E5911.47
G1 X-0.48 Y-3.45 Z2.7 F2400.0 E5912.666
G1 X0.07 Y-3.48 Z2.7 F2400.0 E5913.363
G1 X0.75 Y-3.4 Z2.7 F2400.0 E5914.218
G1 X-3.22 Y-8.55 Z2.7 F2400.0 E5922.358
G1 X-3.97 Y-8.12 Z2.7 F2400.0 E5923.442
;M103
G1 X-0.22 Y-10.29 Z2.7 F3600.0
;M101
G1 X0.6 Y-10.07 Z2.7 F2400.0 E5924.496
G1 X3.4 Y-8.45 Z2.7 F2400.0 E5928.545
G1 X9.02 Y-2.83 Z2.7 F2400.0 E5938.479
G1 X9.02 Y0.72 Z2.7 F2400.0 E5942.925
G1 X-0.59 Y-10.07 Z2.7 F2400.0 E5961.0
G1 X-2.84 Y-8.77 Z2.7 F2400.0 E5964.254
G1 X3.04 Y-1.7 Z2.7 F2400.0 E5975.766
G1 X9.02 Y1.32 Z2.7 F2400.0 E5984.133
G1 X9.02 Y4.87 Z2.7 F2400.0 E5988.579
G1 X3.4 Y-0.75 Z2.7 F2400.0 E5998.521
G1 X3.34 Y0.97 Z2.7 F2400.0 E6000.671
G1 X3.18 Y1.4 Z2.7 F2400.0 E6001.25
G1 X8.85 Y5.3 Z2.7 F2400.0 E6009.86
G1 X6.6 Y6.6 Z2.7 F2400.0 E6013.114
G1 X2.46 Y2.46 Z2.7 F2400.0 E6020.444
G1 X2.98 Y1.8 Z2.7 F2400.0 E6021.499
;M103
G1 X0.49 Y2.75 Z2.7 F3600.0
G1 X0.0 Y2.79 Z2.7 F3600.0
G1 X-0.49 Y2.75 Z2.7 F3600.0
G1 X-0.96 Y2.62 Z2.7 F3600.0
G1 X-1.4 Y2.42 Z2.7 F3600.0
G1 X-9.02 Y-4.28 Z2.7 F3600.0
;M101
G1 X-9.02 Y-1.91 Z2.7 F2400.0 E6024.463
G1 X3.6 Y8.34 Z2.7 F2400.0 E6044.787
G1 X1.34 Y9.64 Z2.7 F2400.0 E6048.041
G1 X-9.02 Y-1.32 Z2.7 F2400.0 E6066.897
G1 X-9.02 Y1.06 Z2.7 F2400.0 E6069.862
G1 X-0.6 Y10.07 Z2.7 F2400.0 E6085.287
G1 X0.22 Y10.29 Z2.7 F2400.0 E6086.341
G1 X0.97 Y9.85 Z2.7 F2400.0 E6087.427
;M103
G1 X-2.0 Y9.26 Z2.7 F3600.0
;M101
G1 X-6.2 Y6.83 Z2.7 F2400.0 E6093.5
G1 X-9.02 Y1.65 Z2.7 F2400.0 E6100.876
G1 X-9.02 Y4.61 Z2.7 F2400.0 E6104.582
G1 X-7.61 Y6.02 Z2.7 F2400.0 E6107.078
;M103
G1 X-9.01 Y5.21 Z2.7 F3600.0
;M101
G1 X-9.02 Y5.2 Z2.7 F2400.0 E6107.095
;M103
G1 X-1.4 Y-2.42 Z2.7 F3600.0
G1 X9.01 Y-5.21 Z2.7 F3600.0
;M101
G1 X9.02 Y-3.43 Z2.7 F2400.0 E6109.329
G1 X7.61 Y-6.02 Z2.7 F2400.0 E6113.024
G1 X4.8 Y-7.64 Z2.7 F2400.0 E6117.073
;M103
G1 X1.52 Y-2.73 Z2.7 F3600.0
;M101
G1 X1.07 Y-2.94 Z2.7 F2400.0 E6117.69
G1 X0.54 Y-3.08 Z2.7 F2400.0 E6118.373
G1 X0.0 Y-3.13 Z2.7 F2400.0 E6119.056
G1 X-0.54 Y-3.08 Z2.7 F2400.0 E6119.739
G1 X-1.07 Y-2.94 Z2.7 F2400.0 E6120.422
G1 X-1.57 Y-2.71 Z2.7 F2400.0 E6121.104
G1 X-2.01 Y-2.4 Z2.7 F2400.0 E6121.788
G1 X-2.4 Y-2.01 Z2.7 F2400.0 E6122.469
G1 X-2.71 Y-1.57 Z2.7 F2400.0 E6123.152
G1 X-2.94 Y-1.07 Z2.7 F2400.0 E6123.835
G1 X-3.08 Y-0.54 Z2.7 F2400.0 E6124.517
G1 X-3.13 Y0.0 Z2.7 F2400.0 E6125.2
G1 X-3.08 Y0.54 Z2.7 F2400.0 E6125.884
G1 X-2.94 Y1.07 Z2.7 F2400.0 E6126.566
G1 X-2.71 Y1.57 Z2.7 F2400.0 E6127.248
G1 X-2.4 Y2.01 Z2.7 F2400.0 E6127.932
G1 X-2.01 Y2.4 Z2.7 F2400.0 E6128.613
G1 X-1.57 Y2.71 Z2.7 F2400.0 E6129.297
G1 X-1.07 Y2.94 Z2.7 F2400.0 E6129.979
G1 X-0.54 Y3.08 Z2.7 F2400.0 E6130.661
G1 X0.0 Y3.13 Z2.7 F2400.0 E6131.345
G1 X0.54 Y3.08 Z2.7 F2400.0 E6132.028
G1 X1.07 Y2.94 Z2.7 F2400.0 E6132.71
G1 X1.57 Y2.71 Z2.7 F2400.0 E6133.392
G1 X2.01 Y2.4 Z2.7 F2400.0 E6134.076
G1 X2.4 Y2.01 Z2.7 F2400.0 E6134.757
G1 X2.71 Y1.57 Z2.7 F2400.0 E6135.441
G1 X2.94 Y1.07 Z2.7 F2400.0 E6136.123
G1 X3.08 Y0.54 Z2.7 F2400.0 E6136.806
G1 X3.13 Y0.0 Z2.7 F2400.0 E6137.489
G1 X3.08 Y-0.54 Z2.7 F2400.0 E6138.172
G1 X2.94 Y-1.07 Z2.7 F2400.0 E6138.855
G1 X2.71 Y-1.57 Z2.7 F2400.0 E6139.537
G1 X2.4 Y-2.01 Z2.7 F2400.0 E6140.22
G1 X2.01 Y-2.4 Z2.7 F2400.0 E6140.902
G1 X1.57 Y-2.71 Z2.7 F2400.0 E6141.585
G1 X1.52 Y-2.73 Z2.7 F2400.0 E6141.65
;M103
G1 X4.69 Y-8.12 Z2.7 F3600.0
;M101
G1 X9.37 Y-5.41 Z2.7 F2400.0 E6148.419
G1 X9.37 Y5.41 Z2.7 F2400.0 E6161.957
G1 X0.0 Y10.82 Z2.7 F2400.0 E6175.495
G1 X-9.37 Y5.41 Z2.7 F2400.0 E6189.032
G1 X-9.37 Y-5.41 Z2.7 F2400.0 E6202.571
G1 X0.0 Y-10.82 Z2.7 F2400.0 E6216.108
G1 X4.69 Y-8.12 Z2.7 F2400.0 E6222.877
;M103
;M108 S37.53
G1 X4.89 Y-8.48 Z2.7 F3600.0
;M101
G1 X9.79 Y-5.65 Z2.7 F1800.0 E6229.949
G1 X9.79 Y5.65 Z2.7 F1800.0 E6244.093
G1 X0.0 Y11.31 Z2.7 F1800.0 E6258.236
G1 X-9.79 Y5.65 Z2.7 F1800.0 E6272.379
G1 X-9.79 Y-5.65 Z2.7 F1800.0 E6286.522
G1 X0.0 Y-11.31 Z2.7 F1800.0 E6300.665
G1 X4.89 Y-8.48 Z2.7 F1800.0 E6307.736
;M103
G1 X1.36 Y-2.35 Z2.7 F3600.0
;M101
G1 X0.93 Y-2.55 Z2.7 F1800.0 E6308.327
G1 X0.47 Y-2.67 Z2.7 F1800.0 E6308.918
G1 X0.0 Y-2.71 Z2.7 F1800.0 E6309.509
G1 X-0.47 Y-2.67 Z2.7 F1800.0 E6310.101
G1 X-0.93 Y-2.55 Z2.7 F1800.0 E6310.691
G1 X-1.36 Y-2.35 Z2.7 F1800.0 E6311.282
G1 X-1.74 Y-2.08 Z2.7 F1800.0 E6311.873
G1 X-2.08 Y-1.74 Z2.7 F1800.0 E6312.464
G1 X-2.35 Y-1.36 Z2.7 F1800.0 E6313.055
G1 X-2.55 Y-0.93 Z2.7 F1800.0 E6313.646
G1 X-2.67 Y-0.47 Z2.7 F1800.0 E6314.237
G1 X-2.71 Y0.0 Z2.7 F1800.0 E6314.828
G1 X-2.67 Y0.47 Z2.7 F1800.0 E6315.42
G1 X-2.55 Y0.93 Z2.7 F1800.0 E6316.01
G1 X-2.35 Y1.36 Z2.7 F1800.0 E6316.601
G1 X-2.08 Y1.74 Z2.7 F1800.0 E6317.192
G1 X-1.74 Y2.08 Z2.7 F1800.0 E6317.783
G1 X-1.36 Y2.35 Z2.7 F1800.0 E6318.374
G1 X-0.93 Y2.55 Z2.7 F1800.0 E6318.965
G1 X-0.47 Y2.67 Z2.7 F1800.0 E6319.556
G1 X0.0 Y2.71 Z2.7 F1800.0 E6320.147
G1 X0.47 Y2.67 Z2.7 F1800.0 E6320.738
G1 X0.93 Y2.55 Z2.7 F1800.0 E6321.329
G1 X1.36 Y2.35 Z2.7 F1800.0 E6321.92
G1 X1.74 Y2.08 Z2.7 F1800.0 E6322.511
G1 X2.08 Y1.74 Z2.7 F1800.0 E6323.102
G1 X2.35 Y1.36 Z2.7 F1800.0 E6323.693
G1 X2.55 Y0.93 Z2.7 F1800.0 E6324.284
G1 X2.67 Y0.47 Z2.7 F1800.0 E6324.874
G1 X2.71 Y0.0 Z2.7 F1800.0 E6325.466
G1 X2.67 Y-0.47 Z2.7 F1800.0 E6326.057
G1 X2.55 Y-0.93 Z2.7 F1800.0 E6326.648
G1 X2.35 Y-1.36 Z2.7 F1800.0 E6327.239
G1 X2.08 Y-1.74 Z2.7 F1800.0 E6327.83
G1 X1.74 Y-2.08 Z2.7 F1800.0 E6328.421
G1 X1.36 Y-2.35 Z2.7 F1800.0 E6329.012
;M103
;M108 S50.04
G1 X1.4 Y-3.18 Z3.0 F3600.0
;M101
G1 X1.8 Y-2.98 Z3.0 F2400.0 E6329.564
G1 X2.15 Y-2.74 Z3.0 F2400.0 E6330.097
G1 X6.22 Y-6.82 Z3.0 F2400.0 E6337.311
G1 X3.97 Y-8.12 Z3.0 F2400.0 E6340.565
G1 X0.97 Y-3.34 Z3.0 F2400.0 E6347.627
G1 X0.48 Y-3.45 Z3.0 F2400.0 E6348.248
G1 X-0.07 Y-3.48 Z3.0 F2400.0 E6348.945
G1 X-0.75 Y-3.4 Z3.0 F2400.0 E6349.8
G1 X-1.7 Y-3.04 Z3.0 F2400.0 E6351.062
;M103
G1 X-3.04 Y-1.7 Z3.0 F3600.0
;M101
G1 X-3.4 Y-0.75 Z3.0 F2400.0 E6352.325
G1 X-3.48 Y-0.07 Z3.0 F2400.0 E6353.18
G1 X-3.45 Y0.48 Z3.0 F2400.0 E6353.877
G1 X-3.34 Y0.97 Z3.0 F2400.0 E6354.497
G1 X-9.02 Y4.87 Z3.0 F2400.0 E6363.115
G1 X-8.85 Y5.3 Z3.0 F2400.0 E6363.691
G1 X-6.98 Y6.38 Z3.0 F2400.0 E6366.402
G1 X-2.74 Y2.15 Z3.0 F2400.0 E6373.897
G1 X-2.98 Y1.8 Z3.0 F2400.0 E6374.43
G1 X-3.18 Y1.4 Z3.0 F2400.0 E6374.982
;M103
G1 X-1.8 Y2.98 Z3.0 F3600.0
;M101
G1 X-2.46 Y2.46 Z3.0 F2400.0 E6376.037
G1 X-6.6 Y6.6 Z3.0 F2400.0 E6383.367
G1 X-4.35 Y7.9 Z3.0 F2400.0 E6386.622
G1 X-1.4 Y3.18 Z3.0 F2400.0 E6393.582
G1 X-0.48 Y3.45 Z3.0 F2400.0 E6394.779
G1 X0.07 Y3.48 Z3.0 F2400.0 E6395.476
G1 X0.75 Y3.4 Z3.0 F2400.0 E6396.331
G1 X1.7 Y3.04 Z3.0 F2400.0 E6397.593
G1 X1.84 Y3.44 Z3.0 F2400.0 E6398.117
G1 X-3.22 Y8.55 Z3.0 F2400.0 E6407.119
G1 X-3.97 Y8.12 Z3.0 F2400.0 E6408.204
;M103
G1 X-0.22 Y10.29 Z3.0 F3600.0
;M101
G1 X0.6 Y10.07 Z3.0 F2400.0 E6409.258
G1 X3.4 Y8.45 Z3.0 F2400.0 E6413.306
G1 X9.02 Y2.83 Z3.0 F2400.0 E6423.24
G1 X9.02 Y-0.72 Z3.0 F2400.0 E6427.686
G1 X-0.59 Y10.07 Z3.0 F2400.0 E6445.761
G1 X-2.47 Y8.99 Z3.0 F2400.0 E6448.473
G1 X3.28 Y2.04 Z3.0 F2400.0 E6459.757
G1 X9.02 Y-1.32 Z3.0 F2400.0 E6468.065
G1 X9.02 Y-4.87 Z3.0 F2400.0 E6472.511
G1 X3.4 Y0.75 Z3.0 F2400.0 E6482.453
G1 X3.34 Y-0.97 Z3.0 F2400.0 E6484.603
G1 X3.18 Y-1.4 Z3.0 F2400.0 E6485.182
G1 X8.85 Y-5.3 Z3.0 F2400.0 E6493.791
G1 X6.6 Y-6.6 Z3.0 F2400.0 E6497.046
G1 X2.46 Y-2.46 Z3.0 F2400.0 E6504.376
G1 X2.98 Y-1.8 Z3.0 F2400.0 E6505.431
;M103
G1 X0.49 Y-2.75 Z3.0 F3600.0
G1 X0.0 Y-2.79 Z3.0 F3600.0
G1 X-0.49 Y-2.75 Z3.0 F3600.0
G1 X-0.96 Y-2.62 Z3.0 F3600.0
G1 X-1.4 Y-2.42 Z3.0 F3600.0
G1 X-9.02 Y4.28 Z3.0 F3600.0
;M101
G1 X-9.02 Y1.91 Z3.0 F2400.0 E6508.394
G1 X3.6 Y-8.34 Z3.0 F2400.0 E6528.718
G1 X1.34 Y-9.64 Z3.0 F2400.0 E6531.972
G1 X-9.02 Y1.32 Z3.0 F2400.0 E6550.828
G1 X-9.02 Y-1.06 Z3.0 F2400.0 E6553.793
G1 X-0.6 Y-10.07 Z3.0 F2400.0 E6569.219
G1 X0.22 Y-10.29 Z3.0 F2400.0 E6570.273
G1 X0.97 Y-9.85 Z3.0 F2400.0 E6571.359
;M103
G1 X-2.0 Y-9.26 Z3.0 F3600.0
;M101
G1 X-6.2 Y-6.83 Z3.0 F2400.0 E6577.432
G1 X-9.02 Y-1.65 Z3.0 F2400.0 E6584.808
G1 X-9.02 Y-4.61 Z3.0 F2400.0 E6588.513
G1 X-7.61 Y-6.02 Z3.0 F2400.0 E6591.01
;M103
G1 X-9.01 Y-5.21 Z3.0 F3600.0
;M101
G1 X-9.02 Y-5.2 Z3.0 F2400.0 E6591.026
;M103
G1 X-1.4 Y2.42 Z3.0 F3600.0
G1 X9.02 Y5.2 Z3.0 F3600.0
;M101
G1 X9.01 Y5.21 Z3.0 F2400.0 E6591.043
G1 X9.02 Y3.43 Z3.0 F2400.0 E6593.278
G1 X7.61 Y6.02 Z3.0 F2400.0 E6596.973
G1 X4.8 Y7.64 Z3.0 F2400.0 E6601.022
;M103
G1 X1.32 Y2.82 Z3.0 F3600.0
;M101
G1 X1.57 Y2.71 Z3.0 F2400.0 E6601.357
G1 X2.01 Y2.4 Z3.0 F2400.0 E6602.041
G1 X2.4 Y2.01 Z3.0 F2400.0 E6602.722
G1 X2.71 Y1.57 Z3.0 F2400.0 E6603.405
G1 X2.94 Y1.07 Z3.0 F2400.0 E6604.088
G1 X3.08 Y0.54 Z3.0 F2400.0 E6604.77
G1 X3.13 Y0.0 Z3.0 F2400.0 E6605.453
G1 X3.08 Y-0.54 Z3.0 F2400.0 E6606.136
G1 X2.94 Y-1.07 Z3.0 F2400.0 E6606.819
G1 X2.71 Y-1.57 Z3.0 F2400.0 E6607.501
G1 X2.4 Y-2.01 Z3.0 F2400.0 E6608.185
G1 X2.01 Y-2.4 Z3.0 F2400.0 E6608.866
G1 X1.57 Y-2.71 Z3.0 F2400.0 E6609.55
G1 X1.07 Y-2.94 Z3.0 F2400.0 E6610.232
G1 X0.54 Y-3.08 Z3.0 F2400.0 E6610.914
G1 X0.0 Y-3.13 Z3.0 F2400.0 E6611.598
G1 X-0.54 Y-3.08 Z3.0 F2400.0 E6612.281
G1 X-1.07 Y-2.94 Z3.0 F2400.0 E6612.963
G1 X-1.57 Y-2.71 Z3.0 F2400.0 E6613.645
G1 X-2.01 Y-2.4 Z3.0 F2400.0 E6614.329
G1 X-2.4 Y-2.01 Z3.0 F2400.0 E6615.01
G1 X-2.71 Y-1.57 Z3.0 F2400.0 E6615.694
G1 X-2.94 Y-1.07 Z3.0 F2400.0 E6616.376
G1 X-3.08 Y-0.54 Z3.0 F2400.0 E6617.059
G1 X-3.13 Y0.0 Z3.0 F2400.0 E6617.742
G1 X-3.08 Y0.54 Z3.0 F2400.0 E6618.425
G1 X-2.94 Y1.07 Z3.0 F2400.0 E6619.107
G1 X-2.71 Y1.57 Z3.0 F2400.0 E6619.79
G1 X-2.4 Y2.01 Z3.0 F2400.0 E6620.473
G1 X-2.01 Y2.4 Z3.0 F2400.0 E6621.154
G1 X-1.57 Y2.71 Z3.0 F2400.0 E6621.838
G1 X-1.07 Y2.94 Z3.0 F2400.0 E6622.52
G1 X-0.54 Y3.08 Z3.0 F2400.0 E6623.203
G1 X0.0 Y3.13 Z3.0 F2400.0 E6623.886
G1 X0.54 Y3.08 Z3.0 F2400.0 E6624.569
G1 X1.07 Y2.94 Z3.0 F2400.0 E6625.252
G1 X1.32 Y2.82 Z3.0 F2400.0 E6625.599
;M103
G1 X4.45 Y8.25 Z3.0 F3600.0
;M101
G1 X0.0 Y10.82 Z3.0 F2400.0 E6632.032
G1 X-9.37 Y5.41 Z3.0 F2400.0 E6645.57
G1 X-9.37 Y-5.41 Z3.0 F2400.0 E6659.108
G1 X0.0 Y-10.82 Z3.0 F2400.0 E6672.646
G1 X9.37 Y-5.41 Z3.0 F2400.0 E6686.183
G1 X9.37 Y5.41 Z3.0 F2400.0 E6699.722
G1 X4.69 Y8.12 Z3.0 F2400.0 E6706.49
G1 X4.45 Y8.25 Z3.0 F2400.0 E6706.826
;M103
;M108 S37.53
G1 X4.66 Y8.61 Z3.0 F3600.0
;M101
G1 X0.0 Y11.31 Z3.0 F1800.0 E6713.562
G1 X-9.79 Y5.65 Z3.0 F1800.0 E6727.705
G1 X-9.79 Y-5.65 Z3.0 F1800.0 E6741.849
G1 X0.0 Y-11.31 Z3.0 F1800.0 E6755.992
G1 X9.79 Y-5.65 Z3.0 F1800.0 E6770.135
G1 X9.79 Y5.65 Z3.0 F1800.0 E6784.279
G1 X4.89 Y8.48 Z3.0 F1800.0 E6791.351
G1 X4.66 Y8.61 Z3.0 F1800.0 E6791.685
;M103
G1 X1.36 Y2.35 Z3.0 F3600.0
;M101
G1 X1.74 Y2.08 Z3.0 F1800.0 E6792.276
G1 X2.08 Y1.74 Z3.0 F1800.0 E6792.867
G1 X2.35 Y1.36 Z3.0 F1800.0 E6793.458
G1 X2.55 Y0.93 Z3.0 F1800.0 E6794.049
G1 X2.67 Y0.47 Z3.0 F1800.0 E6794.639
G1 X2.71 Y0.0 Z3.0 F1800.0 E6795.231
G1 X2.67 Y-0.47 Z3.0 F1800.0 E6795.822
G1 X2.55 Y-0.93 Z3.0 F1800.0 E6796.413
G1 X2.35 Y-1.36 Z3.0 F1800.0 E6797.004
G1 X2.08 Y-1.74 Z3.0 F1800.0 E6797.595
G1 X1.74 Y-2.08 Z3.0 F1800.0 E6798.185
G1 X1.36 Y-2.35 Z3.0 F1800.0 E6798.777
G1 X0.93 Y-2.55 Z3.0 F1800.0 E6799.368
G1 X0.47 Y-2.67 Z3.0 F1800.0 E6799.958
G1 X0.0 Y-2.71 Z3.0 F1800.0 E6800.55
G1 X-0.47 Y-2.67 Z3.0 F1800.0 E6801.141
G1 X-0.93 Y-2.55 Z3.0 F1800.0 E6801.731
G1 X-1.36 Y-2.35 Z3.0 F1800.0 E6802.322
G1 X-1.74 Y-2.08 Z3.0 F1800.0 E6802.914
G1 X-2.08 Y-1.74 Z3.0 F1800.0 E6803.504
G1 X-2.35 Y-1.36 Z3.0 F1800.0 E6804.095
G1 X-2.55 Y-0.93 Z3.0 F1800.0 E6804.686
G1 X-2.67 Y-0.47 Z3.0 F1800.0 E6805.277
G1 X-2.71 Y0.0 Z3.0 F1800.0 E6805.868
G1 X-2.67 Y0.47 Z3.0 F1800.0 E6806.46
G1 X-2.55 Y0.93 Z3.0 F1800.0 E6807.05
G1 X-2.35 Y1.36 Z3.0 F1800.0 E6807.641
G1 X-2.08 Y1.74 Z3.0 F1800.0 E6808.232
G1 X-1.74 Y2.08 Z3.0 F1800.0 E6808.823
G1 X-1.36 Y2.35 Z3.0 F1800.0 E6809.414
G1 X-0.93 Y2.55 Z3.0 F1800.0 E6810.005
G1 X-0.47 Y2.67 Z3.0 F1800.0 E6810.596
G1 X0.0 Y2.71 Z3.0 F1800.0 E6811.187
G1 X0.47 Y2.67 Z3.0 F1800.0 E6811.779
G1 X0.93 Y2.55 Z3.0 F1800.0 E6812.369
G1 X1.36 Y2.35 Z3.0 F1800.0 E6812.96
;M103
;M108 S50.04
G1 X1.4 Y3.18 Z3.3 F3600.0
;M101
G1 X1.8 Y2.98 Z3.3 F2400.0 E6813.513
G1 X2.15 Y2.74 Z3.3 F2400.0 E6814.045
G1 X6.22 Y6.82 Z3.3 F2400.0 E6821.259
G1 X3.97 Y8.12 Z3.3 F2400.0 E6824.514
G1 X0.97 Y3.34 Z3.3 F2400.0 E6831.576
G1 X0.48 Y3.45 Z3.3 F2400.0 E6832.196
G1 X-0.07 Y3.48 Z3.3 F2400.0 E6832.893
G1 X-0.75 Y3.4 Z3.3 F2400.0 E6833.748
G1 X-1.7 Y3.04 Z3.3 F2400.0 E6835.011
G1 X-3.04 Y1.7 Z3.3 F2400.0 E6837.396
G1 X-3.4 Y0.75 Z3.3 F2400.0 E6838.658
G1 X-3.48 Y0.07 Z3.3 F2400.0 E6839.513
G1 X-3.45 Y-0.48 Z3.3 F2400.0 E6840.21
G1 X-3.34 Y-0.97 Z3.3 F2400.0 E6840.831
G1 X-9.02 Y-4.87 Z3.3 F2400.0 E6849.449
G1 X-8.85 Y-5.3 Z3.3 F2400.0 E6850.024
G1 X-6.98 Y-6.38 Z3.3 F2400.0 E6852.736
G1 X-2.74 Y-2.15 Z3.3 F2400.0 E6860.231
G1 X-2.98 Y-1.8 Z3.3 F2400.0 E6860.763
G1 X-3.18 Y-1.4 Z3.3 F2400.0 E6861.316
;M103
G1 X-1.8 Y-2.98 Z3.3 F3600.0
;M101
G1 X-2.46 Y-2.46 Z3.3 F2400.0 E6862.37
G1 X-6.6 Y-6.6 Z3.3 F2400.0 E6869.7
G1 X-4.35 Y-7.9 Z3.3 F2400.0 E6872.955
G1 X-1.4 Y-3.18 Z3.3 F2400.0 E6879.915
G1 X-0.48 Y-3.45 Z3.3 F2400.0 E6881.112
G1 X0.07 Y-3.48 Z3.3 F2400.0 E6881.809
G1 X0.75 Y-3.4 Z3.3 F2400.0 E6882.664
G1 X-3.22 Y-8.55 Z3.3 F2400.0 E6890.804
G1 X-3.97 Y-8.12 Z3.3 F2400.0 E6891.888
;M103
G1 X-0.22 Y-10.29 Z3.3 F3600.0
;M101
G1 X0.6 Y-10.07 Z3.3 F2400.0 E6892.942
G1 X3.4 Y-8.45 Z3.3 F2400.0 E6896.991
G1 X9.02 Y-2.83 Z3.3 F2400.0 E6906.925
G1 X9.02 Y0.72 Z3.3 F2400.0 E6911.371
G1 X-0.59 Y-10.07 Z3.3 F2400.0 E6929.445
G1 X-2.84 Y-8.77 Z3.3 F2400.0 E6932.7
G1 X3.04 Y-1.7 Z3.3 F2400.0 E6944.212
G1 X9.02 Y1.32 Z3.3 F2400.0 E6952.579
G1 X9.02 Y4.87 Z3.3 F2400.0 E6957.025
G1 X3.4 Y-0.75 Z3.3 F2400.0 E6966.967
G1 X3.34 Y0.97 Z3.3 F2400.0 E6969.117
G1 X3.18 Y1.4 Z3.3 F2400.0 E6969.696
G1 X8.85 Y5.3 Z3.3 F2400.0 E6978.305
G1 X6.6 Y6.6 Z3.3 F2400.0 E6981.56
G1 X2.46 Y2.46 Z3.3 F2400.0 E6988.89
G1 X2.98 Y1.8 Z3.3 F2400.0 E6989.945
;M103
G1 X0.49 Y2.75 Z3.3 F3600.0
G1 X0.0 Y2.79 Z3.3 F3600.0
G1 X-0.49 Y2.75 Z3.3 F3600.0
G1 X-0.96 Y2.62 Z3.3 F3600.0
G1 X-1.4 Y2.42 Z3.3 F3600.0
G1 X-9.02 Y-4.28 Z3.3 F3600.0
;M101
G1 X-9.02 Y-1.91 Z3.3 F2400.0 E6992.908
G1 X3.6 Y8.34 Z3.3 F2400.0 E7013.232
G1 X1.34 Y9.64 Z3.3 F2400.0 E7016.486
G1 X-9.02 Y-1.32 Z3.3 F2400.0 E7035.342
G1 X-9.02 Y1.06 Z3.3 F2400.0 E7038.307
G1 X-0.6 Y10.07 Z3.3 F2400.0 E7053.733
G1 X0.22 Y10.29 Z3.3 F2400.0 E7054.787
G1 X0.97 Y9.85 Z3.3 F2400.0 E7055.873
;M103
G1 X-2.0 Y9.26 Z3.3 F3600.0
;M101
G1 X-6.2 Y6.83 Z3.3 F2400.0 E7061.946
G1 X-9.02 Y1.65 Z3.3 F2400.0 E7069.322
G1 X-9.02 Y4.61 Z3.3 F2400.0 E7073.027
G1 X-7.61 Y6.02 Z3.3 F2400.0 E7075.524
;M103
G1 X-9.01 Y5.21 Z3.3 F3600.0
;M101
G1 X-9.02 Y5.2 Z3.3 F2400.0 E7075.54
;M103
G1 X-1.4 Y-2.42 Z3.3 F3600.0
G1 X9.01 Y-5.21 Z3.3 F3600.0
;M101
G1 X9.02 Y-3.43 Z3.3 F2400.0 E7077.775
G1 X7.61 Y-6.02 Z3.3 F2400.0 E7081.47
G1 X4.8 Y-7.64 Z3.3 F2400.0 E7085.519
;M103
G1 X1.34 Y-2.82 Z3.3 F3600.0
;M101
G1 X1.07 Y-2.94 Z3.3 F2400.0 E7085.889
G1 X0.54 Y-3.08 Z3.3 F2400.0 E7086.571
G1 X0.0 Y-3.13 Z3.3 F2400.0 E7087.254
G1 X-0.54 Y-3.08 Z3.3 F2400.0 E7087.938
G1 X-1.07 Y-2.94 Z3.3 F2400.0 E7088.62
G1 X-1.57 Y-2.71 Z3.3 F2400.0 E7089.302
G1 X-2.01 Y-2.4 Z3.3 F2400.0 E7089.986
G1 X-2.4 Y-2.01 Z3.3 F2400.0 E7090.667
G1 X-2.71 Y-1.57 Z3.3 F2400.0 E7091.351
G1 X-2.94 Y-1.07 Z3.3 F2400.0 E7092.033
G1 X-3.08 Y-0.54 Z3.3 F2400.0 E7092.715
G1 X-3.13 Y0.0 Z3.3 F2400.0 E7093.399
G1 X-3.08 Y0.54 Z3.3 F2400.0 E7094.082
G1 X-2.94 Y1.07 Z3.3 F2400.0 E7094.764
G1 X-2.71 Y1.57 Z3.3 F2400.0 E7095.446
G1 X-2.4 Y2.01 Z3.3 F2400.0 E7096.13
G1 X-2.01 Y2.4 Z3.3 F2400.0 E7096.811
G1 X-1.57 Y2.71 Z3.3 F2400.0 E7097.495
G1 X-1.07 Y2.94 Z3.3 F2400.0 E7098.177
G1 X-0.54 Y3.08 Z3.3 F2400.0 E7098.86
G1 X0.0 Y3.13 Z3.3 F2400.0 E7099.543
G1 X0.54 Y3.08 Z3.3 F2400.0 E7100.226
G1 X1.07 Y2.94 Z3.3 F2400.0 E7100.908
G1 X1.57 Y2.71 Z3.3 F2400.0 E7101.591
G1 X2.01 Y2.4 Z3.3 F2400.0 E7102.274
G1 X2.4 Y2.01 Z3.3 F2400.0 E7102.956
G1 X2.71 Y1.57 Z3.3 F2400.0 E7103.639
G1 X2.94 Y1.07 Z3.3 F2400.0 E7104.321
G1 X3.08 Y0.54 Z3.3 F2400.0 E7105.004
G1 X3.13 Y0.0 Z3.3 F2400.0 E7105.687
G1 X3.08 Y-0.54 Z3.3 F2400.0 E7106.37
G1 X2.94 Y-1.07 Z3.3 F2400.0 E7107.053
G1 X2.71 Y-1.57 Z3.3 F2400.0 E7107.735
G1 X2.4 Y-2.01 Z3.3 F2400.0 E7108.419
G1 X2.01 Y-2.4 Z3.3 F2400.0 E7109.1
G1 X1.57 Y-2.71 Z3.3 F2400.0 E7109.783
G1 X1.34 Y-2.82 Z3.3 F2400.0 E7110.096
;M103
G1 X4.47 Y-8.24 Z3.3 F3600.0
;M101
G1 X4.69 Y-8.12 Z3.3 F2400.0 E7110.408
G1 X9.37 Y-5.41 Z3.3 F2400.0 E7117.177
G1 X9.37 Y5.41 Z3.3 F2400.0 E7130.715
G1 X0.0 Y10.82 Z3.3 F2400.0 E7144.253
G1 X-9.37 Y5.41 Z3.3 F2400.0 E7157.79
G1 X-9.37 Y-5.41 Z3.3 F2400.0 E7171.328
G1 X0.0 Y-10.82 Z3.3 F2400.0 E7184.866
G1 X4.47 Y-8.24 Z3.3 F2400.0 E7191.323
;M103
;M108 S37.53
G1 X4.68 Y-8.6 Z3.3 F3600.0
;M101
G1 X4.89 Y-8.48 Z3.3 F1800.0 E7191.635
G1 X9.79 Y-5.65 Z3.3 F1800.0 E7198.707
G1 X9.79 Y5.65 Z3.3 F1800.0 E7212.851
G1 X0.0 Y11.31 Z3.3 F1800.0 E7226.993
G1 X-9.79 Y5.65 Z3.3 F1800.0 E7241.136
G1 X-9.79 Y-5.65 Z3.3 F1800.0 E7255.28
G1 X0.0 Y-11.31 Z3.3 F1800.0 E7269.423
G1 X4.68 Y-8.6 Z3.3 F1800.0 E7276.182
;M103
G1 X1.36 Y-2.35 Z3.3 F3600.0
;M101
G1 X0.93 Y-2.55 Z3.3 F1800.0 E7276.773
G1 X0.47 Y-2.67 Z3.3 F1800.0 E7277.363
G1 X0.0 Y-2.71 Z3.3 F1800.0 E7277.955
G1 X-0.47 Y-2.67 Z3.3 F1800.0 E7278.546
G1 X-0.93 Y-2.55 Z3.3 F1800.0 E7279.137
G1 X-1.36 Y-2.35 Z3.3 F1800.0 E7279.728
G1 X-1.74 Y-2.08 Z3.3 F1800.0 E7280.319
G1 X-2.08 Y-1.74 Z3.3 F1800.0 E7280.91
G1 X-2.35 Y-1.36 Z3.3 F1800.0 E7281.501
G1 X-2.55 Y-0.93 Z3.3 F1800.0 E7282.092
G1 X-2.67 Y-0.47 Z3.3 F1800.0 E7282.682
G1 X-2.71 Y0.0 Z3.3 F1800.0 E7283.274
G1 X-2.67 Y0.47 Z3.3 F1800.0 E7283.865
G1 X-2.55 Y0.93 Z3.3 F1800.0 E7284.456
G1 X-2.35 Y1.36 Z3.3 F1800.0 E7285.047
G1 X-2.08 Y1.74 Z3.3 F1800.0 E7285.638
G1 X-1.74 Y2.08 Z3.3 F1800.0 E7286.229
G1 X-1.36 Y2.35 Z3.3 F1800.0 E7286.82
G1 X-0.93 Y2.55 Z3.3 F1800.0 E7287.411
G1 X-0.47 Y2.67 Z3.3 F1800.0 E7288.001
G1 X0.0 Y2.71 Z3.3 F1800.0 E7288.593
G1 X0.47 Y2.67 Z3.3 F1800.0 E7289.184
G1 X0.93 Y2.55 Z3.3 F1800.0 E7289.775
G1 X1.36 Y2.35 Z3.3 F1800.0 E7290.366
G1 X1.74 Y2.08 Z3.3 F1800.0 E7290.957
G1 X2.08 Y1.74 Z3.3 F1800.0 E7291.547
G1 X2.35 Y1.36 Z3.3 F1800.0 E7292.139
G1 X2.55 Y0.93 Z3.3 F1800.0 E7292.73
G1 X2.67 Y0.47 Z3.3 F1800.0 E7293.32
G1 X2.71 Y0.0 Z3.3 F1800.0 E7293.911
G1 X2.67 Y-0.47 Z3.3 F1800.0 E7294.503
G1 X2.55 Y-0.93 Z3.3 F1800.0 E7295.093
G1 X2.35 Y-1.36 Z3.3 F1800.0 E7295.684
G1 X2.08 Y-1.74 Z3.3 F1800.0 E7296.275
G1 X1.74 Y-2.08 Z3.3 F1800.0 E7296.866
G1 X1.36 Y-2.35 Z3.3 F1800.0 E7297.457
;M103
;M108 S50.04
G1 X1.4 Y-3.18 Z3.6 F3600.0
;M101
G1 X1.8 Y-2.98 Z3.6 F2400.0 E7298.01
G1 X2.15 Y-2.74 Z3.6 F2400.0 E7298.542
G1 X6.22 Y-6.82 Z3.6 F2400.0 E7305.756
G1 X3.97 Y-8.12 Z3.6 F2400.0 E7309.011
G1 X0.97 Y-3.34 Z3.6 F2400.0 E7316.073
G1 X0.48 Y-3.45 Z3.6 F2400.0 E7316.693
G1 X-0.07 Y-3.48 Z3.6 F2400.0 E7317.39
G1 X-0.75 Y-3.4 Z3.6 F2400.0 E7318.245
G1 X-1.7 Y-3.04 Z3.6 F2400.0 E7319.508
;M103
G1 X-3.04 Y-1.7 Z3.6 F3600.0
;M101
G1 X-3.4 Y-0.75 Z3.6 F2400.0 E7320.771
G1 X-3.48 Y-0.07 Z3.6 F2400.0 E7321.626
G1 X-3.45 Y0.48 Z3.6 F2400.0 E7322.323
G1 X-3.34 Y0.97 Z3.6 F2400.0 E7322.943
G1 X-9.02 Y4.87 Z3.6 F2400.0 E7331.561
G1 X-8.85 Y5.3 Z3.6 F2400.0 E7332.136
G1 X-6.98 Y6.38 Z3.6 F2400.0 E7334.848
G1 X-2.74 Y2.15 Z3.6 F2400.0 E7342.343
G1 X-2.98 Y1.8 Z3.6 F2400.0 E7342.876
G1 X-3.18 Y1.4 Z3.6 F2400.0 E7343.428
;M103
G1 X-1.8 Y2.98 Z3.6 F3600.0
;M101
G1 X-2.46 Y2.46 Z3.6 F2400.0 E7344.483
G1 X-6.6 Y6.6 Z3.6 F2400.0 E7351.812
G1 X-4.35 Y7.9 Z3.6 F2400.0 E7355.067
G1 X-1.4 Y3.18 Z3.6 F2400.0 E7362.027
G1 X-0.48 Y3.45 Z3.6 F2400.0 E7363.224
G1 X0.07 Y3.48 Z3.6 F2400.0 E7363.921
G1 X0.75 Y3.4 Z3.6 F2400.0 E7364.776
G1 X1.7 Y3.04 Z3.6 F2400.0 E7366.039
G1 X1.84 Y3.44 Z3.6 F2400.0 E7366.562
G1 X-3.22 Y8.55 Z3.6 F2400.0 E7375.565
G1 X-3.97 Y8.12 Z3.6 F2400.0 E7376.649
;M103
G1 X-0.22 Y10.29 Z3.6 F3600.0
;M101
G1 X0.6 Y10.07 Z3.6 F2400.0 E7377.703
G1 X3.4 Y8.45 Z3.6 F2400.0 E7381.752
G1 X9.02 Y2.83 Z3.6 F2400.0 E7391.686
G1 X9.02 Y-0.72 Z3.6 F2400.0 E7396.132
G1 X-0.59 Y10.07 Z3.6 F2400.0 E7414.206
G1 X-2.47 Y8.99 Z3.6 F2400.0 E7416.919
G1 X3.28 Y2.04 Z3.6 F2400.0 E7428.203
G1 X9.02 Y-1.32 Z3.6 F2400.0 E7436.51
G1 X9.02 Y-4.87 Z3.6 F2400.0 E7440.956
G1 X3.4 Y0.75 Z3.6 F2400.0 E7450.898
G1 X3.34 Y-0.97 Z3.6 F2400.0 E7453.049
G1 X3.18 Y-1.4 Z3.6 F2400.0 E7453.628
G1 X8.85 Y-5.3 Z3.6 F2400.0 E7462.237
G1 X6.6 Y-6.6 Z3.6 F2400.0 E7465.492
G1 X2.46 Y-2.46 Z3.6 F2400.0 E7472.821
G1 X2.98 Y-1.8 Z3.6 F2400.0 E7473.876
;M103
G1 X0.49 Y-2.75 Z3.6 F3600.0
G1 X0.0 Y-2.79 Z3.6 F3600.0
G1 X-0.49 Y-2.75 Z3.6 F3600.0
G1 X-0.96 Y-2.62 Z3.6 F3600.0
G1 X-1.4 Y-2.42 Z3.6 F3600.0
G1 X-9.02 Y4.28 Z3.6 F3600.0
;M101
G1 X-9.02 Y1.91 Z3.6 F2400.0 E7476.84
G1 X3.6 Y-8.34 Z3.6 F2400.0 E7497.164
G1 X1.34 Y-9.64 Z3.6 F2400.0 E7500.418
G1 X-9.02 Y1.32 Z3.6 F2400.0 E7519.274
G1 X-9.02 Y-1.06 Z3.6 F2400.0 E7522.239
G1 X-0.6 Y-10.07 Z3.6 F2400.0 E7537.664
G1 X0.22 Y-10.29 Z3.6 F2400.0 E7538.718
G1 X0.97 Y-9.85 Z3.6 F2400.0 E7539.804
;M103
G1 X-2.0 Y-9.26 Z3.6 F3600.0
;M101
G1 X-6.2 Y-6.83 Z3.6 F2400.0 E7545.877
G1 X-9.02 Y-1.65 Z3.6 F2400.0 E7553.253
G1 X-9.02 Y-4.61 Z3.6 F2400.0 E7556.959
G1 X-7.61 Y-6.02 Z3.6 F2400.0 E7559.455
;M103
G1 X-9.01 Y-5.21 Z3.6 F3600.0
;M101
G1 X-9.02 Y-5.2 Z3.6 F2400.0 E7559.472
;M103
G1 X-1.4 Y2.42 Z3.6 F3600.0
G1 X9.02 Y5.2 Z3.6 F3600.0
;M101
G1 X9.01 Y5.21 Z3.6 F2400.0 E7559.489
G1 X9.02 Y3.43 Z3.6 F2400.0 E7561.723
G1 X7.61 Y6.02 Z3.6 F2400.0 E7565.418
G1 X4.8 Y7.64 Z3.6 F2400.0 E7569.467
;M103
G1 X1.5 Y2.74 Z3.6 F3600.0
;M101
G1 X1.57 Y2.71 Z3.6 F2400.0 E7569.555
G1 X2.01 Y2.4 Z3.6 F2400.0 E7570.238
G1 X2.4 Y2.01 Z3.6 F2400.0 E7570.919
G1 X2.71 Y1.57 Z3.6 F2400.0 E7571.603
G1 X2.94 Y1.07 Z3.6 F2400.0 E7572.285
G1 X3.08 Y0.54 Z3.6 F2400.0 E7572.968
G1 X3.13 Y0.0 Z3.6 F2400.0 E7573.651
G1 X3.08 Y-0.54 Z3.6 F2400.0 E7574.334
G1 X2.94 Y-1.07 Z3.6 F2400.0 E7575.017
G1 X2.71 Y-1.57 Z3.6 F2400.0 E7575.699
G1 X2.4 Y-2.01 Z3.6 F2400.0 E7576.382
G1 X2.01 Y-2.4 Z3.6 F2400.0 E7577.064
G1 X1.57 Y-2.71 Z3.6 F2400.0 E7577.747
G1 X1.07 Y-2.94 Z3.6 F2400.0 E7578.429
G1 X0.54 Y-3.08 Z3.6 F2400.0 E7579.112
G1 X0.0 Y-3.13 Z3.6 F2400.0 E7579.795
G1 X-0.54 Y-3.08 Z3.6 F2400.0 E7580.478
G1 X-1.07 Y-2.94 Z3.6 F2400.0 E7581.161
G1 X-1.57 Y-2.71 Z3.6 F2400.0 E7581.843
G1 X-2.01 Y-2.4 Z3.6 F2400.0 E7582.527
G1 X-2.4 Y-2.01 Z3.6 F2400.0 E7583.208
G1 X-2.71 Y-1.57 Z3.6 F2400.0 E7583.892
G1 X-2.94 Y-1.07 Z3.6 F2400.0 E7584.574
G1 X-3.08 Y-0.54 Z3.6 F2400.0 E7585.256
G1 X-3.13 Y0.0 Z3.6 F2400.0 E7585.939
G1 X-3.08 Y0.54 Z3.6 F2400.0 E7586.623
G1 X-2.94 Y1.07 Z3.6 F2400.0 E7587.305
G1 X-2.71 Y1.57 Z3.6 F2400.0 E7587.987
G1 X-2.4 Y2.01 Z3.6 F2400.0 E7588.671
G1 X-2.01 Y2.4 Z3.6 F2400.0 E7589.352
G1 X-1.57 Y2.71 Z3.6 F2400.0 E7590.036
G1 X-1.07 Y2.94 Z3.6 F2400.0 E7590.718
G1 X-0.54 Y3.08 Z3.6 F2400.0 E7591.4
G1 X0.0 Y3.13 Z3.6 F2400.0 E7592.084
G1 X0.54 Y3.08 Z3.6 F2400.0 E7592.767
G1 X1.07 Y2.94 Z3.6 F2400.0 E7593.449
G1 X1.5 Y2.74 Z3.6 F2400.0 E7594.044
;M103
G1 X4.69 Y8.12 Z3.6 F3600.0
;M101
G1 X0.0 Y10.82 Z3.6 F2400.0 E7600.813
G1 X-9.37 Y5.41 Z3.6 F2400.0 E7614.351
G1 X-9.37 Y-5.41 Z3.6 F2400.0 E7627.889
G1 X0.0 Y-10.82 Z3.6 F2400.0 E7641.426
G1 X9.37 Y-5.41 Z3.6 F2400.0 E7654.964
G1 X9.37 Y5.41 Z3.6 F2400.0 E7668.502
G1 X4.69 Y8.12 Z3.6 F2400.0 E7675.271
;M103
;M108 S37.53
G1 X4.89 Y8.48 Z3.6 F3600.0
;M101
G1 X0.0 Y11.31 Z3.6 F1800.0 E7682.342
G1 X-9.79 Y5.65 Z3.6 F1800.0 E7696.485
G1 X-9.79 Y-5.65 Z3.6 F1800.0 E7710.629
G1 X0.0 Y-11.31 Z3.6 F1800.0 E7724.772
G1 X9.79 Y-5.65 Z3.6 F1800.0 E7738.914
G1 X9.79 Y5.65 Z3.6 F1800.0 E7753.058
G1 X4.89 Y8.48 Z3.6 F1800.0 E7760.13
;M103
G1 X1.36 Y2.35 Z3.6 F3600.0
;M101
G1 X1.74 Y2.08 Z3.6 F1800.0 E7760.721
G1 X2.08 Y1.74 Z3.6 F1800.0 E7761.312
G1 X2.35 Y1.36 Z3.6 F1800.0 E7761.903
G1 X2.55 Y0.93 Z3.6 F1800.0 E7762.494
G1 X2.67 Y0.47 Z3.6 F1800.0 E7763.085
G1 X2.71 Y0.0 Z3.6 F1800.0 E7763.676
G1 X2.67 Y-0.47 Z3.6 F1800.0 E7764.268
G1 X2.55 Y-0.93 Z3.6 F1800.0 E7764.858
G1 X2.35 Y-1.36 Z3.6 F1800.0 E7765.449
G1 X2.08 Y-1.74 Z3.6 F1800.0 E7766.04
G1 X1.74 Y-2.08 Z3.6 F1800.0 E7766.631
G1 X1.36 Y-2.35 Z3.6 F1800.0 E7767.222
G1 X0.93 Y-2.55 Z3.6 F1800.0 E7767.813
G1 X0.47 Y-2.67 Z3.6 F1800.0 E7768.404
G1 X0.0 Y-2.71 Z3.6 F1800.0 E7768.995
G1 X-0.47 Y-2.67 Z3.6 F1800.0 E7769.587
G1 X-0.93 Y-2.55 Z3.6 F1800.0 E7770.177
G1 X-1.36 Y-2.35 Z3.6 F1800.0 E7770.768
G1 X-1.74 Y-2.08 Z3.6 F1800.0 E7771.359
G1 X-2.08 Y-1.74 Z3.6 F1800.0 E7771.95
G1 X-2.35 Y-1.36 Z3.6 F1800.0 E7772.541
G1 X-2.55 Y-0.93 Z3.6 F1800.0 E7773.132
G1 X-2.67 Y-0.47 Z3.6 F1800.0 E7773.723
G1 X-2.71 Y0.0 Z3.6 F1800.0 E7774.314
G1 X-2.67 Y0.47 Z3.6 F1800.0 E7774.905
G1 X-2.55 Y0.93 Z3.6 F1800.0 E7775.496
G1 X-2.35 Y1.36 Z3.6 F1800.0 E7776.087
G1 X-2.08 Y1.74 Z3.6 F1800.0 E7776.678
G1 X-1.74 Y2.08 Z3.6 F1800.0 E7777.269
G1 X-1.36 Y2.35 Z3.6 F1800.0 E7777.86
G1 X-0.93 Y2.55 Z3.6 F1800.0 E7778.451
G1 X-0.47 Y2.67 Z3.6 F1800.0 E7779.041
G1 X0.0 Y2.71 Z3.6 F1800.0 E7779.633
G1 X0.47 Y2.67 Z3.6 F1800.0 E7780.224
G1 X0.93 Y2.55 Z3.6 F1800.0 E7780.815
G1 X1.36 Y2.35 Z3.6 F1800.0 E7781.406
;M103
;M108 S50.04
G1 X1.4 Y3.18 Z3.9 F3600.0
;M101
G1 X1.8 Y2.98 Z3.9 F2400.0 E7781.958
G1 X2.15 Y2.74 Z3.9 F2400.0 E7782.491
G1 X6.22 Y6.82 Z3.9 F2400.0 E7789.705
G1 X3.97 Y8.12 Z3.9 F2400.0 E7792.959
G1 X0.97 Y3.34 Z3.9 F2400.0 E7800.021
G1 X0.48 Y3.45 Z3.9 F2400.0 E7800.642
G1 X-0.07 Y3.48 Z3.9 F2400.0 E7801.339
G1 X-0.75 Y3.4 Z3.9 F2400.0 E7802.194
G1 X-1.7 Y3.04 Z3.9 F2400.0 E7803.456
G1 X-3.04 Y1.7 Z3.9 F2400.0 E7805.841
G1 X-3.4 Y0.75 Z3.9 F2400.0 E7807.104
G1 X-3.48 Y0.07 Z3.9 F2400.0 E7807.959
G1 X-3.45 Y-0.48 Z3.9 F2400.0 E7808.656
G1 X-3.34 Y-0.97 Z3.9 F2400.0 E7809.276
G1 X-9.02 Y-4.87 Z3.9 F2400.0 E7817.894
G1 X-8.85 Y-5.3 Z3.9 F2400.0 E7818.47
G1 X-6.98 Y-6.38 Z3.9 F2400.0 E7821.181
G1 X-2.74 Y-2.15 Z3.9 F2400.0 E7828.676
G1 X-2.98 Y-1.8 Z3.9 F2400.0 E7829.209
G1 X-3.18 Y-1.4 Z3.9 F2400.0 E7829.761
;M103
G1 X-1.8 Y-2.98 Z3.9 F3600.0
;M101
G1 X-2.46 Y-2.46 Z3.9 F2400.0 E7830.816
G1 X-6.6 Y-6.6 Z3.9 F2400.0 E7838.146
G1 X-4.35 Y-7.9 Z3.9 F2400.0 E7841.4
G1 X-1.4 Y-3.18 Z3.9 F2400.0 E7848.361
G1 X-0.48 Y-3.45 Z3.9 F2400.0 E7849.558
G1 X0.07 Y-3.48 Z3.9 F2400.0 E7850.255
G1 X0.75 Y-3.4 Z3.9 F2400.0 E7851.11
G1 X-3.22 Y-8.55 Z3.9 F2400.0 E7859.249
G1 X-3.97 Y-8.12 Z3.9 F2400.0 E7860.334
;M103
G1 X-0.22 Y-10.29 Z3.9 F3600.0
;M101
G1 X0.6 Y-10.07 Z3.9 F2400.0 E7861.388
G1 X3.4 Y-8.45 Z3.9 F2400.0 E7865.436
G1 X9.02 Y-2.83 Z3.9 F2400.0 E7875.37
G1 X9.02 Y0.72 Z3.9 F2400.0 E7879.816
G1 X-0.59 Y-10.07 Z3.9 F2400.0 E7897.891
G1 X-2.84 Y-8.77 Z3.9 F2400.0 E7901.145
G1 X3.04 Y-1.7 Z3.9 F2400.0 E7912.657
G1 X9.02 Y1.32 Z3.9 F2400.0 E7921.024
G1 X9.02 Y4.87 Z3.9 F2400.0 E7925.47
G1 X3.4 Y-0.75 Z3.9 F2400.0 E7935.412
G1 X3.34 Y0.97 Z3.9 F2400.0 E7937.563
G1 X3.18 Y1.4 Z3.9 F2400.0 E7938.142
G1 X8.85 Y5.3 Z3.9 F2400.0 E7946.751
G1 X6.6 Y6.6 Z3.9 F2400.0 E7950.006
G1 X2.46 Y2.46 Z3.9 F2400.0 E7957.335
G1 X2.98 Y1.8 Z3.9 F2400.0 E7958.39
;M103
G1 X0.49 Y2.75 Z3.9 F3600.0
G1 X0.0 Y2.79 Z3.9 F3600.0
G1 X-0.49 Y2.75 Z3.9 F3600.0
G1 X-0.96 Y2.62 Z3.9 F3600.0
G1 X-1.4 Y2.42 Z3.9 F3600.0
G1 X-9.02 Y-4.28 Z3.9 F3600.0
;M101
G1 X-9.02 Y-1.91 Z3.9 F2400.0 E7961.354
G1 X3.6 Y8.34 Z3.9 F2400.0 E7981.678
G1 X1.34 Y9.64 Z3.9 F2400.0 E7984.932
G1 X-9.02 Y-1.32 Z3.9 F2400.0 E8003.788
G1 X-9.02 Y1.06 Z3.9 F2400.0 E8006.753
G1 X-0.6 Y10.07 Z3.9 F2400.0 E8022.178
G1 X0.22 Y10.29 Z3.9 F2400.0 E8023.232
G1 X0.97 Y9.85 Z3.9 F2400.0 E8024.318
;M103
G1 X-2.0 Y9.26 Z3.9 F3600.0
;M101
G1 X-6.2 Y6.83 Z3.9 F2400.0 E8030.391
G1 X-9.02 Y1.65 Z3.9 F2400.0 E8037.767
G1 X-9.02 Y4.61 Z3.9 F2400.0 E8041.473
G1 X-7.61 Y6.02 Z3.9 F2400.0 E8043.969
;M103
G1 X-9.01 Y5.21 Z3.9 F3600.0
;M101
G1 X-9.02 Y5.2 Z3.9 F2400.0 E8043.986
;M103
G1 X-1.4 Y-2.42 Z3.9 F3600.0
G1 X9.01 Y-5.21 Z3.9 F3600.0
;M101
G1 X9.02 Y-3.43 Z3.9 F2400.0 E8046.22
G1 X7.61 Y-6.02 Z3.9 F2400.0 E8049.915
G1 X4.8 Y-7.64 Z3.9 F2400.0 E8053.964
;M103
G1 X1.89 Y-2.49 Z3.9 F3600.0
;M101
G1 X1.57 Y-2.71 Z3.9 F2400.0 E8054.452
G1 X1.07 Y-2.94 Z3.9 F2400.0 E8055.134
G1 X0.54 Y-3.08 Z3.9 F2400.0 E8055.817
G1 X0.0 Y-3.13 Z3.9 F2400.0 E8056.5
G1 X-0.54 Y-3.08 Z3.9 F2400.0 E8057.183
G1 X-1.07 Y-2.94 Z3.9 F2400.0 E8057.866
G1 X-1.57 Y-2.71 Z3.9 F2400.0 E8058.548
G1 X-2.01 Y-2.4 Z3.9 F2400.0 E8059.232
G1 X-2.4 Y-2.01 Z3.9 F2400.0 E8059.913
G1 X-2.71 Y-1.57 Z3.9 F2400.0 E8060.597
G1 X-2.94 Y-1.07 Z3.9 F2400.0 E8061.279
G1 X-3.08 Y-0.54 Z3.9 F2400.0 E8061.961
G1 X-3.13 Y0.0 Z3.9 F2400.0 E8062.644
G1 X-3.08 Y0.54 Z3.9 F2400.0 E8063.328
G1 X-2.94 Y1.07 Z3.9 F2400.0 E8064.01
G1 X-2.71 Y1.57 Z3.9 F2400.0 E8064.692
G1 X-2.4 Y2.01 Z3.9 F2400.0 E8065.376
G1 X-2.01 Y2.4 Z3.9 F2400.0 E8066.057
G1 X-1.57 Y2.71 Z3.9 F2400.0 E8066.741
G1 X-1.07 Y2.94 Z3.9 F2400.0 E8067.423
G1 X-0.54 Y3.08 Z3.9 F2400.0 E8068.105
G1 X0.0 Y3.13 Z3.9 F2400.0 E8068.789
G1 X0.54 Y3.08 Z3.9 F2400.0 E8069.472
G1 X1.07 Y2.94 Z3.9 F2400.0 E8070.154
G1 X1.57 Y2.71 Z3.9 F2400.0 E8070.837
G1 X2.01 Y2.4 Z3.9 F2400.0 E8071.52
G1 X2.4 Y2.01 Z3.9 F2400.0 E8072.201
G1 X2.71 Y1.57 Z3.9 F2400.0 E8072.885
G1 X2.94 Y1.07 Z3.9 F2400.0 E8073.567
G1 X3.08 Y0.54 Z3.9 F2400.0 E8074.25
G1 X3.13 Y0.0 Z3.9 F2400.0 E8074.933
G1 X3.08 Y-0.54 Z3.9 F2400.0 E8075.616
G1 X2.94 Y-1.07 Z3.9 F2400.0 E8076.299
G1 X2.71 Y-1.57 Z3.9 F2400.0 E8076.981
G1 X2.4 Y-2.01 Z3.9 F2400.0 E8077.664
G1 X2.01 Y-2.4 Z3.9 F2400.0 E8078.346
G1 X1.89 Y-2.49 Z3.9 F2400.0 E8078.541
;M103
G1 X5.02 Y-7.92 Z3.9 F3600.0
;M101
G1 X9.37 Y-5.41 Z3.9 F2400.0 E8084.825
G1 X9.37 Y5.41 Z3.9 F2400.0 E8098.363
G1 X0.0 Y10.82 Z3.9 F2400.0 E8111.901
G1 X-9.37 Y5.41 Z3.9 F2400.0 E8125.438
G1 X-9.37 Y-5.41 Z3.9 F2400.0 E8138.977
G1 X0.0 Y-10.82 Z3.9 F2400.0 E8152.514
G1 X4.69 Y-8.12 Z3.9 F2400.0 E8159.283
G1 X5.02 Y-7.92 Z3.9 F2400.0 E8159.768
;M103
;M108 S37.53
G1 X5.23 Y-8.29 Z3.9 F3600.0
;M101
G1 X9.79 Y-5.65 Z3.9 F1800.0 E8166.355
G1 X9.79 Y5.65 Z3.9 F1800.0 E8180.499
G1 X0.0 Y11.31 Z3.9 F1800.0 E8194.642
G1 X-9.79 Y5.65 Z3.9 F1800.0 E8208.784
G1 X-9.79 Y-5.65 Z3.9 F1800.0 E8222.928
G1 X0.0 Y-11.31 Z3.9 F1800.0 E8237.071
G1 X4.89 Y-8.48 Z3.9 F1800.0 E8244.142
G1 X5.23 Y-8.29 Z3.9 F1800.0 E8244.627
;M103
G1 X1.36 Y-2.35 Z3.9 F3600.0
;M101
G1 X0.93 Y-2.55 Z3.9 F1800.0 E8245.218
G1 X0.47 Y-2.67 Z3.9 F1800.0 E8245.809
G1 X0.0 Y-2.71 Z3.9 F1800.0 E8246.4
G1 X-0.47 Y-2.67 Z3.9 F1800.0 E8246.992
G1 X-0.93 Y-2.55 Z3.9 F1800.0 E8247.582
G1 X-1.36 Y-2.35 Z3.9 F1800.0 E8248.173
G1 X-1.74 Y-2.08 Z3.9 F1800.0 E8248.764
G1 X-2.08 Y-1.74 Z3.9 F1800.0 E8249.355
G1 X-2.35 Y-1.36 Z3.9 F1800.0 E8249.946
G1 X-2.55 Y-0.93 Z3.9 F1800.0 E8250.537
G1 X-2.67 Y-0.47 Z3.9 F1800.0 E8251.128
G1 X-2.71 Y0.0 Z3.9 F1800.0 E8251.719
G1 X-2.67 Y0.47 Z3.9 F1800.0 E8252.311
G1 X-2.55 Y0.93 Z3.9 F1800.0 E8252.901
G1 X-2.35 Y1.36 Z3.9 F1800.0 E8253.492
G1 X-2.08 Y1.74 Z3.9 F1800.0 E8254.083
G1 X-1.74 Y2.08 Z3.9 F1800.0 E8254.674
G1 X-1.36 Y2.35 Z3.9 F1800.0 E8255.265
G1 X-0.93 Y2.55 Z3.9 F1800.0 E8255.856
G1 X-0.47 Y2.67 Z3.9 F1800.0 E8256.447
G1 X0.0 Y2.71 Z3.9 F1800.0 E8257.038
G1 X0.47 Y2.67 Z3.9 F1800.0 E8257.63
G1 X0.93 Y2.55 Z3.9 F1800.0 E8258.22
G1 X1.36 Y2.35 Z3.9 F1800.0 E8258.811
G1 X1.74 Y2.08 Z3.9 F1800.0 E8259.402
G1 X2.08 Y1.74 Z3.9 F1800.0 E8259.993
G1 X2.35 Y1.36 Z3.9 F1800.0 E8260.584
G1 X2.55 Y0.93 Z3.9 F1800.0 E8261.175
G1 X2.67 Y0.47 Z3.9 F1800.0 E8261.766
G1 X2.71 Y0.0 Z3.9 F1800.0 E8262.357
G1 X2.67 Y-0.47 Z3.9 F1800.0 E8262.949
G1 X2.55 Y-0.93 Z3.9 F1800.0 E8263.539
G1 X2.35 Y-1.36 Z3.9 F1800.0 E8264.13
G1 X2.08 Y-1.74 Z3.9 F1800.0 E8264.721
G1 X1.74 Y-2.08 Z3.9 F1800.0 E8265.312
G1 X1.36 Y-2.35 Z3.9 F1800.0 E8265.903
;M103
;M108 S50.04
G1 X1.4 Y-3.18 Z4.2 F3600.0
;M101
G1 X1.8 Y-2.98 Z4.2 F2400.0 E8266.455
G1 X2.15 Y-2.74 Z4.2 F2400.0 E8266.988
G1 X6.22 Y-6.82 Z4.2 F2400.0 E8274.202
G1 X3.97 Y-8.12 Z4.2 F2400.0 E8277.456
G1 X0.97 Y-3.34 Z4.2 F2400.0 E8284.518
G1 X0.48 Y-3.45 Z4.2 F2400.0 E8285.139
G1 X-0.07 Y-3.48 Z4.2 F2400.0 E8285.836
G1 X-0.75 Y-3.4 Z4.2 F2400.0 E8286.691
G1 X-1.7 Y-3.04 Z4.2 F2400.0 E8287.953
;M103
G1 X-3.04 Y-1.7 Z4.2 F3600.0
;M101
G1 X-3.4 Y-0.75 Z4.2 F2400.0 E8289.216
G1 X-3.48 Y-0.07 Z4.2 F2400.0 E8290.071
G1 X-3.45 Y0.48 Z4.2 F2400.0 E8290.768
G1 X-3.34 Y0.97 Z4.2 F2400.0 E8291.389
G1 X-9.02 Y4.87 Z4.2 F2400.0 E8300.007
G1 X-8.85 Y5.3 Z4.2 F2400.0 E8300.582
G1 X-6.98 Y6.38 Z4.2 F2400.0 E8303.293
G1 X-2.74 Y2.15 Z4.2 F2400.0 E8310.789
G1 X-2.98 Y1.8 Z4.2 F2400.0 E8311.321
G1 X-3.18 Y1.4 Z4.2 F2400.0 E8311.873
;M103
G1 X-1.8 Y2.98 Z4.2 F3600.0
;M101
G1 X-2.46 Y2.46 Z4.2 F2400.0 E8312.928
G1 X-6.6 Y6.6 Z4.2 F2400.0 E8320.258
G1 X-4.35 Y7.9 Z4.2 F2400.0 E8323.513
G1 X-1.4 Y3.18 Z4.2 F2400.0 E8330.473
G1 X-0.48 Y3.45 Z4.2 F2400.0 E8331.67
G1 X0.07 Y3.48 Z4.2 F2400.0 E8332.367
G1 X0.75 Y3.4 Z4.2 F2400.0 E8333.222
G1 X1.7 Y3.04 Z4.2 F2400.0 E8334.484
G1 X1.84 Y3.44 Z4.2 F2400.0 E8335.008
G1 X-3.22 Y8.55 Z4.2 F2400.0 E8344.01
G1 X-3.97 Y8.12 Z4.2 F2400.0 E8345.095
;M103
G1 X-0.22 Y10.29 Z4.2 F3600.0
;M101
G1 X0.6 Y10.07 Z4.2 F2400.0 E8346.149
G1 X3.4 Y8.45 Z4.2 F2400.0 E8350.198
G1 X9.02 Y2.83 Z4.2 F2400.0 E8360.132
G1 X9.02 Y-0.72 Z4.2 F2400.0 E8364.578
G1 X-0.59 Y10.07 Z4.2 F2400.0 E8382.652
G1 X-2.47 Y8.99 Z4.2 F2400.0 E8385.365
G1 X3.28 Y2.04 Z4.2 F2400.0 E8396.648
G1 X9.02 Y-1.32 Z4.2 F2400.0 E8404.956
G1 X9.02 Y-4.87 Z4.2 F2400.0 E8409.402
G1 X3.4 Y0.75 Z4.2 F2400.0 E8419.344
G1 X3.34 Y-0.97 Z4.2 F2400.0 E8421.494
G1 X3.18 Y-1.4 Z4.2 F2400.0 E8422.073
G1 X8.85 Y-5.3 Z4.2 F2400.0 E8430.683
G1 X6.6 Y-6.6 Z4.2 F2400.0 E8433.937
G1 X2.46 Y-2.46 Z4.2 F2400.0 E8441.267
G1 X2.98 Y-1.8 Z4.2 F2400.0 E8442.322
;M103
G1 X0.49 Y-2.75 Z4.2 F3600.0
G1 X0.0 Y-2.79 Z4.2 F3600.0
G1 X-0.49 Y-2.75 Z4.2 F3600.0
G1 X-0.96 Y-2.62 Z4.2 F3600.0
G1 X-1.4 Y-2.42 Z4.2 F3600.0
G1 X-9.02 Y4.28 Z4.2 F3600.0
;M101
G1 X-9.02 Y1.91 Z4.2 F2400.0 E8445.285
G1 X3.6 Y-8.34 Z4.2 F2400.0 E8465.609
G1 X1.34 Y-9.64 Z4.2 F2400.0 E8468.863
G1 X-9.02 Y1.32 Z4.2 F2400.0 E8487.72
G1 X-9.02 Y-1.06 Z4.2 F2400.0 E8490.684
G1 X-0.6 Y-10.07 Z4.2 F2400.0 E8506.11
G1 X0.22 Y-10.29 Z4.2 F2400.0 E8507.164
G1 X0.97 Y-9.85 Z4.2 F2400.0 E8508.25
;M103
G1 X-2.0 Y-9.26 Z4.2 F3600.0
;M101
G1 X-6.2 Y-6.83 Z4.2 F2400.0 E8514.323
G1 X-9.02 Y-1.65 Z4.2 F2400.0 E8521.699
G1 X-9.02 Y-4.61 Z4.2 F2400.0 E8525.404
G1 X-7.61 Y-6.02 Z4.2 F2400.0 E8527.901
;M103
G1 X-9.01 Y-5.21 Z4.2 F3600.0
;M101
G1 X-9.02 Y-5.2 Z4.2 F2400.0 E8527.918
;M103
G1 X-1.4 Y2.42 Z4.2 F3600.0
G1 X9.02 Y5.2 Z4.2 F3600.0
;M101
G1 X9.01 Y5.21 Z4.2 F2400.0 E8527.934
G1 X9.02 Y3.43 Z4.2 F2400.0 E8530.169
G1 X7.61 Y6.02 Z4.2 F2400.0 E8533.864
G1 X4.8 Y7.64 Z4.2 F2400.0 E8537.913
;M103
G1 X1.67 Y2.64 Z4.2 F3600.0
;M101
G1 X2.01 Y2.4 Z4.2 F2400.0 E8538.436
G1 X2.4 Y2.01 Z4.2 F2400.0 E8539.118
G1 X2.71 Y1.57 Z4.2 F2400.0 E8539.801
G1 X2.94 Y1.07 Z4.2 F2400.0 E8540.484
G1 X3.08 Y0.54 Z4.2 F2400.0 E8541.166
G1 X3.13 Y0.0 Z4.2 F2400.0 E8541.849
G1 X3.08 Y-0.54 Z4.2 F2400.0 E8542.532
G1 X2.94 Y-1.07 Z4.2 F2400.0 E8543.215
G1 X2.71 Y-1.57 Z4.2 F2400.0 E8543.897
G1 X2.4 Y-2.01 Z4.2 F2400.0 E8544.581
G1 X2.01 Y-2.4 Z4.2 F2400.0 E8545.262
G1 X1.57 Y-2.71 Z4.2 F2400.0 E8545.946
G1 X1.07 Y-2.94 Z4.2 F2400.0 E8546.628
G1 X0.54 Y-3.08 Z4.2 F2400.0 E8547.31
G1 X0.0 Y-3.13 Z4.2 F2400.0 E8547.993
G1 X-0.54 Y-3.08 Z4.2 F2400.0 E8548.677
G1 X-1.07 Y-2.94 Z4.2 F2400.0 E8549.359
G1 X-1.57 Y-2.71 Z4.2 F2400.0 E8550.041
G1 X-2.01 Y-2.4 Z4.2 F2400.0 E8550.725
G1 X-2.4 Y-2.01 Z4.2 F2400.0 E8551.406
G1 X-2.71 Y-1.57 Z4.2 F2400.0 E8552.09
G1 X-2.94 Y-1.07 Z4.2 F2400.0 E8552.772
G1 X-3.08 Y-0.54 Z4.2 F2400.0 E8553.455
G1 X-3.13 Y0.0 Z4.2 F2400.0 E8554.138
G1 X-3.08 Y0.54 Z4.2 F2400.0 E8554.821
G1 X-2.94 Y1.07 Z4.2 F2400.0 E8555.503
G1 X-2.71 Y1.57 Z4.2 F2400.0 E8556.186
G1 X-2.4 Y2.01 Z4.2 F2400.0 E8556.869
G1 X-2.01 Y2.4 Z4.2 F2400.0 E8557.55
G1 X-1.57 Y2.71 Z4.2 F2400.0 E8558.234
G1 X-1.07 Y2.94 Z4.2 F2400.0 E8558.916
G1 X-0.54 Y3.08 Z4.2 F2400.0 E8559.599
G1 X0.0 Y3.13 Z4.2 F2400.0 E8560.282
G1 X0.54 Y3.08 Z4.2 F2400.0 E8560.965
G1 X1.07 Y2.94 Z4.2 F2400.0 E8561.648
G1 X1.57 Y2.71 Z4.2 F2400.0 E8562.33
G1 X1.67 Y2.64 Z4.2 F2400.0 E8562.49
;M103
G1 X4.69 Y8.12 Z4.2 F3600.0
;M101
G1 X0.0 Y10.82 Z4.2 F2400.0 E8569.259
G1 X-9.37 Y5.41 Z4.2 F2400.0 E8582.796
G1 X-9.37 Y-5.41 Z4.2 F2400.0 E8596.334
G1 X0.0 Y-10.82 Z4.2 F2400.0 E8609.872
G1 X9.37 Y-5.41 Z4.2 F2400.0 E8623.41
G1 X9.37 Y5.41 Z4.2 F2400.0 E8636.948
G1 X4.69 Y8.12 Z4.2 F2400.0 E8643.717
;M103
;M108 S37.53
G1 X4.89 Y8.48 Z4.2 F3600.0
;M101
G1 X0.0 Y11.31 Z4.2 F1800.0 E8650.788
G1 X-9.79 Y5.65 Z4.2 F1800.0 E8664.93
G1 X-9.79 Y-5.65 Z4.2 F1800.0 E8679.074
G1 X0.0 Y-11.31 Z4.2 F1800.0 E8693.217
G1 X9.79 Y-5.65 Z4.2 F1800.0 E8707.36
G1 X9.79 Y5.65 Z4.2 F1800.0 E8721.504
G1 X4.89 Y8.48 Z4.2 F1800.0 E8728.576
;M103
G1 X1.36 Y2.35 Z4.2 F3600.0
;M101
G1 X1.74 Y2.08 Z4.2 F1800.0 E8729.167
G1 X2.08 Y1.74 Z4.2 F1800.0 E8729.758
G1 X2.35 Y1.36 Z4.2 F1800.0 E8730.349
G1 X2.55 Y0.93 Z4.2 F1800.0 E8730.94
G1 X2.67 Y0.47 Z4.2 F1800.0 E8731.53
G1 X2.71 Y0.0 Z4.2 F1800.0 E8732.122
G1 X2.67 Y-0.47 Z4.2 F1800.0 E8732.713
G1 X2.55 Y-0.93 Z4.2 F1800.0 E8733.304
G1 X2.35 Y-1.36 Z4.2 F1800.0 E8733.895
G1 X2.08 Y-1.74 Z4.2 F1800.0 E8734.486
G1 X1.74 Y-2.08 Z4.2 F1800.0 E8735.077
G1 X1.36 Y-2.35 Z4.2 F1800.0 E8735.668
G1 X0.93 Y-2.55 Z4.2 F1800.0 E8736.259
G1 X0.47 Y-2.67 Z4.2 F1800.0 E8736.849
G1 X0.0 Y-2.71 Z4.2 F1800.0 E8737.441
G1 X-0.47 Y-2.67 Z4.2 F1800.0 E8738.032
G1 X-0.93 Y-2.55 Z4.2 F1800.0 E8738.623
G1 X-1.36 Y-2.35 Z4.2 F1800.0 E8739.214
G1 X-1.74 Y-2.08 Z4.2 F1800.0 E8739.805
G1 X-2.08 Y-1.74 Z4.2 F1800.0 E8740.396
G1 X-2.35 Y-1.36 Z4.2 F1800.0 E8740.987
G1 X-2.55 Y-0.93 Z4.2 F1800.0 E8741.578
G1 X-2.67 Y-0.47 Z4.2 F1800.0 E8742.168
G1 X-2.71 Y0.0 Z4.2 F1800.0 E8742.76
G1 X-2.67 Y0.47 Z4.2 F1800.0 E8743.351
G1 X-2.55 Y0.93 Z4.2 F1800.0 E8743.942
G1 X-2.35 Y1.36 Z4.2 F1800.0 E8744.533
G1 X-2.08 Y1.74 Z4.2 F1800.0 E8745.124
G1 X-1.74 Y2.08 Z4.2 F1800.0 E8745.714
G1 X-1.36 Y2.35 Z4.2 F1800.0 E8746.306
G1 X-0.93 Y2.55 Z4.2 F1800.0 E8746.897
G1 X-0.47 Y2.67 Z4.2 F1800.0 E8747.487
G1 X0.0 Y2.71 Z4.2 F1800.0 E8748.079
G1 X0.47 Y2.67 Z4.2 F1800.0 E8748.67
G1 X0.93 Y2.55 Z4.2 F1800.0 E8749.26
G1 X1.36 Y2.35 Z4.2 F1800.0 E8749.851
;M103
;M108 S50.04
G1 X1.4 Y3.18 Z4.5 F3600.0
;M101
G1 X1.8 Y2.98 Z4.5 F2400.0 E8750.404
G1 X2.15 Y2.74 Z4.5 F2400.0 E8750.936
G1 X6.22 Y6.82 Z4.5 F2400.0 E8758.15
G1 X3.97 Y8.12 Z4.5 F2400.0 E8761.405
G1 X0.97 Y3.34 Z4.5 F2400.0 E8768.467
G1 X0.48 Y3.45 Z4.5 F2400.0 E8769.087
G1 X-0.07 Y3.48 Z4.5 F2400.0 E8769.784
G1 X-0.75 Y3.4 Z4.5 F2400.0 E8770.639
G1 X-1.7 Y3.04 Z4.5 F2400.0 E8771.902
G1 X-3.04 Y1.7 Z4.5 F2400.0 E8774.287
G1 X-3.4 Y0.75 Z4.5 F2400.0 E8775.549
G1 X-3.48 Y0.07 Z4.5 F2400.0 E8776.404
G1 X-3.45 Y-0.48 Z4.5 F2400.0 E8777.101
G1 X-3.34 Y-0.97 Z4.5 F2400.0 E8777.722
G1 X-9.02 Y-4.87 Z4.5 F2400.0 E8786.34
G1 X-8.85 Y-5.3 Z4.5 F2400.0 E8786.915
G1 X-6.98 Y-6.38 Z4.5 F2400.0 E8789.627
G1 X-2.74 Y-2.15 Z4.5 F2400.0 E8797.122
G1 X-2.98 Y-1.8 Z4.5 F2400.0 E8797.655
G1 X-3.18 Y-1.4 Z4.5 F2400.0 E8798.207
;M103
G1 X-1.8 Y-2.98 Z4.5 F3600.0
;M101
G1 X-2.46 Y-2.46 Z4.5 F2400.0 E8799.262
G1 X-6.6 Y-6.6 Z4.5 F2400.0 E8806.591
G1 X-4.35 Y-7.9 Z4.5 F2400.0 E8809.846
G1 X-1.4 Y-3.18 Z4.5 F2400.0 E8816.806
G1 X-0.48 Y-3.45 Z4.5 F2400.0 E8818.003
G1 X0.07 Y-3.48 Z4.5 F2400.0 E8818.7
G1 X0.75 Y-3.4 Z4.5 F2400.0 E8819.555
G1 X-3.22 Y-8.55 Z4.5 F2400.0 E8827.695
G1 X-3.97 Y-8.12 Z4.5 F2400.0 E8828.779
;M103
G1 X-0.22 Y-10.29 Z4.5 F3600.0
;M101
G1 X0.6 Y-10.07 Z4.5 F2400.0 E8829.833
G1 X3.4 Y-8.45 Z4.5 F2400.0 E8833.882
G1 X9.02 Y-2.83 Z4.5 F2400.0 E8843.816
G1 X9.02 Y0.72 Z4.5 F2400.0 E8848.262
G1 X-0.59 Y-10.07 Z4.5 F2400.0 E8866.336
G1 X-2.84 Y-8.77 Z4.5 F2400.0 E8869.591
G1 X3.04 Y-1.7 Z4.5 F2400.0 E8881.103
G1 X9.02 Y1.32 Z4.5 F2400.0 E8889.47
G1 X9.02 Y4.87 Z4.5 F2400.0 E8893.916
G1 X3.4 Y-0.75 Z4.5 F2400.0 E8903.858
G1 X3.34 Y0.97 Z4.5 F2400.0 E8906.008
G1 X3.18 Y1.4 Z4.5 F2400.0 E8906.587
