G21 (This is GCode, generated with Skeinforge version 35 from ReplicatorG)
G21 (Ultimaker profile - Quality print - alterations/start-centered.gcode)
G21 (Metric: The unit is a millimeter)
M18 (Disable motors for now, to allow manual moving of the head)
G90 (Absolute Positioning)
G92 X0 Y0 Z0 E0 (set origin to current position)
M1 (Check if the platform is empty before continuing)
G1 X-220.0 Y-220.0 F2000 (ensure you're in the front left corner)
G92 X-110 Y-110 Z220 E0 (make the center the origin)
G1 X0.0 Y0.0 F3000 (go back to the center)
G1 Z210.0 F100 (let the platform go up slightly, start slowly)
G1 Z0.0 F400 (we don't have all day...)
G92 X0 Y0 Z0 E0 (make the center the origin)
G91 (Relative positioning)
G1 Z35.0 F400 (lower platform for cleaning nozzle)
G92 E0 (zero the extruded length)
G1 E260 F1000 (extrude some to get the flow going)
G1 E-20 F3000 (reverse a little)
G92 E0 (zero the extruded length)
M1 (Clean the nozzle and press YES to continue...)
G1 Z-1.0 F100 (rise platform again)
G1 Z-34.0 F400 (rise platform again)
G90 
G1 Z0.4
G92 E0 (zero the extruded length)
G21 (end of start .gcode file)
G90
G21
;M103
M105
M106
M113 S1.0
;M108 S50.04
M104 S245.0
;M108 S52.54
G1 X-19.87 Y-19.87 Z0.3 F1620.0
;M101
G1 X-19.87 Y19.87 Z0.3 F1620.0 E77.339
G1 X19.87 Y19.87 Z0.3 F1620.0 E154.678
G1 X19.87 Y-19.87 Z0.3 F1620.0 E232.017
G1 X-19.87 Y-19.87 Z0.3 F1620.0 E309.356
;M103
G1 X9.66 Y-12.85 Z0.3 F2880.0
;M101
G1 X12.85 Y-9.66 Z0.3 F1920.0 E316.765
G1 X12.89 Y-9.02 Z0.3 F1920.0 E317.812
G1 X13.91 Y-8.01 Z0.3 F1920.0 E320.173
G1 X13.92 Y-7.4 Z0.3 F1920.0 E321.165
G1 X14.57 Y-6.76 Z0.3 F1920.0 E322.661
G1 X14.41 Y-6.32 Z0.3 F1920.0 E323.422
G1 X14.99 Y-5.75 Z0.3 F1920.0 E324.758
G1 X14.89 Y-5.25 Z0.3 F1920.0 E325.593
G1 X15.35 Y-4.79 Z0.3 F1920.0 E326.654
G1 X15.1 Y-4.45 Z0.3 F1920.0 E327.35
G1 X15.54 Y-4.01 Z0.3 F1920.0 E328.36
G1 X15.31 Y-3.65 Z0.3 F1920.0 E329.066
G1 X15.73 Y-3.23 Z0.3 F1920.0 E330.026
G1 X15.52 Y-2.84 Z0.3 F1920.0 E330.746
G1 X15.9 Y-2.46 Z0.3 F1920.0 E331.63
G1 X15.61 Y-2.16 Z0.3 F1920.0 E332.318
G1 X15.95 Y-1.82 Z0.3 F1920.0 E333.113
G1 X15.66 Y-1.52 Z0.3 F1920.0 E333.8
G1 X16.0 Y-1.18 Z0.3 F1920.0 E334.585
G1 X15.72 Y-0.87 Z0.3 F1920.0 E335.273
G1 X16.05 Y-0.53 Z0.3 F1920.0 E336.048
G1 X15.77 Y-0.22 Z0.3 F1920.0 E336.736
G1 X16.09 Y0.09 Z0.3 F1920.0 E337.463
G1 X15.76 Y0.36 Z0.3 F1920.0 E338.154
G1 X16.04 Y0.64 Z0.3 F1920.0 E338.808
G1 X15.72 Y0.91 Z0.3 F1920.0 E339.5
G1 X16.0 Y1.19 Z0.3 F1920.0 E340.161
G1 X15.67 Y1.45 Z0.3 F1920.0 E340.855
G1 X15.96 Y1.74 Z0.3 F1920.0 E341.525
G1 X15.62 Y2.0 Z0.3 F1920.0 E342.219
G1 X15.92 Y2.29 Z0.3 F1920.0 E342.897
G1 X15.58 Y2.54 Z0.3 F1920.0 E343.592
G1 X15.83 Y2.8 Z0.3 F1920.0 E344.181
G1 X15.47 Y3.03 Z0.3 F1920.0 E344.885
G1 X15.72 Y3.28 Z0.3 F1920.0 E345.451
G1 X15.35 Y3.5 Z0.3 F1920.0 E346.157
G1 X15.6 Y3.75 Z0.3 F1920.0 E346.74
G1 X15.23 Y3.97 Z0.3 F1920.0 E347.45
G1 X15.49 Y4.23 Z0.3 F1920.0 E348.051
G1 X15.1 Y4.44 Z0.3 F1920.0 E348.766
G1 X15.37 Y4.71 Z0.3 F1920.0 E349.386
G1 X14.98 Y4.91 Z0.3 F1920.0 E350.106
G1 X15.23 Y5.16 Z0.3 F1920.0 E350.682
G1 X14.84 Y5.37 Z0.3 F1920.0 E351.4
G1 X15.06 Y5.58 Z0.3 F1920.0 E351.894
G1 X14.66 Y5.77 Z0.3 F1920.0 E352.62
G1 X14.88 Y6.0 Z0.3 F1920.0 E353.14
G1 X14.48 Y6.18 Z0.3 F1920.0 E353.875
G1 X14.71 Y6.42 Z0.3 F1920.0 E354.419
G1 X14.54 Y6.84 Z0.3 F1920.0 E355.164
G1 X14.29 Y6.59 Z0.3 F1920.0 E355.735
G1 X14.11 Y7.0 Z0.3 F1920.0 E356.47
G1 X14.36 Y7.25 Z0.3 F1920.0 E357.065
G1 X14.14 Y7.63 Z0.3 F1920.0 E357.775
G1 X13.92 Y7.41 Z0.3 F1920.0 E358.29
G1 X13.72 Y7.8 Z0.3 F1920.0 E359.014
G1 X13.92 Y8.0 Z0.3 F1920.0 E359.472
G1 X13.69 Y8.36 Z0.3 F1920.0 E360.178
G1 X13.48 Y8.15 Z0.3 F1920.0 E360.667
G1 X13.25 Y8.51 Z0.3 F1920.0 E361.368
G1 X13.47 Y8.73 Z0.3 F1920.0 E361.888
G1 X13.24 Y9.1 Z0.3 F1920.0 E362.594
G1 X13.01 Y8.86 Z0.3 F1920.0 E363.147
G1 X12.77 Y9.21 Z0.3 F1920.0 E363.848
G1 X13.02 Y9.46 Z0.3 F1920.0 E364.431
G1 X12.75 Y9.78 Z0.3 F1920.0 E365.121
G1 X12.53 Y9.57 Z0.3 F1920.0 E365.624
G1 X12.29 Y9.92 Z0.3 F1920.0 E366.326
G1 X12.47 Y10.1 Z0.3 F1920.0 E366.751
G1 X12.2 Y10.42 Z0.3 F1920.0 E367.44
G1 X12.0 Y10.22 Z0.3 F1920.0 E367.903
G1 X11.71 Y10.53 Z0.3 F1920.0 E368.592
G1 X11.93 Y10.74 Z0.3 F1920.0 E369.096
G1 X11.65 Y11.06 Z0.3 F1920.0 E369.785
G1 X11.42 Y10.83 Z0.3 F1920.0 E370.328
G1 X11.13 Y11.13 Z0.3 F1920.0 E371.017
G1 X11.38 Y11.38 Z0.3 F1920.0 E371.6
G1 X11.06 Y11.65 Z0.3 F1920.0 E372.291
G1 X10.84 Y11.43 Z0.3 F1920.0 E372.805
G1 X10.55 Y11.74 Z0.3 F1920.0 E373.493
G1 X10.74 Y11.93 Z0.3 F1920.0 E373.939
G1 X10.42 Y12.2 Z0.3 F1920.0 E374.629
G1 X10.23 Y12.01 Z0.3 F1920.0 E375.075
G1 X9.89 Y12.26 Z0.3 F1920.0 E375.771
G1 X10.1 Y12.47 Z0.3 F1920.0 E376.267
G1 X9.78 Y12.75 Z0.3 F1920.0 E376.957
G1 X9.55 Y12.51 Z0.3 F1920.0 E377.503
G1 X9.21 Y12.76 Z0.3 F1920.0 E378.198
G1 X9.46 Y13.02 Z0.3 F1920.0 E378.792
G1 X9.1 Y13.24 Z0.3 F1920.0 E379.5
G1 X8.87 Y13.01 Z0.3 F1920.0 E380.034
G1 X8.53 Y13.27 Z0.3 F1920.0 E380.729
G1 X8.73 Y13.47 Z0.3 F1920.0 E381.2
G1 X8.36 Y13.69 Z0.3 F1920.0 E381.908
G1 X8.17 Y13.5 Z0.3 F1920.0 E382.351
G1 X7.78 Y13.7 Z0.3 F1920.0 E383.075
G1 X8.0 Y13.92 Z0.3 F1920.0 E383.579
G1 X7.63 Y14.14 Z0.3 F1920.0 E384.287
G1 X7.38 Y13.9 Z0.3 F1920.0 E384.853
G1 X6.99 Y14.1 Z0.3 F1920.0 E385.578
G1 X7.25 Y14.36 Z0.3 F1920.0 E386.189
G1 X6.84 Y14.54 Z0.3 F1920.0 E386.934
G1 X6.6 Y14.3 Z0.3 F1920.0 E387.489
G1 X6.2 Y14.5 Z0.3 F1920.0 E388.214
G1 X6.42 Y14.71 Z0.3 F1920.0 E388.71
G1 X6.0 Y14.88 Z0.3 F1920.0 E389.455
G1 X5.8 Y14.68 Z0.3 F1920.0 E389.921
G1 X5.58 Y15.06 Z0.3 F1920.0 E390.632
G1 X5.34 Y14.82 Z0.3 F1920.0 E391.178
G1 X5.16 Y15.23 Z0.3 F1920.0 E391.914
G1 X4.89 Y14.96 Z0.3 F1920.0 E392.541
G1 X4.71 Y15.37 Z0.3 F1920.0 E393.278
G1 X4.44 Y15.1 Z0.3 F1920.0 E393.91
G1 X4.23 Y15.49 Z0.3 F1920.0 E394.628
G1 X3.98 Y15.24 Z0.3 F1920.0 E395.204
G1 X3.75 Y15.6 Z0.3 F1920.0 E395.91
G1 X3.53 Y15.38 Z0.3 F1920.0 E396.429
G1 X3.28 Y15.72 Z0.3 F1920.0 E397.124
G1 X3.04 Y15.48 Z0.3 F1920.0 E397.681
G1 X2.8 Y15.83 Z0.3 F1920.0 E398.383
G1 X2.51 Y15.54 Z0.3 F1920.0 E399.05
G1 X2.29 Y15.92 Z0.3 F1920.0 E399.759
G1 X1.99 Y15.61 Z0.3 F1920.0 E400.467
G1 X1.74 Y15.96 Z0.3 F1920.0 E401.166
G1 X1.46 Y15.68 Z0.3 F1920.0 E401.817
G1 X1.19 Y16.0 Z0.3 F1920.0 E402.509
G1 X0.94 Y15.74 Z0.3 F1920.0 E403.104
G1 X0.64 Y16.04 Z0.3 F1920.0 E403.793
G1 X0.36 Y15.77 Z0.3 F1920.0 E404.441
G1 X0.09 Y16.09 Z0.3 F1920.0 E405.131
G1 X-0.26 Y15.74 Z0.3 F1920.0 E405.939
G1 X-0.53 Y16.05 Z0.3 F1920.0 E406.627
G1 X-0.87 Y15.71 Z0.3 F1920.0 E407.416
G1 X-1.18 Y16.0 Z0.3 F1920.0 E408.103
G1 X-1.49 Y15.69 Z0.3 F1920.0 E408.834
G1 X-1.82 Y15.95 Z0.3 F1920.0 E409.526
G1 X-2.13 Y15.64 Z0.3 F1920.0 E410.255
G1 X-2.46 Y15.9 Z0.3 F1920.0 E410.947
G1 X-2.89 Y15.48 Z0.3 F1920.0 E411.937
G1 X-3.23 Y15.73 Z0.3 F1920.0 E412.632
G1 X-3.64 Y15.31 Z0.3 F1920.0 E413.591
G1 X-4.01 Y15.54 Z0.3 F1920.0 E414.299
G1 X-4.4 Y15.15 Z0.3 F1920.0 E415.202
G1 X-4.79 Y15.35 Z0.3 F1920.0 E415.923
G1 X-5.32 Y14.82 Z0.3 F1920.0 E417.154
G1 X-5.75 Y14.99 Z0.3 F1920.0 E417.905
G1 X-6.31 Y14.42 Z0.3 F1920.0 E419.211
G1 X-6.76 Y14.57 Z0.3 F1920.0 E419.985
G1 X-7.41 Y13.92 Z0.3 F1920.0 E421.487
G1 X-8.01 Y13.91 Z0.3 F1920.0 E422.474
G1 X-8.95 Y12.97 Z0.3 F1920.0 E424.66
G1 X-9.66 Y12.85 Z0.3 F1920.0 E425.844
G1 X-12.85 Y9.66 Z0.3 F1920.0 E433.253
G1 X-13.1 Y8.82 Z0.3 F1920.0 E434.689
G1 X-13.91 Y8.01 Z0.3 F1920.0 E436.579
G1 X-13.85 Y7.48 Z0.3 F1920.0 E437.451
G1 X-14.57 Y6.76 Z0.3 F1920.0 E439.125
G1 X-14.48 Y6.26 Z0.3 F1920.0 E439.965
G1 X-14.99 Y5.75 Z0.3 F1920.0 E441.143
G1 X-14.8 Y5.34 Z0.3 F1920.0 E441.879
G1 X-15.35 Y4.79 Z0.3 F1920.0 E443.152
G1 X-15.13 Y4.42 Z0.3 F1920.0 E443.859
G1 X-15.54 Y4.01 Z0.3 F1920.0 E444.813
G1 X-15.35 Y3.61 Z0.3 F1920.0 E445.543
G1 X-15.73 Y3.23 Z0.3 F1920.0 E446.423
G1 X-15.47 Y2.9 Z0.3 F1920.0 E447.117
G1 X-15.9 Y2.46 Z0.3 F1920.0 E448.12
G1 X-15.59 Y2.18 Z0.3 F1920.0 E448.809
G1 X-15.95 Y1.82 Z0.3 F1920.0 E449.645
G1 X-15.71 Y1.47 Z0.3 F1920.0 E450.346
G1 X-16.0 Y1.18 Z0.3 F1920.0 E451.014
G1 X-15.74 Y0.85 Z0.3 F1920.0 E451.706
G1 X-16.05 Y0.53 Z0.3 F1920.0 E452.442
G1 X-15.74 Y0.26 Z0.3 F1920.0 E453.131
G1 X-16.09 Y-0.09 Z0.3 F1920.0 E453.949
G1 X-15.74 Y-0.33 Z0.3 F1920.0 E454.648
G1 X-16.04 Y-0.64 Z0.3 F1920.0 E455.366
G1 X-15.74 Y-0.93 Z0.3 F1920.0 E456.055
G1 X-16.0 Y-1.19 Z0.3 F1920.0 E456.671
G1 X-15.71 Y-1.49 Z0.3 F1920.0 E457.36
G1 X-15.96 Y-1.74 Z0.3 F1920.0 E457.937
G1 X-15.62 Y-2.0 Z0.3 F1920.0 E458.631
G1 X-15.92 Y-2.29 Z0.3 F1920.0 E459.309
G1 X-15.54 Y-2.5 Z0.3 F1920.0 E460.024
G1 X-15.83 Y-2.8 Z0.3 F1920.0 E460.705
G1 X-15.45 Y-3.01 Z0.3 F1920.0 E461.421
G1 X-15.72 Y-3.28 Z0.3 F1920.0 E462.039
G1 X-15.36 Y-3.52 Z0.3 F1920.0 E462.738
G1 X-15.6 Y-3.75 Z0.3 F1920.0 E463.289
G1 X-15.27 Y-4.01 Z0.3 F1920.0 E463.981
G1 X-15.49 Y-4.23 Z0.3 F1920.0 E464.481
G1 X-15.12 Y-4.45 Z0.3 F1920.0 E465.188
G1 X-15.37 Y-4.71 Z0.3 F1920.0 E465.781
G1 X-14.96 Y-4.89 Z0.3 F1920.0 E466.517
G1 X-15.23 Y-5.16 Z0.3 F1920.0 E467.142
G1 X-15.06 Y-5.58 Z0.3 F1920.0 E467.887
G1 X-14.81 Y-5.33 Z0.3 F1920.0 E468.467
G1 X-14.65 Y-5.77 Z0.3 F1920.0 E469.229
G1 X-14.88 Y-6.0 Z0.3 F1920.0 E469.766
G1 X-14.5 Y-6.2 Z0.3 F1920.0 E470.485
G1 X-14.71 Y-6.42 Z0.3 F1920.0 E470.977
G1 X-14.32 Y-6.62 Z0.3 F1920.0 E471.695
G1 X-14.54 Y-6.84 Z0.3 F1920.0 E472.187
G1 X-14.36 Y-7.25 Z0.3 F1920.0 E472.932
G1 X-14.11 Y-7.0 Z0.3 F1920.0 E473.514
G1 X-13.9 Y-7.38 Z0.3 F1920.0 E474.23
G1 X-14.14 Y-7.63 Z0.3 F1920.0 E474.795
G1 X-13.92 Y-8.0 Z0.3 F1920.0 E475.503
G1 X-13.69 Y-7.76 Z0.3 F1920.0 E476.041
G1 X-13.48 Y-8.14 Z0.3 F1920.0 E476.755
G1 X-13.69 Y-8.36 Z0.3 F1920.0 E477.262
G1 X-13.47 Y-8.73 Z0.3 F1920.0 E477.971
G1 X-13.26 Y-8.52 Z0.3 F1920.0 E478.449
G1 X-13.04 Y-8.9 Z0.3 F1920.0 E479.159
G1 X-13.24 Y-9.1 Z0.3 F1920.0 E479.627
G1 X-13.02 Y-9.46 Z0.3 F1920.0 E480.335
G1 X-12.78 Y-9.22 Z0.3 F1920.0 E480.893
G1 X-12.51 Y-9.55 Z0.3 F1920.0 E481.586
G1 X-12.75 Y-9.78 Z0.3 F1920.0 E482.124
G1 X-12.47 Y-10.1 Z0.3 F1920.0 E482.815
G1 X-12.25 Y-9.88 Z0.3 F1920.0 E483.335
G1 X-11.98 Y-10.21 Z0.3 F1920.0 E484.026
G1 X-12.2 Y-10.42 Z0.3 F1920.0 E484.526
G1 X-11.93 Y-10.74 Z0.3 F1920.0 E485.215
G1 X-11.72 Y-10.53 Z0.3 F1920.0 E485.698
G1 X-11.45 Y-10.86 Z0.3 F1920.0 E486.391
G1 X-11.65 Y-11.06 Z0.3 F1920.0 E486.854
G1 X-11.38 Y-11.38 Z0.3 F1920.0 E487.544
G1 X-11.15 Y-11.15 Z0.3 F1920.0 E488.083
G1 X-10.83 Y-11.43 Z0.3 F1920.0 E488.773
G1 X-11.06 Y-11.65 Z0.3 F1920.0 E489.3
G1 X-10.74 Y-11.93 Z0.3 F1920.0 E489.989
G1 X-10.52 Y-11.7 Z0.3 F1920.0 E490.507
G1 X-10.2 Y-11.98 Z0.3 F1920.0 E491.196
G1 X-10.42 Y-12.2 Z0.3 F1920.0 E491.702
G1 X-10.1 Y-12.47 Z0.3 F1920.0 E492.391
G1 X-9.89 Y-12.26 Z0.3 F1920.0 E492.887
G1 X-9.57 Y-12.54 Z0.3 F1920.0 E493.576
G1 X-9.78 Y-12.75 Z0.3 F1920.0 E494.061
G1 X-9.46 Y-13.02 Z0.3 F1920.0 E494.751
G1 X-9.24 Y-12.79 Z0.3 F1920.0 E495.276
G1 X-8.87 Y-13.02 Z0.3 F1920.0 E495.983
G1 X-9.1 Y-13.24 Z0.3 F1920.0 E496.507
G1 X-8.73 Y-13.47 Z0.3 F1920.0 E497.214
G1 X-8.5 Y-13.24 Z0.3 F1920.0 E497.739
G1 X-8.14 Y-13.47 Z0.3 F1920.0 E498.445
G1 X-8.36 Y-13.69 Z0.3 F1920.0 E498.967
G1 X-8.0 Y-13.92 Z0.3 F1920.0 E499.673
G1 X-7.77 Y-13.7 Z0.3 F1920.0 E500.193
G1 X-7.41 Y-13.92 Z0.3 F1920.0 E500.9
G1 X-7.63 Y-14.14 Z0.3 F1920.0 E501.416
G1 X-7.25 Y-14.36 Z0.3 F1920.0 E502.126
G1 X-7.03 Y-14.14 Z0.3 F1920.0 E502.652
G1 X-6.84 Y-14.54 Z0.3 F1920.0 E503.38
G1 X-6.6 Y-14.31 Z0.3 F1920.0 E503.917
G1 X-6.42 Y-14.71 Z0.3 F1920.0 E504.648
G1 X-6.18 Y-14.48 Z0.3 F1920.0 E505.191
G1 X-6.0 Y-14.88 Z0.3 F1920.0 E505.927
G1 X-5.76 Y-14.65 Z0.3 F1920.0 E506.48
G1 X-5.58 Y-15.06 Z0.3 F1920.0 E507.217
G1 X-5.34 Y-14.82 Z0.3 F1920.0 E507.778
G1 X-5.16 Y-15.23 Z0.3 F1920.0 E508.519
G1 X-4.91 Y-14.98 Z0.3 F1920.0 E509.089
G1 X-4.71 Y-15.37 Z0.3 F1920.0 E509.808
G1 X-4.47 Y-15.13 Z0.3 F1920.0 E510.359
G1 X-4.23 Y-15.49 Z0.3 F1920.0 E511.058
G1 X-3.98 Y-15.24 Z0.3 F1920.0 E511.629
G1 X-3.75 Y-15.6 Z0.3 F1920.0 E512.334
G1 X-3.5 Y-15.34 Z0.3 F1920.0 E512.928
G1 X-3.28 Y-15.72 Z0.3 F1920.0 E513.637
G1 X-3.01 Y-15.45 Z0.3 F1920.0 E514.255
G1 X-2.8 Y-15.83 Z0.3 F1920.0 E514.97
G1 X-2.52 Y-15.55 Z0.3 F1920.0 E515.611
G1 X-2.29 Y-15.92 Z0.3 F1920.0 E516.315
G1 X-2.03 Y-15.66 Z0.3 F1920.0 E516.909
G1 X-1.74 Y-15.96 Z0.3 F1920.0 E517.598
G1 X-1.47 Y-15.69 Z0.3 F1920.0 E518.225
G1 X-1.19 Y-16.0 Z0.3 F1920.0 E518.913
G1 X-0.9 Y-15.71 Z0.3 F1920.0 E519.584
G1 X-0.64 Y-16.04 Z0.3 F1920.0 E520.277
G1 X-0.33 Y-15.74 Z0.3 F1920.0 E520.992
G1 X-0.09 Y-16.09 Z0.3 F1920.0 E521.691
G1 X0.24 Y-15.76 Z0.3 F1920.0 E522.451
G1 X0.53 Y-16.05 Z0.3 F1920.0 E523.138
G1 X0.83 Y-15.76 Z0.3 F1920.0 E523.821
G1 X1.18 Y-16.0 Z0.3 F1920.0 E524.519
G1 X1.51 Y-15.67 Z0.3 F1920.0 E525.288
G1 X1.82 Y-15.95 Z0.3 F1920.0 E525.976
G1 X2.19 Y-15.58 Z0.3 F1920.0 E526.829
G1 X2.46 Y-15.9 Z0.3 F1920.0 E527.518
G1 X2.87 Y-15.5 Z0.3 F1920.0 E528.456
G1 X3.23 Y-15.73 Z0.3 F1920.0 E529.162
G1 X3.6 Y-15.35 Z0.3 F1920.0 E530.025
G1 X4.01 Y-15.54 Z0.3 F1920.0 E530.761
G1 X4.46 Y-15.09 Z0.3 F1920.0 E531.797
G1 X4.79 Y-15.35 Z0.3 F1920.0 E532.489
G1 X5.31 Y-14.83 Z0.3 F1920.0 E533.697
G1 X5.75 Y-14.99 Z0.3 F1920.0 E534.458
G1 X6.27 Y-14.46 Z0.3 F1920.0 E535.682
G1 X6.76 Y-14.57 Z0.3 F1920.0 E536.497
G1 X7.47 Y-13.86 Z0.3 F1920.0 E538.145
G1 X8.01 Y-13.91 Z0.3 F1920.0 E539.034
G1 X9.01 Y-12.91 Z0.3 F1920.0 E541.363
;M103
G1 X8.72 Y-12.68 Z0.3 F3600.0
;M101
G1 X8.09 Y-13.14 Z0.3 F1920.0 E542.642
G1 X5.76 Y-14.32 Z0.3 F1920.0 E546.94
G1 X3.25 Y-15.09 Z0.3 F1920.0 E551.238
G1 X0.66 Y-15.42 Z0.3 F1920.0 E555.537
G1 X-1.96 Y-15.31 Z0.3 F1920.0 E559.834
G1 X-4.52 Y-14.76 Z0.3 F1920.0 E564.134
G1 X-6.95 Y-13.78 Z0.3 F1920.0 E568.432
G1 X-9.18 Y-12.41 Z0.3 F1920.0 E572.73
G1 X-11.14 Y-10.68 Z0.3 F1920.0 E577.029
G1 X-12.79 Y-8.64 Z0.3 F1920.0 E581.329
G1 X-14.07 Y-6.36 Z0.3 F1920.0 E585.626
G1 X-14.94 Y-3.89 Z0.3 F1920.0 E589.925
G1 X-15.38 Y-1.31 Z0.3 F1920.0 E594.223
G1 X-15.38 Y1.31 Z0.3 F1920.0 E598.521
G1 X-14.94 Y3.89 Z0.3 F1920.0 E602.819
G1 X-14.07 Y6.36 Z0.3 F1920.0 E607.118
G1 X-12.79 Y8.64 Z0.3 F1920.0 E611.415
G1 X-11.14 Y10.68 Z0.3 F1920.0 E615.715
G1 X-9.18 Y12.41 Z0.3 F1920.0 E620.014
G1 X-6.95 Y13.78 Z0.3 F1920.0 E624.312
G1 X-4.52 Y14.76 Z0.3 F1920.0 E628.61
G1 X-1.96 Y15.31 Z0.3 F1920.0 E632.91
G1 X0.66 Y15.42 Z0.3 F1920.0 E637.207
G1 X3.25 Y15.09 Z0.3 F1920.0 E641.506
G1 X5.76 Y14.32 Z0.3 F1920.0 E645.804
G1 X8.09 Y13.14 Z0.3 F1920.0 E650.102
G1 X10.2 Y11.59 Z0.3 F1920.0 E654.401
G1 X12.01 Y9.7 Z0.3 F1920.0 E658.7
G1 X13.48 Y7.53 Z0.3 F1920.0 E662.998
G1 X14.55 Y5.14 Z0.3 F1920.0 E667.297
G1 X15.21 Y2.61 Z0.3 F1920.0 E671.595
G1 X15.44 Y0.0 Z0.3 F1920.0 E675.894
G1 X15.21 Y-2.61 Z0.3 F1920.0 E680.193
G1 X14.55 Y-5.14 Z0.3 F1920.0 E684.491
G1 X13.48 Y-7.53 Z0.3 F1920.0 E688.79
G1 X12.01 Y-9.7 Z0.3 F1920.0 E693.088
G1 X10.2 Y-11.59 Z0.3 F1920.0 E697.386
G1 X8.8 Y-12.62 Z0.3 F1920.0 E700.245
G1 X8.72 Y-12.68 Z0.3 F1920.0 E700.407
;M103
G1 X9.34 Y-13.51 Z0.3 F3600.0
;M101
G1 X9.67 Y-13.31 Z0.3 F1920.0 E701.039
G1 X11.63 Y-11.63 Z0.3 F1920.0 E705.277
G1 X13.31 Y-9.67 Z0.3 F1920.0 E709.514
G1 X14.66 Y-7.47 Z0.3 F1920.0 E713.753
G1 X15.65 Y-5.08 Z0.3 F1920.0 E717.992
G1 X16.25 Y-2.57 Z0.3 F1920.0 E722.232
G1 X16.45 Y0.0 Z0.3 F1920.0 E726.47
G1 X16.25 Y2.57 Z0.3 F1920.0 E730.707
G1 X15.65 Y5.08 Z0.3 F1920.0 E734.947
G1 X14.66 Y7.47 Z0.3 F1920.0 E739.186
G1 X13.31 Y9.67 Z0.3 F1920.0 E743.425
G1 X11.63 Y11.63 Z0.3 F1920.0 E747.663
G1 X9.67 Y13.31 Z0.3 F1920.0 E751.9
G1 X7.47 Y14.66 Z0.3 F1920.0 E756.139
G1 X5.08 Y15.65 Z0.3 F1920.0 E760.378
G1 X2.57 Y16.25 Z0.3 F1920.0 E764.618
G1 X0.0 Y16.45 Z0.3 F1920.0 E768.856
G1 X-2.57 Y16.25 Z0.3 F1920.0 E773.093
G1 X-5.08 Y15.65 Z0.3 F1920.0 E777.333
G1 X-7.47 Y14.66 Z0.3 F1920.0 E781.572
G1 X-9.67 Y13.31 Z0.3 F1920.0 E785.811
G1 X-11.63 Y11.63 Z0.3 F1920.0 E790.049
G1 X-13.31 Y9.67 Z0.3 F1920.0 E794.286
G1 X-14.66 Y7.47 Z0.3 F1920.0 E798.525
G1 X-15.65 Y5.08 Z0.3 F1920.0 E802.764
G1 X-16.25 Y2.57 Z0.3 F1920.0 E807.004
G1 X-16.45 Y0.0 Z0.3 F1920.0 E811.242
G1 X-16.25 Y-2.57 Z0.3 F1920.0 E815.479
G1 X-15.65 Y-5.08 Z0.3 F1920.0 E819.719
G1 X-14.66 Y-7.47 Z0.3 F1920.0 E823.958
G1 X-13.31 Y-9.67 Z0.3 F1920.0 E828.197
G1 X-11.63 Y-11.63 Z0.3 F1920.0 E832.435
G1 X-9.67 Y-13.31 Z0.3 F1920.0 E836.672
G1 X-7.47 Y-14.66 Z0.3 F1920.0 E840.911
G1 X-5.08 Y-15.65 Z0.3 F1920.0 E845.15
G1 X-2.57 Y-16.25 Z0.3 F1920.0 E849.39
G1 X0.0 Y-16.45 Z0.3 F1920.0 E853.628
G1 X2.57 Y-16.25 Z0.3 F1920.0 E857.865
G1 X5.08 Y-15.65 Z0.3 F1920.0 E862.105
G1 X7.47 Y-14.66 Z0.3 F1920.0 E866.344
G1 X9.34 Y-13.51 Z0.3 F1920.0 E869.951
;M103
;M108 S37.53
;M108 S39.41
G1 X9.56 Y-13.87 Z0.3 F3600.0
;M101
G1 X9.92 Y-13.65 Z0.3 F1620.0 E870.561
G1 X11.93 Y-11.93 Z0.3 F1620.0 E874.425
G1 X13.65 Y-9.92 Z0.3 F1620.0 E878.29
G1 X15.03 Y-7.66 Z0.3 F1620.0 E882.154
G1 X16.05 Y-5.21 Z0.3 F1620.0 E886.018
G1 X16.66 Y-2.64 Z0.3 F1620.0 E889.883
G1 X16.87 Y0.0 Z0.3 F1620.0 E893.747
G1 X16.66 Y2.64 Z0.3 F1620.0 E897.611
G1 X16.05 Y5.21 Z0.3 F1620.0 E901.476
G1 X15.03 Y7.66 Z0.3 F1620.0 E905.341
G1 X13.65 Y9.92 Z0.3 F1620.0 E909.204
G1 X11.93 Y11.93 Z0.3 F1620.0 E913.069
G1 X9.92 Y13.65 Z0.3 F1620.0 E916.934
G1 X7.66 Y15.03 Z0.3 F1620.0 E920.798
G1 X5.21 Y16.05 Z0.3 F1620.0 E924.662
G1 X2.64 Y16.66 Z0.3 F1620.0 E928.527
G1 X0.0 Y16.87 Z0.3 F1620.0 E932.391
G1 X-2.64 Y16.66 Z0.3 F1620.0 E936.255
G1 X-5.21 Y16.05 Z0.3 F1620.0 E940.12
G1 X-7.66 Y15.03 Z0.3 F1620.0 E943.985
G1 X-9.92 Y13.65 Z0.3 F1620.0 E947.848
G1 X-11.93 Y11.93 Z0.3 F1620.0 E951.713
G1 X-13.65 Y9.92 Z0.3 F1620.0 E955.578
G1 X-15.03 Y7.66 Z0.3 F1620.0 E959.441
G1 X-16.05 Y5.21 Z0.3 F1620.0 E963.306
G1 X-16.66 Y2.64 Z0.3 F1620.0 E967.171
G1 X-16.87 Y0.0 Z0.3 F1620.0 E971.035
G1 X-16.66 Y-2.64 Z0.3 F1620.0 E974.899
G1 X-16.05 Y-5.21 Z0.3 F1620.0 E978.764
G1 X-15.03 Y-7.66 Z0.3 F1620.0 E982.628
G1 X-13.65 Y-9.92 Z0.3 F1620.0 E986.492
G1 X-11.93 Y-11.93 Z0.3 F1620.0 E990.357
G1 X-9.92 Y-13.65 Z0.3 F1620.0 E994.222
G1 X-7.66 Y-15.03 Z0.3 F1620.0 E998.085
G1 X-5.21 Y-16.05 Z0.3 F1620.0 E1001.95
G1 X-2.64 Y-16.66 Z0.3 F1620.0 E1005.815
G1 X0.0 Y-16.87 Z0.3 F1620.0 E1009.679
G1 X2.64 Y-16.66 Z0.3 F1620.0 E1013.543
G1 X5.21 Y-16.05 Z0.3 F1620.0 E1017.408
G1 X7.66 Y-15.03 Z0.3 F1620.0 E1021.272
G1 X9.56 Y-13.87 Z0.3 F1620.0 E1024.527
;M103
G1 X8.45 Y-12.36 Z0.3 F3600.0
;M101
G1 X7.87 Y-12.79 Z0.3 F1620.0 E1025.57
G1 X5.6 Y-13.93 Z0.3 F1620.0 E1029.287
G1 X3.16 Y-14.68 Z0.3 F1620.0 E1033.004
G1 X0.64 Y-15.0 Z0.3 F1620.0 E1036.721
G1 X-1.91 Y-14.89 Z0.3 F1620.0 E1040.438
G1 X-4.4 Y-14.36 Z0.3 F1620.0 E1044.156
G1 X-6.76 Y-13.41 Z0.3 F1620.0 E1047.873
G1 X-8.93 Y-12.07 Z0.3 F1620.0 E1051.59
G1 X-10.84 Y-10.39 Z0.3 F1620.0 E1055.308
G1 X-12.44 Y-8.41 Z0.3 F1620.0 E1059.025
G1 X-13.68 Y-6.19 Z0.3 F1620.0 E1062.742
G1 X-14.53 Y-3.78 Z0.3 F1620.0 E1066.46
G1 X-14.96 Y-1.27 Z0.3 F1620.0 E1070.176
G1 X-14.96 Y1.27 Z0.3 F1620.0 E1073.895
G1 X-14.53 Y3.78 Z0.3 F1620.0 E1077.611
G1 X-13.68 Y6.19 Z0.3 F1620.0 E1081.329
G1 X-12.44 Y8.41 Z0.3 F1620.0 E1085.046
G1 X-10.84 Y10.39 Z0.3 F1620.0 E1088.762
G1 X-8.93 Y12.07 Z0.3 F1620.0 E1092.48
G1 X-6.76 Y13.41 Z0.3 F1620.0 E1096.197
G1 X-4.4 Y14.36 Z0.3 F1620.0 E1099.914
G1 X-1.91 Y14.89 Z0.3 F1620.0 E1103.632
G1 X0.64 Y15.0 Z0.3 F1620.0 E1107.349
G1 X3.16 Y14.68 Z0.3 F1620.0 E1111.066
G1 X5.6 Y13.93 Z0.3 F1620.0 E1114.783
G1 X7.87 Y12.79 Z0.3 F1620.0 E1118.5
G1 X9.92 Y11.27 Z0.3 F1620.0 E1122.218
G1 X11.68 Y9.43 Z0.3 F1620.0 E1125.936
G1 X13.11 Y7.32 Z0.3 F1620.0 E1129.653
G1 X14.16 Y5.0 Z0.3 F1620.0 E1133.37
G1 X14.8 Y2.54 Z0.3 F1620.0 E1137.087
G1 X15.02 Y0.0 Z0.3 F1620.0 E1140.805
G1 X14.8 Y-2.54 Z0.3 F1620.0 E1144.523
G1 X14.16 Y-5.0 Z0.3 F1620.0 E1148.24
G1 X13.11 Y-7.32 Z0.3 F1620.0 E1151.957
G1 X11.68 Y-9.43 Z0.3 F1620.0 E1155.674
G1 X9.92 Y-11.27 Z0.3 F1620.0 E1159.391
G1 X8.45 Y-12.36 Z0.3 F1620.0 E1162.066
;M103
;M108 S50.04
G1 X9.97 Y-11.33 Z0.6 F3600.0
G1 X11.75 Y-9.49 Z0.6 F3600.0
G1 X13.18 Y-7.36 Z0.6 F3600.0
G1 X14.24 Y-5.03 Z0.6 F3600.0
G1 X14.88 Y-2.55 Z0.6 F3600.0
G1 X15.1 Y0.0 Z0.6 F3600.0
G1 X14.88 Y2.55 Z0.6 F3600.0
G1 X12.85 Y9.66 Z0.6 F3600.0
;M101
G1 X9.66 Y12.85 Z0.6 F2400.0 E1167.711
G1 X9.01 Y12.91 Z0.6 F2400.0 E1168.529
G1 X8.01 Y13.91 Z0.6 F2400.0 E1170.302
G1 X7.47 Y13.86 Z0.6 F2400.0 E1170.979
G1 X6.76 Y14.57 Z0.6 F2400.0 E1172.235
G1 X6.27 Y14.46 Z0.6 F2400.0 E1172.856
G1 X5.75 Y14.99 Z0.6 F2400.0 E1173.789
G1 X5.31 Y14.83 Z0.6 F2400.0 E1174.369
G1 X4.79 Y15.35 Z0.6 F2400.0 E1175.289
G1 X4.46 Y15.09 Z0.6 F2400.0 E1175.816
G1 X4.01 Y15.54 Z0.6 F2400.0 E1176.606
G1 X3.6 Y15.35 Z0.6 F2400.0 E1177.166
G1 X3.23 Y15.73 Z0.6 F2400.0 E1177.824
G1 X2.87 Y15.5 Z0.6 F2400.0 E1178.361
G1 X2.46 Y15.9 Z0.6 F2400.0 E1179.076
G1 X2.19 Y15.58 Z0.6 F2400.0 E1179.601
G1 X1.82 Y15.95 Z0.6 F2400.0 E1180.251
G1 X1.51 Y15.67 Z0.6 F2400.0 E1180.776
G1 X1.18 Y16.0 Z0.6 F2400.0 E1181.361
G1 X0.83 Y15.76 Z0.6 F2400.0 E1181.893
G1 X0.53 Y16.05 Z0.6 F2400.0 E1182.414
G1 X0.24 Y15.76 Z0.6 F2400.0 E1182.937
G1 X-0.09 Y16.09 Z0.6 F2400.0 E1183.516
G1 X-0.33 Y15.74 Z0.6 F2400.0 E1184.049
G1 X-0.64 Y16.04 Z0.6 F2400.0 E1184.594
G1 X-0.9 Y15.71 Z0.6 F2400.0 E1185.121
G1 X-1.19 Y16.0 Z0.6 F2400.0 E1185.633
G1 X-1.47 Y15.69 Z0.6 F2400.0 E1186.157
G1 X-1.74 Y15.96 Z0.6 F2400.0 E1186.635
G1 X-2.03 Y15.66 Z0.6 F2400.0 E1187.159
G1 X-2.29 Y15.92 Z0.6 F2400.0 E1187.612
G1 X-2.52 Y15.55 Z0.6 F2400.0 E1188.149
G1 X-2.8 Y15.83 Z0.6 F2400.0 E1188.637
G1 X-3.01 Y15.45 Z0.6 F2400.0 E1189.182
G1 X-3.28 Y15.72 Z0.6 F2400.0 E1189.653
G1 X-3.5 Y15.34 Z0.6 F2400.0 E1190.193
G1 X-3.75 Y15.6 Z0.6 F2400.0 E1190.646
G1 X-3.98 Y15.24 Z0.6 F2400.0 E1191.183
G1 X-4.23 Y15.49 Z0.6 F2400.0 E1191.618
G1 X-4.47 Y15.13 Z0.6 F2400.0 E1192.151
G1 X-4.71 Y15.37 Z0.6 F2400.0 E1192.57
G1 X-4.91 Y14.98 Z0.6 F2400.0 E1193.118
G1 X-5.16 Y15.23 Z0.6 F2400.0 E1193.553
G1 X-5.34 Y14.82 Z0.6 F2400.0 E1194.117
G1 X-5.58 Y15.06 Z0.6 F2400.0 E1194.544
G1 X-5.76 Y14.65 Z0.6 F2400.0 E1195.106
G1 X-6.0 Y14.88 Z0.6 F2400.0 E1195.527
G1 X-6.18 Y14.48 Z0.6 F2400.0 E1196.088
G1 X-6.42 Y14.71 Z0.6 F2400.0 E1196.502
G1 X-6.6 Y14.31 Z0.6 F2400.0 E1197.059
G1 X-6.84 Y14.54 Z0.6 F2400.0 E1197.468
G1 X-7.03 Y14.14 Z0.6 F2400.0 E1198.023
G1 X-7.25 Y14.36 Z0.6 F2400.0 E1198.424
G1 X-7.63 Y14.14 Z0.6 F2400.0 E1198.964
G1 X-7.41 Y13.92 Z0.6 F2400.0 E1199.358
G1 X-7.77 Y13.7 Z0.6 F2400.0 E1199.896
G1 X-8.0 Y13.92 Z0.6 F2400.0 E1200.292
G1 X-8.36 Y13.69 Z0.6 F2400.0 E1200.831
G1 X-8.14 Y13.47 Z0.6 F2400.0 E1201.228
G1 X-8.5 Y13.24 Z0.6 F2400.0 E1201.766
G1 X-8.73 Y13.47 Z0.6 F2400.0 E1202.166
G1 X-9.1 Y13.24 Z0.6 F2400.0 E1202.704
G1 X-8.87 Y13.02 Z0.6 F2400.0 E1203.104
G1 X-9.24 Y12.79 Z0.6 F2400.0 E1203.642
G1 X-9.46 Y13.02 Z0.6 F2400.0 E1204.043
G1 X-9.78 Y12.75 Z0.6 F2400.0 E1204.568
G1 X-9.57 Y12.54 Z0.6 F2400.0 E1204.938
G1 X-9.89 Y12.26 Z0.6 F2400.0 E1205.463
G1 X-10.1 Y12.47 Z0.6 F2400.0 E1205.841
G1 X-10.42 Y12.2 Z0.6 F2400.0 E1206.366
G1 X-10.2 Y11.98 Z0.6 F2400.0 E1206.752
G1 X-10.52 Y11.7 Z0.6 F2400.0 E1207.276
G1 X-10.74 Y11.93 Z0.6 F2400.0 E1207.671
G1 X-11.06 Y11.65 Z0.6 F2400.0 E1208.196
G1 X-10.83 Y11.43 Z0.6 F2400.0 E1208.598
G1 X-11.15 Y11.15 Z0.6 F2400.0 E1209.123
G1 X-11.38 Y11.38 Z0.6 F2400.0 E1209.534
G1 X-11.65 Y11.06 Z0.6 F2400.0 E1210.06
G1 X-11.45 Y10.86 Z0.6 F2400.0 E1210.413
G1 X-11.72 Y10.53 Z0.6 F2400.0 E1210.94
G1 X-11.93 Y10.74 Z0.6 F2400.0 E1211.308
G1 X-12.2 Y10.42 Z0.6 F2400.0 E1211.834
G1 X-11.98 Y10.21 Z0.6 F2400.0 E1212.214
G1 X-12.25 Y9.88 Z0.6 F2400.0 E1212.741
G1 X-12.47 Y10.1 Z0.6 F2400.0 E1213.137
G1 X-12.75 Y9.78 Z0.6 F2400.0 E1213.663
G1 X-12.51 Y9.55 Z0.6 F2400.0 E1214.074
G1 X-12.78 Y9.22 Z0.6 F2400.0 E1214.601
G1 X-13.02 Y9.46 Z0.6 F2400.0 E1215.027
G1 X-13.24 Y9.1 Z0.6 F2400.0 E1215.566
G1 X-13.04 Y8.9 Z0.6 F2400.0 E1215.922
G1 X-13.26 Y8.52 Z0.6 F2400.0 E1216.464
G1 X-13.47 Y8.73 Z0.6 F2400.0 E1216.828
G1 X-13.69 Y8.36 Z0.6 F2400.0 E1217.368
G1 X-13.48 Y8.14 Z0.6 F2400.0 E1217.754
G1 X-13.69 Y7.76 Z0.6 F2400.0 E1218.299
G1 X-13.92 Y8.0 Z0.6 F2400.0 E1218.708
G1 X-14.14 Y7.63 Z0.6 F2400.0 E1219.248
G1 X-13.9 Y7.38 Z0.6 F2400.0 E1219.679
G1 X-14.11 Y7.0 Z0.6 F2400.0 E1220.224
G1 X-14.36 Y7.25 Z0.6 F2400.0 E1220.667
G1 X-14.54 Y6.84 Z0.6 F2400.0 E1221.235
G1 X-14.32 Y6.62 Z0.6 F2400.0 E1221.61
G1 X-14.71 Y6.42 Z0.6 F2400.0 E1222.157
G1 X-14.5 Y6.2 Z0.6 F2400.0 E1222.532
G1 X-14.88 Y6.0 Z0.6 F2400.0 E1223.08
G1 X-14.65 Y5.77 Z0.6 F2400.0 E1223.489
G1 X-15.06 Y5.58 Z0.6 F2400.0 E1224.046
G1 X-14.81 Y5.33 Z0.6 F2400.0 E1224.488
G1 X-15.23 Y5.16 Z0.6 F2400.0 E1225.059
G1 X-14.96 Y4.89 Z0.6 F2400.0 E1225.535
G1 X-15.37 Y4.71 Z0.6 F2400.0 E1226.096
G1 X-15.12 Y4.45 Z0.6 F2400.0 E1226.547
G1 X-15.49 Y4.23 Z0.6 F2400.0 E1227.087
G1 X-15.27 Y4.01 Z0.6 F2400.0 E1227.467
G1 X-15.6 Y3.75 Z0.6 F2400.0 E1227.995
G1 X-15.36 Y3.52 Z0.6 F2400.0 E1228.414
G1 X-15.72 Y3.28 Z0.6 F2400.0 E1228.947
G1 X-15.45 Y3.01 Z0.6 F2400.0 E1229.418
G1 X-15.83 Y2.8 Z0.6 F2400.0 E1229.963
G1 X-15.54 Y2.5 Z0.6 F2400.0 E1230.483
G1 X-15.92 Y2.29 Z0.6 F2400.0 E1231.027
G1 X-15.62 Y2.0 Z0.6 F2400.0 E1231.544
G1 X-15.96 Y1.74 Z0.6 F2400.0 E1232.073
G1 X-15.71 Y1.49 Z0.6 F2400.0 E1232.512
G1 X-16.0 Y1.19 Z0.6 F2400.0 E1233.037
G1 X-15.74 Y0.93 Z0.6 F2400.0 E1233.507
G1 X-16.04 Y0.64 Z0.6 F2400.0 E1234.032
G1 X-15.74 Y0.33 Z0.6 F2400.0 E1234.578
G1 X-16.09 Y0.09 Z0.6 F2400.0 E1235.111
G1 X-15.74 Y-0.26 Z0.6 F2400.0 E1235.734
G1 X-16.05 Y-0.53 Z0.6 F2400.0 E1236.259
G1 X-15.74 Y-0.85 Z0.6 F2400.0 E1236.82
G1 X-16.0 Y-1.18 Z0.6 F2400.0 E1237.347
G1 X-15.71 Y-1.47 Z0.6 F2400.0 E1237.857
G1 X-15.95 Y-1.82 Z0.6 F2400.0 E1238.391
G1 X-15.59 Y-2.18 Z0.6 F2400.0 E1239.028
G1 X-15.9 Y-2.46 Z0.6 F2400.0 E1239.553
G1 X-15.47 Y-2.9 Z0.6 F2400.0 E1240.317
G1 X-15.73 Y-3.23 Z0.6 F2400.0 E1240.845
G1 X-15.35 Y-3.61 Z0.6 F2400.0 E1241.516
G1 X-15.54 Y-4.01 Z0.6 F2400.0 E1242.072
G1 X-15.13 Y-4.42 Z0.6 F2400.0 E1242.799
G1 X-15.35 Y-4.79 Z0.6 F2400.0 E1243.338
G1 X-14.8 Y-5.34 Z0.6 F2400.0 E1244.308
G1 X-14.99 Y-5.75 Z0.6 F2400.0 E1244.868
G1 X-14.48 Y-6.26 Z0.6 F2400.0 E1245.766
G1 X-14.57 Y-6.76 Z0.6 F2400.0 E1246.406
G1 X-13.85 Y-7.48 Z0.6 F2400.0 E1247.682
G1 X-13.91 Y-8.01 Z0.6 F2400.0 E1248.346
G1 X-13.1 Y-8.82 Z0.6 F2400.0 E1249.786
G1 X-12.85 Y-9.66 Z0.6 F2400.0 E1250.88
G1 X-9.66 Y-12.85 Z0.6 F2400.0 E1256.525
G1 X-8.95 Y-12.97 Z0.6 F2400.0 E1257.427
G1 X-8.01 Y-13.91 Z0.6 F2400.0 E1259.093
G1 X-7.41 Y-13.92 Z0.6 F2400.0 E1259.845
G1 X-6.76 Y-14.57 Z0.6 F2400.0 E1260.989
G1 X-6.31 Y-14.42 Z0.6 F2400.0 E1261.579
G1 X-5.75 Y-14.99 Z0.6 F2400.0 E1262.574
G1 X-5.32 Y-14.82 Z0.6 F2400.0 E1263.147
G1 X-4.79 Y-15.35 Z0.6 F2400.0 E1264.084
G1 X-4.4 Y-15.15 Z0.6 F2400.0 E1264.634
G1 X-4.01 Y-15.54 Z0.6 F2400.0 E1265.322
G1 X-3.64 Y-15.31 Z0.6 F2400.0 E1265.861
G1 X-3.23 Y-15.73 Z0.6 F2400.0 E1266.592
G1 X-2.89 Y-15.48 Z0.6 F2400.0 E1267.122
G1 X-2.46 Y-15.9 Z0.6 F2400.0 E1267.876
G1 X-2.13 Y-15.64 Z0.6 F2400.0 E1268.403
G1 X-1.82 Y-15.95 Z0.6 F2400.0 E1268.959
G1 X-1.49 Y-15.69 Z0.6 F2400.0 E1269.486
G1 X-1.18 Y-16.0 Z0.6 F2400.0 E1270.043
G1 X-0.87 Y-15.71 Z0.6 F2400.0 E1270.567
G1 X-0.53 Y-16.05 Z0.6 F2400.0 E1271.167
G1 X-0.26 Y-15.74 Z0.6 F2400.0 E1271.692
G1 X0.09 Y-16.09 Z0.6 F2400.0 E1272.308
G1 X0.36 Y-15.77 Z0.6 F2400.0 E1272.833
G1 X0.64 Y-16.04 Z0.6 F2400.0 E1273.327
G1 X0.94 Y-15.74 Z0.6 F2400.0 E1273.851
G1 X1.19 Y-16.0 Z0.6 F2400.0 E1274.305
G1 X1.46 Y-15.68 Z0.6 F2400.0 E1274.832
G1 X1.74 Y-15.96 Z0.6 F2400.0 E1275.328
G1 X1.99 Y-15.61 Z0.6 F2400.0 E1275.861
G1 X2.29 Y-15.92 Z0.6 F2400.0 E1276.4
G1 X2.51 Y-15.54 Z0.6 F2400.0 E1276.941
G1 X2.8 Y-15.83 Z0.6 F2400.0 E1277.449
G1 X3.04 Y-15.48 Z0.6 F2400.0 E1277.983
G1 X3.28 Y-15.72 Z0.6 F2400.0 E1278.408
G1 X3.53 Y-15.38 Z0.6 F2400.0 E1278.938
G1 X3.75 Y-15.6 Z0.6 F2400.0 E1279.333
G1 X3.98 Y-15.24 Z0.6 F2400.0 E1279.871
G1 X4.23 Y-15.49 Z0.6 F2400.0 E1280.31
G1 X4.44 Y-15.1 Z0.6 F2400.0 E1280.857
G1 X4.71 Y-15.37 Z0.6 F2400.0 E1281.338
G1 X4.89 Y-14.96 Z0.6 F2400.0 E1281.9
G1 X5.16 Y-15.23 Z0.6 F2400.0 E1282.378
G1 X5.34 Y-14.82 Z0.6 F2400.0 E1282.939
G1 X5.58 Y-15.06 Z0.6 F2400.0 E1283.355
G1 X5.8 Y-14.68 Z0.6 F2400.0 E1283.896
G1 X6.0 Y-14.88 Z0.6 F2400.0 E1284.252
G1 X6.2 Y-14.5 Z0.6 F2400.0 E1284.8
G1 X6.42 Y-14.71 Z0.6 F2400.0 E1285.177
G1 X6.6 Y-14.3 Z0.6 F2400.0 E1285.74
G1 X6.84 Y-14.54 Z0.6 F2400.0 E1286.163
G1 X7.25 Y-14.36 Z0.6 F2400.0 E1286.73
G1 X6.99 Y-14.1 Z0.6 F2400.0 E1287.196
G1 X7.38 Y-13.9 Z0.6 F2400.0 E1287.749
G1 X7.63 Y-14.14 Z0.6 F2400.0 E1288.179
G1 X8.0 Y-13.92 Z0.6 F2400.0 E1288.719
G1 X7.78 Y-13.7 Z0.6 F2400.0 E1289.103
G1 X8.17 Y-13.5 Z0.6 F2400.0 E1289.655
G1 X8.36 Y-13.69 Z0.6 F2400.0 E1289.992
G1 X8.73 Y-13.47 Z0.6 F2400.0 E1290.532
G1 X8.53 Y-13.27 Z0.6 F2400.0 E1290.891
G1 X8.87 Y-13.01 Z0.6 F2400.0 E1291.42
G1 X9.1 Y-13.24 Z0.6 F2400.0 E1291.827
G1 X9.46 Y-13.02 Z0.6 F2400.0 E1292.366
G1 X9.21 Y-12.76 Z0.6 F2400.0 E1292.819
G1 X9.55 Y-12.51 Z0.6 F2400.0 E1293.349
G1 X9.78 Y-12.75 Z0.6 F2400.0 E1293.764
G1 X10.1 Y-12.47 Z0.6 F2400.0 E1294.291
G1 X9.89 Y-12.26 Z0.6 F2400.0 E1294.669
G1 X10.23 Y-12.01 Z0.6 F2400.0 E1295.199
G1 X10.42 Y-12.2 Z0.6 F2400.0 E1295.54
G1 X10.74 Y-11.93 Z0.6 F2400.0 E1296.066
G1 X10.55 Y-11.73 Z0.6 F2400.0 E1296.407
G1 X10.84 Y-11.43 Z0.6 F2400.0 E1296.931
G1 X11.06 Y-11.65 Z0.6 F2400.0 E1297.324
G1 X11.38 Y-11.38 Z0.6 F2400.0 E1297.85
G1 X11.13 Y-11.13 Z0.6 F2400.0 E1298.296
G1 X11.42 Y-10.83 Z0.6 F2400.0 E1298.819
G1 X11.65 Y-11.06 Z0.6 F2400.0 E1299.234
G1 X11.93 Y-10.74 Z0.6 F2400.0 E1299.759
G1 X11.71 Y-10.53 Z0.6 F2400.0 E1300.144
G1 X12.0 Y-10.22 Z0.6 F2400.0 E1300.669
G1 X12.2 Y-10.42 Z0.6 F2400.0 E1301.023
G1 X12.47 Y-10.1 Z0.6 F2400.0 E1301.548
G1 X12.29 Y-9.92 Z0.6 F2400.0 E1301.872
G1 X12.53 Y-9.57 Z0.6 F2400.0 E1302.406
G1 X12.75 Y-9.78 Z0.6 F2400.0 E1302.79
G1 X13.02 Y-9.46 Z0.6 F2400.0 E1303.315
G1 X12.77 Y-9.21 Z0.6 F2400.0 E1303.759
G1 X13.01 Y-8.86 Z0.6 F2400.0 E1304.294
G1 X13.24 Y-9.1 Z0.6 F2400.0 E1304.715
G1 X13.47 Y-8.73 Z0.6 F2400.0 E1305.253
G1 X13.25 Y-8.51 Z0.6 F2400.0 E1305.65
G1 X13.48 Y-8.15 Z0.6 F2400.0 E1306.183
G1 X13.69 Y-8.36 Z0.6 F2400.0 E1306.556
G1 X13.92 Y-8.0 Z0.6 F2400.0 E1307.094
G1 X13.72 Y-7.8 Z0.6 F2400.0 E1307.443
G1 X13.92 Y-7.41 Z0.6 F2400.0 E1307.994
G1 X14.14 Y-7.63 Z0.6 F2400.0 E1308.387
G1 X14.36 Y-7.25 Z0.6 F2400.0 E1308.928
G1 X14.11 Y-7.0 Z0.6 F2400.0 E1309.381
G1 X14.29 Y-6.59 Z0.6 F2400.0 E1309.941
G1 X14.54 Y-6.84 Z0.6 F2400.0 E1310.377
G1 X14.71 Y-6.42 Z0.6 F2400.0 E1310.944
G1 X14.48 Y-6.18 Z0.6 F2400.0 E1311.358
G1 X14.66 Y-5.77 Z0.6 F2400.0 E1311.918
G1 X14.88 Y-6.0 Z0.6 F2400.0 E1312.315
G1 X15.06 Y-5.58 Z0.6 F2400.0 E1312.882
G1 X14.84 Y-5.37 Z0.6 F2400.0 E1313.258
G1 X15.23 Y-5.16 Z0.6 F2400.0 E1313.805
G1 X14.98 Y-4.91 Z0.6 F2400.0 E1314.244
G1 X15.37 Y-4.71 Z0.6 F2400.0 E1314.793
G1 X15.1 Y-4.44 Z0.6 F2400.0 E1315.265
G1 X15.49 Y-4.23 Z0.6 F2400.0 E1315.81
G1 X15.23 Y-3.97 Z0.6 F2400.0 E1316.267
G1 X15.6 Y-3.75 Z0.6 F2400.0 E1316.808
G1 X15.35 Y-3.5 Z0.6 F2400.0 E1317.252
G1 X15.72 Y-3.28 Z0.6 F2400.0 E1317.791
G1 X15.47 Y-3.03 Z0.6 F2400.0 E1318.222
G1 X15.83 Y-2.8 Z0.6 F2400.0 E1318.758
G1 X15.58 Y-2.54 Z0.6 F2400.0 E1319.207
G1 X15.92 Y-2.29 Z0.6 F2400.0 E1319.737
G1 X15.62 Y-2.0 Z0.6 F2400.0 E1320.253
G1 X15.96 Y-1.74 Z0.6 F2400.0 E1320.782
G1 X15.67 Y-1.45 Z0.6 F2400.0 E1321.293
G1 X16.0 Y-1.19 Z0.6 F2400.0 E1321.821
G1 X15.72 Y-0.91 Z0.6 F2400.0 E1322.325
G1 X16.04 Y-0.64 Z0.6 F2400.0 E1322.852
G1 X15.76 Y-0.36 Z0.6 F2400.0 E1323.351
G1 X16.09 Y-0.09 Z0.6 F2400.0 E1323.877
G1 X15.77 Y0.22 Z0.6 F2400.0 E1324.431
G1 X16.05 Y0.53 Z0.6 F2400.0 E1324.956
G1 X15.72 Y0.87 Z0.6 F2400.0 E1325.546
G1 X16.0 Y1.18 Z0.6 F2400.0 E1326.07
G1 X15.66 Y1.52 Z0.6 F2400.0 E1326.668
G1 X15.95 Y1.82 Z0.6 F2400.0 E1327.192
G1 X15.61 Y2.16 Z0.6 F2400.0 E1327.798
G1 X15.9 Y2.46 Z0.6 F2400.0 E1328.321
G1 X15.52 Y2.84 Z0.6 F2400.0 E1328.995
G1 X15.73 Y3.23 Z0.6 F2400.0 E1329.543
G1 X15.31 Y3.65 Z0.6 F2400.0 E1330.275
G1 X15.54 Y4.01 Z0.6 F2400.0 E1330.813
G1 X15.1 Y4.45 Z0.6 F2400.0 E1331.582
G1 X15.35 Y4.79 Z0.6 F2400.0 E1332.113
G1 X14.89 Y5.25 Z0.6 F2400.0 E1332.922
G1 X14.99 Y5.75 Z0.6 F2400.0 E1333.558
G1 X14.41 Y6.32 Z0.6 F2400.0 E1334.576
G1 X14.57 Y6.76 Z0.6 F2400.0 E1335.155
G1 X13.92 Y7.4 Z0.6 F2400.0 E1336.295
G1 X13.91 Y8.01 Z0.6 F2400.0 E1337.051
G1 X12.89 Y9.02 Z0.6 F2400.0 E1338.85
;M103
G1 X12.48 Y9.01 Z0.6 F3600.0
;M101
G1 X12.6 Y8.82 Z0.6 F2400.0 E1339.127
G1 X13.48 Y7.53 Z0.6 F2400.0 E1341.085
G1 X14.55 Y5.14 Z0.6 F2400.0 E1344.361
G1 X15.21 Y2.61 Z0.6 F2400.0 E1347.635
G1 X15.44 Y0.0 Z0.6 F2400.0 E1350.911
G1 X15.21 Y-2.61 Z0.6 F2400.0 E1354.187
G1 X14.55 Y-5.14 Z0.6 F2400.0 E1357.461
G1 X13.48 Y-7.53 Z0.6 F2400.0 E1360.737
G1 X12.01 Y-9.7 Z0.6 F2400.0 E1364.012
G1 X10.2 Y-11.59 Z0.6 F2400.0 E1367.286
G1 X8.09 Y-13.14 Z0.6 F2400.0 E1370.562
G1 X5.76 Y-14.32 Z0.6 F2400.0 E1373.838
G1 X3.25 Y-15.09 Z0.6 F2400.0 E1377.113
G1 X0.66 Y-15.42 Z0.6 F2400.0 E1380.388
G1 X-1.96 Y-15.31 Z0.6 F2400.0 E1383.662
G1 X-4.52 Y-14.76 Z0.6 F2400.0 E1386.938
G1 X-6.95 Y-13.78 Z0.6 F2400.0 E1390.213
G1 X-9.18 Y-12.41 Z0.6 F2400.0 E1393.488
G1 X-11.14 Y-10.68 Z0.6 F2400.0 E1396.763
G1 X-12.79 Y-8.64 Z0.6 F2400.0 E1400.04
G1 X-14.07 Y-6.36 Z0.6 F2400.0 E1403.314
G1 X-14.94 Y-3.89 Z0.6 F2400.0 E1406.589
G1 X-15.38 Y-1.31 Z0.6 F2400.0 E1409.864
G1 X-15.38 Y1.31 Z0.6 F2400.0 E1413.139
G1 X-14.94 Y3.89 Z0.6 F2400.0 E1416.414
G1 X-14.07 Y6.36 Z0.6 F2400.0 E1419.689
G1 X-12.79 Y8.64 Z0.6 F2400.0 E1422.963
G1 X-11.14 Y10.68 Z0.6 F2400.0 E1426.24
G1 X-9.18 Y12.41 Z0.6 F2400.0 E1429.515
G1 X-6.95 Y13.78 Z0.6 F2400.0 E1432.79
G1 X-4.52 Y14.76 Z0.6 F2400.0 E1436.065
G1 X-1.96 Y15.31 Z0.6 F2400.0 E1439.341
G1 X0.66 Y15.42 Z0.6 F2400.0 E1442.615
G1 X3.25 Y15.09 Z0.6 F2400.0 E1445.89
G1 X5.76 Y14.32 Z0.6 F2400.0 E1449.165
G1 X8.09 Y13.14 Z0.6 F2400.0 E1452.44
G1 X10.2 Y11.59 Z0.6 F2400.0 E1455.716
G1 X12.01 Y9.7 Z0.6 F2400.0 E1458.991
G1 X12.48 Y9.01 Z0.6 F2400.0 E1460.031
;M103
G1 X13.31 Y9.67 Z0.6 F3600.0
;M101
G1 X11.63 Y11.63 Z0.6 F2400.0 E1463.26
G1 X9.67 Y13.31 Z0.6 F2400.0 E1466.489
G1 X7.47 Y14.66 Z0.6 F2400.0 E1469.719
G1 X5.08 Y15.65 Z0.6 F2400.0 E1472.948
G1 X2.57 Y16.25 Z0.6 F2400.0 E1476.179
G1 X0.0 Y16.45 Z0.6 F2400.0 E1479.408
G1 X-2.57 Y16.25 Z0.6 F2400.0 E1482.637
G1 X-5.08 Y15.65 Z0.6 F2400.0 E1485.867
G1 X-7.47 Y14.66 Z0.6 F2400.0 E1489.097
G1 X-9.67 Y13.31 Z0.6 F2400.0 E1492.327
G1 X-11.63 Y11.63 Z0.6 F2400.0 E1495.555
G1 X-13.31 Y9.67 Z0.6 F2400.0 E1498.784
G1 X-14.66 Y7.47 Z0.6 F2400.0 E1502.014
G1 X-15.65 Y5.08 Z0.6 F2400.0 E1505.244
G1 X-16.25 Y2.57 Z0.6 F2400.0 E1508.474
G1 X-16.45 Y0.0 Z0.6 F2400.0 E1511.703
G1 X-16.25 Y-2.57 Z0.6 F2400.0 E1514.932
G1 X-15.65 Y-5.08 Z0.6 F2400.0 E1518.162
G1 X-14.66 Y-7.47 Z0.6 F2400.0 E1521.392
G1 X-13.31 Y-9.67 Z0.6 F2400.0 E1524.622
G1 X-11.63 Y-11.63 Z0.6 F2400.0 E1527.851
G1 X-9.67 Y-13.31 Z0.6 F2400.0 E1531.08
G1 X-7.47 Y-14.66 Z0.6 F2400.0 E1534.31
G1 X-5.08 Y-15.65 Z0.6 F2400.0 E1537.539
G1 X-2.57 Y-16.25 Z0.6 F2400.0 E1540.77
G1 X0.0 Y-16.45 Z0.6 F2400.0 E1543.998
G1 X2.57 Y-16.25 Z0.6 F2400.0 E1547.227
G1 X5.08 Y-15.65 Z0.6 F2400.0 E1550.458
G1 X7.47 Y-14.66 Z0.6 F2400.0 E1553.687
G1 X9.67 Y-13.31 Z0.6 F2400.0 E1556.917
G1 X11.63 Y-11.63 Z0.6 F2400.0 E1560.146
G1 X13.31 Y-9.67 Z0.6 F2400.0 E1563.375
G1 X14.66 Y-7.47 Z0.6 F2400.0 E1566.605
G1 X15.65 Y-5.08 Z0.6 F2400.0 E1569.834
G1 X16.25 Y-2.57 Z0.6 F2400.0 E1573.065
G1 X16.45 Y0.0 Z0.6 F2400.0 E1576.294
G1 X16.25 Y2.57 Z0.6 F2400.0 E1579.523
G1 X15.65 Y5.08 Z0.6 F2400.0 E1582.753
G1 X14.66 Y7.47 Z0.6 F2400.0 E1585.983
G1 X13.49 Y9.37 Z0.6 F2400.0 E1588.774
G1 X13.31 Y9.67 Z0.6 F2400.0 E1589.213
;M103
;M108 S37.53
G1 X13.65 Y9.92 Z0.6 F3600.0
;M101
G1 X11.93 Y11.93 Z0.6 F1800.0 E1592.525
G1 X9.92 Y13.65 Z0.6 F1800.0 E1595.837
G1 X7.66 Y15.03 Z0.6 F1800.0 E1599.149
G1 X5.21 Y16.05 Z0.6 F1800.0 E1602.461
G1 X2.64 Y16.66 Z0.6 F1800.0 E1605.773
G1 X0.0 Y16.87 Z0.6 F1800.0 E1609.085
G1 X-2.64 Y16.66 Z0.6 F1800.0 E1612.397
G1 X-5.21 Y16.05 Z0.6 F1800.0 E1615.709
G1 X-7.66 Y15.03 Z0.6 F1800.0 E1619.021
G1 X-9.92 Y13.65 Z0.6 F1800.0 E1622.333
G1 X-11.93 Y11.93 Z0.6 F1800.0 E1625.645
G1 X-13.65 Y9.92 Z0.6 F1800.0 E1628.958
G1 X-15.03 Y7.66 Z0.6 F1800.0 E1632.269
G1 X-16.05 Y5.21 Z0.6 F1800.0 E1635.581
G1 X-16.66 Y2.64 Z0.6 F1800.0 E1638.894
G1 X-16.87 Y0.0 Z0.6 F1800.0 E1642.205
G1 X-16.66 Y-2.64 Z0.6 F1800.0 E1645.517
G1 X-16.05 Y-5.21 Z0.6 F1800.0 E1648.83
G1 X-15.03 Y-7.66 Z0.6 F1800.0 E1652.142
G1 X-13.65 Y-9.92 Z0.6 F1800.0 E1655.453
G1 X-11.93 Y-11.93 Z0.6 F1800.0 E1658.766
G1 X-9.92 Y-13.65 Z0.6 F1800.0 E1662.078
G1 X-7.66 Y-15.03 Z0.6 F1800.0 E1665.389
G1 X-5.21 Y-16.05 Z0.6 F1800.0 E1668.701
G1 X-2.64 Y-16.66 Z0.6 F1800.0 E1672.014
G1 X0.0 Y-16.87 Z0.6 F1800.0 E1675.326
G1 X2.64 Y-16.66 Z0.6 F1800.0 E1678.637
G1 X5.21 Y-16.05 Z0.6 F1800.0 E1681.95
G1 X7.66 Y-15.03 Z0.6 F1800.0 E1685.262
G1 X9.92 Y-13.65 Z0.6 F1800.0 E1688.574
G1 X11.93 Y-11.93 Z0.6 F1800.0 E1691.886
G1 X13.65 Y-9.92 Z0.6 F1800.0 E1695.198
G1 X15.03 Y-7.66 Z0.6 F1800.0 E1698.51
G1 X16.05 Y-5.21 Z0.6 F1800.0 E1701.822
G1 X16.66 Y-2.64 Z0.6 F1800.0 E1705.134
G1 X16.87 Y0.0 Z0.6 F1800.0 E1708.446
G1 X16.66 Y2.64 Z0.6 F1800.0 E1711.758
G1 X16.05 Y5.21 Z0.6 F1800.0 E1715.071
G1 X15.03 Y7.66 Z0.6 F1800.0 E1718.383
G1 X13.85 Y9.59 Z0.6 F1800.0 E1721.215
G1 X13.65 Y9.92 Z0.6 F1800.0 E1721.694
;M103
G1 X12.08 Y8.85 Z0.6 F3600.0
;M101
G1 X12.29 Y8.54 Z0.6 F1800.0 E1722.172
G1 X13.11 Y7.32 Z0.6 F1800.0 E1724.004
G1 X14.16 Y5.0 Z0.6 F1800.0 E1727.19
G1 X14.8 Y2.54 Z0.6 F1800.0 E1730.375
G1 X15.02 Y0.0 Z0.6 F1800.0 E1733.562
G1 X14.8 Y-2.54 Z0.6 F1800.0 E1736.748
G1 X14.16 Y-5.0 Z0.6 F1800.0 E1739.934
G1 X13.11 Y-7.32 Z0.6 F1800.0 E1743.12
G1 X11.68 Y-9.43 Z0.6 F1800.0 E1746.305
G1 X9.92 Y-11.27 Z0.6 F1800.0 E1749.492
G1 X7.87 Y-12.79 Z0.6 F1800.0 E1752.678
G1 X5.6 Y-13.93 Z0.6 F1800.0 E1755.864
G1 X3.16 Y-14.68 Z0.6 F1800.0 E1759.05
G1 X0.64 Y-15.0 Z0.6 F1800.0 E1762.236
G1 X-1.91 Y-14.89 Z0.6 F1800.0 E1765.421
G1 X-4.4 Y-14.36 Z0.6 F1800.0 E1768.608
G1 X-6.76 Y-13.41 Z0.6 F1800.0 E1771.793
G1 X-8.93 Y-12.07 Z0.6 F1800.0 E1774.979
G1 X-10.84 Y-10.39 Z0.6 F1800.0 E1778.166
G1 X-12.44 Y-8.41 Z0.6 F1800.0 E1781.351
G1 X-13.68 Y-6.19 Z0.6 F1800.0 E1784.537
G1 X-14.53 Y-3.78 Z0.6 F1800.0 E1787.723
G1 X-14.96 Y-1.27 Z0.6 F1800.0 E1790.908
G1 X-14.96 Y1.27 Z0.6 F1800.0 E1794.096
G1 X-14.53 Y3.78 Z0.6 F1800.0 E1797.28
G1 X-13.68 Y6.19 Z0.6 F1800.0 E1800.467
G1 X-12.44 Y8.41 Z0.6 F1800.0 E1803.653
G1 X-10.84 Y10.39 Z0.6 F1800.0 E1806.838
G1 X-8.93 Y12.07 Z0.6 F1800.0 E1810.025
G1 X-6.76 Y13.41 Z0.6 F1800.0 E1813.211
G1 X-4.4 Y14.36 Z0.6 F1800.0 E1816.396
G1 X-1.91 Y14.89 Z0.6 F1800.0 E1819.583
G1 X0.64 Y15.0 Z0.6 F1800.0 E1822.768
G1 X3.16 Y14.68 Z0.6 F1800.0 E1825.954
G1 X5.6 Y13.93 Z0.6 F1800.0 E1829.14
G1 X7.87 Y12.79 Z0.6 F1800.0 E1832.325
G1 X9.92 Y11.27 Z0.6 F1800.0 E1835.512
G1 X11.68 Y9.43 Z0.6 F1800.0 E1838.699
G1 X12.08 Y8.85 Z0.6 F1800.0 E1839.574
;M103
;M108 S50.04
G1 X13.18 Y7.36 Z0.9 F3600.0
G1 X14.24 Y5.03 Z0.9 F3600.0
G1 X14.88 Y2.55 Z0.9 F3600.0
G1 X15.1 Y0.0 Z0.9 F3600.0
G1 X14.88 Y-2.55 Z0.9 F3600.0
G1 X14.24 Y-5.03 Z0.9 F3600.0
G1 X13.18 Y-7.36 Z0.9 F3600.0
G1 X9.66 Y-12.85 Z0.9 F3600.0
;M101
G1 X12.85 Y-9.66 Z0.9 F2400.0 E1845.22
G1 X12.89 Y-9.02 Z0.9 F2400.0 E1846.017
G1 X13.91 Y-8.01 Z0.9 F2400.0 E1847.817
G1 X13.92 Y-7.4 Z0.9 F2400.0 E1848.572
G1 X14.57 Y-6.76 Z0.9 F2400.0 E1849.713
G1 X14.41 Y-6.32 Z0.9 F2400.0 E1850.292
G1 X14.99 Y-5.75 Z0.9 F2400.0 E1851.31
G1 X14.89 Y-5.25 Z0.9 F2400.0 E1851.946
G1 X15.35 Y-4.79 Z0.9 F2400.0 E1852.754
G1 X15.1 Y-4.45 Z0.9 F2400.0 E1853.285
G1 X15.54 Y-4.01 Z0.9 F2400.0 E1854.055
G1 X15.31 Y-3.65 Z0.9 F2400.0 E1854.593
G1 X15.73 Y-3.23 Z0.9 F2400.0 E1855.324
G1 X15.52 Y-2.84 Z0.9 F2400.0 E1855.872
G1 X15.9 Y-2.46 Z0.9 F2400.0 E1856.546
G1 X15.61 Y-2.16 Z0.9 F2400.0 E1857.07
G1 X15.95 Y-1.82 Z0.9 F2400.0 E1857.676
G1 X15.66 Y-1.52 Z0.9 F2400.0 E1858.2
G1 X16.0 Y-1.18 Z0.9 F2400.0 E1858.798
G1 X15.72 Y-0.87 Z0.9 F2400.0 E1859.322
G1 X16.05 Y-0.53 Z0.9 F2400.0 E1859.912
G1 X15.77 Y-0.22 Z0.9 F2400.0 E1860.437
G1 X16.09 Y0.09 Z0.9 F2400.0 E1860.99
G1 X15.76 Y0.36 Z0.9 F2400.0 E1861.517
G1 X16.04 Y0.64 Z0.9 F2400.0 E1862.015
G1 X15.72 Y0.91 Z0.9 F2400.0 E1862.542
G1 X16.0 Y1.19 Z0.9 F2400.0 E1863.046
G1 X15.67 Y1.45 Z0.9 F2400.0 E1863.575
G1 X15.96 Y1.74 Z0.9 F2400.0 E1864.085
G1 X15.62 Y2.0 Z0.9 F2400.0 E1864.614
G1 X15.92 Y2.29 Z0.9 F2400.0 E1865.131
G1 X15.58 Y2.54 Z0.9 F2400.0 E1865.661
G1 X15.83 Y2.8 Z0.9 F2400.0 E1866.109
G1 X15.47 Y3.03 Z0.9 F2400.0 E1866.645
G1 X15.72 Y3.28 Z0.9 F2400.0 E1867.077
G1 X15.35 Y3.5 Z0.9 F2400.0 E1867.615
G1 X15.6 Y3.75 Z0.9 F2400.0 E1868.059
G1 X15.23 Y3.97 Z0.9 F2400.0 E1868.6
G1 X15.49 Y4.23 Z0.9 F2400.0 E1869.058
G1 X15.1 Y4.44 Z0.9 F2400.0 E1869.602
G1 X15.37 Y4.71 Z0.9 F2400.0 E1870.075
G1 X14.98 Y4.91 Z0.9 F2400.0 E1870.624
G1 X15.23 Y5.16 Z0.9 F2400.0 E1871.062
G1 X14.84 Y5.37 Z0.9 F2400.0 E1871.61
G1 X15.06 Y5.58 Z0.9 F2400.0 E1871.986
G1 X14.66 Y5.77 Z0.9 F2400.0 E1872.539
G1 X14.88 Y6.0 Z0.9 F2400.0 E1872.935
G1 X14.48 Y6.18 Z0.9 F2400.0 E1873.495
G1 X14.71 Y6.42 Z0.9 F2400.0 E1873.91
G1 X14.54 Y6.84 Z0.9 F2400.0 E1874.477
G1 X14.29 Y6.59 Z0.9 F2400.0 E1874.912
G1 X14.11 Y7.0 Z0.9 F2400.0 E1875.472
G1 X14.36 Y7.25 Z0.9 F2400.0 E1875.926
G1 X14.14 Y7.63 Z0.9 F2400.0 E1876.467
G1 X13.92 Y7.41 Z0.9 F2400.0 E1876.859
G1 X13.72 Y7.8 Z0.9 F2400.0 E1877.411
G1 X13.92 Y8.0 Z0.9 F2400.0 E1877.76
G1 X13.69 Y8.36 Z0.9 F2400.0 E1878.298
G1 X13.48 Y8.15 Z0.9 F2400.0 E1878.67
G1 X13.25 Y8.51 Z0.9 F2400.0 E1879.204
G1 X13.47 Y8.73 Z0.9 F2400.0 E1879.6
G1 X13.24 Y9.1 Z0.9 F2400.0 E1880.139
G1 X13.01 Y8.86 Z0.9 F2400.0 E1880.56
G1 X12.77 Y9.21 Z0.9 F2400.0 E1881.094
G1 X13.02 Y9.46 Z0.9 F2400.0 E1881.538
G1 X12.75 Y9.78 Z0.9 F2400.0 E1882.064
G1 X12.53 Y9.57 Z0.9 F2400.0 E1882.448
G1 X12.29 Y9.92 Z0.9 F2400.0 E1882.982
G1 X12.47 Y10.1 Z0.9 F2400.0 E1883.306
G1 X12.2 Y10.42 Z0.9 F2400.0 E1883.831
G1 X12.0 Y10.22 Z0.9 F2400.0 E1884.184
G1 X11.71 Y10.53 Z0.9 F2400.0 E1884.709
G1 X11.93 Y10.74 Z0.9 F2400.0 E1885.092
G1 X11.65 Y11.06 Z0.9 F2400.0 E1885.618
G1 X11.42 Y10.83 Z0.9 F2400.0 E1886.032
G1 X11.13 Y11.13 Z0.9 F2400.0 E1886.556
G1 X11.38 Y11.38 Z0.9 F2400.0 E1887.0
G1 X11.06 Y11.65 Z0.9 F2400.0 E1887.527
G1 X10.84 Y11.43 Z0.9 F2400.0 E1887.919
G1 X10.55 Y11.74 Z0.9 F2400.0 E1888.443
G1 X10.74 Y11.93 Z0.9 F2400.0 E1888.783
G1 X10.42 Y12.2 Z0.9 F2400.0 E1889.308
G1 X10.23 Y12.01 Z0.9 F2400.0 E1889.648
G1 X9.89 Y12.26 Z0.9 F2400.0 E1890.178
G1 X10.1 Y12.47 Z0.9 F2400.0 E1890.556
G1 X9.78 Y12.75 Z0.9 F2400.0 E1891.082
G1 X9.55 Y12.51 Z0.9 F2400.0 E1891.498
G1 X9.21 Y12.76 Z0.9 F2400.0 E1892.028
G1 X9.46 Y13.02 Z0.9 F2400.0 E1892.48
G1 X9.1 Y13.24 Z0.9 F2400.0 E1893.02
G1 X8.87 Y13.01 Z0.9 F2400.0 E1893.427
G1 X8.53 Y13.27 Z0.9 F2400.0 E1893.956
G1 X8.73 Y13.47 Z0.9 F2400.0 E1894.315
G1 X8.36 Y13.69 Z0.9 F2400.0 E1894.855
G1 X8.17 Y13.5 Z0.9 F2400.0 E1895.192
G1 X7.78 Y13.7 Z0.9 F2400.0 E1895.744
G1 X8.0 Y13.92 Z0.9 F2400.0 E1896.128
G1 X7.63 Y14.14 Z0.9 F2400.0 E1896.667
G1 X7.38 Y13.9 Z0.9 F2400.0 E1897.098
G1 X6.99 Y14.1 Z0.9 F2400.0 E1897.65
G1 X7.25 Y14.36 Z0.9 F2400.0 E1898.117
G1 X6.84 Y14.54 Z0.9 F2400.0 E1898.684
G1 X6.6 Y14.3 Z0.9 F2400.0 E1899.107
G1 X6.2 Y14.5 Z0.9 F2400.0 E1899.659
G1 X6.42 Y14.71 Z0.9 F2400.0 E1900.037
G1 X6.0 Y14.88 Z0.9 F2400.0 E1900.605
G1 X5.8 Y14.68 Z0.9 F2400.0 E1900.96
G1 X5.58 Y15.06 Z0.9 F2400.0 E1901.502
G1 X5.34 Y14.82 Z0.9 F2400.0 E1901.917
G1 X5.16 Y15.23 Z0.9 F2400.0 E1902.479
G1 X4.89 Y14.96 Z0.9 F2400.0 E1902.956
G1 X4.71 Y15.37 Z0.9 F2400.0 E1903.518
G1 X4.44 Y15.1 Z0.9 F2400.0 E1903.999
G1 X4.23 Y15.49 Z0.9 F2400.0 E1904.547
G1 X3.98 Y15.24 Z0.9 F2400.0 E1904.985
G1 X3.75 Y15.6 Z0.9 F2400.0 E1905.523
G1 X3.53 Y15.38 Z0.9 F2400.0 E1905.918
G1 X3.28 Y15.72 Z0.9 F2400.0 E1906.448
G1 X3.04 Y15.48 Z0.9 F2400.0 E1906.873
G1 X2.8 Y15.83 Z0.9 F2400.0 E1907.408
G1 X2.51 Y15.54 Z0.9 F2400.0 E1907.915
G1 X2.29 Y15.92 Z0.9 F2400.0 E1908.456
G1 X1.99 Y15.61 Z0.9 F2400.0 E1908.996
G1 X1.74 Y15.96 Z0.9 F2400.0 E1909.528
G1 X1.46 Y15.68 Z0.9 F2400.0 E1910.024
G1 X1.19 Y16.0 Z0.9 F2400.0 E1910.551
G1 X0.94 Y15.74 Z0.9 F2400.0 E1911.005
G1 X0.64 Y16.04 Z0.9 F2400.0 E1911.529
G1 X0.36 Y15.77 Z0.9 F2400.0 E1912.023
G1 X0.09 Y16.09 Z0.9 F2400.0 E1912.549
G1 X-0.26 Y15.74 Z0.9 F2400.0 E1913.164
G1 X-0.53 Y16.05 Z0.9 F2400.0 E1913.689
G1 X-0.87 Y15.71 Z0.9 F2400.0 E1914.29
G1 X-1.18 Y16.0 Z0.9 F2400.0 E1914.813
G1 X-1.49 Y15.69 Z0.9 F2400.0 E1915.371
G1 X-1.82 Y15.95 Z0.9 F2400.0 E1915.897
G1 X-2.13 Y15.64 Z0.9 F2400.0 E1916.453
G1 X-2.46 Y15.9 Z0.9 F2400.0 E1916.981
G1 X-2.89 Y15.48 Z0.9 F2400.0 E1917.734
G1 X-3.23 Y15.73 Z0.9 F2400.0 E1918.264
G1 X-3.64 Y15.31 Z0.9 F2400.0 E1918.995
G1 X-4.01 Y15.54 Z0.9 F2400.0 E1919.534
G1 X-4.4 Y15.15 Z0.9 F2400.0 E1920.222
G1 X-4.79 Y15.35 Z0.9 F2400.0 E1920.772
G1 X-5.32 Y14.82 Z0.9 F2400.0 E1921.709
G1 X-5.75 Y14.99 Z0.9 F2400.0 E1922.282
G1 X-6.31 Y14.42 Z0.9 F2400.0 E1923.277
G1 X-6.76 Y14.57 Z0.9 F2400.0 E1923.867
G1 X-7.41 Y13.92 Z0.9 F2400.0 E1925.011
G1 X-8.01 Y13.91 Z0.9 F2400.0 E1925.763
G1 X-8.95 Y12.97 Z0.9 F2400.0 E1927.429
G1 X-9.66 Y12.85 Z0.9 F2400.0 E1928.331
G1 X-12.85 Y9.66 Z0.9 F2400.0 E1933.976
G1 X-13.1 Y8.82 Z0.9 F2400.0 E1935.07
G1 X-13.91 Y8.01 Z0.9 F2400.0 E1936.51
G1 X-13.85 Y7.48 Z0.9 F2400.0 E1937.175
G1 X-14.57 Y6.76 Z0.9 F2400.0 E1938.45
G1 X-14.48 Y6.26 Z0.9 F2400.0 E1939.09
G1 X-14.99 Y5.75 Z0.9 F2400.0 E1939.988
G1 X-14.8 Y5.34 Z0.9 F2400.0 E1940.549
G1 X-15.35 Y4.79 Z0.9 F2400.0 E1941.518
G1 X-15.13 Y4.42 Z0.9 F2400.0 E1942.057
G1 X-15.54 Y4.01 Z0.9 F2400.0 E1942.784
G1 X-15.35 Y3.61 Z0.9 F2400.0 E1943.34
G1 X-15.73 Y3.23 Z0.9 F2400.0 E1944.011
G1 X-15.47 Y2.9 Z0.9 F2400.0 E1944.539
G1 X-15.9 Y2.46 Z0.9 F2400.0 E1945.304
G1 X-15.59 Y2.18 Z0.9 F2400.0 E1945.829
G1 X-15.95 Y1.82 Z0.9 F2400.0 E1946.466
G1 X-15.71 Y1.47 Z0.9 F2400.0 E1947.0
G1 X-16.0 Y1.18 Z0.9 F2400.0 E1947.509
G1 X-15.74 Y0.85 Z0.9 F2400.0 E1948.036
G1 X-16.05 Y0.53 Z0.9 F2400.0 E1948.597
G1 X-15.74 Y0.26 Z0.9 F2400.0 E1949.122
G1 X-16.09 Y-0.09 Z0.9 F2400.0 E1949.745
G1 X-15.74 Y-0.33 Z0.9 F2400.0 E1950.278
G1 X-16.04 Y-0.64 Z0.9 F2400.0 E1950.824
G1 X-15.74 Y-0.93 Z0.9 F2400.0 E1951.349
G1 X-16.0 Y-1.19 Z0.9 F2400.0 E1951.819
G1 X-15.71 Y-1.49 Z0.9 F2400.0 E1952.344
G1 X-15.96 Y-1.74 Z0.9 F2400.0 E1952.783
G1 X-15.62 Y-2.0 Z0.9 F2400.0 E1953.312
G1 X-15.92 Y-2.29 Z0.9 F2400.0 E1953.829
G1 X-15.54 Y-2.5 Z0.9 F2400.0 E1954.374
G1 X-15.83 Y-2.8 Z0.9 F2400.0 E1954.893
G1 X-15.45 Y-3.01 Z0.9 F2400.0 E1955.438
G1 X-15.72 Y-3.28 Z0.9 F2400.0 E1955.909
G1 X-15.36 Y-3.52 Z0.9 F2400.0 E1956.442
G1 X-15.6 Y-3.75 Z0.9 F2400.0 E1956.861
G1 X-15.27 Y-4.01 Z0.9 F2400.0 E1957.389
G1 X-15.49 Y-4.23 Z0.9 F2400.0 E1957.769
G1 X-15.12 Y-4.45 Z0.9 F2400.0 E1958.309
G1 X-15.37 Y-4.71 Z0.9 F2400.0 E1958.76
G1 X-14.96 Y-4.89 Z0.9 F2400.0 E1959.321
G1 X-15.23 Y-5.16 Z0.9 F2400.0 E1959.797
G1 X-15.06 Y-5.58 Z0.9 F2400.0 E1960.365
G1 X-14.81 Y-5.33 Z0.9 F2400.0 E1960.807
G1 X-14.65 Y-5.77 Z0.9 F2400.0 E1961.388
G1 X-14.88 Y-6.0 Z0.9 F2400.0 E1961.796
G1 X-14.5 Y-6.2 Z0.9 F2400.0 E1962.344
G1 X-14.71 Y-6.42 Z0.9 F2400.0 E1962.719
G1 X-14.32 Y-6.62 Z0.9 F2400.0 E1963.266
G1 X-14.54 Y-6.84 Z0.9 F2400.0 E1963.641
G1 X-14.36 Y-7.25 Z0.9 F2400.0 E1964.209
G1 X-14.11 Y-7.0 Z0.9 F2400.0 E1964.652
G1 X-13.9 Y-7.38 Z0.9 F2400.0 E1965.197
G1 X-14.14 Y-7.63 Z0.9 F2400.0 E1965.628
G1 X-13.92 Y-8.0 Z0.9 F2400.0 E1966.168
G1 X-13.69 Y-7.76 Z0.9 F2400.0 E1966.577
G1 X-13.48 Y-8.14 Z0.9 F2400.0 E1967.122
G1 X-13.69 Y-8.36 Z0.9 F2400.0 E1967.508
G1 X-13.47 Y-8.73 Z0.9 F2400.0 E1968.048
G1 X-13.26 Y-8.52 Z0.9 F2400.0 E1968.412
G1 X-13.04 Y-8.9 Z0.9 F2400.0 E1968.954
G1 X-13.24 Y-9.1 Z0.9 F2400.0 E1969.31
G1 X-13.02 Y-9.46 Z0.9 F2400.0 E1969.849
G1 X-12.78 Y-9.22 Z0.9 F2400.0 E1970.275
G1 X-12.51 Y-9.55 Z0.9 F2400.0 E1970.802
G1 X-12.75 Y-9.78 Z0.9 F2400.0 E1971.213
G1 X-12.47 Y-10.1 Z0.9 F2400.0 E1971.739
G1 X-12.25 Y-9.88 Z0.9 F2400.0 E1972.135
G1 X-11.98 Y-10.21 Z0.9 F2400.0 E1972.662
G1 X-12.2 Y-10.42 Z0.9 F2400.0 E1973.042
G1 X-11.93 Y-10.74 Z0.9 F2400.0 E1973.568
G1 X-11.72 Y-10.53 Z0.9 F2400.0 E1973.936
G1 X-11.45 Y-10.86 Z0.9 F2400.0 E1974.463
G1 X-11.65 Y-11.06 Z0.9 F2400.0 E1974.816
G1 X-11.38 Y-11.38 Z0.9 F2400.0 E1975.342
G1 X-11.15 Y-11.15 Z0.9 F2400.0 E1975.753
G1 X-10.83 Y-11.43 Z0.9 F2400.0 E1976.279
G1 X-11.06 Y-11.65 Z0.9 F2400.0 E1976.68
G1 X-10.74 Y-11.93 Z0.9 F2400.0 E1977.205
G1 X-10.52 Y-11.7 Z0.9 F2400.0 E1977.6
G1 X-10.2 Y-11.98 Z0.9 F2400.0 E1978.125
G1 X-10.42 Y-12.2 Z0.9 F2400.0 E1978.51
G1 X-10.1 Y-12.47 Z0.9 F2400.0 E1979.036
G1 X-9.89 Y-12.26 Z0.9 F2400.0 E1979.413
G1 X-9.57 Y-12.54 Z0.9 F2400.0 E1979.938
G1 X-9.78 Y-12.75 Z0.9 F2400.0 E1980.308
G1 X-9.46 Y-13.02 Z0.9 F2400.0 E1980.833
G1 X-9.24 Y-12.79 Z0.9 F2400.0 E1981.234
G1 X-8.87 Y-13.02 Z0.9 F2400.0 E1981.772
G1 X-9.1 Y-13.24 Z0.9 F2400.0 E1982.172
G1 X-8.73 Y-13.47 Z0.9 F2400.0 E1982.71
G1 X-8.5 Y-13.24 Z0.9 F2400.0 E1983.11
G1 X-8.14 Y-13.47 Z0.9 F2400.0 E1983.648
G1 X-8.36 Y-13.69 Z0.9 F2400.0 E1984.045
G1 X-8.0 Y-13.92 Z0.9 F2400.0 E1984.584
G1 X-7.77 Y-13.7 Z0.9 F2400.0 E1984.98
G1 X-7.41 Y-13.92 Z0.9 F2400.0 E1985.518
G1 X-7.63 Y-14.14 Z0.9 F2400.0 E1985.912
G1 X-7.25 Y-14.36 Z0.9 F2400.0 E1986.453
G1 X-7.03 Y-14.14 Z0.9 F2400.0 E1986.853
G1 X-6.84 Y-14.54 Z0.9 F2400.0 E1987.408
G1 X-6.6 Y-14.31 Z0.9 F2400.0 E1987.817
G1 X-6.42 Y-14.71 Z0.9 F2400.0 E1988.374
G1 X-6.18 Y-14.48 Z0.9 F2400.0 E1988.788
G1 X-6.0 Y-14.88 Z0.9 F2400.0 E1989.349
G1 X-5.76 Y-14.65 Z0.9 F2400.0 E1989.77
G1 X-5.58 Y-15.06 Z0.9 F2400.0 E1990.332
G1 X-5.34 Y-14.82 Z0.9 F2400.0 E1990.759
G1 X-5.16 Y-15.23 Z0.9 F2400.0 E1991.323
G1 X-4.91 Y-14.98 Z0.9 F2400.0 E1991.758
G1 X-4.71 Y-15.37 Z0.9 F2400.0 E1992.306
G1 X-4.47 Y-15.13 Z0.9 F2400.0 E1992.725
G1 X-4.23 Y-15.49 Z0.9 F2400.0 E1993.258
G1 X-3.98 Y-15.24 Z0.9 F2400.0 E1993.693
G1 X-3.75 Y-15.6 Z0.9 F2400.0 E1994.23
G1 X-3.5 Y-15.34 Z0.9 F2400.0 E1994.683
G1 X-3.28 Y-15.72 Z0.9 F2400.0 E1995.223
G1 X-3.01 Y-15.45 Z0.9 F2400.0 E1995.694
G1 X-2.8 Y-15.83 Z0.9 F2400.0 E1996.239
G1 X-2.52 Y-15.55 Z0.9 F2400.0 E1996.728
G1 X-2.29 Y-15.92 Z0.9 F2400.0 E1997.264
G1 X-2.03 Y-15.66 Z0.9 F2400.0 E1997.717
G1 X-1.74 Y-15.96 Z0.9 F2400.0 E1998.241
G1 X-1.47 Y-15.69 Z0.9 F2400.0 E1998.719
G1 X-1.19 Y-16.0 Z0.9 F2400.0 E1999.243
G1 X-0.9 Y-15.71 Z0.9 F2400.0 E1999.755
G1 X-0.64 Y-16.04 Z0.9 F2400.0 E2000.282
G1 X-0.33 Y-15.74 Z0.9 F2400.0 E2000.827
G1 X-0.09 Y-16.09 Z0.9 F2400.0 E2001.36
G1 X0.24 Y-15.76 Z0.9 F2400.0 E2001.939
G1 X0.53 Y-16.05 Z0.9 F2400.0 E2002.462
G1 X0.83 Y-15.76 Z0.9 F2400.0 E2002.983
G1 X1.18 Y-16.0 Z0.9 F2400.0 E2003.515
G1 X1.51 Y-15.67 Z0.9 F2400.0 E2004.1
G1 X1.82 Y-15.95 Z0.9 F2400.0 E2004.625
G1 X2.19 Y-15.58 Z0.9 F2400.0 E2005.275
G1 X2.46 Y-15.9 Z0.9 F2400.0 E2005.8
G1 X2.87 Y-15.5 Z0.9 F2400.0 E2006.515
G1 X3.23 Y-15.73 Z0.9 F2400.0 E2007.052
G1 X3.6 Y-15.35 Z0.9 F2400.0 E2007.71
G1 X4.01 Y-15.54 Z0.9 F2400.0 E2008.271
G1 X4.46 Y-15.09 Z0.9 F2400.0 E2009.06
G1 X4.79 Y-15.35 Z0.9 F2400.0 E2009.587
G1 X5.31 Y-14.83 Z0.9 F2400.0 E2010.507
G1 X5.75 Y-14.99 Z0.9 F2400.0 E2011.088
G1 X6.27 Y-14.46 Z0.9 F2400.0 E2012.02
G1 X6.76 Y-14.57 Z0.9 F2400.0 E2012.641
G1 X7.47 Y-13.86 Z0.9 F2400.0 E2013.897
G1 X8.01 Y-13.91 Z0.9 F2400.0 E2014.574
G1 X9.01 Y-12.91 Z0.9 F2400.0 E2016.349
;M103
G1 X8.56 Y-12.8 Z0.9 F3600.0
;M101
G1 X8.09 Y-13.14 Z0.9 F2400.0 E2017.075
G1 X5.76 Y-14.32 Z0.9 F2400.0 E2020.35
G1 X3.25 Y-15.09 Z0.9 F2400.0 E2023.625
G1 X0.66 Y-15.42 Z0.9 F2400.0 E2026.901
G1 X-1.96 Y-15.31 Z0.9 F2400.0 E2030.175
G1 X-4.52 Y-14.76 Z0.9 F2400.0 E2033.451
G1 X-6.95 Y-13.78 Z0.9 F2400.0 E2036.726
G1 X-9.18 Y-12.41 Z0.9 F2400.0 E2040.001
G1 X-11.14 Y-10.68 Z0.9 F2400.0 E2043.276
G1 X-12.79 Y-8.64 Z0.9 F2400.0 E2046.552
G1 X-14.07 Y-6.36 Z0.9 F2400.0 E2049.826
G1 X-14.94 Y-3.89 Z0.9 F2400.0 E2053.102
G1 X-15.38 Y-1.31 Z0.9 F2400.0 E2056.377
G1 X-15.38 Y1.31 Z0.9 F2400.0 E2059.652
G1 X-14.94 Y3.89 Z0.9 F2400.0 E2062.926
G1 X-14.07 Y6.36 Z0.9 F2400.0 E2066.202
G1 X-12.79 Y8.64 Z0.9 F2400.0 E2069.476
G1 X-11.14 Y10.68 Z0.9 F2400.0 E2072.752
G1 X-9.18 Y12.41 Z0.9 F2400.0 E2076.027
G1 X-6.95 Y13.78 Z0.9 F2400.0 E2079.303
G1 X-4.52 Y14.76 Z0.9 F2400.0 E2082.577
G1 X-1.96 Y15.31 Z0.9 F2400.0 E2085.853
G1 X0.66 Y15.42 Z0.9 F2400.0 E2089.128
G1 X3.25 Y15.09 Z0.9 F2400.0 E2092.403
G1 X5.76 Y14.32 Z0.9 F2400.0 E2095.678
G1 X8.09 Y13.14 Z0.9 F2400.0 E2098.953
G1 X10.2 Y11.59 Z0.9 F2400.0 E2102.229
G1 X12.01 Y9.7 Z0.9 F2400.0 E2105.504
G1 X13.48 Y7.53 Z0.9 F2400.0 E2108.779
G1 X14.55 Y5.14 Z0.9 F2400.0 E2112.054
G1 X15.21 Y2.61 Z0.9 F2400.0 E2115.329
G1 X15.44 Y0.0 Z0.9 F2400.0 E2118.605
G1 X15.21 Y-2.61 Z0.9 F2400.0 E2121.88
G1 X14.55 Y-5.14 Z0.9 F2400.0 E2125.155
G1 X13.48 Y-7.53 Z0.9 F2400.0 E2128.43
G1 X12.01 Y-9.7 Z0.9 F2400.0 E2131.705
G1 X10.2 Y-11.59 Z0.9 F2400.0 E2134.98
G1 X8.8 Y-12.62 Z0.9 F2400.0 E2137.159
G1 X8.56 Y-12.8 Z0.9 F2400.0 E2137.53
;M103
G1 X9.09 Y-13.67 Z0.9 F3600.0
;M101
G1 X9.34 Y-13.51 Z0.9 F2400.0 E2137.901
G1 X9.67 Y-13.31 Z0.9 F2400.0 E2138.382
G1 X11.63 Y-11.63 Z0.9 F2400.0 E2141.611
G1 X13.31 Y-9.67 Z0.9 F2400.0 E2144.84
G1 X14.66 Y-7.47 Z0.9 F2400.0 E2148.07
G1 X15.65 Y-5.08 Z0.9 F2400.0 E2151.299
G1 X16.25 Y-2.57 Z0.9 F2400.0 E2154.53
G1 X16.45 Y0.0 Z0.9 F2400.0 E2157.759
G1 X16.25 Y2.57 Z0.9 F2400.0 E2160.988
G1 X15.65 Y5.08 Z0.9 F2400.0 E2164.218
G1 X14.66 Y7.47 Z0.9 F2400.0 E2167.448
G1 X13.31 Y9.67 Z0.9 F2400.0 E2170.678
G1 X11.63 Y11.63 Z0.9 F2400.0 E2173.906
G1 X9.67 Y13.31 Z0.9 F2400.0 E2177.135
G1 X7.47 Y14.66 Z0.9 F2400.0 E2180.365
G1 X5.08 Y15.65 Z0.9 F2400.0 E2183.595
G1 X2.57 Y16.25 Z0.9 F2400.0 E2186.825
G1 X0.0 Y16.45 Z0.9 F2400.0 E2190.054
G1 X-2.57 Y16.25 Z0.9 F2400.0 E2193.283
G1 X-5.08 Y15.65 Z0.9 F2400.0 E2196.514
G1 X-7.47 Y14.66 Z0.9 F2400.0 E2199.743
G1 X-9.67 Y13.31 Z0.9 F2400.0 E2202.973
G1 X-11.63 Y11.63 Z0.9 F2400.0 E2206.202
G1 X-13.31 Y9.67 Z0.9 F2400.0 E2209.431
G1 X-14.66 Y7.47 Z0.9 F2400.0 E2212.661
G1 X-15.65 Y5.08 Z0.9 F2400.0 E2215.89
G1 X-16.25 Y2.57 Z0.9 F2400.0 E2219.121
G1 X-16.45 Y0.0 Z0.9 F2400.0 E2222.35
G1 X-16.25 Y-2.57 Z0.9 F2400.0 E2225.578
G1 X-15.65 Y-5.08 Z0.9 F2400.0 E2228.809
G1 X-14.66 Y-7.47 Z0.9 F2400.0 E2232.038
G1 X-13.31 Y-9.67 Z0.9 F2400.0 E2235.268
G1 X-11.63 Y-11.63 Z0.9 F2400.0 E2238.497
G1 X-9.67 Y-13.31 Z0.9 F2400.0 E2241.726
G1 X-7.47 Y-14.66 Z0.9 F2400.0 E2244.956
G1 X-5.08 Y-15.65 Z0.9 F2400.0 E2248.185
G1 X-2.57 Y-16.25 Z0.9 F2400.0 E2251.416
G1 X0.0 Y-16.45 Z0.9 F2400.0 E2254.645
G1 X2.57 Y-16.25 Z0.9 F2400.0 E2257.874
G1 X5.08 Y-15.65 Z0.9 F2400.0 E2261.104
G1 X7.47 Y-14.66 Z0.9 F2400.0 E2264.334
G1 X9.09 Y-13.67 Z0.9 F2400.0 E2266.711
;M103
;M108 S37.53
G1 X9.31 Y-14.02 Z0.9 F3600.0
;M101
G1 X9.56 Y-13.87 Z0.9 F1800.0 E2267.081
G1 X9.92 Y-13.65 Z0.9 F1800.0 E2267.603
G1 X11.93 Y-11.93 Z0.9 F1800.0 E2270.915
G1 X13.65 Y-9.92 Z0.9 F1800.0 E2274.228
G1 X15.03 Y-7.66 Z0.9 F1800.0 E2277.539
G1 X16.05 Y-5.21 Z0.9 F1800.0 E2280.851
G1 X16.66 Y-2.64 Z0.9 F1800.0 E2284.164
G1 X16.87 Y0.0 Z0.9 F1800.0 E2287.475
G1 X16.66 Y2.64 Z0.9 F1800.0 E2290.787
G1 X16.05 Y5.21 Z0.9 F1800.0 E2294.1
G1 X15.03 Y7.66 Z0.9 F1800.0 E2297.412
G1 X13.65 Y9.92 Z0.9 F1800.0 E2300.723
G1 X11.93 Y11.93 Z0.9 F1800.0 E2304.036
G1 X9.92 Y13.65 Z0.9 F1800.0 E2307.348
G1 X7.66 Y15.03 Z0.9 F1800.0 E2310.659
G1 X5.21 Y16.05 Z0.9 F1800.0 E2313.971
G1 X2.64 Y16.66 Z0.9 F1800.0 E2317.284
G1 X0.0 Y16.87 Z0.9 F1800.0 E2320.596
G1 X-2.64 Y16.66 Z0.9 F1800.0 E2323.907
G1 X-5.21 Y16.05 Z0.9 F1800.0 E2327.22
G1 X-7.66 Y15.03 Z0.9 F1800.0 E2330.532
G1 X-9.92 Y13.65 Z0.9 F1800.0 E2333.844
G1 X-11.93 Y11.93 Z0.9 F1800.0 E2337.156
G1 X-13.65 Y9.92 Z0.9 F1800.0 E2340.468
G1 X-15.03 Y7.66 Z0.9 F1800.0 E2343.78
G1 X-16.05 Y5.21 Z0.9 F1800.0 E2347.092
G1 X-16.66 Y2.64 Z0.9 F1800.0 E2350.404
G1 X-16.87 Y0.0 Z0.9 F1800.0 E2353.716
G1 X-16.66 Y-2.64 Z0.9 F1800.0 E2357.028
G1 X-16.05 Y-5.21 Z0.9 F1800.0 E2360.341
G1 X-15.03 Y-7.66 Z0.9 F1800.0 E2363.652
G1 X-13.65 Y-9.92 Z0.9 F1800.0 E2366.964
G1 X-11.93 Y-11.93 Z0.9 F1800.0 E2370.276
G1 X-9.92 Y-13.65 Z0.9 F1800.0 E2373.589
G1 X-7.66 Y-15.03 Z0.9 F1800.0 E2376.9
G1 X-5.21 Y-16.05 Z0.9 F1800.0 E2380.212
G1 X-2.64 Y-16.66 Z0.9 F1800.0 E2383.525
G1 X0.0 Y-16.87 Z0.9 F1800.0 E2386.836
G1 X2.64 Y-16.66 Z0.9 F1800.0 E2390.148
G1 X5.21 Y-16.05 Z0.9 F1800.0 E2393.461
G1 X7.66 Y-15.03 Z0.9 F1800.0 E2396.773
G1 X9.31 Y-14.02 Z0.9 F1800.0 E2399.193
;M103
G1 X8.21 Y-12.54 Z0.9 F3600.0
;M101
G1 X7.87 Y-12.79 Z0.9 F1800.0 E2399.719
G1 X5.6 Y-13.93 Z0.9 F1800.0 E2402.904
G1 X3.16 Y-14.68 Z0.9 F1800.0 E2406.09
G1 X0.64 Y-15.0 Z0.9 F1800.0 E2409.276
G1 X-1.91 Y-14.89 Z0.9 F1800.0 E2412.461
G1 X-4.4 Y-14.36 Z0.9 F1800.0 E2415.648
G1 X-6.76 Y-13.41 Z0.9 F1800.0 E2418.833
G1 X-8.93 Y-12.07 Z0.9 F1800.0 E2422.019
G1 X-10.84 Y-10.39 Z0.9 F1800.0 E2425.206
G1 X-12.44 Y-8.41 Z0.9 F1800.0 E2428.391
G1 X-13.68 Y-6.19 Z0.9 F1800.0 E2431.577
G1 X-14.53 Y-3.78 Z0.9 F1800.0 E2434.764
G1 X-14.96 Y-1.27 Z0.9 F1800.0 E2437.948
G1 X-14.96 Y1.27 Z0.9 F1800.0 E2441.136
G1 X-14.53 Y3.78 Z0.9 F1800.0 E2444.321
G1 X-13.68 Y6.19 Z0.9 F1800.0 E2447.507
G1 X-12.44 Y8.41 Z0.9 F1800.0 E2450.693
G1 X-10.84 Y10.39 Z0.9 F1800.0 E2453.878
G1 X-8.93 Y12.07 Z0.9 F1800.0 E2457.065
G1 X-6.76 Y13.41 Z0.9 F1800.0 E2460.251
G1 X-4.4 Y14.36 Z0.9 F1800.0 E2463.436
G1 X-1.91 Y14.89 Z0.9 F1800.0 E2466.623
G1 X0.64 Y15.0 Z0.9 F1800.0 E2469.808
G1 X3.16 Y14.68 Z0.9 F1800.0 E2472.994
G1 X5.6 Y13.93 Z0.9 F1800.0 E2476.18
G1 X7.87 Y12.79 Z0.9 F1800.0 E2479.366
G1 X9.92 Y11.27 Z0.9 F1800.0 E2482.552
G1 X11.68 Y9.43 Z0.9 F1800.0 E2485.739
G1 X13.11 Y7.32 Z0.9 F1800.0 E2488.925
G1 X14.16 Y5.0 Z0.9 F1800.0 E2492.11
G1 X14.8 Y2.54 Z0.9 F1800.0 E2495.296
G1 X15.02 Y0.0 Z0.9 F1800.0 E2498.482
G1 X14.8 Y-2.54 Z0.9 F1800.0 E2501.669
G1 X14.16 Y-5.0 Z0.9 F1800.0 E2504.854
G1 X13.11 Y-7.32 Z0.9 F1800.0 E2508.04
G1 X11.68 Y-9.43 Z0.9 F1800.0 E2511.226
G1 X9.92 Y-11.27 Z0.9 F1800.0 E2514.412
G1 X8.45 Y-12.36 Z0.9 F1800.0 E2516.704
G1 X8.21 Y-12.54 Z0.9 F1800.0 E2517.073
;M103
;M108 S50.04
G1 X9.97 Y-11.33 Z1.2 F3600.0
G1 X11.75 Y-9.49 Z1.2 F3600.0
G1 X13.18 Y-7.36 Z1.2 F3600.0
G1 X14.24 Y-5.03 Z1.2 F3600.0
G1 X14.88 Y-2.55 Z1.2 F3600.0
G1 X15.1 Y0.0 Z1.2 F3600.0
G1 X14.88 Y2.55 Z1.2 F3600.0
G1 X12.85 Y9.66 Z1.2 F3600.0
;M101
G1 X9.66 Y12.85 Z1.2 F2400.0 E2522.718
G1 X9.01 Y12.91 Z1.2 F2400.0 E2523.536
G1 X8.01 Y13.91 Z1.2 F2400.0 E2525.309
G1 X7.47 Y13.86 Z1.2 F2400.0 E2525.986
G1 X6.76 Y14.57 Z1.2 F2400.0 E2527.242
G1 X6.27 Y14.46 Z1.2 F2400.0 E2527.863
G1 X5.75 Y14.99 Z1.2 F2400.0 E2528.796
G1 X5.31 Y14.83 Z1.2 F2400.0 E2529.376
G1 X4.79 Y15.35 Z1.2 F2400.0 E2530.296
G1 X4.46 Y15.09 Z1.2 F2400.0 E2530.823
G1 X4.01 Y15.54 Z1.2 F2400.0 E2531.613
G1 X3.6 Y15.35 Z1.2 F2400.0 E2532.173
G1 X3.23 Y15.73 Z1.2 F2400.0 E2532.831
G1 X2.87 Y15.5 Z1.2 F2400.0 E2533.368
G1 X2.46 Y15.9 Z1.2 F2400.0 E2534.083
G1 X2.19 Y15.58 Z1.2 F2400.0 E2534.608
G1 X1.82 Y15.95 Z1.2 F2400.0 E2535.258
G1 X1.51 Y15.67 Z1.2 F2400.0 E2535.783
G1 X1.18 Y16.0 Z1.2 F2400.0 E2536.368
G1 X0.83 Y15.76 Z1.2 F2400.0 E2536.9
G1 X0.53 Y16.05 Z1.2 F2400.0 E2537.421
G1 X0.24 Y15.76 Z1.2 F2400.0 E2537.944
G1 X-0.09 Y16.09 Z1.2 F2400.0 E2538.523
G1 X-0.33 Y15.74 Z1.2 F2400.0 E2539.056
G1 X-0.64 Y16.04 Z1.2 F2400.0 E2539.601
G1 X-0.9 Y15.71 Z1.2 F2400.0 E2540.128
G1 X-1.19 Y16.0 Z1.2 F2400.0 E2540.64
G1 X-1.47 Y15.69 Z1.2 F2400.0 E2541.164
G1 X-1.74 Y15.96 Z1.2 F2400.0 E2541.642
G1 X-2.03 Y15.66 Z1.2 F2400.0 E2542.166
G1 X-2.29 Y15.92 Z1.2 F2400.0 E2542.619
G1 X-2.52 Y15.55 Z1.2 F2400.0 E2543.156
G1 X-2.8 Y15.83 Z1.2 F2400.0 E2543.644
G1 X-3.01 Y15.45 Z1.2 F2400.0 E2544.189
G1 X-3.28 Y15.72 Z1.2 F2400.0 E2544.66
G1 X-3.5 Y15.34 Z1.2 F2400.0 E2545.2
G1 X-3.75 Y15.6 Z1.2 F2400.0 E2545.653
G1 X-3.98 Y15.24 Z1.2 F2400.0 E2546.19
G1 X-4.23 Y15.49 Z1.2 F2400.0 E2546.625
G1 X-4.47 Y15.13 Z1.2 F2400.0 E2547.158
G1 X-4.71 Y15.37 Z1.2 F2400.0 E2547.577
G1 X-4.91 Y14.98 Z1.2 F2400.0 E2548.125
G1 X-5.16 Y15.23 Z1.2 F2400.0 E2548.56
G1 X-5.34 Y14.82 Z1.2 F2400.0 E2549.124
G1 X-5.58 Y15.06 Z1.2 F2400.0 E2549.551
G1 X-5.76 Y14.65 Z1.2 F2400.0 E2550.113
G1 X-6.0 Y14.88 Z1.2 F2400.0 E2550.534
G1 X-6.18 Y14.48 Z1.2 F2400.0 E2551.095
G1 X-6.42 Y14.71 Z1.2 F2400.0 E2551.509
G1 X-6.6 Y14.31 Z1.2 F2400.0 E2552.066
G1 X-6.84 Y14.54 Z1.2 F2400.0 E2552.475
G1 X-7.03 Y14.14 Z1.2 F2400.0 E2553.03
G1 X-7.25 Y14.36 Z1.2 F2400.0 E2553.431
G1 X-7.63 Y14.14 Z1.2 F2400.0 E2553.971
G1 X-7.41 Y13.92 Z1.2 F2400.0 E2554.365
G1 X-7.77 Y13.7 Z1.2 F2400.0 E2554.903
G1 X-8.0 Y13.92 Z1.2 F2400.0 E2555.299
G1 X-8.36 Y13.69 Z1.2 F2400.0 E2555.838
G1 X-8.14 Y13.47 Z1.2 F2400.0 E2556.235
G1 X-8.5 Y13.24 Z1.2 F2400.0 E2556.773
G1 X-8.73 Y13.47 Z1.2 F2400.0 E2557.173
G1 X-9.1 Y13.24 Z1.2 F2400.0 E2557.711
G1 X-8.87 Y13.02 Z1.2 F2400.0 E2558.111
G1 X-9.24 Y12.79 Z1.2 F2400.0 E2558.649
G1 X-9.46 Y13.02 Z1.2 F2400.0 E2559.05
G1 X-9.78 Y12.75 Z1.2 F2400.0 E2559.575
G1 X-9.57 Y12.54 Z1.2 F2400.0 E2559.945
G1 X-9.89 Y12.26 Z1.2 F2400.0 E2560.47
G1 X-10.1 Y12.47 Z1.2 F2400.0 E2560.848
G1 X-10.42 Y12.2 Z1.2 F2400.0 E2561.373
G1 X-10.2 Y11.98 Z1.2 F2400.0 E2561.759
G1 X-10.52 Y11.7 Z1.2 F2400.0 E2562.283
G1 X-10.74 Y11.93 Z1.2 F2400.0 E2562.678
G1 X-11.06 Y11.65 Z1.2 F2400.0 E2563.203
G1 X-10.83 Y11.43 Z1.2 F2400.0 E2563.605
G1 X-11.15 Y11.15 Z1.2 F2400.0 E2564.13
G1 X-11.38 Y11.38 Z1.2 F2400.0 E2564.541
G1 X-11.65 Y11.06 Z1.2 F2400.0 E2565.067
G1 X-11.45 Y10.86 Z1.2 F2400.0 E2565.42
G1 X-11.72 Y10.53 Z1.2 F2400.0 E2565.947
G1 X-11.93 Y10.74 Z1.2 F2400.0 E2566.315
G1 X-12.2 Y10.42 Z1.2 F2400.0 E2566.841
G1 X-11.98 Y10.21 Z1.2 F2400.0 E2567.221
G1 X-12.25 Y9.88 Z1.2 F2400.0 E2567.748
G1 X-12.47 Y10.1 Z1.2 F2400.0 E2568.144
G1 X-12.75 Y9.78 Z1.2 F2400.0 E2568.67
G1 X-12.51 Y9.55 Z1.2 F2400.0 E2569.081
G1 X-12.78 Y9.22 Z1.2 F2400.0 E2569.608
G1 X-13.02 Y9.46 Z1.2 F2400.0 E2570.034
G1 X-13.24 Y9.1 Z1.2 F2400.0 E2570.573
G1 X-13.04 Y8.9 Z1.2 F2400.0 E2570.93
G1 X-13.26 Y8.52 Z1.2 F2400.0 E2571.471
G1 X-13.47 Y8.73 Z1.2 F2400.0 E2571.835
G1 X-13.69 Y8.36 Z1.2 F2400.0 E2572.375
G1 X-13.48 Y8.14 Z1.2 F2400.0 E2572.761
G1 X-13.69 Y7.76 Z1.2 F2400.0 E2573.306
G1 X-13.92 Y8.0 Z1.2 F2400.0 E2573.715
G1 X-14.14 Y7.63 Z1.2 F2400.0 E2574.255
G1 X-13.9 Y7.38 Z1.2 F2400.0 E2574.686
G1 X-14.11 Y7.0 Z1.2 F2400.0 E2575.231
G1 X-14.36 Y7.25 Z1.2 F2400.0 E2575.674
G1 X-14.54 Y6.84 Z1.2 F2400.0 E2576.242
G1 X-14.32 Y6.62 Z1.2 F2400.0 E2576.617
G1 X-14.71 Y6.42 Z1.2 F2400.0 E2577.164
G1 X-14.5 Y6.2 Z1.2 F2400.0 E2577.539
G1 X-14.88 Y6.0 Z1.2 F2400.0 E2578.087
G1 X-14.65 Y5.77 Z1.2 F2400.0 E2578.496
G1 X-15.06 Y5.58 Z1.2 F2400.0 E2579.053
G1 X-14.81 Y5.33 Z1.2 F2400.0 E2579.495
G1 X-15.23 Y5.16 Z1.2 F2400.0 E2580.066
G1 X-14.96 Y4.89 Z1.2 F2400.0 E2580.542
G1 X-15.37 Y4.71 Z1.2 F2400.0 E2581.103
G1 X-15.12 Y4.45 Z1.2 F2400.0 E2581.555
G1 X-15.49 Y4.23 Z1.2 F2400.0 E2582.094
G1 X-15.27 Y4.01 Z1.2 F2400.0 E2582.474
G1 X-15.6 Y3.75 Z1.2 F2400.0 E2583.002
G1 X-15.36 Y3.52 Z1.2 F2400.0 E2583.421
G1 X-15.72 Y3.28 Z1.2 F2400.0 E2583.954
G1 X-15.45 Y3.01 Z1.2 F2400.0 E2584.425
G1 X-15.83 Y2.8 Z1.2 F2400.0 E2584.97
G1 X-15.54 Y2.5 Z1.2 F2400.0 E2585.49
G1 X-15.92 Y2.29 Z1.2 F2400.0 E2586.034
G1 X-15.62 Y2.0 Z1.2 F2400.0 E2586.551
G1 X-15.96 Y1.74 Z1.2 F2400.0 E2587.08
G1 X-15.71 Y1.49 Z1.2 F2400.0 E2587.519
G1 X-16.0 Y1.19 Z1.2 F2400.0 E2588.044
G1 X-15.74 Y0.93 Z1.2 F2400.0 E2588.514
G1 X-16.04 Y0.64 Z1.2 F2400.0 E2589.039
G1 X-15.74 Y0.33 Z1.2 F2400.0 E2589.585
G1 X-16.09 Y0.09 Z1.2 F2400.0 E2590.118
G1 X-15.74 Y-0.26 Z1.2 F2400.0 E2590.741
G1 X-16.05 Y-0.53 Z1.2 F2400.0 E2591.266
G1 X-15.74 Y-0.85 Z1.2 F2400.0 E2591.827
G1 X-16.0 Y-1.18 Z1.2 F2400.0 E2592.354
G1 X-15.71 Y-1.47 Z1.2 F2400.0 E2592.864
G1 X-15.95 Y-1.82 Z1.2 F2400.0 E2593.398
G1 X-15.59 Y-2.18 Z1.2 F2400.0 E2594.035
G1 X-15.9 Y-2.46 Z1.2 F2400.0 E2594.56
G1 X-15.47 Y-2.9 Z1.2 F2400.0 E2595.324
G1 X-15.73 Y-3.23 Z1.2 F2400.0 E2595.852
G1 X-15.35 Y-3.61 Z1.2 F2400.0 E2596.523
G1 X-15.54 Y-4.01 Z1.2 F2400.0 E2597.079
G1 X-15.13 Y-4.42 Z1.2 F2400.0 E2597.806
G1 X-15.35 Y-4.79 Z1.2 F2400.0 E2598.345
G1 X-14.8 Y-5.34 Z1.2 F2400.0 E2599.315
G1 X-14.99 Y-5.75 Z1.2 F2400.0 E2599.875
G1 X-14.48 Y-6.26 Z1.2 F2400.0 E2600.773
G1 X-14.57 Y-6.76 Z1.2 F2400.0 E2601.413
G1 X-13.85 Y-7.48 Z1.2 F2400.0 E2602.689
G1 X-13.91 Y-8.01 Z1.2 F2400.0 E2603.353
G1 X-13.1 Y-8.82 Z1.2 F2400.0 E2604.793
G1 X-12.85 Y-9.66 Z1.2 F2400.0 E2605.887
G1 X-9.66 Y-12.85 Z1.2 F2400.0 E2611.532
G1 X-8.95 Y-12.97 Z1.2 F2400.0 E2612.434
G1 X-8.01 Y-13.91 Z1.2 F2400.0 E2614.1
G1 X-7.41 Y-13.92 Z1.2 F2400.0 E2614.852
G1 X-6.76 Y-14.57 Z1.2 F2400.0 E2615.996
G1 X-6.31 Y-14.42 Z1.2 F2400.0 E2616.586
G1 X-5.75 Y-14.99 Z1.2 F2400.0 E2617.581
G1 X-5.32 Y-14.82 Z1.2 F2400.0 E2618.154
G1 X-4.79 Y-15.35 Z1.2 F2400.0 E2619.091
G1 X-4.4 Y-15.15 Z1.2 F2400.0 E2619.641
G1 X-4.01 Y-15.54 Z1.2 F2400.0 E2620.329
G1 X-3.64 Y-15.31 Z1.2 F2400.0 E2620.868
G1 X-3.23 Y-15.73 Z1.2 F2400.0 E2621.599
G1 X-2.89 Y-15.48 Z1.2 F2400.0 E2622.129
G1 X-2.46 Y-15.9 Z1.2 F2400.0 E2622.883
G1 X-2.13 Y-15.64 Z1.2 F2400.0 E2623.41
G1 X-1.82 Y-15.95 Z1.2 F2400.0 E2623.966
G1 X-1.49 Y-15.69 Z1.2 F2400.0 E2624.493
G1 X-1.18 Y-16.0 Z1.2 F2400.0 E2625.05
G1 X-0.87 Y-15.71 Z1.2 F2400.0 E2625.574
G1 X-0.53 Y-16.05 Z1.2 F2400.0 E2626.174
G1 X-0.26 Y-15.74 Z1.2 F2400.0 E2626.699
G1 X0.09 Y-16.09 Z1.2 F2400.0 E2627.315
G1 X0.36 Y-15.77 Z1.2 F2400.0 E2627.84
G1 X0.64 Y-16.04 Z1.2 F2400.0 E2628.334
G1 X0.94 Y-15.74 Z1.2 F2400.0 E2628.858
G1 X1.19 Y-16.0 Z1.2 F2400.0 E2629.312
G1 X1.46 Y-15.68 Z1.2 F2400.0 E2629.839
G1 X1.74 Y-15.96 Z1.2 F2400.0 E2630.335
G1 X1.99 Y-15.61 Z1.2 F2400.0 E2630.868
G1 X2.29 Y-15.92 Z1.2 F2400.0 E2631.407
G1 X2.51 Y-15.54 Z1.2 F2400.0 E2631.948
G1 X2.8 Y-15.83 Z1.2 F2400.0 E2632.456
G1 X3.04 Y-15.48 Z1.2 F2400.0 E2632.99
G1 X3.28 Y-15.72 Z1.2 F2400.0 E2633.415
G1 X3.53 Y-15.38 Z1.2 F2400.0 E2633.945
G1 X3.75 Y-15.6 Z1.2 F2400.0 E2634.34
G1 X3.98 Y-15.24 Z1.2 F2400.0 E2634.878
G1 X4.23 Y-15.49 Z1.2 F2400.0 E2635.317
G1 X4.44 Y-15.1 Z1.2 F2400.0 E2635.864
G1 X4.71 Y-15.37 Z1.2 F2400.0 E2636.345
G1 X4.89 Y-14.96 Z1.2 F2400.0 E2636.907
G1 X5.16 Y-15.23 Z1.2 F2400.0 E2637.385
G1 X5.34 Y-14.82 Z1.2 F2400.0 E2637.946
G1 X5.58 Y-15.06 Z1.2 F2400.0 E2638.362
G1 X5.8 Y-14.68 Z1.2 F2400.0 E2638.903
G1 X6.0 Y-14.88 Z1.2 F2400.0 E2639.259
G1 X6.2 Y-14.5 Z1.2 F2400.0 E2639.807
G1 X6.42 Y-14.71 Z1.2 F2400.0 E2640.184
G1 X6.6 Y-14.3 Z1.2 F2400.0 E2640.747
G1 X6.84 Y-14.54 Z1.2 F2400.0 E2641.17
G1 X7.25 Y-14.36 Z1.2 F2400.0 E2641.737
G1 X6.99 Y-14.1 Z1.2 F2400.0 E2642.203
G1 X7.38 Y-13.9 Z1.2 F2400.0 E2642.756
G1 X7.63 Y-14.14 Z1.2 F2400.0 E2643.186
G1 X8.0 Y-13.92 Z1.2 F2400.0 E2643.726
G1 X7.78 Y-13.7 Z1.2 F2400.0 E2644.11
G1 X8.17 Y-13.5 Z1.2 F2400.0 E2644.662
G1 X8.36 Y-13.69 Z1.2 F2400.0 E2644.999
G1 X8.73 Y-13.47 Z1.2 F2400.0 E2645.539
G1 X8.53 Y-13.27 Z1.2 F2400.0 E2645.898
G1 X8.87 Y-13.01 Z1.2 F2400.0 E2646.427
G1 X9.1 Y-13.24 Z1.2 F2400.0 E2646.834
G1 X9.46 Y-13.02 Z1.2 F2400.0 E2647.373
G1 X9.21 Y-12.76 Z1.2 F2400.0 E2647.826
G1 X9.55 Y-12.51 Z1.2 F2400.0 E2648.356
G1 X9.78 Y-12.75 Z1.2 F2400.0 E2648.771
G1 X10.1 Y-12.47 Z1.2 F2400.0 E2649.298
G1 X9.89 Y-12.26 Z1.2 F2400.0 E2649.676
G1 X10.23 Y-12.01 Z1.2 F2400.0 E2650.206
G1 X10.42 Y-12.2 Z1.2 F2400.0 E2650.547
G1 X10.74 Y-11.93 Z1.2 F2400.0 E2651.073
G1 X10.55 Y-11.73 Z1.2 F2400.0 E2651.414
G1 X10.84 Y-11.43 Z1.2 F2400.0 E2651.938
G1 X11.06 Y-11.65 Z1.2 F2400.0 E2652.331
G1 X11.38 Y-11.38 Z1.2 F2400.0 E2652.857
G1 X11.13 Y-11.13 Z1.2 F2400.0 E2653.303
G1 X11.42 Y-10.83 Z1.2 F2400.0 E2653.826
G1 X11.65 Y-11.06 Z1.2 F2400.0 E2654.241
G1 X11.93 Y-10.74 Z1.2 F2400.0 E2654.766
G1 X11.71 Y-10.53 Z1.2 F2400.0 E2655.151
G1 X12.0 Y-10.22 Z1.2 F2400.0 E2655.676
G1 X12.2 Y-10.42 Z1.2 F2400.0 E2656.03
G1 X12.47 Y-10.1 Z1.2 F2400.0 E2656.555
G1 X12.29 Y-9.92 Z1.2 F2400.0 E2656.879
G1 X12.53 Y-9.57 Z1.2 F2400.0 E2657.413
G1 X12.75 Y-9.78 Z1.2 F2400.0 E2657.797
G1 X13.02 Y-9.46 Z1.2 F2400.0 E2658.322
G1 X12.77 Y-9.21 Z1.2 F2400.0 E2658.766
G1 X13.01 Y-8.86 Z1.2 F2400.0 E2659.301
G1 X13.24 Y-9.1 Z1.2 F2400.0 E2659.722
G1 X13.47 Y-8.73 Z1.2 F2400.0 E2660.26
G1 X13.25 Y-8.51 Z1.2 F2400.0 E2660.657
G1 X13.48 Y-8.15 Z1.2 F2400.0 E2661.19
G1 X13.69 Y-8.36 Z1.2 F2400.0 E2661.563
G1 X13.92 Y-8.0 Z1.2 F2400.0 E2662.101
G1 X13.72 Y-7.8 Z1.2 F2400.0 E2662.45
G1 X13.92 Y-7.41 Z1.2 F2400.0 E2663.001
G1 X14.14 Y-7.63 Z1.2 F2400.0 E2663.394
G1 X14.36 Y-7.25 Z1.2 F2400.0 E2663.935
G1 X14.11 Y-7.0 Z1.2 F2400.0 E2664.388
G1 X14.29 Y-6.59 Z1.2 F2400.0 E2664.948
G1 X14.54 Y-6.84 Z1.2 F2400.0 E2665.384
G1 X14.71 Y-6.42 Z1.2 F2400.0 E2665.951
G1 X14.48 Y-6.18 Z1.2 F2400.0 E2666.366
G1 X14.66 Y-5.77 Z1.2 F2400.0 E2666.925
G1 X14.88 Y-6.0 Z1.2 F2400.0 E2667.322
G1 X15.06 Y-5.58 Z1.2 F2400.0 E2667.889
G1 X14.84 Y-5.37 Z1.2 F2400.0 E2668.265
G1 X15.23 Y-5.16 Z1.2 F2400.0 E2668.812
G1 X14.98 Y-4.91 Z1.2 F2400.0 E2669.251
G1 X15.37 Y-4.71 Z1.2 F2400.0 E2669.8
G1 X15.1 Y-4.44 Z1.2 F2400.0 E2670.272
G1 X15.49 Y-4.23 Z1.2 F2400.0 E2670.817
G1 X15.23 Y-3.97 Z1.2 F2400.0 E2671.274
G1 X15.6 Y-3.75 Z1.2 F2400.0 E2671.815
G1 X15.35 Y-3.5 Z1.2 F2400.0 E2672.259
G1 X15.72 Y-3.28 Z1.2 F2400.0 E2672.798
G1 X15.47 Y-3.03 Z1.2 F2400.0 E2673.229
G1 X15.83 Y-2.8 Z1.2 F2400.0 E2673.765
G1 X15.58 Y-2.54 Z1.2 F2400.0 E2674.214
G1 X15.92 Y-2.29 Z1.2 F2400.0 E2674.744
G1 X15.62 Y-2.0 Z1.2 F2400.0 E2675.26
G1 X15.96 Y-1.74 Z1.2 F2400.0 E2675.789
G1 X15.67 Y-1.45 Z1.2 F2400.0 E2676.3
G1 X16.0 Y-1.19 Z1.2 F2400.0 E2676.828
G1 X15.72 Y-0.91 Z1.2 F2400.0 E2677.332
G1 X16.04 Y-0.64 Z1.2 F2400.0 E2677.859
G1 X15.76 Y-0.36 Z1.2 F2400.0 E2678.358
G1 X16.09 Y-0.09 Z1.2 F2400.0 E2678.884
G1 X15.77 Y0.22 Z1.2 F2400.0 E2679.438
G1 X16.05 Y0.53 Z1.2 F2400.0 E2679.963
G1 X15.72 Y0.87 Z1.2 F2400.0 E2680.553
G1 X16.0 Y1.18 Z1.2 F2400.0 E2681.077
G1 X15.66 Y1.52 Z1.2 F2400.0 E2681.675
G1 X15.95 Y1.82 Z1.2 F2400.0 E2682.199
G1 X15.61 Y2.16 Z1.2 F2400.0 E2682.805
G1 X15.9 Y2.46 Z1.2 F2400.0 E2683.328
G1 X15.52 Y2.84 Z1.2 F2400.0 E2684.002
G1 X15.73 Y3.23 Z1.2 F2400.0 E2684.55
G1 X15.31 Y3.65 Z1.2 F2400.0 E2685.282
G1 X15.54 Y4.01 Z1.2 F2400.0 E2685.82
G1 X15.1 Y4.45 Z1.2 F2400.0 E2686.589
G1 X15.35 Y4.79 Z1.2 F2400.0 E2687.12
G1 X14.89 Y5.25 Z1.2 F2400.0 E2687.929
G1 X14.99 Y5.75 Z1.2 F2400.0 E2688.565
G1 X14.41 Y6.32 Z1.2 F2400.0 E2689.583
G1 X14.57 Y6.76 Z1.2 F2400.0 E2690.162
G1 X13.92 Y7.4 Z1.2 F2400.0 E2691.302
G1 X13.91 Y8.01 Z1.2 F2400.0 E2692.058
G1 X12.89 Y9.02 Z1.2 F2400.0 E2693.857
;M103
G1 X12.59 Y8.84 Z1.2 F3600.0
;M101
G1 X12.6 Y8.82 Z1.2 F2400.0 E2693.886
G1 X13.48 Y7.53 Z1.2 F2400.0 E2695.845
G1 X14.55 Y5.14 Z1.2 F2400.0 E2699.12
G1 X15.21 Y2.61 Z1.2 F2400.0 E2702.395
G1 X15.44 Y0.0 Z1.2 F2400.0 E2705.67
G1 X15.21 Y-2.61 Z1.2 F2400.0 E2708.946
G1 X14.55 Y-5.14 Z1.2 F2400.0 E2712.221
G1 X13.48 Y-7.53 Z1.2 F2400.0 E2715.496
G1 X12.01 Y-9.7 Z1.2 F2400.0 E2718.771
G1 X10.2 Y-11.59 Z1.2 F2400.0 E2722.046
G1 X8.09 Y-13.14 Z1.2 F2400.0 E2725.322
G1 X5.76 Y-14.32 Z1.2 F2400.0 E2728.597
G1 X3.25 Y-15.09 Z1.2 F2400.0 E2731.872
G1 X0.66 Y-15.42 Z1.2 F2400.0 E2735.147
G1 X-1.96 Y-15.31 Z1.2 F2400.0 E2738.421
G1 X-4.52 Y-14.76 Z1.2 F2400.0 E2741.698
G1 X-6.95 Y-13.78 Z1.2 F2400.0 E2744.972
G1 X-9.18 Y-12.41 Z1.2 F2400.0 E2748.247
G1 X-11.14 Y-10.68 Z1.2 F2400.0 E2751.523
G1 X-12.79 Y-8.64 Z1.2 F2400.0 E2754.799
G1 X-14.07 Y-6.36 Z1.2 F2400.0 E2758.073
G1 X-14.94 Y-3.89 Z1.2 F2400.0 E2761.349
G1 X-15.38 Y-1.31 Z1.2 F2400.0 E2764.623
G1 X-15.38 Y1.31 Z1.2 F2400.0 E2767.898
G1 X-14.94 Y3.89 Z1.2 F2400.0 E2771.173
G1 X-14.07 Y6.36 Z1.2 F2400.0 E2774.449
G1 X-12.79 Y8.64 Z1.2 F2400.0 E2777.723
G1 X-11.14 Y10.68 Z1.2 F2400.0 E2780.999
G1 X-9.18 Y12.41 Z1.2 F2400.0 E2784.274
G1 X-6.95 Y13.78 Z1.2 F2400.0 E2787.549
G1 X-4.52 Y14.76 Z1.2 F2400.0 E2790.824
G1 X-1.96 Y15.31 Z1.2 F2400.0 E2794.1
G1 X0.66 Y15.42 Z1.2 F2400.0 E2797.374
G1 X3.25 Y15.09 Z1.2 F2400.0 E2800.65
G1 X5.76 Y14.32 Z1.2 F2400.0 E2803.925
G1 X8.09 Y13.14 Z1.2 F2400.0 E2807.2
G1 X10.2 Y11.59 Z1.2 F2400.0 E2810.475
G1 X12.01 Y9.7 Z1.2 F2400.0 E2813.751
G1 X12.59 Y8.84 Z1.2 F2400.0 E2815.038
;M103
G1 X13.49 Y9.37 Z1.2 F3600.0
;M101
G1 X13.31 Y9.67 Z1.2 F2400.0 E2815.477
G1 X11.63 Y11.63 Z1.2 F2400.0 E2818.706
G1 X9.67 Y13.31 Z1.2 F2400.0 E2821.935
G1 X7.47 Y14.66 Z1.2 F2400.0 E2825.164
G1 X5.08 Y15.65 Z1.2 F2400.0 E2828.394
G1 X2.57 Y16.25 Z1.2 F2400.0 E2831.624
G1 X0.0 Y16.45 Z1.2 F2400.0 E2834.853
G1 X-2.57 Y16.25 Z1.2 F2400.0 E2838.082
G1 X-5.08 Y15.65 Z1.2 F2400.0 E2841.313
G1 X-7.47 Y14.66 Z1.2 F2400.0 E2844.542
G1 X-9.67 Y13.31 Z1.2 F2400.0 E2847.772
G1 X-11.63 Y11.63 Z1.2 F2400.0 E2851.001
G1 X-13.31 Y9.67 Z1.2 F2400.0 E2854.23
G1 X-14.66 Y7.47 Z1.2 F2400.0 E2857.46
G1 X-15.65 Y5.08 Z1.2 F2400.0 E2860.689
G1 X-16.25 Y2.57 Z1.2 F2400.0 E2863.92
G1 X-16.45 Y0.0 Z1.2 F2400.0 E2867.149
G1 X-16.25 Y-2.57 Z1.2 F2400.0 E2870.377
G1 X-15.65 Y-5.08 Z1.2 F2400.0 E2873.608
G1 X-14.66 Y-7.47 Z1.2 F2400.0 E2876.838
G1 X-13.31 Y-9.67 Z1.2 F2400.0 E2880.067
G1 X-11.63 Y-11.63 Z1.2 F2400.0 E2883.296
G1 X-9.67 Y-13.31 Z1.2 F2400.0 E2886.525
G1 X-7.47 Y-14.66 Z1.2 F2400.0 E2889.755
G1 X-5.08 Y-15.65 Z1.2 F2400.0 E2892.985
G1 X-2.57 Y-16.25 Z1.2 F2400.0 E2896.215
G1 X0.0 Y-16.45 Z1.2 F2400.0 E2899.444
G1 X2.57 Y-16.25 Z1.2 F2400.0 E2902.673
G1 X5.08 Y-15.65 Z1.2 F2400.0 E2905.903
G1 X7.47 Y-14.66 Z1.2 F2400.0 E2909.133
G1 X9.67 Y-13.31 Z1.2 F2400.0 E2912.363
G1 X11.63 Y-11.63 Z1.2 F2400.0 E2915.592
G1 X13.31 Y-9.67 Z1.2 F2400.0 E2918.821
G1 X14.66 Y-7.47 Z1.2 F2400.0 E2922.05
G1 X15.65 Y-5.08 Z1.2 F2400.0 E2925.28
G1 X16.25 Y-2.57 Z1.2 F2400.0 E2928.511
G1 X16.45 Y0.0 Z1.2 F2400.0 E2931.739
G1 X16.25 Y2.57 Z1.2 F2400.0 E2934.968
G1 X15.65 Y5.08 Z1.2 F2400.0 E2938.199
G1 X14.66 Y7.47 Z1.2 F2400.0 E2941.428
G1 X13.49 Y9.37 Z1.2 F2400.0 E2944.22
;M103
;M108 S37.53
G1 X13.85 Y9.59 Z1.2 F3600.0
;M101
G1 X13.65 Y9.92 Z1.2 F1800.0 E2944.698
G1 X11.93 Y11.93 Z1.2 F1800.0 E2948.01
G1 X9.92 Y13.65 Z1.2 F1800.0 E2951.323
G1 X7.66 Y15.03 Z1.2 F1800.0 E2954.634
G1 X5.21 Y16.05 Z1.2 F1800.0 E2957.946
G1 X2.64 Y16.66 Z1.2 F1800.0 E2961.259
G1 X0.0 Y16.87 Z1.2 F1800.0 E2964.571
G1 X-2.64 Y16.66 Z1.2 F1800.0 E2967.882
G1 X-5.21 Y16.05 Z1.2 F1800.0 E2971.195
G1 X-7.66 Y15.03 Z1.2 F1800.0 E2974.507
G1 X-9.92 Y13.65 Z1.2 F1800.0 E2977.818
G1 X-11.93 Y11.93 Z1.2 F1800.0 E2981.131
G1 X-13.65 Y9.92 Z1.2 F1800.0 E2984.443
G1 X-15.03 Y7.66 Z1.2 F1800.0 E2987.754
G1 X-16.05 Y5.21 Z1.2 F1800.0 E2991.066
G1 X-16.66 Y2.64 Z1.2 F1800.0 E2994.379
G1 X-16.87 Y0.0 Z1.2 F1800.0 E2997.691
G1 X-16.66 Y-2.64 Z1.2 F1800.0 E3001.003
G1 X-16.05 Y-5.21 Z1.2 F1800.0 E3004.315
G1 X-15.03 Y-7.66 Z1.2 F1800.0 E3007.627
G1 X-13.65 Y-9.92 Z1.2 F1800.0 E3010.939
G1 X-11.93 Y-11.93 Z1.2 F1800.0 E3014.251
G1 X-9.92 Y-13.65 Z1.2 F1800.0 E3017.563
G1 X-7.66 Y-15.03 Z1.2 F1800.0 E3020.875
G1 X-5.21 Y-16.05 Z1.2 F1800.0 E3024.187
G1 X-2.64 Y-16.66 Z1.2 F1800.0 E3027.5
G1 X0.0 Y-16.87 Z1.2 F1800.0 E3030.811
G1 X2.64 Y-16.66 Z1.2 F1800.0 E3034.123
G1 X5.21 Y-16.05 Z1.2 F1800.0 E3037.436
G1 X7.66 Y-15.03 Z1.2 F1800.0 E3040.748
G1 X9.92 Y-13.65 Z1.2 F1800.0 E3044.059
G1 X11.93 Y-11.93 Z1.2 F1800.0 E3047.371
G1 X13.65 Y-9.92 Z1.2 F1800.0 E3050.684
G1 X15.03 Y-7.66 Z1.2 F1800.0 E3053.995
G1 X16.05 Y-5.21 Z1.2 F1800.0 E3057.307
G1 X16.66 Y-2.64 Z1.2 F1800.0 E3060.62
G1 X16.87 Y0.0 Z1.2 F1800.0 E3063.932
G1 X16.66 Y2.64 Z1.2 F1800.0 E3067.243
G1 X16.05 Y5.21 Z1.2 F1800.0 E3070.556
G1 X15.03 Y7.66 Z1.2 F1800.0 E3073.868
G1 X13.85 Y9.59 Z1.2 F1800.0 E3076.701
;M103
G1 X12.29 Y8.54 Z1.2 F3600.0
;M101
G1 X13.11 Y7.32 Z1.2 F1800.0 E3078.533
G1 X14.16 Y5.0 Z1.2 F1800.0 E3081.718
G1 X14.8 Y2.54 Z1.2 F1800.0 E3084.904
G1 X15.02 Y0.0 Z1.2 F1800.0 E3088.09
G1 X14.8 Y-2.54 Z1.2 F1800.0 E3091.277
G1 X14.16 Y-5.0 Z1.2 F1800.0 E3094.462
G1 X13.11 Y-7.32 Z1.2 F1800.0 E3097.648
G1 X11.68 Y-9.43 Z1.2 F1800.0 E3100.834
G1 X9.92 Y-11.27 Z1.2 F1800.0 E3104.02
G1 X7.87 Y-12.79 Z1.2 F1800.0 E3107.207
G1 X5.6 Y-13.93 Z1.2 F1800.0 E3110.393
G1 X3.16 Y-14.68 Z1.2 F1800.0 E3113.578
G1 X0.64 Y-15.0 Z1.2 F1800.0 E3116.764
G1 X-1.91 Y-14.89 Z1.2 F1800.0 E3119.95
G1 X-4.4 Y-14.36 Z1.2 F1800.0 E3123.136
G1 X-6.76 Y-13.41 Z1.2 F1800.0 E3126.322
G1 X-8.93 Y-12.07 Z1.2 F1800.0 E3129.508
G1 X-10.84 Y-10.39 Z1.2 F1800.0 E3132.694
G1 X-12.44 Y-8.41 Z1.2 F1800.0 E3135.88
G1 X-13.68 Y-6.19 Z1.2 F1800.0 E3139.065
G1 X-14.53 Y-3.78 Z1.2 F1800.0 E3142.252
G1 X-14.96 Y-1.27 Z1.2 F1800.0 E3145.437
G1 X-14.96 Y1.27 Z1.2 F1800.0 E3148.624
G1 X-14.53 Y3.78 Z1.2 F1800.0 E3151.809
G1 X-13.68 Y6.19 Z1.2 F1800.0 E3154.996
G1 X-12.44 Y8.41 Z1.2 F1800.0 E3158.181
G1 X-10.84 Y10.39 Z1.2 F1800.0 E3161.367
G1 X-8.93 Y12.07 Z1.2 F1800.0 E3164.553
G1 X-6.76 Y13.41 Z1.2 F1800.0 E3167.739
G1 X-4.4 Y14.36 Z1.2 F1800.0 E3170.925
G1 X-1.91 Y14.89 Z1.2 F1800.0 E3174.111
G1 X0.64 Y15.0 Z1.2 F1800.0 E3177.297
G1 X3.16 Y14.68 Z1.2 F1800.0 E3180.482
G1 X5.6 Y13.93 Z1.2 F1800.0 E3183.668
G1 X7.87 Y12.79 Z1.2 F1800.0 E3186.854
G1 X9.92 Y11.27 Z1.2 F1800.0 E3190.04
G1 X11.68 Y9.43 Z1.2 F1800.0 E3193.227
G1 X12.29 Y8.54 Z1.2 F1800.0 E3194.581
;M103
;M108 S50.04
G1 X13.18 Y7.36 Z1.5 F3600.0
G1 X14.24 Y5.03 Z1.5 F3600.0
G1 X14.88 Y2.55 Z1.5 F3600.0
G1 X15.1 Y0.0 Z1.5 F3600.0
G1 X14.88 Y-2.55 Z1.5 F3600.0
G1 X14.24 Y-5.03 Z1.5 F3600.0
G1 X13.18 Y-7.36 Z1.5 F3600.0
G1 X9.66 Y-12.85 Z1.5 F3600.0
;M101
G1 X12.85 Y-9.66 Z1.5 F2400.0 E3200.227
G1 X12.89 Y-9.02 Z1.5 F2400.0 E3201.024
G1 X13.91 Y-8.01 Z1.5 F2400.0 E3202.824
G1 X13.92 Y-7.4 Z1.5 F2400.0 E3203.579
G1 X14.57 Y-6.76 Z1.5 F2400.0 E3204.72
G1 X14.41 Y-6.32 Z1.5 F2400.0 E3205.299
G1 X14.99 Y-5.75 Z1.5 F2400.0 E3206.317
G1 X14.89 Y-5.25 Z1.5 F2400.0 E3206.953
G1 X15.35 Y-4.79 Z1.5 F2400.0 E3207.761
G1 X15.1 Y-4.45 Z1.5 F2400.0 E3208.292
G1 X15.54 Y-4.01 Z1.5 F2400.0 E3209.062
G1 X15.31 Y-3.65 Z1.5 F2400.0 E3209.6
G1 X15.73 Y-3.23 Z1.5 F2400.0 E3210.331
G1 X15.52 Y-2.84 Z1.5 F2400.0 E3210.879
G1 X15.9 Y-2.46 Z1.5 F2400.0 E3211.553
G1 X15.61 Y-2.16 Z1.5 F2400.0 E3212.077
G1 X15.95 Y-1.82 Z1.5 F2400.0 E3212.683
G1 X15.66 Y-1.52 Z1.5 F2400.0 E3213.207
G1 X16.0 Y-1.18 Z1.5 F2400.0 E3213.805
G1 X15.72 Y-0.87 Z1.5 F2400.0 E3214.329
G1 X16.05 Y-0.53 Z1.5 F2400.0 E3214.919
G1 X15.77 Y-0.22 Z1.5 F2400.0 E3215.444
G1 X16.09 Y0.09 Z1.5 F2400.0 E3215.997
G1 X15.76 Y0.36 Z1.5 F2400.0 E3216.524
G1 X16.04 Y0.64 Z1.5 F2400.0 E3217.022
G1 X15.72 Y0.91 Z1.5 F2400.0 E3217.549
G1 X16.0 Y1.19 Z1.5 F2400.0 E3218.053
G1 X15.67 Y1.45 Z1.5 F2400.0 E3218.582
G1 X15.96 Y1.74 Z1.5 F2400.0 E3219.092
G1 X15.62 Y2.0 Z1.5 F2400.0 E3219.621
G1 X15.92 Y2.29 Z1.5 F2400.0 E3220.138
G1 X15.58 Y2.54 Z1.5 F2400.0 E3220.668
G1 X15.83 Y2.8 Z1.5 F2400.0 E3221.116
G1 X15.47 Y3.03 Z1.5 F2400.0 E3221.652
G1 X15.72 Y3.28 Z1.5 F2400.0 E3222.084
G1 X15.35 Y3.5 Z1.5 F2400.0 E3222.622
G1 X15.6 Y3.75 Z1.5 F2400.0 E3223.066
G1 X15.23 Y3.97 Z1.5 F2400.0 E3223.607
G1 X15.49 Y4.23 Z1.5 F2400.0 E3224.065
G1 X15.1 Y4.44 Z1.5 F2400.0 E3224.609
G1 X15.37 Y4.71 Z1.5 F2400.0 E3225.082
G1 X14.98 Y4.91 Z1.5 F2400.0 E3225.631
G1 X15.23 Y5.16 Z1.5 F2400.0 E3226.069
G1 X14.84 Y5.37 Z1.5 F2400.0 E3226.617
G1 X15.06 Y5.58 Z1.5 F2400.0 E3226.993
G1 X14.66 Y5.77 Z1.5 F2400.0 E3227.546
G1 X14.88 Y6.0 Z1.5 F2400.0 E3227.942
G1 X14.48 Y6.18 Z1.5 F2400.0 E3228.502
G1 X14.71 Y6.42 Z1.5 F2400.0 E3228.917
G1 X14.54 Y6.84 Z1.5 F2400.0 E3229.484
G1 X14.29 Y6.59 Z1.5 F2400.0 E3229.919
G1 X14.11 Y7.0 Z1.5 F2400.0 E3230.479
G1 X14.36 Y7.25 Z1.5 F2400.0 E3230.933
G1 X14.14 Y7.63 Z1.5 F2400.0 E3231.474
G1 X13.92 Y7.41 Z1.5 F2400.0 E3231.866
G1 X13.72 Y7.8 Z1.5 F2400.0 E3232.418
G1 X13.92 Y8.0 Z1.5 F2400.0 E3232.767
G1 X13.69 Y8.36 Z1.5 F2400.0 E3233.305
G1 X13.48 Y8.15 Z1.5 F2400.0 E3233.677
G1 X13.25 Y8.51 Z1.5 F2400.0 E3234.211
G1 X13.47 Y8.73 Z1.5 F2400.0 E3234.607
G1 X13.24 Y9.1 Z1.5 F2400.0 E3235.146
G1 X13.01 Y8.86 Z1.5 F2400.0 E3235.567
G1 X12.77 Y9.21 Z1.5 F2400.0 E3236.101
G1 X13.02 Y9.46 Z1.5 F2400.0 E3236.545
G1 X12.75 Y9.78 Z1.5 F2400.0 E3237.071
G1 X12.53 Y9.57 Z1.5 F2400.0 E3237.455
G1 X12.29 Y9.92 Z1.5 F2400.0 E3237.989
G1 X12.47 Y10.1 Z1.5 F2400.0 E3238.313
G1 X12.2 Y10.42 Z1.5 F2400.0 E3238.838
G1 X12.0 Y10.22 Z1.5 F2400.0 E3239.191
G1 X11.71 Y10.53 Z1.5 F2400.0 E3239.716
G1 X11.93 Y10.74 Z1.5 F2400.0 E3240.099
G1 X11.65 Y11.06 Z1.5 F2400.0 E3240.625
G1 X11.42 Y10.83 Z1.5 F2400.0 E3241.039
G1 X11.13 Y11.13 Z1.5 F2400.0 E3241.563
G1 X11.38 Y11.38 Z1.5 F2400.0 E3242.007
G1 X11.06 Y11.65 Z1.5 F2400.0 E3242.534
G1 X10.84 Y11.43 Z1.5 F2400.0 E3242.926
G1 X10.55 Y11.74 Z1.5 F2400.0 E3243.45
G1 X10.74 Y11.93 Z1.5 F2400.0 E3243.79
G1 X10.42 Y12.2 Z1.5 F2400.0 E3244.315
G1 X10.23 Y12.01 Z1.5 F2400.0 E3244.655
G1 X9.89 Y12.26 Z1.5 F2400.0 E3245.185
G1 X10.1 Y12.47 Z1.5 F2400.0 E3245.563
G1 X9.78 Y12.75 Z1.5 F2400.0 E3246.089
G1 X9.55 Y12.51 Z1.5 F2400.0 E3246.505
G1 X9.21 Y12.76 Z1.5 F2400.0 E3247.035
G1 X9.46 Y13.02 Z1.5 F2400.0 E3247.487
G1 X9.1 Y13.24 Z1.5 F2400.0 E3248.027
G1 X8.87 Y13.01 Z1.5 F2400.0 E3248.434
G1 X8.53 Y13.27 Z1.5 F2400.0 E3248.963
G1 X8.73 Y13.47 Z1.5 F2400.0 E3249.322
G1 X8.36 Y13.69 Z1.5 F2400.0 E3249.862
G1 X8.17 Y13.5 Z1.5 F2400.0 E3250.199
G1 X7.78 Y13.7 Z1.5 F2400.0 E3250.751
G1 X8.0 Y13.92 Z1.5 F2400.0 E3251.135
G1 X7.63 Y14.14 Z1.5 F2400.0 E3251.674
G1 X7.38 Y13.9 Z1.5 F2400.0 E3252.105
G1 X6.99 Y14.1 Z1.5 F2400.0 E3252.657
G1 X7.25 Y14.36 Z1.5 F2400.0 E3253.124
G1 X6.84 Y14.54 Z1.5 F2400.0 E3253.691
G1 X6.6 Y14.3 Z1.5 F2400.0 E3254.114
G1 X6.2 Y14.5 Z1.5 F2400.0 E3254.666
G1 X6.42 Y14.71 Z1.5 F2400.0 E3255.044
G1 X6.0 Y14.88 Z1.5 F2400.0 E3255.612
G1 X5.8 Y14.68 Z1.5 F2400.0 E3255.967
G1 X5.58 Y15.06 Z1.5 F2400.0 E3256.509
G1 X5.34 Y14.82 Z1.5 F2400.0 E3256.924
G1 X5.16 Y15.23 Z1.5 F2400.0 E3257.486
G1 X4.89 Y14.96 Z1.5 F2400.0 E3257.963
G1 X4.71 Y15.37 Z1.5 F2400.0 E3258.525
G1 X4.44 Y15.1 Z1.5 F2400.0 E3259.006
G1 X4.23 Y15.49 Z1.5 F2400.0 E3259.554
G1 X3.98 Y15.24 Z1.5 F2400.0 E3259.992
G1 X3.75 Y15.6 Z1.5 F2400.0 E3260.53
G1 X3.53 Y15.38 Z1.5 F2400.0 E3260.925
G1 X3.28 Y15.72 Z1.5 F2400.0 E3261.455
G1 X3.04 Y15.48 Z1.5 F2400.0 E3261.88
G1 X2.8 Y15.83 Z1.5 F2400.0 E3262.415
G1 X2.51 Y15.54 Z1.5 F2400.0 E3262.922
G1 X2.29 Y15.92 Z1.5 F2400.0 E3263.463
G1 X1.99 Y15.61 Z1.5 F2400.0 E3264.003
G1 X1.74 Y15.96 Z1.5 F2400.0 E3264.535
G1 X1.46 Y15.68 Z1.5 F2400.0 E3265.031
G1 X1.19 Y16.0 Z1.5 F2400.0 E3265.558
G1 X0.94 Y15.74 Z1.5 F2400.0 E3266.012
G1 X0.64 Y16.04 Z1.5 F2400.0 E3266.536
G1 X0.36 Y15.77 Z1.5 F2400.0 E3267.03
G1 X0.09 Y16.09 Z1.5 F2400.0 E3267.556
G1 X-0.26 Y15.74 Z1.5 F2400.0 E3268.171
G1 X-0.53 Y16.05 Z1.5 F2400.0 E3268.696
G1 X-0.87 Y15.71 Z1.5 F2400.0 E3269.297
G1 X-1.18 Y16.0 Z1.5 F2400.0 E3269.82
G1 X-1.49 Y15.69 Z1.5 F2400.0 E3270.378
G1 X-1.82 Y15.95 Z1.5 F2400.0 E3270.904
G1 X-2.13 Y15.64 Z1.5 F2400.0 E3271.46
G1 X-2.46 Y15.9 Z1.5 F2400.0 E3271.988
G1 X-2.89 Y15.48 Z1.5 F2400.0 E3272.741
G1 X-3.23 Y15.73 Z1.5 F2400.0 E3273.271
G1 X-3.64 Y15.31 Z1.5 F2400.0 E3274.002
G1 X-4.01 Y15.54 Z1.5 F2400.0 E3274.541
G1 X-4.4 Y15.15 Z1.5 F2400.0 E3275.229
G1 X-4.79 Y15.35 Z1.5 F2400.0 E3275.779
G1 X-5.32 Y14.82 Z1.5 F2400.0 E3276.716
G1 X-5.75 Y14.99 Z1.5 F2400.0 E3277.289
G1 X-6.31 Y14.42 Z1.5 F2400.0 E3278.284
G1 X-6.76 Y14.57 Z1.5 F2400.0 E3278.874
G1 X-7.41 Y13.92 Z1.5 F2400.0 E3280.018
G1 X-8.01 Y13.91 Z1.5 F2400.0 E3280.77
G1 X-8.95 Y12.97 Z1.5 F2400.0 E3282.436
G1 X-9.66 Y12.85 Z1.5 F2400.0 E3283.338
G1 X-12.85 Y9.66 Z1.5 F2400.0 E3288.983
G1 X-13.1 Y8.82 Z1.5 F2400.0 E3290.077
G1 X-13.91 Y8.01 Z1.5 F2400.0 E3291.517
G1 X-13.85 Y7.48 Z1.5 F2400.0 E3292.182
G1 X-14.57 Y6.76 Z1.5 F2400.0 E3293.457
G1 X-14.48 Y6.26 Z1.5 F2400.0 E3294.097
G1 X-14.99 Y5.75 Z1.5 F2400.0 E3294.995
G1 X-14.8 Y5.34 Z1.5 F2400.0 E3295.556
G1 X-15.35 Y4.79 Z1.5 F2400.0 E3296.525
G1 X-15.13 Y4.42 Z1.5 F2400.0 E3297.064
G1 X-15.54 Y4.01 Z1.5 F2400.0 E3297.791
G1 X-15.35 Y3.61 Z1.5 F2400.0 E3298.347
G1 X-15.73 Y3.23 Z1.5 F2400.0 E3299.018
G1 X-15.47 Y2.9 Z1.5 F2400.0 E3299.546
G1 X-15.9 Y2.46 Z1.5 F2400.0 E3300.311
G1 X-15.59 Y2.18 Z1.5 F2400.0 E3300.836
G1 X-15.95 Y1.82 Z1.5 F2400.0 E3301.473
G1 X-15.71 Y1.47 Z1.5 F2400.0 E3302.007
G1 X-16.0 Y1.18 Z1.5 F2400.0 E3302.516
G1 X-15.74 Y0.85 Z1.5 F2400.0 E3303.043
G1 X-16.05 Y0.53 Z1.5 F2400.0 E3303.604
G1 X-15.74 Y0.26 Z1.5 F2400.0 E3304.129
G1 X-16.09 Y-0.09 Z1.5 F2400.0 E3304.752
G1 X-15.74 Y-0.33 Z1.5 F2400.0 E3305.285
G1 X-16.04 Y-0.64 Z1.5 F2400.0 E3305.831
G1 X-15.74 Y-0.93 Z1.5 F2400.0 E3306.357
G1 X-16.0 Y-1.19 Z1.5 F2400.0 E3306.826
G1 X-15.71 Y-1.49 Z1.5 F2400.0 E3307.351
G1 X-15.96 Y-1.74 Z1.5 F2400.0 E3307.79
G1 X-15.62 Y-2.0 Z1.5 F2400.0 E3308.319
G1 X-15.92 Y-2.29 Z1.5 F2400.0 E3308.836
G1 X-15.54 Y-2.5 Z1.5 F2400.0 E3309.381
G1 X-15.83 Y-2.8 Z1.5 F2400.0 E3309.9
G1 X-15.45 Y-3.01 Z1.5 F2400.0 E3310.445
G1 X-15.72 Y-3.28 Z1.5 F2400.0 E3310.916
G1 X-15.36 Y-3.52 Z1.5 F2400.0 E3311.449
G1 X-15.6 Y-3.75 Z1.5 F2400.0 E3311.868
G1 X-15.27 Y-4.01 Z1.5 F2400.0 E3312.396
G1 X-15.49 Y-4.23 Z1.5 F2400.0 E3312.776
G1 X-15.12 Y-4.45 Z1.5 F2400.0 E3313.316
G1 X-15.37 Y-4.71 Z1.5 F2400.0 E3313.767
G1 X-14.96 Y-4.89 Z1.5 F2400.0 E3314.328
G1 X-15.23 Y-5.16 Z1.5 F2400.0 E3314.804
G1 X-15.06 Y-5.58 Z1.5 F2400.0 E3315.372
G1 X-14.81 Y-5.33 Z1.5 F2400.0 E3315.814
G1 X-14.65 Y-5.77 Z1.5 F2400.0 E3316.395
G1 X-14.88 Y-6.0 Z1.5 F2400.0 E3316.803
G1 X-14.5 Y-6.2 Z1.5 F2400.0 E3317.351
G1 X-14.71 Y-6.42 Z1.5 F2400.0 E3317.726
G1 X-14.32 Y-6.62 Z1.5 F2400.0 E3318.273
G1 X-14.54 Y-6.84 Z1.5 F2400.0 E3318.648
G1 X-14.36 Y-7.25 Z1.5 F2400.0 E3319.216
G1 X-14.11 Y-7.0 Z1.5 F2400.0 E3319.659
G1 X-13.9 Y-7.38 Z1.5 F2400.0 E3320.204
G1 X-14.14 Y-7.63 Z1.5 F2400.0 E3320.635
G1 X-13.92 Y-8.0 Z1.5 F2400.0 E3321.175
G1 X-13.69 Y-7.76 Z1.5 F2400.0 E3321.584
G1 X-13.48 Y-8.14 Z1.5 F2400.0 E3322.129
G1 X-13.69 Y-8.36 Z1.5 F2400.0 E3322.515
G1 X-13.47 Y-8.73 Z1.5 F2400.0 E3323.055
G1 X-13.26 Y-8.52 Z1.5 F2400.0 E3323.419
G1 X-13.04 Y-8.9 Z1.5 F2400.0 E3323.961
G1 X-13.24 Y-9.1 Z1.5 F2400.0 E3324.317
G1 X-13.02 Y-9.46 Z1.5 F2400.0 E3324.856
G1 X-12.78 Y-9.22 Z1.5 F2400.0 E3325.282
G1 X-12.51 Y-9.55 Z1.5 F2400.0 E3325.809
G1 X-12.75 Y-9.78 Z1.5 F2400.0 E3326.22
G1 X-12.47 Y-10.1 Z1.5 F2400.0 E3326.746
G1 X-12.25 Y-9.88 Z1.5 F2400.0 E3327.142
G1 X-11.98 Y-10.21 Z1.5 F2400.0 E3327.669
G1 X-12.2 Y-10.42 Z1.5 F2400.0 E3328.049
G1 X-11.93 Y-10.74 Z1.5 F2400.0 E3328.575
G1 X-11.72 Y-10.53 Z1.5 F2400.0 E3328.943
G1 X-11.45 Y-10.86 Z1.5 F2400.0 E3329.47
G1 X-11.65 Y-11.06 Z1.5 F2400.0 E3329.823
G1 X-11.38 Y-11.38 Z1.5 F2400.0 E3330.349
G1 X-11.15 Y-11.15 Z1.5 F2400.0 E3330.76
G1 X-10.83 Y-11.43 Z1.5 F2400.0 E3331.286
G1 X-11.06 Y-11.65 Z1.5 F2400.0 E3331.687
G1 X-10.74 Y-11.93 Z1.5 F2400.0 E3332.212
G1 X-10.52 Y-11.7 Z1.5 F2400.0 E3332.607
G1 X-10.2 Y-11.98 Z1.5 F2400.0 E3333.132
G1 X-10.42 Y-12.2 Z1.5 F2400.0 E3333.517
G1 X-10.1 Y-12.47 Z1.5 F2400.0 E3334.043
G1 X-9.89 Y-12.26 Z1.5 F2400.0 E3334.42
G1 X-9.57 Y-12.54 Z1.5 F2400.0 E3334.945
G1 X-9.78 Y-12.75 Z1.5 F2400.0 E3335.315
G1 X-9.46 Y-13.02 Z1.5 F2400.0 E3335.84
G1 X-9.24 Y-12.79 Z1.5 F2400.0 E3336.241
G1 X-8.87 Y-13.02 Z1.5 F2400.0 E3336.779
G1 X-9.1 Y-13.24 Z1.5 F2400.0 E3337.179
G1 X-8.73 Y-13.47 Z1.5 F2400.0 E3337.717
G1 X-8.5 Y-13.24 Z1.5 F2400.0 E3338.117
G1 X-8.14 Y-13.47 Z1.5 F2400.0 E3338.655
G1 X-8.36 Y-13.69 Z1.5 F2400.0 E3339.052
G1 X-8.0 Y-13.92 Z1.5 F2400.0 E3339.591
G1 X-7.77 Y-13.7 Z1.5 F2400.0 E3339.987
G1 X-7.41 Y-13.92 Z1.5 F2400.0 E3340.525
G1 X-7.63 Y-14.14 Z1.5 F2400.0 E3340.919
G1 X-7.25 Y-14.36 Z1.5 F2400.0 E3341.46
G1 X-7.03 Y-14.14 Z1.5 F2400.0 E3341.86
G1 X-6.84 Y-14.54 Z1.5 F2400.0 E3342.415
G1 X-6.6 Y-14.31 Z1.5 F2400.0 E3342.824
G1 X-6.42 Y-14.71 Z1.5 F2400.0 E3343.381
G1 X-6.18 Y-14.48 Z1.5 F2400.0 E3343.795
G1 X-6.0 Y-14.88 Z1.5 F2400.0 E3344.356
G1 X-5.76 Y-14.65 Z1.5 F2400.0 E3344.777
G1 X-5.58 Y-15.06 Z1.5 F2400.0 E3345.339
G1 X-5.34 Y-14.82 Z1.5 F2400.0 E3345.766
G1 X-5.16 Y-15.23 Z1.5 F2400.0 E3346.33
G1 X-4.91 Y-14.98 Z1.5 F2400.0 E3346.765
G1 X-4.71 Y-15.37 Z1.5 F2400.0 E3347.313
G1 X-4.47 Y-15.13 Z1.5 F2400.0 E3347.732
G1 X-4.23 Y-15.49 Z1.5 F2400.0 E3348.265
G1 X-3.98 Y-15.24 Z1.5 F2400.0 E3348.7
G1 X-3.75 Y-15.6 Z1.5 F2400.0 E3349.237
G1 X-3.5 Y-15.34 Z1.5 F2400.0 E3349.69
G1 X-3.28 Y-15.72 Z1.5 F2400.0 E3350.23
G1 X-3.01 Y-15.45 Z1.5 F2400.0 E3350.701
G1 X-2.8 Y-15.83 Z1.5 F2400.0 E3351.246
G1 X-2.52 Y-15.55 Z1.5 F2400.0 E3351.735
G1 X-2.29 Y-15.92 Z1.5 F2400.0 E3352.271
G1 X-2.03 Y-15.66 Z1.5 F2400.0 E3352.724
G1 X-1.74 Y-15.96 Z1.5 F2400.0 E3353.248
G1 X-1.47 Y-15.69 Z1.5 F2400.0 E3353.726
G1 X-1.19 Y-16.0 Z1.5 F2400.0 E3354.251
G1 X-0.9 Y-15.71 Z1.5 F2400.0 E3354.762
G1 X-0.64 Y-16.04 Z1.5 F2400.0 E3355.289
G1 X-0.33 Y-15.74 Z1.5 F2400.0 E3355.834
G1 X-0.09 Y-16.09 Z1.5 F2400.0 E3356.367
G1 X0.24 Y-15.76 Z1.5 F2400.0 E3356.946
G1 X0.53 Y-16.05 Z1.5 F2400.0 E3357.469
G1 X0.83 Y-15.76 Z1.5 F2400.0 E3357.99
G1 X1.18 Y-16.0 Z1.5 F2400.0 E3358.522
G1 X1.51 Y-15.67 Z1.5 F2400.0 E3359.107
G1 X1.82 Y-15.95 Z1.5 F2400.0 E3359.632
G1 X2.19 Y-15.58 Z1.5 F2400.0 E3360.282
G1 X2.46 Y-15.9 Z1.5 F2400.0 E3360.807
G1 X2.87 Y-15.5 Z1.5 F2400.0 E3361.522
G1 X3.23 Y-15.73 Z1.5 F2400.0 E3362.059
G1 X3.6 Y-15.35 Z1.5 F2400.0 E3362.717
G1 X4.01 Y-15.54 Z1.5 F2400.0 E3363.278
G1 X4.46 Y-15.09 Z1.5 F2400.0 E3364.067
G1 X4.79 Y-15.35 Z1.5 F2400.0 E3364.594
G1 X5.31 Y-14.83 Z1.5 F2400.0 E3365.514
G1 X5.75 Y-14.99 Z1.5 F2400.0 E3366.095
G1 X6.27 Y-14.46 Z1.5 F2400.0 E3367.027
G1 X6.76 Y-14.57 Z1.5 F2400.0 E3367.648
G1 X7.47 Y-13.86 Z1.5 F2400.0 E3368.904
G1 X8.01 Y-13.91 Z1.5 F2400.0 E3369.581
G1 X9.01 Y-12.91 Z1.5 F2400.0 E3371.356
;M103
G1 X9.07 Y-12.42 Z1.5 F3600.0
;M101
G1 X8.8 Y-12.62 Z1.5 F2400.0 E3371.785
G1 X8.09 Y-13.14 Z1.5 F2400.0 E3372.883
G1 X5.76 Y-14.32 Z1.5 F2400.0 E3376.158
G1 X3.25 Y-15.09 Z1.5 F2400.0 E3379.433
G1 X0.66 Y-15.42 Z1.5 F2400.0 E3382.708
G1 X-1.96 Y-15.31 Z1.5 F2400.0 E3385.982
G1 X-4.52 Y-14.76 Z1.5 F2400.0 E3389.258
G1 X-6.95 Y-13.78 Z1.5 F2400.0 E3392.533
G1 X-9.18 Y-12.41 Z1.5 F2400.0 E3395.808
G1 X-11.14 Y-10.68 Z1.5 F2400.0 E3399.083
G1 X-12.79 Y-8.64 Z1.5 F2400.0 E3402.36
G1 X-14.07 Y-6.36 Z1.5 F2400.0 E3405.634
G1 X-14.94 Y-3.89 Z1.5 F2400.0 E3408.909
G1 X-15.38 Y-1.31 Z1.5 F2400.0 E3412.184
G1 X-15.38 Y1.31 Z1.5 F2400.0 E3415.459
G1 X-14.94 Y3.89 Z1.5 F2400.0 E3418.734
G1 X-14.07 Y6.36 Z1.5 F2400.0 E3422.009
G1 X-12.79 Y8.64 Z1.5 F2400.0 E3425.283
G1 X-11.14 Y10.68 Z1.5 F2400.0 E3428.56
G1 X-9.18 Y12.41 Z1.5 F2400.0 E3431.835
G1 X-6.95 Y13.78 Z1.5 F2400.0 E3435.11
G1 X-4.52 Y14.76 Z1.5 F2400.0 E3438.385
G1 X-1.96 Y15.31 Z1.5 F2400.0 E3441.661
G1 X0.66 Y15.42 Z1.5 F2400.0 E3444.935
G1 X3.25 Y15.09 Z1.5 F2400.0 E3448.21
G1 X5.76 Y14.32 Z1.5 F2400.0 E3451.485
G1 X8.09 Y13.14 Z1.5 F2400.0 E3454.761
G1 X10.2 Y11.59 Z1.5 F2400.0 E3458.036
G1 X12.01 Y9.7 Z1.5 F2400.0 E3461.311
G1 X13.48 Y7.53 Z1.5 F2400.0 E3464.587
G1 X14.55 Y5.14 Z1.5 F2400.0 E3467.862
G1 X15.21 Y2.61 Z1.5 F2400.0 E3471.136
G1 X15.44 Y0.0 Z1.5 F2400.0 E3474.412
G1 X15.21 Y-2.61 Z1.5 F2400.0 E3477.688
G1 X14.55 Y-5.14 Z1.5 F2400.0 E3480.962
G1 X13.48 Y-7.53 Z1.5 F2400.0 E3484.238
G1 X12.01 Y-9.7 Z1.5 F2400.0 E3487.513
G1 X10.2 Y-11.59 Z1.5 F2400.0 E3490.787
G1 X9.07 Y-12.42 Z1.5 F2400.0 E3492.537
;M103
G1 X9.67 Y-13.31 Z1.5 F3600.0
;M101
G1 X11.63 Y-11.63 Z1.5 F2400.0 E3495.766
G1 X13.31 Y-9.67 Z1.5 F2400.0 E3498.995
G1 X14.66 Y-7.47 Z1.5 F2400.0 E3502.225
G1 X15.65 Y-5.08 Z1.5 F2400.0 E3505.454
G1 X16.25 Y-2.57 Z1.5 F2400.0 E3508.685
G1 X16.45 Y0.0 Z1.5 F2400.0 E3511.913
G1 X16.25 Y2.57 Z1.5 F2400.0 E3515.142
G1 X15.65 Y5.08 Z1.5 F2400.0 E3518.373
G1 X14.66 Y7.47 Z1.5 F2400.0 E3521.602
G1 X13.31 Y9.67 Z1.5 F2400.0 E3524.832
G1 X11.63 Y11.63 Z1.5 F2400.0 E3528.061
G1 X9.67 Y13.31 Z1.5 F2400.0 E3531.29
G1 X7.47 Y14.66 Z1.5 F2400.0 E3534.52
G1 X5.08 Y15.65 Z1.5 F2400.0 E3537.749
G1 X2.57 Y16.25 Z1.5 F2400.0 E3540.98
G1 X0.0 Y16.45 Z1.5 F2400.0 E3544.209
G1 X-2.57 Y16.25 Z1.5 F2400.0 E3547.438
G1 X-5.08 Y15.65 Z1.5 F2400.0 E3550.668
G1 X-7.47 Y14.66 Z1.5 F2400.0 E3553.898
G1 X-9.67 Y13.31 Z1.5 F2400.0 E3557.128
G1 X-11.63 Y11.63 Z1.5 F2400.0 E3560.356
G1 X-13.31 Y9.67 Z1.5 F2400.0 E3563.585
G1 X-14.66 Y7.47 Z1.5 F2400.0 E3566.815
G1 X-15.65 Y5.08 Z1.5 F2400.0 E3570.045
G1 X-16.25 Y2.57 Z1.5 F2400.0 E3573.275
G1 X-16.45 Y0.0 Z1.5 F2400.0 E3576.504
G1 X-16.25 Y-2.57 Z1.5 F2400.0 E3579.733
G1 X-15.65 Y-5.08 Z1.5 F2400.0 E3582.963
G1 X-14.66 Y-7.47 Z1.5 F2400.0 E3586.193
G1 X-13.31 Y-9.67 Z1.5 F2400.0 E3589.423
G1 X-11.63 Y-11.63 Z1.5 F2400.0 E3592.652
G1 X-9.67 Y-13.31 Z1.5 F2400.0 E3595.881
G1 X-7.47 Y-14.66 Z1.5 F2400.0 E3599.111
G1 X-5.08 Y-15.65 Z1.5 F2400.0 E3602.34
G1 X-2.57 Y-16.25 Z1.5 F2400.0 E3605.571
G1 X0.0 Y-16.45 Z1.5 F2400.0 E3608.799
G1 X2.57 Y-16.25 Z1.5 F2400.0 E3612.028
G1 X5.08 Y-15.65 Z1.5 F2400.0 E3615.259
G1 X7.47 Y-14.66 Z1.5 F2400.0 E3618.488
G1 X9.34 Y-13.51 Z1.5 F2400.0 E3621.237
G1 X9.67 Y-13.31 Z1.5 F2400.0 E3621.718
;M103
;M108 S37.53
G1 X9.92 Y-13.65 Z1.5 F3600.0
;M101
G1 X11.93 Y-11.93 Z1.5 F1800.0 E3625.031
G1 X13.65 Y-9.92 Z1.5 F1800.0 E3628.343
G1 X15.03 Y-7.66 Z1.5 F1800.0 E3631.654
G1 X16.05 Y-5.21 Z1.5 F1800.0 E3634.966
G1 X16.66 Y-2.64 Z1.5 F1800.0 E3638.279
G1 X16.87 Y0.0 Z1.5 F1800.0 E3641.591
G1 X16.66 Y2.64 Z1.5 F1800.0 E3644.902
G1 X16.05 Y5.21 Z1.5 F1800.0 E3648.215
G1 X15.03 Y7.66 Z1.5 F1800.0 E3651.527
G1 X13.65 Y9.92 Z1.5 F1800.0 E3654.839
G1 X11.93 Y11.93 Z1.5 F1800.0 E3658.151
G1 X9.92 Y13.65 Z1.5 F1800.0 E3661.463
G1 X7.66 Y15.03 Z1.5 F1800.0 E3664.775
G1 X5.21 Y16.05 Z1.5 F1800.0 E3668.087
G1 X2.64 Y16.66 Z1.5 F1800.0 E3671.399
G1 X0.0 Y16.87 Z1.5 F1800.0 E3674.711
G1 X-2.64 Y16.66 Z1.5 F1800.0 E3678.023
G1 X-5.21 Y16.05 Z1.5 F1800.0 E3681.336
G1 X-7.66 Y15.03 Z1.5 F1800.0 E3684.647
G1 X-9.92 Y13.65 Z1.5 F1800.0 E3687.959
G1 X-11.93 Y11.93 Z1.5 F1800.0 E3691.271
G1 X-13.65 Y9.92 Z1.5 F1800.0 E3694.584
G1 X-15.03 Y7.66 Z1.5 F1800.0 E3697.895
G1 X-16.05 Y5.21 Z1.5 F1800.0 E3701.207
G1 X-16.66 Y2.64 Z1.5 F1800.0 E3704.52
G1 X-16.87 Y0.0 Z1.5 F1800.0 E3707.831
G1 X-16.66 Y-2.64 Z1.5 F1800.0 E3711.143
G1 X-16.05 Y-5.21 Z1.5 F1800.0 E3714.456
G1 X-15.03 Y-7.66 Z1.5 F1800.0 E3717.768
G1 X-13.65 Y-9.92 Z1.5 F1800.0 E3721.079
G1 X-11.93 Y-11.93 Z1.5 F1800.0 E3724.392
G1 X-9.92 Y-13.65 Z1.5 F1800.0 E3727.704
G1 X-7.66 Y-15.03 Z1.5 F1800.0 E3731.015
G1 X-5.21 Y-16.05 Z1.5 F1800.0 E3734.327
G1 X-2.64 Y-16.66 Z1.5 F1800.0 E3737.64
G1 X0.0 Y-16.87 Z1.5 F1800.0 E3740.952
G1 X2.64 Y-16.66 Z1.5 F1800.0 E3744.263
G1 X5.21 Y-16.05 Z1.5 F1800.0 E3747.576
G1 X7.66 Y-15.03 Z1.5 F1800.0 E3750.888
G1 X9.56 Y-13.87 Z1.5 F1800.0 E3753.677
G1 X9.92 Y-13.65 Z1.5 F1800.0 E3754.2
;M103
G1 X8.78 Y-12.11 Z1.5 F3600.0
;M101
G1 X8.45 Y-12.36 Z1.5 F1800.0 E3754.719
G1 X7.87 Y-12.79 Z1.5 F1800.0 E3755.614
G1 X5.6 Y-13.93 Z1.5 F1800.0 E3758.799
G1 X3.16 Y-14.68 Z1.5 F1800.0 E3761.985
G1 X0.64 Y-15.0 Z1.5 F1800.0 E3765.171
G1 X-1.91 Y-14.89 Z1.5 F1800.0 E3768.356
G1 X-4.4 Y-14.36 Z1.5 F1800.0 E3771.543
G1 X-6.76 Y-13.41 Z1.5 F1800.0 E3774.729
G1 X-8.93 Y-12.07 Z1.5 F1800.0 E3777.914
G1 X-10.84 Y-10.39 Z1.5 F1800.0 E3781.101
G1 X-12.44 Y-8.41 Z1.5 F1800.0 E3784.287
G1 X-13.68 Y-6.19 Z1.5 F1800.0 E3787.472
G1 X-14.53 Y-3.78 Z1.5 F1800.0 E3790.659
G1 X-14.96 Y-1.27 Z1.5 F1800.0 E3793.844
G1 X-14.96 Y1.27 Z1.5 F1800.0 E3797.031
G1 X-14.53 Y3.78 Z1.5 F1800.0 E3800.216
G1 X-13.68 Y6.19 Z1.5 F1800.0 E3803.402
G1 X-12.44 Y8.41 Z1.5 F1800.0 E3806.588
G1 X-10.84 Y10.39 Z1.5 F1800.0 E3809.774
G1 X-8.93 Y12.07 Z1.5 F1800.0 E3812.96
G1 X-6.76 Y13.41 Z1.5 F1800.0 E3816.146
G1 X-4.4 Y14.36 Z1.5 F1800.0 E3819.332
G1 X-1.91 Y14.89 Z1.5 F1800.0 E3822.518
G1 X0.64 Y15.0 Z1.5 F1800.0 E3825.704
G1 X3.16 Y14.68 Z1.5 F1800.0 E3828.889
G1 X5.6 Y13.93 Z1.5 F1800.0 E3832.075
G1 X7.87 Y12.79 Z1.5 F1800.0 E3835.261
G1 X9.92 Y11.27 Z1.5 F1800.0 E3838.447
G1 X11.68 Y9.43 Z1.5 F1800.0 E3841.634
G1 X13.11 Y7.32 Z1.5 F1800.0 E3844.82
G1 X14.16 Y5.0 Z1.5 F1800.0 E3848.006
G1 X14.8 Y2.54 Z1.5 F1800.0 E3851.191
G1 X15.02 Y0.0 Z1.5 F1800.0 E3854.378
G1 X14.8 Y-2.54 Z1.5 F1800.0 E3857.564
G1 X14.16 Y-5.0 Z1.5 F1800.0 E3860.749
G1 X13.11 Y-7.32 Z1.5 F1800.0 E3863.935
G1 X11.68 Y-9.43 Z1.5 F1800.0 E3867.121
G1 X9.92 Y-11.27 Z1.5 F1800.0 E3870.307
G1 X8.78 Y-12.11 Z1.5 F1800.0 E3872.08
;M103
;M108 S50.04
G1 X9.97 Y-11.33 Z1.8 F3600.0
G1 X11.75 Y-9.49 Z1.8 F3600.0
G1 X13.18 Y-7.36 Z1.8 F3600.0
G1 X14.24 Y-5.03 Z1.8 F3600.0
G1 X14.88 Y-2.55 Z1.8 F3600.0
G1 X15.1 Y0.0 Z1.8 F3600.0
G1 X14.88 Y2.55 Z1.8 F3600.0
G1 X12.85 Y9.66 Z1.8 F3600.0
;M101
G1 X9.66 Y12.85 Z1.8 F2400.0 E3877.725
G1 X9.01 Y12.91 Z1.8 F2400.0 E3878.543
G1 X8.01 Y13.91 Z1.8 F2400.0 E3880.316
G1 X7.47 Y13.86 Z1.8 F2400.0 E3880.993
G1 X6.76 Y14.57 Z1.8 F2400.0 E3882.249
G1 X6.27 Y14.46 Z1.8 F2400.0 E3882.87
G1 X5.75 Y14.99 Z1.8 F2400.0 E3883.803
G1 X5.31 Y14.83 Z1.8 F2400.0 E3884.383
G1 X4.79 Y15.35 Z1.8 F2400.0 E3885.303
G1 X4.46 Y15.09 Z1.8 F2400.0 E3885.83
G1 X4.01 Y15.54 Z1.8 F2400.0 E3886.62
G1 X3.6 Y15.35 Z1.8 F2400.0 E3887.18
G1 X3.23 Y15.73 Z1.8 F2400.0 E3887.838
G1 X2.87 Y15.5 Z1.8 F2400.0 E3888.375
G1 X2.46 Y15.9 Z1.8 F2400.0 E3889.09
G1 X2.19 Y15.58 Z1.8 F2400.0 E3889.615
G1 X1.82 Y15.95 Z1.8 F2400.0 E3890.265
G1 X1.51 Y15.67 Z1.8 F2400.0 E3890.79
G1 X1.18 Y16.0 Z1.8 F2400.0 E3891.375
G1 X0.83 Y15.76 Z1.8 F2400.0 E3891.907
G1 X0.53 Y16.05 Z1.8 F2400.0 E3892.428
G1 X0.24 Y15.76 Z1.8 F2400.0 E3892.951
G1 X-0.09 Y16.09 Z1.8 F2400.0 E3893.53
G1 X-0.33 Y15.74 Z1.8 F2400.0 E3894.063
G1 X-0.64 Y16.04 Z1.8 F2400.0 E3894.608
G1 X-0.9 Y15.71 Z1.8 F2400.0 E3895.135
G1 X-1.19 Y16.0 Z1.8 F2400.0 E3895.647
G1 X-1.47 Y15.69 Z1.8 F2400.0 E3896.171
G1 X-1.74 Y15.96 Z1.8 F2400.0 E3896.649
G1 X-2.03 Y15.66 Z1.8 F2400.0 E3897.174
G1 X-2.29 Y15.92 Z1.8 F2400.0 E3897.626
G1 X-2.52 Y15.55 Z1.8 F2400.0 E3898.163
G1 X-2.8 Y15.83 Z1.8 F2400.0 E3898.651
G1 X-3.01 Y15.45 Z1.8 F2400.0 E3899.196
G1 X-3.28 Y15.72 Z1.8 F2400.0 E3899.667
G1 X-3.5 Y15.34 Z1.8 F2400.0 E3900.207
G1 X-3.75 Y15.6 Z1.8 F2400.0 E3900.66
G1 X-3.98 Y15.24 Z1.8 F2400.0 E3901.197
G1 X-4.23 Y15.49 Z1.8 F2400.0 E3901.632
G1 X-4.47 Y15.13 Z1.8 F2400.0 E3902.165
G1 X-4.71 Y15.37 Z1.8 F2400.0 E3902.584
G1 X-4.91 Y14.98 Z1.8 F2400.0 E3903.132
G1 X-5.16 Y15.23 Z1.8 F2400.0 E3903.567
G1 X-5.34 Y14.82 Z1.8 F2400.0 E3904.131
G1 X-5.58 Y15.06 Z1.8 F2400.0 E3904.558
G1 X-5.76 Y14.65 Z1.8 F2400.0 E3905.12
G1 X-6.0 Y14.88 Z1.8 F2400.0 E3905.541
G1 X-6.18 Y14.48 Z1.8 F2400.0 E3906.102
G1 X-6.42 Y14.71 Z1.8 F2400.0 E3906.516
G1 X-6.6 Y14.31 Z1.8 F2400.0 E3907.073
G1 X-6.84 Y14.54 Z1.8 F2400.0 E3907.482
G1 X-7.03 Y14.14 Z1.8 F2400.0 E3908.037
G1 X-7.25 Y14.36 Z1.8 F2400.0 E3908.438
G1 X-7.63 Y14.14 Z1.8 F2400.0 E3908.978
G1 X-7.41 Y13.92 Z1.8 F2400.0 E3909.372
G1 X-7.77 Y13.7 Z1.8 F2400.0 E3909.91
G1 X-8.0 Y13.92 Z1.8 F2400.0 E3910.306
G1 X-8.36 Y13.69 Z1.8 F2400.0 E3910.845
G1 X-8.14 Y13.47 Z1.8 F2400.0 E3911.242
G1 X-8.5 Y13.24 Z1.8 F2400.0 E3911.78
G1 X-8.73 Y13.47 Z1.8 F2400.0 E3912.18
G1 X-9.1 Y13.24 Z1.8 F2400.0 E3912.718
G1 X-8.87 Y13.02 Z1.8 F2400.0 E3913.118
G1 X-9.24 Y12.79 Z1.8 F2400.0 E3913.656
G1 X-9.46 Y13.02 Z1.8 F2400.0 E3914.057
G1 X-9.78 Y12.75 Z1.8 F2400.0 E3914.582
G1 X-9.57 Y12.54 Z1.8 F2400.0 E3914.952
G1 X-9.89 Y12.26 Z1.8 F2400.0 E3915.477
G1 X-10.1 Y12.47 Z1.8 F2400.0 E3915.855
G1 X-10.42 Y12.2 Z1.8 F2400.0 E3916.38
G1 X-10.2 Y11.98 Z1.8 F2400.0 E3916.766
G1 X-10.52 Y11.7 Z1.8 F2400.0 E3917.29
G1 X-10.74 Y11.93 Z1.8 F2400.0 E3917.685
G1 X-11.06 Y11.65 Z1.8 F2400.0 E3918.21
G1 X-10.83 Y11.43 Z1.8 F2400.0 E3918.612
G1 X-11.15 Y11.15 Z1.8 F2400.0 E3919.137
G1 X-11.38 Y11.38 Z1.8 F2400.0 E3919.548
G1 X-11.65 Y11.06 Z1.8 F2400.0 E3920.074
G1 X-11.45 Y10.86 Z1.8 F2400.0 E3920.427
G1 X-11.72 Y10.53 Z1.8 F2400.0 E3920.954
G1 X-11.93 Y10.74 Z1.8 F2400.0 E3921.322
G1 X-12.2 Y10.42 Z1.8 F2400.0 E3921.848
G1 X-11.98 Y10.21 Z1.8 F2400.0 E3922.228
G1 X-12.25 Y9.88 Z1.8 F2400.0 E3922.755
G1 X-12.47 Y10.1 Z1.8 F2400.0 E3923.151
G1 X-12.75 Y9.78 Z1.8 F2400.0 E3923.677
G1 X-12.51 Y9.55 Z1.8 F2400.0 E3924.088
G1 X-12.78 Y9.22 Z1.8 F2400.0 E3924.615
G1 X-13.02 Y9.46 Z1.8 F2400.0 E3925.041
G1 X-13.24 Y9.1 Z1.8 F2400.0 E3925.58
G1 X-13.04 Y8.9 Z1.8 F2400.0 E3925.937
G1 X-13.26 Y8.52 Z1.8 F2400.0 E3926.478
G1 X-13.47 Y8.73 Z1.8 F2400.0 E3926.842
G1 X-13.69 Y8.36 Z1.8 F2400.0 E3927.382
G1 X-13.48 Y8.14 Z1.8 F2400.0 E3927.768
G1 X-13.69 Y7.76 Z1.8 F2400.0 E3928.313
G1 X-13.92 Y8.0 Z1.8 F2400.0 E3928.722
G1 X-14.14 Y7.63 Z1.8 F2400.0 E3929.262
G1 X-13.9 Y7.38 Z1.8 F2400.0 E3929.693
G1 X-14.11 Y7.0 Z1.8 F2400.0 E3930.238
G1 X-14.36 Y7.25 Z1.8 F2400.0 E3930.681
G1 X-14.54 Y6.84 Z1.8 F2400.0 E3931.249
G1 X-14.32 Y6.62 Z1.8 F2400.0 E3931.624
G1 X-14.71 Y6.42 Z1.8 F2400.0 E3932.171
G1 X-14.5 Y6.2 Z1.8 F2400.0 E3932.546
G1 X-14.88 Y6.0 Z1.8 F2400.0 E3933.094
G1 X-14.65 Y5.77 Z1.8 F2400.0 E3933.503
G1 X-15.06 Y5.58 Z1.8 F2400.0 E3934.06
G1 X-14.81 Y5.33 Z1.8 F2400.0 E3934.502
G1 X-15.23 Y5.16 Z1.8 F2400.0 E3935.073
G1 X-14.96 Y4.89 Z1.8 F2400.0 E3935.549
G1 X-15.37 Y4.71 Z1.8 F2400.0 E3936.11
G1 X-15.12 Y4.45 Z1.8 F2400.0 E3936.562
G1 X-15.49 Y4.23 Z1.8 F2400.0 E3937.101
G1 X-15.27 Y4.01 Z1.8 F2400.0 E3937.481
G1 X-15.6 Y3.75 Z1.8 F2400.0 E3938.009
G1 X-15.36 Y3.52 Z1.8 F2400.0 E3938.428
G1 X-15.72 Y3.28 Z1.8 F2400.0 E3938.961
G1 X-15.45 Y3.01 Z1.8 F2400.0 E3939.432
G1 X-15.83 Y2.8 Z1.8 F2400.0 E3939.977
