G21 (This is GCode, generated with Skeinforge version 35 from ReplicatorG)
G21 (Ultimaker profile - Quality print - alterations/start-centered.gcode)
G21 (Metric: The unit is a millimeter)
M18 (Disable motors for now, to allow manual moving of the head)
G90 (Absolute Positioning)
G92 X0 Y0 Z0 E0 (set origin to current position)
M1 (Check if the platform is empty before continuing)
G1 X-220.0 Y-220.0 F2000 (ensure you're in the front left corner)
G92 X-110 Y-110 Z220 E0 (make the center the origin)
G1 X0.0 Y0.0 F3000 (go back to the center)
G1 Z210.0 F100 (let the platform go up slightly, start slowly)
G1 Z0.0 F400 (we don't have all day...)
G92 X0 Y0 Z0 E0 (make the center the origin)
G91 (Relative positioning)
G1 Z35.0 F400 (lower platform for cleaning nozzle)
G92 E0 (zero the extruded length)
G1 E260 F1000 (extrude some to get the flow going)
G1 E-20 F3000 (reverse a little)
G92 E0 (zero the extruded length)
M1 (Clean the nozzle and press YES to continue...)
G1 Z-1.0 F100 (rise platform again)
G1 Z-34.0 F400 (rise platform again)
G90 
G1 Z0.4
G92 E0 (zero the extruded length)
G21 (end of start .gcode file)
G90
G21
;M103
M105
M106
M113 S1.0
;M108 S50.04
M104 S245.0
G1 X-34.42 Y-49.6 Z0.53 F360.0
;M101
G1 X-34.42 Y49.6 Z0.53 F360.0 E827.278
G1 X34.42 Y49.6 Z0.53 F360.0 E1401.487
G1 X34.42 Y-49.6 Z0.53 F360.0 E2228.765
G1 X-34.42 Y-49.6 Z0.53 F360.0 E2802.974
;M103
G1 X-29.33 Y13.54 Z0.53 F360.0
;M101
G1 X-29.33 Y5.08 Z0.53 F360.0 E2873.564
G1 X-27.24 Y4.15 Z0.53 F360.0 E2892.684
G1 X-27.24 Y16.8 Z0.53 F360.0 E2998.218
G1 X-25.14 Y19.6 Z0.53 F360.0 E3027.336
G1 X-25.14 Y4.15 Z0.53 F360.0 E3156.164
G1 X-23.05 Y4.15 Z0.53 F360.0 E3173.636
G1 X-23.05 Y21.92 Z0.53 F360.0 E3321.88
;M103
G1 X-31.43 Y6.01 Z0.53 F360.0
;M101
G1 X-31.43 Y9.82 Z0.53 F360.0 E3353.647
G1 X-20.95 Y30.77 Z0.53 F360.0 E3548.993
G1 X-20.95 Y3.22 Z0.53 F360.0 E3778.777
;M103
G1 X-18.86 Y-7.03 Z0.53 F360.0
;M101
G1 X-18.86 Y39.15 Z0.53 F360.0 E4163.868
;M103
G1 X-16.76 Y43.8 Z0.53 F360.0
;M101
G1 X-16.76 Y-14.01 Z0.53 F360.0 E4646.029
;M103
G1 X-14.67 Y-20.99 Z0.53 F360.0
;M101
G1 X-14.67 Y45.2 Z0.53 F360.0 E5198.078
G1 X-12.57 Y46.13 Z0.53 F360.0 E5217.198
G1 X-12.57 Y-45.2 Z0.53 F360.0 E5978.915
G1 X-14.67 Y-45.67 Z0.53 F360.0 E5996.813
G1 X-14.67 Y-26.03 Z0.53 F360.0 E6160.585
G1 X-16.76 Y-28.82 Z0.53 F360.0 E6189.71
G1 X-16.76 Y-45.67 Z0.53 F360.0 E6330.181
G1 X-18.86 Y-45.2 Z0.53 F360.0 E6348.078
G1 X-18.86 Y-30.22 Z0.53 F360.0 E6473.028
G1 X-20.95 Y-32.55 Z0.53 F360.0 E6499.148
G1 X-20.95 Y-44.74 Z0.53 F360.0 E6600.796
G1 X-23.05 Y-42.87 Z0.53 F360.0 E6624.172
G1 X-23.05 Y-36.27 Z0.53 F360.0 E6679.233
;M103
G1 X-10.48 Y-41.94 Z0.53 F360.0
;M101
G1 X-10.48 Y46.6 Z0.53 F360.0 E7417.648
G1 X-8.38 Y46.6 Z0.53 F360.0 E7435.12
G1 X-8.38 Y-39.61 Z0.53 F360.0 E8154.12
G1 X-6.29 Y-38.22 Z0.53 F360.0 E8175.121
G1 X-6.29 Y45.2 Z0.53 F360.0 E8870.827
G1 X-4.19 Y42.87 Z0.53 F360.0 E8896.946
G1 X-4.19 Y-37.29 Z0.53 F360.0 E9565.473
G1 X-2.1 Y-38.68 Z0.53 F360.0 E9586.473
G1 X-2.1 Y39.15 Z0.53 F360.0 E10235.592
G1 X0.0 Y35.34 Z0.53 F360.0 E10271.847
G1 X0.0 Y44.27 Z0.53 F360.0 E10346.323
G1 X2.1 Y44.74 Z0.53 F360.0 E10364.221
G1 X2.1 Y32.08 Z0.53 F360.0 E10469.755
G1 X0.0 Y33.56 Z0.53 F360.0 E10491.152
G1 X0.0 Y-38.68 Z0.53 F360.0 E11093.676
G1 X2.1 Y-39.15 Z0.53 F360.0 E11111.575
G1 X2.1 Y-0.89 Z0.53 F360.0 E11430.663
;M103
G1 X4.19 Y8.42 Z0.53 F360.0
;M101
G1 X4.19 Y-40.08 Z0.53 F360.0 E11835.17
G1 X6.29 Y-44.27 Z0.53 F360.0 E11874.239
G1 X6.29 Y15.41 Z0.53 F360.0 E12371.929
;M103
G1 X8.38 Y22.39 Z0.53 F360.0
;M101
G1 X8.38 Y-45.2 Z0.53 F360.0 E12935.629
G1 X10.48 Y-46.6 Z0.53 F360.0 E12956.625
G1 X10.48 Y44.74 Z0.53 F360.0 E13718.334
G1 X8.38 Y45.67 Z0.53 F360.0 E13737.454
G1 X8.38 Y25.56 Z0.53 F360.0 E13905.105
G1 X6.29 Y28.36 Z0.53 F360.0 E13934.223
G1 X6.29 Y45.67 Z0.53 F360.0 E14078.58
G1 X4.19 Y45.67 Z0.53 F360.0 E14096.052
G1 X4.19 Y29.75 Z0.53 F360.0 E14228.759
;M103
G1 X14.67 Y39.15 Z0.53 F360.0
;M101
G1 X14.67 Y-46.6 Z0.53 F360.0 E14943.88
G1 X12.57 Y-46.6 Z0.53 F360.0 E14961.353
G1 X12.57 Y41.48 Z0.53 F360.0 E15695.881
G1 X16.76 Y38.22 Z0.53 F360.0 E15740.152
G1 X16.76 Y-44.74 Z0.53 F360.0 E16431.972
G1 X18.86 Y-42.41 Z0.53 F360.0 E16458.091
G1 X18.86 Y37.29 Z0.53 F360.0 E17122.731
G1 X20.95 Y38.68 Z0.53 F360.0 E17143.732
G1 X20.95 Y-38.68 Z0.53 F360.0 E17788.964
;M103
G1 X23.05 Y-32.63 Z0.53 F360.0
;M101
G1 X23.05 Y39.15 Z0.53 F360.0 E18387.609
G1 X25.14 Y39.15 Z0.53 F360.0 E18405.082
G1 X25.14 Y20.44 Z0.53 F360.0 E18561.09
;M103
G1 X27.24 Y25.56 Z0.53 F360.0
;M101
G1 X27.24 Y39.15 Z0.53 F360.0 E18674.388
G1 X29.33 Y38.68 Z0.53 F360.0 E18692.288
G1 X29.33 Y27.43 Z0.53 F360.0 E18786.171
G1 X31.43 Y31.15 Z0.53 F360.0 E18821.807
G1 X31.43 Y35.89 Z0.53 F360.0 E18861.338
;M103
G1 X0.02 Y23.74 Z0.89 F2400.0
;M101
G1 X-20.97 Y23.74 Z0.89 F2400.0 E18887.599
G1 X-20.97 Y24.21 Z0.89 F2400.0 E18888.182
G1 X0.02 Y24.21 Z0.89 F2400.0 E18914.443
G1 X0.02 Y24.67 Z0.89 F2400.0 E18915.025
G1 X-20.97 Y24.67 Z0.89 F2400.0 E18941.286
G1 X-20.97 Y25.14 Z0.89 F2400.0 E18941.869
G1 X0.02 Y25.14 Z0.89 F2400.0 E18968.13
G1 X0.02 Y25.61 Z0.89 F2400.0 E18968.713
G1 X-20.97 Y25.61 Z0.89 F2400.0 E18994.974
G1 X-20.97 Y26.07 Z0.89 F2400.0 E18995.556
G1 X0.02 Y26.07 Z0.89 F2400.0 E19021.817
G1 X0.02 Y26.54 Z0.89 F2400.0 E19022.4
G1 X-20.97 Y26.54 Z0.89 F2400.0 E19048.661
G1 X-20.97 Y27.0 Z0.89 F2400.0 E19049.242
G1 X0.02 Y27.0 Z0.89 F2400.0 E19075.503
G1 X0.02 Y27.47 Z0.89 F2400.0 E19076.086
G1 X-20.97 Y27.47 Z0.89 F2400.0 E19102.347
G1 X-20.97 Y27.93 Z0.89 F2400.0 E19102.929
G1 X0.02 Y27.93 Z0.89 F2400.0 E19129.19
G1 X0.02 Y28.4 Z0.89 F2400.0 E19129.773
G1 X-20.97 Y28.4 Z0.89 F2400.0 E19156.034
G1 X-20.97 Y28.86 Z0.89 F2400.0 E19156.616
G1 X0.02 Y28.86 Z0.89 F2400.0 E19182.877
G1 X0.02 Y29.33 Z0.89 F2400.0 E19183.46
G1 X-20.97 Y29.33 Z0.89 F2400.0 E19209.721
G1 X-20.97 Y29.8 Z0.89 F2400.0 E19210.304
G1 X0.02 Y29.8 Z0.89 F2400.0 E19236.565
G1 X0.02 Y30.26 Z0.89 F2400.0 E19237.146
G1 X-20.97 Y30.26 Z0.89 F2400.0 E19263.407
G1 X-20.97 Y30.73 Z0.89 F2400.0 E19263.99
G1 X0.02 Y30.73 Z0.89 F2400.0 E19290.251
G1 X0.02 Y31.19 Z0.89 F2400.0 E19290.833
G1 X-18.88 Y31.19 Z0.89 F2400.0 E19314.473
G1 X-18.88 Y31.66 Z0.89 F2400.0 E19315.056
G1 X0.02 Y31.66 Z0.89 F2400.0 E19338.696
G1 X0.02 Y32.12 Z0.89 F2400.0 E19339.278
G1 X-18.88 Y32.12 Z0.89 F2400.0 E19362.918
G1 X-18.88 Y32.59 Z0.89 F2400.0 E19363.501
G1 X0.02 Y32.59 Z0.89 F2400.0 E19387.141
G1 X0.02 Y33.05 Z0.89 F2400.0 E19387.723
G1 X-18.88 Y33.05 Z0.89 F2400.0 E19411.363
G1 X-18.88 Y33.52 Z0.89 F2400.0 E19411.946
G1 X31.45 Y33.52 Z0.89 F2400.0 E19474.899
G1 X31.45 Y33.05 Z0.89 F2400.0 E19475.482
G1 X2.07 Y33.05 Z0.89 F2400.0 E19512.226
G1 X2.07 Y32.59 Z0.89 F2400.0 E19512.808
G1 X31.45 Y32.59 Z0.89 F2400.0 E19549.552
G1 X31.45 Y32.12 Z0.89 F2400.0 E19550.135
G1 X2.07 Y32.12 Z0.89 F2400.0 E19586.88
;M103
G1 X29.35 Y36.78 Z0.89 F2400.0
;M101
G1 X-0.02 Y36.78 Z0.89 F2400.0 E19623.624
G1 X-0.02 Y36.31 Z0.89 F2400.0 E19624.207
G1 X29.35 Y36.31 Z0.89 F2400.0 E19660.951
;M103
G1 X27.26 Y39.11 Z0.89 F2400.0
;M101
G1 X23.02 Y39.11 Z0.89 F2400.0 E19666.245
;M103
G1 X4.17 Y45.16 Z0.89 F2400.0
;M101
G1 X8.4 Y45.16 Z0.89 F2400.0 E19671.54
G1 X8.4 Y45.62 Z0.89 F2400.0 E19672.121
G1 X4.17 Y45.62 Z0.89 F2400.0 E19677.416
;M103
G1 X18.88 Y37.24 Z0.89 F2400.0
;M101
G1 X-0.02 Y37.24 Z0.89 F2400.0 E19701.056
G1 X-0.02 Y37.71 Z0.89 F2400.0 E19701.639
G1 X16.78 Y37.71 Z0.89 F2400.0 E19722.658
G1 X16.78 Y38.18 Z0.89 F2400.0 E19723.241
G1 X-0.02 Y38.18 Z0.89 F2400.0 E19744.26
G1 X-0.02 Y38.64 Z0.89 F2400.0 E19744.842
G1 X14.69 Y38.64 Z0.89 F2400.0 E19763.241
G1 X14.69 Y39.11 Z0.89 F2400.0 E19763.823
G1 X-0.02 Y39.11 Z0.89 F2400.0 E19782.222
G1 X-0.02 Y39.57 Z0.89 F2400.0 E19782.804
G1 X12.59 Y39.57 Z0.89 F2400.0 E19798.581
G1 X12.59 Y40.04 Z0.89 F2400.0 E19799.164
G1 X-0.02 Y40.04 Z0.89 F2400.0 E19814.942
G1 X-0.02 Y40.5 Z0.89 F2400.0 E19815.524
G1 X12.59 Y40.5 Z0.89 F2400.0 E19831.301
G1 X12.59 Y40.97 Z0.89 F2400.0 E19831.884
G1 X-0.02 Y40.97 Z0.89 F2400.0 E19847.662
G1 X-0.02 Y41.43 Z0.89 F2400.0 E19848.243
G1 X12.59 Y41.43 Z0.89 F2400.0 E19864.021
G1 X10.5 Y42.83 Z0.89 F2400.0 E19867.171
G1 X-0.02 Y42.83 Z0.89 F2400.0 E19880.328
G1 X-0.02 Y42.37 Z0.89 F2400.0 E19880.91
G1 X10.5 Y42.37 Z0.89 F2400.0 E19894.066
G1 X10.5 Y41.9 Z0.89 F2400.0 E19894.649
G1 X-0.02 Y41.9 Z0.89 F2400.0 E19907.806
G1 X-4.17 Y42.83 Z0.89 F2400.0 E19913.124
G1 X-16.78 Y42.83 Z0.89 F2400.0 E19928.902
G1 X-16.78 Y42.37 Z0.89 F2400.0 E19929.484
G1 X-4.17 Y42.37 Z0.89 F2400.0 E19945.261
G1 X-4.17 Y41.9 Z0.89 F2400.0 E19945.844
G1 X-16.78 Y41.9 Z0.89 F2400.0 E19961.622
G1 X-16.78 Y41.43 Z0.89 F2400.0 E19962.205
G1 X-4.17 Y41.43 Z0.89 F2400.0 E19977.982
G1 X-4.17 Y40.97 Z0.89 F2400.0 E19978.564
G1 X-16.78 Y40.97 Z0.89 F2400.0 E19994.342
G1 X-16.78 Y40.5 Z0.89 F2400.0 E19994.925
G1 X-4.17 Y40.5 Z0.89 F2400.0 E20010.702
G1 X-4.17 Y40.04 Z0.89 F2400.0 E20011.284
G1 X-16.78 Y40.04 Z0.89 F2400.0 E20027.062
G1 X-16.78 Y39.57 Z0.89 F2400.0 E20027.645
G1 X-4.17 Y39.57 Z0.89 F2400.0 E20043.422
;M103
G1 X29.35 Y38.64 Z0.89 F2400.0
;M101
G1 X20.93 Y38.64 Z0.89 F2400.0 E20053.958
G1 X20.93 Y38.18 Z0.89 F2400.0 E20054.54
G1 X29.35 Y38.18 Z0.89 F2400.0 E20065.076
G1 X29.35 Y37.71 Z0.89 F2400.0 E20065.659
G1 X20.93 Y37.71 Z0.89 F2400.0 E20076.195
G1 X20.93 Y37.24 Z0.89 F2400.0 E20076.778
G1 X29.35 Y37.24 Z0.89 F2400.0 E20087.314
G1 X31.45 Y35.85 Z0.89 F2400.0 E20090.463
G1 X-0.02 Y35.85 Z0.89 F2400.0 E20129.828
G1 X-0.02 Y35.38 Z0.89 F2400.0 E20130.411
G1 X31.45 Y35.38 Z0.89 F2400.0 E20169.776
G1 X31.45 Y34.92 Z0.89 F2400.0 E20170.358
G1 X2.07 Y34.92 Z0.89 F2400.0 E20207.103
G1 X2.07 Y34.45 Z0.89 F2400.0 E20207.685
G1 X31.45 Y34.45 Z0.89 F2400.0 E20244.43
G1 X31.45 Y33.99 Z0.89 F2400.0 E20245.012
G1 X-18.88 Y33.99 Z0.89 F2400.0 E20307.964
G1 X-18.88 Y34.45 Z0.89 F2400.0 E20308.546
G1 X-2.07 Y34.45 Z0.89 F2400.0 E20329.565
G1 X-2.07 Y34.92 Z0.89 F2400.0 E20330.148
G1 X-18.88 Y34.92 Z0.89 F2400.0 E20351.168
G1 X-18.88 Y35.38 Z0.89 F2400.0 E20351.749
G1 X-2.07 Y35.38 Z0.89 F2400.0 E20372.769
G1 X-2.07 Y35.85 Z0.89 F2400.0 E20373.352
G1 X-18.88 Y35.85 Z0.89 F2400.0 E20394.371
G1 X-18.88 Y36.31 Z0.89 F2400.0 E20394.953
G1 X-2.07 Y36.31 Z0.89 F2400.0 E20415.972
G1 X-2.07 Y36.78 Z0.89 F2400.0 E20416.555
G1 X-18.88 Y36.78 Z0.89 F2400.0 E20437.574
G1 X-18.88 Y37.24 Z0.89 F2400.0 E20438.156
G1 X-2.07 Y37.24 Z0.89 F2400.0 E20459.175
G1 X-2.07 Y37.71 Z0.89 F2400.0 E20459.758
G1 X-18.88 Y37.71 Z0.89 F2400.0 E20480.778
G1 X-18.88 Y38.18 Z0.89 F2400.0 E20481.36
G1 X-2.07 Y38.18 Z0.89 F2400.0 E20502.38
G1 X-2.07 Y38.64 Z0.89 F2400.0 E20502.962
G1 X-18.88 Y38.64 Z0.89 F2400.0 E20523.981
G1 X-18.88 Y39.11 Z0.89 F2400.0 E20524.564
G1 X-2.07 Y39.11 Z0.89 F2400.0 E20545.583
;M103
G1 X4.17 Y31.66 Z0.89 F2400.0
;M101
G1 X31.45 Y31.66 Z0.89 F2400.0 E20579.707
G1 X31.45 Y31.19 Z0.89 F2400.0 E20580.29
G1 X4.17 Y31.19 Z0.89 F2400.0 E20614.413
G1 X4.17 Y30.73 Z0.89 F2400.0 E20614.995
G1 X29.35 Y30.73 Z0.89 F2400.0 E20646.498
G1 X29.35 Y30.26 Z0.89 F2400.0 E20647.08
G1 X4.17 Y30.26 Z0.89 F2400.0 E20678.583
G1 X4.17 Y29.8 Z0.89 F2400.0 E20679.165
G1 X29.35 Y29.8 Z0.89 F2400.0 E20710.668
G1 X29.35 Y29.33 Z0.89 F2400.0 E20711.251
G1 X6.26 Y29.33 Z0.89 F2400.0 E20740.132
G1 X6.26 Y28.86 Z0.89 F2400.0 E20740.715
G1 X29.35 Y28.86 Z0.89 F2400.0 E20769.597
G1 X29.35 Y28.4 Z0.89 F2400.0 E20770.179
G1 X6.26 Y28.4 Z0.89 F2400.0 E20799.061
;M103
G1 X-27.26 Y13.97 Z0.89 F2400.0
;M101
G1 X0.02 Y13.97 Z0.89 F2400.0 E20833.184
G1 X0.02 Y14.43 Z0.89 F2400.0 E20833.766
G1 X-27.26 Y14.43 Z0.89 F2400.0 E20867.889
G1 X-27.26 Y14.9 Z0.89 F2400.0 E20868.472
G1 X0.02 Y14.9 Z0.89 F2400.0 E20902.596
G1 X0.02 Y15.36 Z0.89 F2400.0 E20903.178
G1 X-27.26 Y15.36 Z0.89 F2400.0 E20937.301
G1 X-27.26 Y15.83 Z0.89 F2400.0 E20937.884
G1 X0.02 Y15.83 Z0.89 F2400.0 E20972.008
G1 X0.02 Y16.29 Z0.89 F2400.0 E20972.589
G1 X-27.26 Y16.29 Z0.89 F2400.0 E21006.713
G1 X-27.26 Y16.76 Z0.89 F2400.0 E21007.296
G1 X0.02 Y16.76 Z0.89 F2400.0 E21041.419
G1 X0.02 Y17.23 Z0.89 F2400.0 E21042.002
G1 X-25.16 Y17.23 Z0.89 F2400.0 E21073.505
G1 X-25.16 Y17.69 Z0.89 F2400.0 E21074.087
G1 X0.02 Y17.69 Z0.89 F2400.0 E21105.589
G1 X0.02 Y18.16 Z0.89 F2400.0 E21106.172
G1 X-25.16 Y18.16 Z0.89 F2400.0 E21137.675
G1 X-25.16 Y18.62 Z0.89 F2400.0 E21138.257
G1 X0.02 Y18.62 Z0.89 F2400.0 E21169.76
G1 X0.02 Y19.09 Z0.89 F2400.0 E21170.342
G1 X-25.16 Y19.09 Z0.89 F2400.0 E21201.845
G1 X-25.16 Y19.55 Z0.89 F2400.0 E21202.427
G1 X0.02 Y19.55 Z0.89 F2400.0 E21233.93
G1 X0.02 Y20.02 Z0.89 F2400.0 E21234.513
G1 X-23.07 Y20.02 Z0.89 F2400.0 E21263.394
G1 X-23.07 Y20.48 Z0.89 F2400.0 E21263.976
G1 X0.02 Y20.48 Z0.89 F2400.0 E21292.858
G1 X0.02 Y20.95 Z0.89 F2400.0 E21293.441
G1 X-23.07 Y20.95 Z0.89 F2400.0 E21322.323
G1 X-23.07 Y21.42 Z0.89 F2400.0 E21322.906
G1 X0.02 Y21.42 Z0.89 F2400.0 E21351.788
G1 X0.02 Y21.88 Z0.89 F2400.0 E21352.369
G1 X-23.07 Y21.88 Z0.89 F2400.0 E21381.251
G1 X-20.97 Y23.28 Z0.89 F2400.0 E21384.401
G1 X0.02 Y23.28 Z0.89 F2400.0 E21410.662
G1 X0.02 Y22.81 Z0.89 F2400.0 E21411.245
G1 X-20.97 Y22.81 Z0.89 F2400.0 E21437.506
G1 X-20.97 Y22.35 Z0.89 F2400.0 E21438.088
G1 X0.02 Y22.35 Z0.89 F2400.0 E21464.349
G1 X8.36 Y27.93 Z0.89 F2400.0 E21476.904
G1 X29.35 Y27.93 Z0.89 F2400.0 E21503.165
G1 X29.35 Y27.47 Z0.89 F2400.0 E21503.747
G1 X8.36 Y27.47 Z0.89 F2400.0 E21530.008
G1 X8.36 Y27.0 Z0.89 F2400.0 E21530.591
G1 X27.26 Y27.0 Z0.89 F2400.0 E21554.231
G1 X27.26 Y26.54 Z0.89 F2400.0 E21554.813
G1 X8.36 Y26.54 Z0.89 F2400.0 E21578.453
G1 X8.36 Y26.07 Z0.89 F2400.0 E21579.036
G1 X27.26 Y26.07 Z0.89 F2400.0 E21602.676
G1 X27.26 Y25.61 Z0.89 F2400.0 E21603.258
G1 X8.36 Y25.61 Z0.89 F2400.0 E21626.898
G1 X10.45 Y24.21 Z0.89 F2400.0 E21630.048
G1 X25.16 Y24.21 Z0.89 F2400.0 E21648.446
G1 X25.16 Y23.74 Z0.89 F2400.0 E21649.029
G1 X10.45 Y23.74 Z0.89 F2400.0 E21667.428
G1 X10.45 Y23.28 Z0.89 F2400.0 E21668.009
G1 X25.16 Y23.28 Z0.89 F2400.0 E21686.408
G1 X25.16 Y22.81 Z0.89 F2400.0 E21686.991
G1 X10.45 Y22.81 Z0.89 F2400.0 E21705.389
G1 X8.36 Y22.35 Z0.89 F2400.0 E21708.074
G1 X0.02 Y11.64 Z0.89 F2400.0 E21725.052
G1 X-29.35 Y11.64 Z0.89 F2400.0 E21761.796
G1 X-29.35 Y12.1 Z0.89 F2400.0 E21762.378
G1 X0.02 Y12.1 Z0.89 F2400.0 E21799.122
G1 X0.02 Y12.57 Z0.89 F2400.0 E21799.705
G1 X-29.35 Y12.57 Z0.89 F2400.0 E21836.45
G1 X-29.35 Y13.04 Z0.89 F2400.0 E21837.033
G1 X0.02 Y13.04 Z0.89 F2400.0 E21873.777
G1 X0.02 Y13.5 Z0.89 F2400.0 E21874.359
G1 X-29.35 Y13.5 Z0.89 F2400.0 E21911.103
;M103
G1 X9.74 Y22.35 Z0.89 F2400.0
;M101
G1 X25.16 Y22.35 Z0.89 F2400.0 E21930.392
G1 X25.16 Y21.88 Z0.89 F2400.0 E21930.975
G1 X8.36 Y21.88 Z0.89 F2400.0 E21951.994
G1 X8.36 Y21.42 Z0.89 F2400.0 E21952.576
G1 X25.16 Y21.42 Z0.89 F2400.0 E21973.596
G1 X25.16 Y20.95 Z0.89 F2400.0 E21974.178
G1 X8.36 Y20.95 Z0.89 F2400.0 E21995.198
G1 X8.36 Y20.48 Z0.89 F2400.0 E21995.781
G1 X25.16 Y20.48 Z0.89 F2400.0 E22016.8
;M103
G1 X-18.88 Y0.0 Z0.89 F2400.0
;M101
G1 X0.02 Y0.0 Z0.89 F2400.0 E22040.44
G1 X0.02 Y0.47 Z0.89 F2400.0 E22041.023
G1 X-18.88 Y0.47 Z0.89 F2400.0 E22064.663
G1 X-18.88 Y0.93 Z0.89 F2400.0 E22065.245
G1 X0.02 Y0.93 Z0.89 F2400.0 E22088.885
G1 X0.02 Y1.4 Z0.89 F2400.0 E22089.468
G1 X-18.88 Y1.4 Z0.89 F2400.0 E22113.108
G1 X-18.88 Y1.86 Z0.89 F2400.0 E22113.69
G1 X0.02 Y1.86 Z0.89 F2400.0 E22137.33
G1 X0.02 Y2.33 Z0.89 F2400.0 E22137.913
G1 X-18.88 Y2.33 Z0.89 F2400.0 E22161.553
G1 X-18.88 Y2.79 Z0.89 F2400.0 E22162.135
G1 X0.02 Y2.79 Z0.89 F2400.0 E22185.775
G1 X0.02 Y3.26 Z0.89 F2400.0 E22186.358
G1 X-20.97 Y3.26 Z0.89 F2400.0 E22212.619
G1 X-20.97 Y3.72 Z0.89 F2400.0 E22213.201
G1 X0.02 Y3.72 Z0.89 F2400.0 E22239.462
G1 X0.02 Y4.19 Z0.89 F2400.0 E22240.045
G1 X-27.26 Y4.19 Z0.89 F2400.0 E22274.168
G1 X-27.26 Y4.66 Z0.89 F2400.0 E22274.751
G1 X0.02 Y4.66 Z0.89 F2400.0 E22308.875
G1 X0.02 Y5.12 Z0.89 F2400.0 E22309.456
G1 X-29.35 Y5.12 Z0.89 F2400.0 E22346.201
G1 X-29.35 Y5.59 Z0.89 F2400.0 E22346.784
G1 X0.02 Y5.59 Z0.89 F2400.0 E22383.528
G1 X0.02 Y6.05 Z0.89 F2400.0 E22384.11
G1 X-31.45 Y6.05 Z0.89 F2400.0 E22423.475
G1 X-31.45 Y6.52 Z0.89 F2400.0 E22424.058
G1 X0.02 Y6.52 Z0.89 F2400.0 E22463.423
G1 X0.02 Y6.98 Z0.89 F2400.0 E22464.005
G1 X-31.45 Y6.98 Z0.89 F2400.0 E22503.37
G1 X-31.45 Y7.45 Z0.89 F2400.0 E22503.953
G1 X0.02 Y7.45 Z0.89 F2400.0 E22543.318
G1 X0.02 Y7.91 Z0.89 F2400.0 E22543.9
G1 X-31.45 Y7.91 Z0.89 F2400.0 E22583.265
G1 X-31.45 Y8.38 Z0.89 F2400.0 E22583.848
G1 X0.02 Y8.38 Z0.89 F2400.0 E22623.214
G1 X0.02 Y8.85 Z0.89 F2400.0 E22623.797
G1 X-31.45 Y8.85 Z0.89 F2400.0 E22663.162
G1 X-31.45 Y9.31 Z0.89 F2400.0 E22663.743
G1 X0.02 Y9.31 Z0.89 F2400.0 E22703.109
G1 X0.02 Y9.78 Z0.89 F2400.0 E22703.692
G1 X-31.45 Y9.78 Z0.89 F2400.0 E22743.057
G1 X-29.35 Y11.17 Z0.89 F2400.0 E22746.206
G1 X0.02 Y11.17 Z0.89 F2400.0 E22782.951
G1 X0.02 Y10.71 Z0.89 F2400.0 E22783.532
G1 X-29.35 Y10.71 Z0.89 F2400.0 E22820.277
G1 X-29.35 Y10.24 Z0.89 F2400.0 E22820.86
G1 X0.02 Y10.24 Z0.89 F2400.0 E22857.604
G1 X4.17 Y8.38 Z0.89 F2400.0 E22863.292
G1 X6.26 Y8.85 Z0.89 F2400.0 E22865.977
G1 X23.07 Y8.85 Z0.89 F2400.0 E22886.996
G1 X23.07 Y9.31 Z0.89 F2400.0 E22887.578
G1 X6.26 Y9.31 Z0.89 F2400.0 E22908.597
G1 X6.26 Y9.78 Z0.89 F2400.0 E22909.18
G1 X23.07 Y9.78 Z0.89 F2400.0 E22930.2
G1 X23.07 Y10.24 Z0.89 F2400.0 E22930.781
G1 X6.26 Y10.24 Z0.89 F2400.0 E22951.801
G1 X6.26 Y10.71 Z0.89 F2400.0 E22952.383
G1 X23.07 Y10.71 Z0.89 F2400.0 E22973.403
G1 X23.07 Y11.17 Z0.89 F2400.0 E22973.985
G1 X6.26 Y11.17 Z0.89 F2400.0 E22995.004
G1 X6.26 Y11.64 Z0.89 F2400.0 E22995.587
G1 X23.07 Y11.64 Z0.89 F2400.0 E23016.606
G1 X23.07 Y12.1 Z0.89 F2400.0 E23017.188
G1 X6.26 Y12.1 Z0.89 F2400.0 E23038.207
G1 X6.26 Y12.57 Z0.89 F2400.0 E23038.79
G1 X23.07 Y12.57 Z0.89 F2400.0 E23059.809
G1 X23.07 Y13.04 Z0.89 F2400.0 E23060.392
G1 X6.26 Y13.04 Z0.89 F2400.0 E23081.412
G1 X6.26 Y13.5 Z0.89 F2400.0 E23081.993
G1 X23.07 Y13.5 Z0.89 F2400.0 E23103.013
G1 X23.07 Y13.97 Z0.89 F2400.0 E23103.596
G1 X6.26 Y13.97 Z0.89 F2400.0 E23124.615
G1 X6.26 Y14.43 Z0.89 F2400.0 E23125.197
G1 X23.07 Y14.43 Z0.89 F2400.0 E23146.216
G1 X23.07 Y14.9 Z0.89 F2400.0 E23146.799
G1 X6.26 Y14.9 Z0.89 F2400.0 E23167.818
G1 X6.26 Y15.36 Z0.89 F2400.0 E23168.4
G1 X23.07 Y15.36 Z0.89 F2400.0 E23189.419
G1 X23.07 Y15.83 Z0.89 F2400.0 E23190.002
G1 X8.36 Y15.83 Z0.89 F2400.0 E23208.401
G1 X8.36 Y16.29 Z0.89 F2400.0 E23208.982
G1 X23.07 Y16.29 Z0.89 F2400.0 E23227.381
G1 X23.07 Y16.76 Z0.89 F2400.0 E23227.964
G1 X8.36 Y16.76 Z0.89 F2400.0 E23246.362
G1 X8.36 Y17.23 Z0.89 F2400.0 E23246.945
G1 X23.07 Y17.23 Z0.89 F2400.0 E23265.344
G1 X23.07 Y17.69 Z0.89 F2400.0 E23265.925
G1 X8.36 Y17.69 Z0.89 F2400.0 E23284.324
G1 X8.36 Y18.16 Z0.89 F2400.0 E23284.907
G1 X23.07 Y18.16 Z0.89 F2400.0 E23303.305
G1 X23.07 Y18.62 Z0.89 F2400.0 E23303.887
G1 X8.36 Y18.62 Z0.89 F2400.0 E23322.285
G1 X8.36 Y19.09 Z0.89 F2400.0 E23322.868
G1 X23.07 Y19.09 Z0.89 F2400.0 E23341.267
G1 X23.07 Y19.55 Z0.89 F2400.0 E23341.849
G1 X8.36 Y19.55 Z0.89 F2400.0 E23360.247
G1 X8.36 Y20.02 Z0.89 F2400.0 E23360.83
G1 X23.07 Y20.02 Z0.89 F2400.0 E23379.228
;M103
G1 X5.55 Y8.38 Z0.89 F2400.0
;M101
G1 X23.07 Y8.38 Z0.89 F2400.0 E23401.138
G1 X23.07 Y7.91 Z0.89 F2400.0 E23401.721
G1 X4.17 Y7.91 Z0.89 F2400.0 E23425.362
G1 X4.17 Y7.45 Z0.89 F2400.0 E23425.943
G1 X23.07 Y7.45 Z0.89 F2400.0 E23449.583
G1 X23.07 Y6.98 Z0.89 F2400.0 E23450.166
G1 X4.17 Y6.98 Z0.89 F2400.0 E23473.807
G1 X4.17 Y6.52 Z0.89 F2400.0 E23474.388
G1 X23.07 Y6.52 Z0.89 F2400.0 E23498.028
G1 X23.07 Y6.05 Z0.89 F2400.0 E23498.611
G1 X4.17 Y6.05 Z0.89 F2400.0 E23522.252
G1 X4.17 Y5.59 Z0.89 F2400.0 E23522.833
G1 X23.07 Y5.59 Z0.89 F2400.0 E23546.473
G1 X23.07 Y5.12 Z0.89 F2400.0 E23547.056
G1 X4.17 Y5.12 Z0.89 F2400.0 E23570.696
G1 X4.17 Y4.66 Z0.89 F2400.0 E23571.278
G1 X23.07 Y4.66 Z0.89 F2400.0 E23594.918
G1 X23.07 Y4.19 Z0.89 F2400.0 E23595.501
G1 X4.17 Y4.19 Z0.89 F2400.0 E23619.141
G1 X4.17 Y3.72 Z0.89 F2400.0 E23619.724
G1 X23.07 Y3.72 Z0.89 F2400.0 E23643.365
G1 X23.07 Y3.26 Z0.89 F2400.0 E23643.946
G1 X4.17 Y3.26 Z0.89 F2400.0 E23667.586
G1 X4.17 Y2.79 Z0.89 F2400.0 E23668.169
G1 X23.07 Y2.79 Z0.89 F2400.0 E23691.81
G1 X23.07 Y2.33 Z0.89 F2400.0 E23692.391
G1 X4.17 Y2.33 Z0.89 F2400.0 E23716.031
G1 X4.17 Y1.86 Z0.89 F2400.0 E23716.614
G1 X23.07 Y1.86 Z0.89 F2400.0 E23740.255
G1 X23.07 Y1.4 Z0.89 F2400.0 E23740.836
G1 X4.17 Y1.4 Z0.89 F2400.0 E23764.476
G1 X4.17 Y0.93 Z0.89 F2400.0 E23765.059
G1 X23.07 Y0.93 Z0.89 F2400.0 E23788.7
G1 X23.07 Y0.47 Z0.89 F2400.0 E23789.281
G1 X4.17 Y0.47 Z0.89 F2400.0 E23812.921
G1 X4.17 Y0.0 Z0.89 F2400.0 E23813.504
G1 X23.07 Y0.0 Z0.89 F2400.0 E23837.144
G1 X23.07 Y-0.47 Z0.89 F2400.0 E23837.727
G1 X4.17 Y-0.47 Z0.89 F2400.0 E23861.368
;M103
G1 X-16.78 Y-7.45 Z0.89 F2400.0
;M101
G1 X23.07 Y-7.45 Z0.89 F2400.0 E23911.216
G1 X23.07 Y-7.91 Z0.89 F2400.0 E23911.798
G1 X-16.78 Y-7.91 Z0.89 F2400.0 E23961.647
G1 X-16.78 Y-8.38 Z0.89 F2400.0 E23962.229
G1 X23.07 Y-8.38 Z0.89 F2400.0 E24012.078
G1 X23.07 Y-8.85 Z0.89 F2400.0 E24012.661
G1 X-16.78 Y-8.85 Z0.89 F2400.0 E24062.51
G1 X-16.78 Y-9.31 Z0.89 F2400.0 E24063.091
G1 X23.07 Y-9.31 Z0.89 F2400.0 E24112.94
G1 X23.07 Y-9.78 Z0.89 F2400.0 E24113.523
G1 X-16.78 Y-9.78 Z0.89 F2400.0 E24163.372
G1 X-16.78 Y-10.24 Z0.89 F2400.0 E24163.953
G1 X23.07 Y-10.24 Z0.89 F2400.0 E24213.802
G1 X23.07 Y-10.71 Z0.89 F2400.0 E24214.385
G1 X-16.78 Y-10.71 Z0.89 F2400.0 E24264.233
G1 X-16.78 Y-11.17 Z0.89 F2400.0 E24264.815
G1 X23.07 Y-11.17 Z0.89 F2400.0 E24314.664
G1 X23.07 Y-11.64 Z0.89 F2400.0 E24315.247
G1 X-16.78 Y-11.64 Z0.89 F2400.0 E24365.095
G1 X-16.78 Y-12.1 Z0.89 F2400.0 E24365.677
G1 X23.07 Y-12.1 Z0.89 F2400.0 E24415.526
G1 X23.07 Y-12.57 Z0.89 F2400.0 E24416.109
G1 X-16.78 Y-12.57 Z0.89 F2400.0 E24465.957
G1 X-16.78 Y-13.04 Z0.89 F2400.0 E24466.54
G1 X23.07 Y-13.04 Z0.89 F2400.0 E24516.389
G1 X23.07 Y-13.5 Z0.89 F2400.0 E24516.97
G1 X-16.78 Y-13.5 Z0.89 F2400.0 E24566.819
G1 X-16.78 Y-13.97 Z0.89 F2400.0 E24567.402
G1 X23.07 Y-13.97 Z0.89 F2400.0 E24617.251
G1 X23.07 Y-14.43 Z0.89 F2400.0 E24617.832
G1 X-14.69 Y-14.43 Z0.89 F2400.0 E24665.06
G1 X-14.69 Y-14.9 Z0.89 F2400.0 E24665.643
G1 X23.07 Y-14.9 Z0.89 F2400.0 E24712.871
G1 X23.07 Y-15.36 Z0.89 F2400.0 E24713.452
G1 X-14.69 Y-15.36 Z0.89 F2400.0 E24760.68
G1 X-14.69 Y-15.83 Z0.89 F2400.0 E24761.263
G1 X23.07 Y-15.83 Z0.89 F2400.0 E24808.491
G1 X23.07 Y-16.29 Z0.89 F2400.0 E24809.073
G1 X-14.69 Y-16.29 Z0.89 F2400.0 E24856.3
G1 X-14.69 Y-16.76 Z0.89 F2400.0 E24856.883
G1 X23.07 Y-16.76 Z0.89 F2400.0 E24904.111
G1 X23.07 Y-17.23 Z0.89 F2400.0 E24904.694
G1 X-14.69 Y-17.23 Z0.89 F2400.0 E24951.922
G1 X-14.69 Y-17.69 Z0.89 F2400.0 E24952.504
G1 X23.07 Y-17.69 Z0.89 F2400.0 E24999.731
G1 X23.07 Y-18.16 Z0.89 F2400.0 E25000.314
G1 X-14.69 Y-18.16 Z0.89 F2400.0 E25047.542
G1 X-14.69 Y-18.62 Z0.89 F2400.0 E25048.124
G1 X23.07 Y-18.62 Z0.89 F2400.0 E25095.351
G1 X23.07 Y-19.09 Z0.89 F2400.0 E25095.934
G1 X-14.69 Y-19.09 Z0.89 F2400.0 E25143.162
G1 X-14.69 Y-19.55 Z0.89 F2400.0 E25143.744
G1 X23.07 Y-19.55 Z0.89 F2400.0 E25190.972
G1 X23.07 Y-20.02 Z0.89 F2400.0 E25191.555
G1 X-14.69 Y-20.02 Z0.89 F2400.0 E25238.782
G1 X-14.69 Y-20.48 Z0.89 F2400.0 E25239.364
G1 X23.07 Y-20.48 Z0.89 F2400.0 E25286.592
G1 X23.07 Y-20.95 Z0.89 F2400.0 E25287.175
G1 X-14.69 Y-20.95 Z0.89 F2400.0 E25334.403
G1 X-12.59 Y-25.61 Z0.89 F2400.0 E25340.79
G1 X23.07 Y-25.61 Z0.89 F2400.0 E25385.397
G1 X23.07 Y-25.14 Z0.89 F2400.0 E25385.98
G1 X-12.59 Y-25.14 Z0.89 F2400.0 E25430.586
G1 X-12.59 Y-24.67 Z0.89 F2400.0 E25431.169
G1 X23.07 Y-24.67 Z0.89 F2400.0 E25475.776
G1 X23.07 Y-24.21 Z0.89 F2400.0 E25476.358
G1 X-12.59 Y-24.21 Z0.89 F2400.0 E25520.965
G1 X-12.59 Y-23.74 Z0.89 F2400.0 E25521.548
G1 X23.07 Y-23.74 Z0.89 F2400.0 E25566.155
G1 X23.07 Y-23.28 Z0.89 F2400.0 E25566.737
G1 X-12.59 Y-23.28 Z0.89 F2400.0 E25611.343
G1 X-12.59 Y-22.81 Z0.89 F2400.0 E25611.926
G1 X23.07 Y-22.81 Z0.89 F2400.0 E25656.533
G1 X23.07 Y-22.35 Z0.89 F2400.0 E25657.115
G1 X-12.59 Y-22.35 Z0.89 F2400.0 E25701.722
G1 X-12.59 Y-21.88 Z0.89 F2400.0 E25702.305
G1 X23.07 Y-21.88 Z0.89 F2400.0 E25746.912
G1 X23.07 Y-21.42 Z0.89 F2400.0 E25747.494
G1 X-12.59 Y-21.42 Z0.89 F2400.0 E25792.1
;M103
G1 X-19.59 Y-32.59 Z0.89 F2400.0
;M101
G1 X23.07 Y-32.59 Z0.89 F2400.0 E25845.461
G1 X20.97 Y-33.99 Z0.89 F2400.0 E25848.611
G1 X-20.97 Y-33.99 Z0.89 F2400.0 E25901.08
G1 X-20.97 Y-34.45 Z0.89 F2400.0 E25901.662
G1 X20.97 Y-34.45 Z0.89 F2400.0 E25954.131
G1 X20.97 Y-34.92 Z0.89 F2400.0 E25954.714
G1 X-20.97 Y-34.92 Z0.89 F2400.0 E26007.184
G1 X-20.97 Y-35.38 Z0.89 F2400.0 E26007.765
G1 X20.97 Y-35.38 Z0.89 F2400.0 E26060.235
G1 X20.97 Y-35.85 Z0.89 F2400.0 E26060.818
G1 X-20.97 Y-35.85 Z0.89 F2400.0 E26113.287
G1 X-23.07 Y-36.31 Z0.89 F2400.0 E26115.972
;M103
G1 X-21.68 Y-36.31 Z0.89 F2400.0
;M101
G1 X20.97 Y-36.31 Z0.89 F2400.0 E26169.332
G1 X20.97 Y-36.78 Z0.89 F2400.0 E26169.915
G1 X-23.07 Y-36.78 Z0.89 F2400.0 E26225.005
G1 X-23.07 Y-37.24 Z0.89 F2400.0 E26225.587
G1 X20.97 Y-37.24 Z0.89 F2400.0 E26280.677
G1 X20.97 Y-37.71 Z0.89 F2400.0 E26281.26
G1 X-2.12 Y-37.71 Z0.89 F2400.0 E26310.142
G1 X-2.12 Y-38.18 Z0.89 F2400.0 E26310.725
G1 X20.97 Y-38.18 Z0.89 F2400.0 E26339.607
G1 X20.97 Y-38.64 Z0.89 F2400.0 E26340.189
G1 X-2.12 Y-38.64 Z0.89 F2400.0 E26369.07
G1 X-6.26 Y-38.18 Z0.89 F2400.0 E26374.292
G1 X-23.07 Y-38.18 Z0.89 F2400.0 E26395.311
G1 X-23.07 Y-37.71 Z0.89 F2400.0 E26395.894
G1 X-6.26 Y-37.71 Z0.89 F2400.0 E26416.914
;M103
G1 X-16.78 Y-45.62 Z0.89 F2400.0
;M101
G1 X-14.64 Y-45.62 Z0.89 F2400.0 E26419.587
;M103
G1 X-12.55 Y-42.83 Z0.89 F2400.0
;M101
G1 X-23.07 Y-42.83 Z0.89 F2400.0 E26432.744
G1 X-23.07 Y-42.37 Z0.89 F2400.0 E26433.326
G1 X-12.55 Y-42.37 Z0.89 F2400.0 E26446.482
;M103
G1 X-15.4 Y-28.86 Z0.89 F2400.0
;M101
G1 X23.07 Y-28.86 Z0.89 F2400.0 E26494.601
G1 X23.07 Y-29.33 Z0.89 F2400.0 E26495.184
G1 X-16.78 Y-29.33 Z0.89 F2400.0 E26545.032
G1 X-16.78 Y-29.8 Z0.89 F2400.0 E26545.615
G1 X23.07 Y-29.8 Z0.89 F2400.0 E26595.464
G1 X23.07 Y-30.26 Z0.89 F2400.0 E26596.046
G1 X-18.88 Y-30.26 Z0.89 F2400.0 E26648.515
G1 X-18.88 Y-30.73 Z0.89 F2400.0 E26649.098
G1 X23.07 Y-30.73 Z0.89 F2400.0 E26701.568
G1 X23.07 Y-31.19 Z0.89 F2400.0 E26702.149
G1 X-18.88 Y-31.19 Z0.89 F2400.0 E26754.619
G1 X-18.88 Y-31.66 Z0.89 F2400.0 E26755.202
G1 X23.07 Y-31.66 Z0.89 F2400.0 E26807.671
G1 X23.07 Y-32.12 Z0.89 F2400.0 E26808.253
G1 X-18.88 Y-32.12 Z0.89 F2400.0 E26860.722
G1 X-20.97 Y-32.59 Z0.89 F2400.0 E26863.407
G1 X-20.97 Y-33.05 Z0.89 F2400.0 E26863.989
G1 X20.97 Y-33.05 Z0.89 F2400.0 E26916.458
G1 X20.97 Y-33.52 Z0.89 F2400.0 E26917.041
G1 X-20.97 Y-33.52 Z0.89 F2400.0 E26969.511
;M103
G1 X-18.88 Y-45.16 Z0.89 F2400.0
;M101
G1 X-12.55 Y-45.16 Z0.89 F2400.0 E26977.426
G1 X-12.55 Y-44.69 Z0.89 F2400.0 E26978.009
G1 X-20.97 Y-44.69 Z0.89 F2400.0 E26988.545
G1 X-20.97 Y-44.23 Z0.89 F2400.0 E26989.126
G1 X-12.55 Y-44.23 Z0.89 F2400.0 E26999.662
G1 X-12.55 Y-43.76 Z0.89 F2400.0 E27000.245
G1 X-20.97 Y-43.76 Z0.89 F2400.0 E27010.781
G1 X-20.97 Y-43.3 Z0.89 F2400.0 E27011.363
G1 X-12.55 Y-43.3 Z0.89 F2400.0 E27021.899
G1 X-10.45 Y-41.9 Z0.89 F2400.0 E27025.049
G1 X-23.07 Y-41.9 Z0.89 F2400.0 E27040.827
G1 X-23.07 Y-41.43 Z0.89 F2400.0 E27041.409
G1 X-10.45 Y-41.43 Z0.89 F2400.0 E27057.187
G1 X-10.45 Y-40.97 Z0.89 F2400.0 E27057.769
G1 X-23.07 Y-40.97 Z0.89 F2400.0 E27073.546
G1 X-23.07 Y-40.5 Z0.89 F2400.0 E27074.129
G1 X-10.45 Y-40.5 Z0.89 F2400.0 E27089.907
G1 X-10.45 Y-40.04 Z0.89 F2400.0 E27090.489
G1 X-23.07 Y-40.04 Z0.89 F2400.0 E27106.266
G1 X-23.07 Y-39.57 Z0.89 F2400.0 E27106.849
G1 X-8.36 Y-39.57 Z0.89 F2400.0 E27125.248
G1 X-8.36 Y-39.11 Z0.89 F2400.0 E27125.829
G1 X-23.07 Y-39.11 Z0.89 F2400.0 E27144.228
G1 X-23.07 Y-38.64 Z0.89 F2400.0 E27144.811
G1 X-8.36 Y-38.64 Z0.89 F2400.0 E27163.209
G1 X2.07 Y-39.11 Z0.89 F2400.0 E27176.274
G1 X18.88 Y-39.11 Z0.89 F2400.0 E27197.293
G1 X18.88 Y-39.57 Z0.89 F2400.0 E27197.875
G1 X4.17 Y-39.57 Z0.89 F2400.0 E27216.274
G1 X4.17 Y-40.04 Z0.89 F2400.0 E27216.856
G1 X18.88 Y-40.04 Z0.89 F2400.0 E27235.255
G1 X18.88 Y-40.5 Z0.89 F2400.0 E27235.837
G1 X6.26 Y-40.5 Z0.89 F2400.0 E27251.614
G1 X6.26 Y-40.97 Z0.89 F2400.0 E27252.197
G1 X18.88 Y-40.97 Z0.89 F2400.0 E27267.975
G1 X18.88 Y-41.43 Z0.89 F2400.0 E27268.557
G1 X6.26 Y-41.43 Z0.89 F2400.0 E27284.334
G1 X6.26 Y-41.9 Z0.89 F2400.0 E27284.917
G1 X18.88 Y-41.9 Z0.89 F2400.0 E27300.695
G1 X18.88 Y-42.37 Z0.89 F2400.0 E27301.278
G1 X6.26 Y-42.37 Z0.89 F2400.0 E27317.055
G1 X6.26 Y-42.83 Z0.89 F2400.0 E27317.637
G1 X16.78 Y-42.83 Z0.89 F2400.0 E27330.794
G1 X16.78 Y-43.3 Z0.89 F2400.0 E27331.377
G1 X6.26 Y-43.3 Z0.89 F2400.0 E27344.534
G1 X6.26 Y-43.76 Z0.89 F2400.0 E27345.115
G1 X16.78 Y-43.76 Z0.89 F2400.0 E27358.272
G1 X16.78 Y-44.23 Z0.89 F2400.0 E27358.855
G1 X6.26 Y-44.23 Z0.89 F2400.0 E27372.012
;M103
G1 X14.69 Y-46.56 Z0.89 F2400.0
;M101
G1 X10.45 Y-46.56 Z0.89 F2400.0 E27377.306
G1 X10.45 Y-46.09 Z0.89 F2400.0 E27377.889
G1 X14.69 Y-46.09 Z0.89 F2400.0 E27383.183
G1 X16.78 Y-44.69 Z0.89 F2400.0 E27386.333
G1 X8.36 Y-44.69 Z0.89 F2400.0 E27396.869
G1 X8.36 Y-45.16 Z0.89 F2400.0 E27397.452
G1 X10.45 Y-45.62 Z0.89 F2400.0 E27400.137
G1 X14.69 Y-45.62 Z0.89 F2400.0 E27405.431
G1 X14.69 Y-45.16 Z0.89 F2400.0 E27406.013
G1 X9.74 Y-45.16 Z0.89 F2400.0 E27412.198
;M103
G1 X-16.78 Y-28.86 Z0.89 F2400.0
;M101
G1 X-14.69 Y-28.4 Z0.89 F2400.0 E27414.882
G1 X23.07 Y-28.4 Z0.89 F2400.0 E27462.11
G1 X23.07 Y-27.93 Z0.89 F2400.0 E27462.693
G1 X-14.69 Y-27.93 Z0.89 F2400.0 E27509.921
G1 X-14.69 Y-27.47 Z0.89 F2400.0 E27510.503
G1 X23.07 Y-27.47 Z0.89 F2400.0 E27557.73
G1 X23.07 Y-27.0 Z0.89 F2400.0 E27558.313
G1 X-14.69 Y-27.0 Z0.89 F2400.0 E27605.541
G1 X-14.69 Y-26.54 Z0.89 F2400.0 E27606.123
G1 X23.07 Y-26.54 Z0.89 F2400.0 E27653.35
G1 X23.07 Y-26.07 Z0.89 F2400.0 E27653.933
G1 X-14.69 Y-26.07 Z0.89 F2400.0 E27701.161
G1 X-18.88 Y-6.98 Z0.89 F2400.0 E27725.609
G1 X23.07 Y-6.98 Z0.89 F2400.0 E27778.078
G1 X23.07 Y-6.52 Z0.89 F2400.0 E27778.66
G1 X-18.88 Y-6.52 Z0.89 F2400.0 E27831.129
G1 X-18.88 Y-6.05 Z0.89 F2400.0 E27831.712
G1 X23.07 Y-6.05 Z0.89 F2400.0 E27884.182
G1 X23.07 Y-5.59 Z0.89 F2400.0 E27884.764
G1 X-18.88 Y-5.59 Z0.89 F2400.0 E27937.233
G1 X-18.88 Y-5.12 Z0.89 F2400.0 E27937.816
G1 X23.07 Y-5.12 Z0.89 F2400.0 E27990.285
G1 X23.07 Y-4.66 Z0.89 F2400.0 E27990.867
G1 X-18.88 Y-4.66 Z0.89 F2400.0 E28043.337
G1 X-18.88 Y-4.19 Z0.89 F2400.0 E28043.919
G1 X23.07 Y-4.19 Z0.89 F2400.0 E28096.389
G1 X23.07 Y-3.72 Z0.89 F2400.0 E28096.972
G1 X2.07 Y-3.72 Z0.89 F2400.0 E28123.233
G1 X2.07 Y-3.26 Z0.89 F2400.0 E28123.815
G1 X23.07 Y-3.26 Z0.89 F2400.0 E28150.076
G1 X23.07 Y-2.79 Z0.89 F2400.0 E28150.659
G1 X2.07 Y-2.79 Z0.89 F2400.0 E28176.92
G1 X2.07 Y-2.33 Z0.89 F2400.0 E28177.501
G1 X23.07 Y-2.33 Z0.89 F2400.0 E28203.762
G1 X23.07 Y-1.86 Z0.89 F2400.0 E28204.345
G1 X2.07 Y-1.86 Z0.89 F2400.0 E28230.606
G1 X2.07 Y-1.4 Z0.89 F2400.0 E28231.188
G1 X23.07 Y-1.4 Z0.89 F2400.0 E28257.449
G1 X23.07 Y-0.93 Z0.89 F2400.0 E28258.032
G1 X2.07 Y-0.93 Z0.89 F2400.0 E28284.293
G1 X0.02 Y-0.47 Z0.89 F2400.0 E28286.926
G1 X-18.88 Y-0.47 Z0.89 F2400.0 E28310.566
G1 X-18.88 Y-0.93 Z0.89 F2400.0 E28311.148
G1 X0.02 Y-0.93 Z0.89 F2400.0 E28334.788
G1 X0.02 Y-1.4 Z0.89 F2400.0 E28335.371
G1 X-18.88 Y-1.4 Z0.89 F2400.0 E28359.011
G1 X-18.88 Y-1.86 Z0.89 F2400.0 E28359.593
G1 X0.02 Y-1.86 Z0.89 F2400.0 E28383.233
G1 X0.02 Y-2.33 Z0.89 F2400.0 E28383.816
G1 X-18.88 Y-2.33 Z0.89 F2400.0 E28407.456
G1 X-18.88 Y-2.79 Z0.89 F2400.0 E28408.038
G1 X0.02 Y-2.79 Z0.89 F2400.0 E28431.678
G1 X0.02 Y-3.26 Z0.89 F2400.0 E28432.261
G1 X-18.88 Y-3.26 Z0.89 F2400.0 E28455.901
G1 X-18.88 Y-3.72 Z0.89 F2400.0 E28456.483
G1 X0.02 Y-3.72 Z0.89 F2400.0 E28480.123
;M103
G1 X10.45 Y24.67 Z0.89 F2400.0
;M101
G1 X25.16 Y24.67 Z0.89 F2400.0 E28498.522
G1 X25.16 Y25.14 Z0.89 F2400.0 E28499.105
G1 X10.45 Y25.14 Z0.89 F2400.0 E28517.503
;M103
G1 X-12.59 Y45.62 Z0.89 F2400.0
;M101
G1 X-8.36 Y45.62 Z0.89 F2400.0 E28522.797
G1 X-8.36 Y46.09 Z0.89 F2400.0 E28523.38
G1 X-12.59 Y46.09 Z0.89 F2400.0 E28528.674
;M103
G1 X-14.69 Y45.16 Z0.89 F2400.0
;M101
G1 X-6.26 Y45.16 Z0.89 F2400.0 E28539.21
G1 X-6.26 Y44.69 Z0.89 F2400.0 E28539.793
G1 X-14.69 Y44.69 Z0.89 F2400.0 E28550.329
G1 X-14.69 Y44.23 Z0.89 F2400.0 E28550.911
G1 X-6.26 Y44.23 Z0.89 F2400.0 E28561.447
G1 X-6.26 Y43.76 Z0.89 F2400.0 E28562.03
G1 X-16.78 Y43.76 Z0.89 F2400.0 E28575.187
G1 X-16.78 Y43.3 Z0.89 F2400.0 E28575.768
G1 X10.5 Y43.3 Z0.89 F2400.0 E28609.892
G1 X10.5 Y43.76 Z0.89 F2400.0 E28610.474
G1 X-0.02 Y43.76 Z0.89 F2400.0 E28623.63
G1 X-0.02 Y44.23 Z0.89 F2400.0 E28624.213
G1 X10.5 Y44.23 Z0.89 F2400.0 E28637.37
G1 X10.5 Y44.69 Z0.89 F2400.0 E28637.952
G1 X2.07 Y44.69 Z0.89 F2400.0 E28648.488
G1 X-8.36 Y46.56 Z0.89 F2400.0 E28661.746
G1 X-10.5 Y46.56 Z0.89 F2400.0 E28664.419
;M103
;M108 S52.54
G1 X-5.55 Y-9.7 Z1.2 F2880.0
;M101
G1 X-9.46 Y-13.61 Z1.2 F1920.0 E28673.493
G1 X-9.32 Y-14.06 Z1.2 F1920.0 E28674.275
G1 X-5.55 Y-10.29 Z1.2 F1920.0 E28683.029
G1 X-5.56 Y-10.89 Z1.2 F1920.0 E28684.004
G1 X-9.19 Y-14.52 Z1.2 F1920.0 E28692.437
G1 X-9.05 Y-14.98 Z1.2 F1920.0 E28693.219
G1 X-5.56 Y-11.48 Z1.2 F1920.0 E28701.333
G1 X-5.55 Y-12.06 Z1.2 F1920.0 E28702.288
G1 X-8.91 Y-15.43 Z1.2 F1920.0 E28710.11
G1 X-8.78 Y-15.89 Z1.2 F1920.0 E28710.891
G1 X-5.52 Y-12.63 Z1.2 F1920.0 E28718.456
G1 X-5.5 Y-13.2 Z1.2 F1920.0 E28719.388
G1 X-8.64 Y-16.34 Z1.2 F1920.0 E28726.695
G1 X-8.51 Y-16.8 Z1.2 F1920.0 E28727.476
G1 X-5.47 Y-13.76 Z1.2 F1920.0 E28734.526
G1 X-5.45 Y-14.33 Z1.2 F1920.0 E28735.458
G1 X-8.37 Y-17.26 Z1.2 F1920.0 E28742.249
G1 X-8.24 Y-17.71 Z1.2 F1920.0 E28743.032
G1 X-5.42 Y-14.9 Z1.2 F1920.0 E28749.569
G1 X-5.4 Y-15.47 Z1.2 F1920.0 E28750.502
G1 X-8.1 Y-18.17 Z1.2 F1920.0 E28756.778
G1 X-7.96 Y-18.63 Z1.2 F1920.0 E28757.56
G1 X-5.37 Y-16.03 Z1.2 F1920.0 E28763.578
G1 X-5.35 Y-16.6 Z1.2 F1920.0 E28764.51
G1 X-7.83 Y-19.08 Z1.2 F1920.0 E28770.271
G1 X-7.69 Y-19.54 Z1.2 F1920.0 E28771.054
G1 X-5.32 Y-17.17 Z1.2 F1920.0 E28776.559
G1 X-5.29 Y-17.73 Z1.2 F1920.0 E28777.491
G1 X-7.55 Y-19.99 Z1.2 F1920.0 E28782.739
G1 X-7.42 Y-20.45 Z1.2 F1920.0 E28783.52
G1 X-5.27 Y-18.3 Z1.2 F1920.0 E28788.51
G1 X-5.24 Y-18.86 Z1.2 F1920.0 E28789.431
G1 X-7.28 Y-20.91 Z1.2 F1920.0 E28794.179
G1 X-7.15 Y-21.36 Z1.2 F1920.0 E28794.96
G1 X-5.16 Y-19.38 Z1.2 F1920.0 E28799.574
G1 X-5.08 Y-19.89 Z1.2 F1920.0 E28800.429
G1 X-7.01 Y-21.82 Z1.2 F1920.0 E28804.909
G1 X-6.87 Y-22.28 Z1.2 F1920.0 E28805.69
G1 X-5.0 Y-20.41 Z1.2 F1920.0 E28810.032
G1 X-4.93 Y-20.92 Z1.2 F1920.0 E28810.885
G1 X-6.74 Y-22.73 Z1.2 F1920.0 E28815.093
G1 X-6.6 Y-23.19 Z1.2 F1920.0 E28815.874
G1 X-4.85 Y-21.43 Z1.2 F1920.0 E28819.946
G1 X-4.77 Y-21.95 Z1.2 F1920.0 E28820.801
G1 X-6.46 Y-23.64 Z1.2 F1920.0 E28824.735
G1 X-6.33 Y-24.1 Z1.2 F1920.0 E28825.516
G1 X-4.69 Y-22.46 Z1.2 F1920.0 E28829.316
G1 X-4.61 Y-22.98 Z1.2 F1920.0 E28830.172
G1 X-6.21 Y-24.58 Z1.2 F1920.0 E28833.884
G1 X-6.12 Y-25.08 Z1.2 F1920.0 E28834.719
G1 X-4.54 Y-23.49 Z1.2 F1920.0 E28838.397
G1 X-4.44 Y-23.99 Z1.2 F1920.0 E28839.228
G1 X-6.03 Y-25.58 Z1.2 F1920.0 E28842.914
G1 X-5.94 Y-26.08 Z1.2 F1920.0 E28843.751
G1 X-4.28 Y-24.43 Z1.2 F1920.0 E28847.589
G1 X-4.13 Y-24.86 Z1.2 F1920.0 E28848.35
G1 X-5.84 Y-26.58 Z1.2 F1920.0 E28852.337
G1 X-5.75 Y-27.08 Z1.2 F1920.0 E28853.171
G1 X-3.97 Y-25.3 Z1.2 F1920.0 E28857.309
G1 X-3.81 Y-25.73 Z1.2 F1920.0 E28858.07
G1 X-5.66 Y-27.58 Z1.2 F1920.0 E28862.357
G1 X-5.75 Y-28.26 Z1.2 F1920.0 E28863.489
G1 X-3.66 Y-26.17 Z1.2 F1920.0 E28868.352
G1 X-3.5 Y-26.6 Z1.2 F1920.0 E28869.111
G1 X-5.92 Y-29.02 Z1.2 F1920.0 E28874.73
;M103
G1 X-6.96 Y-30.06 Z1.2 F2880.0
;M101
G1 X-10.57 Y-33.67 Z1.2 F1920.0 E28883.113
G1 X-11.89 Y-34.4 Z1.2 F1920.0 E28885.594
;M103
G1 X-10.82 Y-33.33 Z1.2 F2880.0
;M101
G1 X-8.22 Y-30.73 Z1.2 F1920.0 E28891.639
;M103
G1 X-9.49 Y-31.41 Z1.2 F2880.0
;M101
G1 X-15.96 Y-37.87 Z1.2 F1920.0 E28906.659
;M103
G1 X-15.58 Y-36.91 Z1.2 F2880.0
;M101
G1 X-11.01 Y-32.33 Z1.2 F1920.0 E28917.288
;M103
G1 X-9.47 Y-33.16 Z1.2 F2880.0
;M101
G1 X-3.34 Y-27.04 Z1.2 F1920.0 E28931.509
G1 X-3.19 Y-27.47 Z1.2 F1920.0 E28932.268
G1 X-8.39 Y-32.68 Z1.2 F1920.0 E28944.359
;M103
G1 X-7.32 Y-32.2 Z1.2 F2880.0
;M101
G1 X-2.89 Y-27.77 Z1.2 F1920.0 E28954.631
G1 X-2.6 Y-28.07 Z1.2 F1920.0 E28955.318
G1 X-6.24 Y-31.72 Z1.2 F1920.0 E28963.774
;M103
G1 X-5.17 Y-31.23 Z1.2 F2880.0
;M101
G1 X-2.31 Y-28.38 Z1.2 F1920.0 E28970.412
G1 X-2.02 Y-28.68 Z1.2 F1920.0 E28971.1
G1 X-4.15 Y-30.8 Z1.2 F1920.0 E28976.043
G1 X-3.52 Y-30.77 Z1.2 F1920.0 E28977.067
G1 X-1.73 Y-28.98 Z1.2 F1920.0 E28981.241
G1 X-1.43 Y-29.28 Z1.2 F1920.0 E28981.928
G1 X-2.9 Y-30.74 Z1.2 F1920.0 E28985.335
G1 X-2.29 Y-30.72 Z1.2 F1920.0 E28986.345
G1 X-1.1 Y-29.53 Z1.2 F1920.0 E28989.1
G1 X-0.73 Y-29.76 Z1.2 F1920.0 E28989.809
G1 X-1.88 Y-30.91 Z1.2 F1920.0 E28992.484
G1 X-1.48 Y-31.1 Z1.2 F1920.0 E28993.215
G1 X-0.36 Y-29.98 Z1.2 F1920.0 E28995.808
G1 X0.01 Y-30.21 Z1.2 F1920.0 E28996.516
G1 X-1.08 Y-31.29 Z1.2 F1920.0 E28999.029
G1 X-0.67 Y-31.48 Z1.2 F1920.0 E28999.76
G1 X0.36 Y-30.45 Z1.2 F1920.0 E29002.151
G1 X0.67 Y-30.73 Z1.2 F1920.0 E29002.84
G1 X-0.27 Y-31.67 Z1.2 F1920.0 E29005.015
G1 X0.07 Y-31.92 Z1.2 F1920.0 E29005.711
G1 X0.98 Y-31.01 Z1.2 F1920.0 E29007.811
G1 X1.22 Y-31.36 Z1.2 F1920.0 E29008.509
G1 X0.41 Y-32.18 Z1.2 F1920.0 E29010.396
G1 X0.74 Y-32.44 Z1.2 F1920.0 E29011.087
G1 X1.41 Y-31.77 Z1.2 F1920.0 E29012.637
G1 X1.57 Y-32.2 Z1.2 F1920.0 E29013.389
G1 X1.07 Y-32.69 Z1.2 F1920.0 E29014.544
G1 X1.41 Y-32.95 Z1.2 F1920.0 E29015.237
G1 X1.64 Y-32.72 Z1.2 F1920.0 E29015.771
;M103
G1 X-2.57 Y-27.09 Z1.2 F3600.0
G1 X-9.6 Y-13.15 Z1.2 F2880.0
;M101
G1 X-5.55 Y-9.11 Z1.2 F1920.0 E29025.165
G1 X-5.55 Y-8.51 Z1.2 F1920.0 E29026.142
G1 X-9.73 Y-12.69 Z1.2 F1920.0 E29035.857
G1 X-9.87 Y-12.24 Z1.2 F1920.0 E29036.638
G1 X-5.55 Y-7.92 Z1.2 F1920.0 E29046.672
G1 X-5.55 Y-7.32 Z1.2 F1920.0 E29047.648
G1 X-10.01 Y-11.78 Z1.2 F1920.0 E29058.004
G1 X-10.14 Y-11.33 Z1.2 F1920.0 E29058.785
G1 X-5.54 Y-6.73 Z1.2 F1920.0 E29069.461
G1 X-5.54 Y-6.13 Z1.2 F1920.0 E29070.436
G1 X-10.28 Y-10.87 Z1.2 F1920.0 E29081.432
G1 X-10.41 Y-10.41 Z1.2 F1920.0 E29082.213
G1 X-5.54 Y-5.54 Z1.2 F1920.0 E29093.531
G1 X-5.54 Y-4.95 Z1.2 F1920.0 E29094.506
G1 X-10.55 Y-9.96 Z1.2 F1920.0 E29106.142
G1 X-10.69 Y-9.5 Z1.2 F1920.0 E29106.924
G1 X-5.54 Y-4.35 Z1.2 F1920.0 E29118.881
G1 X-5.53 Y-3.76 Z1.2 F1920.0 E29119.856
G1 X-10.82 Y-9.04 Z1.2 F1920.0 E29132.133
G1 X-10.96 Y-8.59 Z1.2 F1920.0 E29132.915
G1 X-5.53 Y-3.16 Z1.2 F1920.0 E29145.512
G1 X-5.53 Y-2.57 Z1.2 F1920.0 E29146.489
G1 X-11.09 Y-8.13 Z1.2 F1920.0 E29159.409
G1 X-11.23 Y-7.68 Z1.2 F1920.0 E29160.19
G1 X-5.53 Y-1.97 Z1.2 F1920.0 E29173.429
G1 X-5.53 Y-1.38 Z1.2 F1920.0 E29174.404
G1 X-11.37 Y-7.22 Z1.2 F1920.0 E29187.963
G1 X-11.5 Y-6.76 Z1.2 F1920.0 E29188.746
G1 X-5.53 Y-0.79 Z1.2 F1920.0 E29202.624
G1 X-5.52 Y-0.19 Z1.2 F1920.0 E29203.6
G1 X-11.64 Y-6.31 Z1.2 F1920.0 E29217.799
G1 X-11.78 Y-5.85 Z1.2 F1920.0 E29218.581
G1 X-5.52 Y0.4 Z1.2 F1920.0 E29233.101
G1 X-5.52 Y1.0 Z1.2 F1920.0 E29234.078
G1 X-11.91 Y-5.4 Z1.2 F1920.0 E29248.919
G1 X-12.04 Y-4.93 Z1.2 F1920.0 E29249.715
G1 X-5.52 Y1.59 Z1.2 F1920.0 E29264.848
G1 X-5.52 Y2.19 Z1.2 F1920.0 E29265.823
G1 X-12.13 Y-4.43 Z1.2 F1920.0 E29281.178
G1 X-12.22 Y-3.93 Z1.2 F1920.0 E29282.011
G1 X-5.51 Y2.78 Z1.2 F1920.0 E29297.587
G1 X-5.51 Y3.37 Z1.2 F1920.0 E29298.562
G1 X-12.32 Y-3.43 Z1.2 F1920.0 E29314.36
G1 X-12.41 Y-2.93 Z1.2 F1920.0 E29315.192
G1 X-5.51 Y3.97 Z1.2 F1920.0 E29331.212
G1 X-5.51 Y4.56 Z1.2 F1920.0 E29332.188
G1 X-12.5 Y-2.43 Z1.2 F1920.0 E29348.429
G1 X-12.6 Y-1.93 Z1.2 F1920.0 E29349.262
G1 X-5.51 Y5.16 Z1.2 F1920.0 E29365.725
G1 X-5.51 Y5.75 Z1.2 F1920.0 E29366.7
G1 X-12.69 Y-1.44 Z1.2 F1920.0 E29383.385
G1 X-12.78 Y-0.94 Z1.2 F1920.0 E29384.217
G1 X-5.5 Y6.34 Z1.2 F1920.0 E29401.123
G1 X-5.5 Y6.94 Z1.2 F1920.0 E29402.1
G1 X-12.88 Y-0.44 Z1.2 F1920.0 E29419.228
G1 X-12.97 Y0.06 Z1.2 F1920.0 E29420.061
G1 X-5.5 Y7.53 Z1.2 F1920.0 E29437.411
G1 X-5.5 Y8.13 Z1.2 F1920.0 E29438.386
G1 X-13.07 Y0.56 Z1.2 F1920.0 E29455.957
G1 X-13.16 Y1.06 Z1.2 F1920.0 E29456.789
G1 X-5.5 Y8.72 Z1.2 F1920.0 E29474.582
G1 X-5.49 Y9.32 Z1.2 F1920.0 E29475.557
G1 X-13.25 Y1.56 Z1.2 F1920.0 E29493.572
G1 X-13.35 Y2.06 Z1.2 F1920.0 E29494.406
G1 X-5.49 Y9.91 Z1.2 F1920.0 E29512.642
G1 X-5.49 Y10.5 Z1.2 F1920.0 E29513.617
G1 X-13.44 Y2.55 Z1.2 F1920.0 E29532.076
G1 X-13.53 Y3.05 Z1.2 F1920.0 E29532.91
G1 X-5.49 Y11.1 Z1.2 F1920.0 E29551.59
G1 X-5.49 Y11.69 Z1.2 F1920.0 E29552.565
G1 X-13.63 Y3.55 Z1.2 F1920.0 E29571.466
G1 X-13.72 Y4.05 Z1.2 F1920.0 E29572.3
G1 X-5.49 Y12.29 Z1.2 F1920.0 E29591.422
G1 X-5.48 Y12.88 Z1.2 F1920.0 E29592.397
G1 X-13.82 Y4.55 Z1.2 F1920.0 E29611.743
G1 X-13.91 Y5.05 Z1.2 F1920.0 E29612.576
G1 X-5.48 Y13.48 Z1.2 F1920.0 E29632.142
G1 X-5.48 Y14.07 Z1.2 F1920.0 E29633.117
G1 X-14.0 Y5.55 Z1.2 F1920.0 E29652.905
G1 X-14.1 Y6.05 Z1.2 F1920.0 E29653.737
G1 X-5.48 Y14.66 Z1.2 F1920.0 E29673.748
G1 X-5.48 Y15.26 Z1.2 F1920.0 E29674.723
G1 X-14.19 Y6.54 Z1.2 F1920.0 E29694.955
G1 X-14.28 Y7.04 Z1.2 F1920.0 E29695.788
G1 X-5.41 Y15.91 Z1.2 F1920.0 E29716.386
G1 X-5.37 Y16.55 Z1.2 F1920.0 E29717.43
G1 X-14.38 Y7.54 Z1.2 F1920.0 E29738.342
G1 X-14.47 Y8.04 Z1.2 F1920.0 E29739.174
G1 X-5.33 Y17.18 Z1.2 F1920.0 E29760.403
G1 X-5.29 Y17.82 Z1.2 F1920.0 E29761.448
G1 X-14.61 Y8.49 Z1.2 F1920.0 E29783.095
G1 X-14.75 Y8.95 Z1.2 F1920.0 E29783.875
G1 X-5.24 Y18.45 Z1.2 F1920.0 E29805.942
G1 X-5.2 Y19.09 Z1.2 F1920.0 E29806.986
G1 X-14.89 Y9.4 Z1.2 F1920.0 E29829.475
G1 X-15.03 Y9.86 Z1.2 F1920.0 E29830.253
G1 X-5.21 Y19.67 Z1.2 F1920.0 E29853.047
G1 X-5.2 Y20.27 Z1.2 F1920.0 E29854.029
G1 X-15.23 Y10.24 Z1.2 F1920.0 E29877.32
G1 X-15.48 Y10.58 Z1.2 F1920.0 E29878.017
G1 X-5.2 Y20.87 Z1.2 F1920.0 E29901.894
G1 X-5.19 Y21.47 Z1.2 F1920.0 E29902.876
G1 X-15.97 Y10.69 Z1.2 F1920.0 E29927.903
G1 X-16.54 Y10.71 Z1.2 F1920.0 E29928.841
G1 X-5.19 Y22.06 Z1.2 F1920.0 E29955.205
G1 X-5.19 Y22.65 Z1.2 F1920.0 E29956.174
G1 X-17.1 Y10.74 Z1.2 F1920.0 E29983.826
G1 X-17.66 Y10.78 Z1.2 F1920.0 E29984.744
G1 X-5.22 Y23.22 Z1.2 F1920.0 E30013.623
G1 X-5.25 Y23.78 Z1.2 F1920.0 E30014.547
G1 X-18.22 Y10.81 Z1.2 F1920.0 E30044.654
G1 X-18.77 Y10.85 Z1.2 F1920.0 E30045.573
G1 X-5.28 Y24.34 Z1.2 F1920.0 E30076.907
G1 X-5.31 Y24.9 Z1.2 F1920.0 E30077.833
G1 X-19.36 Y10.86 Z1.2 F1920.0 E30110.452
G1 X-20.03 Y10.78 Z1.2 F1920.0 E30111.557
G1 X-5.34 Y25.47 Z1.2 F1920.0 E30145.662
G1 X-5.39 Y26.01 Z1.2 F1920.0 E30146.556
G1 X-20.69 Y10.7 Z1.2 F1920.0 E30182.096
G1 X-21.36 Y10.63 Z1.2 F1920.0 E30183.201
G1 X-5.46 Y26.53 Z1.2 F1920.0 E30220.132
G1 X-5.53 Y27.05 Z1.2 F1920.0 E30220.997
G1 X-22.28 Y10.3 Z1.2 F1920.0 E30259.901
G1 X-23.22 Y9.95 Z1.2 F1920.0 E30261.543
;M103
G1 X-22.51 Y10.66 Z1.2 F2880.0
;M101
G1 X-5.6 Y27.58 Z1.2 F1920.0 E30300.82
G1 X-5.67 Y28.1 Z1.2 F1920.0 E30301.686
G1 X-23.71 Y10.05 Z1.2 F1920.0 E30343.587
;M103
G1 X-23.0 Y11.36 Z1.2 F2880.0
;M101
G1 X-5.74 Y28.62 Z1.2 F1920.0 E30383.66
G1 X-5.87 Y29.08 Z1.2 F1920.0 E30384.445
G1 X-21.94 Y13.02 Z1.2 F1920.0 E30421.743
;M103
G1 X-20.08 Y15.46 Z1.2 F2880.0
;M101
G1 X-6.01 Y29.53 Z1.2 F1920.0 E30454.415
G1 X-6.15 Y29.99 Z1.2 F1920.0 E30455.196
G1 X-14.99 Y21.15 Z1.2 F1920.0 E30475.717
G1 X-14.79 Y21.94 Z1.2 F1920.0 E30477.058
G1 X-6.29 Y30.44 Z1.2 F1920.0 E30496.795
G1 X-6.43 Y30.89 Z1.2 F1920.0 E30497.57
G1 X-14.72 Y22.6 Z1.2 F1920.0 E30516.819
G1 X-14.65 Y23.26 Z1.2 F1920.0 E30517.908
G1 X-6.59 Y31.32 Z1.2 F1920.0 E30536.628
G1 X-6.75 Y31.76 Z1.2 F1920.0 E30537.383
G1 X-14.58 Y23.92 Z1.2 F1920.0 E30555.571
G1 X-14.52 Y24.58 Z1.2 F1920.0 E30556.66
G1 X-6.91 Y32.19 Z1.2 F1920.0 E30574.315
G1 X-7.07 Y32.62 Z1.2 F1920.0 E30575.071
G1 X-14.45 Y25.24 Z1.2 F1920.0 E30592.195
G1 X-14.38 Y25.9 Z1.2 F1920.0 E30593.285
G1 X-7.23 Y33.05 Z1.2 F1920.0 E30609.877
G1 X-7.4 Y33.48 Z1.2 F1920.0 E30610.633
G1 X-14.31 Y26.56 Z1.2 F1920.0 E30626.693
G1 X-14.24 Y27.22 Z1.2 F1920.0 E30627.783
G1 X-7.56 Y33.91 Z1.2 F1920.0 E30643.311
G1 X-7.72 Y34.34 Z1.2 F1920.0 E30644.066
G1 X-14.18 Y27.88 Z1.2 F1920.0 E30659.062
G1 X-14.03 Y28.62 Z1.2 F1920.0 E30660.301
G1 X-7.88 Y34.77 Z1.2 F1920.0 E30674.58
G1 X-8.04 Y35.2 Z1.2 F1920.0 E30675.336
G1 X-13.87 Y29.37 Z1.2 F1920.0 E30688.871
G1 X-13.71 Y30.13 Z1.2 F1920.0 E30690.131
G1 X-8.2 Y35.63 Z1.2 F1920.0 E30702.923
G1 X-8.36 Y36.07 Z1.2 F1920.0 E30703.679
G1 X-13.55 Y30.88 Z1.2 F1920.0 E30715.728
G1 X-13.38 Y31.64 Z1.2 F1920.0 E30717.008
G1 X-8.56 Y36.46 Z1.2 F1920.0 E30728.212
G1 X-8.76 Y36.85 Z1.2 F1920.0 E30728.931
G1 X-13.17 Y32.44 Z1.2 F1920.0 E30739.163
G1 X-12.96 Y33.25 Z1.2 F1920.0 E30740.532
G1 X-8.97 Y37.24 Z1.2 F1920.0 E30749.792
G1 X-9.18 Y37.62 Z1.2 F1920.0 E30750.512
G1 X-12.74 Y34.05 Z1.2 F1920.0 E30758.8
G1 X-12.53 Y34.86 Z1.2 F1920.0 E30760.169
G1 X-9.38 Y38.01 Z1.2 F1920.0 E30767.485
G1 X-9.59 Y38.4 Z1.2 F1920.0 E30768.204
G1 X-12.32 Y35.67 Z1.2 F1920.0 E30774.548
G1 X-12.1 Y36.47 Z1.2 F1920.0 E30775.916
G1 X-9.79 Y38.78 Z1.2 F1920.0 E30781.288
G1 X-9.99 Y39.17 Z1.2 F1920.0 E30782.007
G1 X-11.89 Y37.28 Z1.2 F1920.0 E30786.406
G1 X-11.68 Y38.08 Z1.2 F1920.0 E30787.774
G1 X-10.2 Y39.56 Z1.2 F1920.0 E30791.202
G1 X-10.48 Y39.88 Z1.2 F1920.0 E30791.891
G1 X-11.46 Y38.89 Z1.2 F1920.0 E30794.183
;M103
G1 X-11.04 Y39.91 Z1.2 F2880.0
;M101
G1 X-10.75 Y40.19 Z1.2 F1920.0 E30794.847
;M103
G1 X-10.68 Y40.65 Z1.2 F3600.0
;M101
G1 X-10.77 Y40.75 Z1.2 F1920.0 E30795.058
G1 X-11.17 Y40.51 Z1.2 F1920.0 E30795.818
G1 X-11.78 Y39.09 Z1.2 F1920.0 E30798.37
G1 X-13.77 Y31.58 Z1.2 F1920.0 E30811.126
G1 X-14.52 Y28.01 Z1.2 F1920.0 E30817.103
G1 X-15.16 Y21.8 Z1.2 F1920.0 E30827.353
G1 X-15.57 Y20.45 Z1.2 F1920.0 E30829.669
G1 X-15.72 Y20.2 Z1.2 F1920.0 E30830.152
G1 X-20.34 Y15.71 Z1.2 F1920.0 E30840.729
G1 X-21.77 Y13.93 Z1.2 F1920.0 E30844.473
G1 X-23.29 Y11.57 Z1.2 F1920.0 E30849.092
G1 X-24.33 Y9.6 Z1.2 F1920.0 E30852.747
G1 X-24.39 Y9.14 Z1.2 F1920.0 E30853.507
G1 X-21.33 Y10.27 Z1.2 F1920.0 E30858.878
G1 X-19.2 Y10.52 Z1.2 F1920.0 E30862.396
G1 X-16.61 Y10.36 Z1.2 F1920.0 E30866.648
G1 X-16.34 Y10.28 Z1.2 F1920.0 E30867.105
G1 X-15.76 Y10.36 Z1.2 F1920.0 E30868.081
G1 X-15.4 Y9.86 Z1.2 F1920.0 E30869.082
G1 X-14.82 Y7.98 Z1.2 F1920.0 E30872.318
G1 X-12.36 Y-5.15 Z1.2 F1920.0 E30894.249
G1 X-6.6 Y-24.42 Z1.2 F1920.0 E30927.27
G1 X-6.0 Y-27.72 Z1.2 F1920.0 E30932.775
G1 X-6.28 Y-29.02 Z1.2 F1920.0 E30934.959
G1 X-6.5 Y-29.42 Z1.2 F1920.0 E30935.701
G1 X-9.63 Y-31.07 Z1.2 F1920.0 E30941.51
G1 X-11.66 Y-32.31 Z1.2 F1920.0 E30945.413
G1 X-13.26 Y-33.53 Z1.2 F1920.0 E30948.719
G1 X-14.55 Y-34.78 Z1.2 F1920.0 E30951.671
G1 X-15.6 Y-36.05 Z1.2 F1920.0 E30954.377
G1 X-16.29 Y-37.65 Z1.2 F1920.0 E30957.242
G1 X-16.4 Y-38.6 Z1.2 F1920.0 E30958.807
G1 X-15.94 Y-38.73 Z1.2 F1920.0 E30959.589
G1 X-15.57 Y-38.06 Z1.2 F1920.0 E30960.851
G1 X-14.12 Y-36.39 Z1.2 F1920.0 E30964.483
G1 X-12.37 Y-35.07 Z1.2 F1920.0 E30968.078
G1 X-10.26 Y-33.91 Z1.2 F1920.0 E30972.019
G1 X-4.13 Y-31.16 Z1.2 F1920.0 E30983.05
G1 X-2.37 Y-31.07 Z1.2 F1920.0 E30985.946
G1 X-0.41 Y-32.0 Z1.2 F1920.0 E30989.507
G1 X1.64 Y-33.58 Z1.2 F1920.0 E30993.755
G1 X2.07 Y-33.37 Z1.2 F1920.0 E30994.555
G1 X1.9 Y-31.99 Z1.2 F1920.0 E30996.838
G1 X1.41 Y-30.93 Z1.2 F1920.0 E30998.769
G1 X0.48 Y-30.08 Z1.2 F1920.0 E31000.824
G1 X-1.08 Y-29.13 Z1.2 F1920.0 E31003.827
G1 X-2.88 Y-27.28 Z1.2 F1920.0 E31008.058
G1 X-4.13 Y-23.81 Z1.2 F1920.0 E31014.123
G1 X-4.89 Y-18.75 Z1.2 F1920.0 E31022.516
G1 X-5.2 Y-11.79 Z1.2 F1920.0 E31033.958
G1 X-5.12 Y15.29 Z1.2 F1920.0 E31078.426
G1 X-5.09 Y15.34 Z1.2 F1920.0 E31078.514
G1 X-4.83 Y19.36 Z1.2 F1920.0 E31085.132
G1 X-4.85 Y19.41 Z1.2 F1920.0 E31085.216
G1 X-4.83 Y22.54 Z1.2 F1920.0 E31090.357
G1 X-5.0 Y25.78 Z1.2 F1920.0 E31095.689
G1 X-5.39 Y28.73 Z1.2 F1920.0 E31100.571
G1 X-6.06 Y30.93 Z1.2 F1920.0 E31104.354
G1 X-8.07 Y36.31 Z1.2 F1920.0 E31113.776
G1 X-9.9 Y39.76 Z1.2 F1920.0 E31120.199
G1 X-10.49 Y40.43 Z1.2 F1920.0 E31121.646
G1 X-10.68 Y40.65 Z1.2 F1920.0 E31122.133
;M103
;M108 S37.53
;M108 S39.41
G1 X-10.37 Y40.92 Z1.2 F3600.0
;M101
G1 X-10.68 Y41.28 Z1.2 F1620.0 E31122.825
G1 X-11.49 Y40.81 Z1.2 F1620.0 E31124.196
G1 X-12.17 Y39.23 Z1.2 F1620.0 E31126.711
G1 X-12.74 Y37.34 Z1.2 F1620.0 E31129.584
G1 X-14.18 Y31.67 Z1.2 F1620.0 E31138.125
G1 X-14.94 Y28.08 Z1.2 F1620.0 E31143.484
G1 X-15.57 Y21.89 Z1.2 F1620.0 E31152.569
G1 X-15.96 Y20.63 Z1.2 F1620.0 E31154.494
G1 X-16.05 Y20.47 Z1.2 F1620.0 E31154.767
G1 X-20.65 Y15.99 Z1.2 F1620.0 E31164.128
G1 X-22.11 Y14.18 Z1.2 F1620.0 E31167.526
G1 X-23.65 Y11.78 Z1.2 F1620.0 E31171.692
G1 X-24.74 Y9.73 Z1.2 F1620.0 E31175.076
G1 X-25.05 Y8.75 Z1.2 F1620.0 E31176.579
G1 X-24.88 Y8.72 Z1.2 F1620.0 E31176.817
G1 X-24.67 Y8.59 Z1.2 F1620.0 E31177.184
G1 X-21.23 Y9.86 Z1.2 F1620.0 E31182.536
G1 X-19.18 Y10.1 Z1.2 F1620.0 E31185.546
G1 X-17.59 Y10.05 Z1.2 F1620.0 E31187.863
G1 X-16.7 Y9.95 Z1.2 F1620.0 E31189.181
G1 X-16.64 Y9.89 Z1.2 F1620.0 E31189.293
G1 X-16.38 Y9.85 Z1.2 F1620.0 E31189.683
G1 X-15.95 Y9.91 Z1.2 F1620.0 E31190.313
G1 X-15.78 Y9.67 Z1.2 F1620.0 E31190.736
G1 X-15.23 Y7.88 Z1.2 F1620.0 E31193.473
G1 X-14.3 Y2.43 Z1.2 F1620.0 E31201.537
G1 X-12.76 Y-5.25 Z1.2 F1620.0 E31212.975
G1 X-10.56 Y-12.86 Z1.2 F1620.0 E31224.533
G1 X-8.4 Y-19.6 Z1.2 F1620.0 E31234.873
G1 X-7.01 Y-24.52 Z1.2 F1620.0 E31242.328
G1 X-6.42 Y-27.71 Z1.2 F1620.0 E31247.07
G1 X-6.68 Y-28.87 Z1.2 F1620.0 E31248.8
G1 X-6.81 Y-29.11 Z1.2 F1620.0 E31249.19
G1 X-9.83 Y-30.71 Z1.2 F1620.0 E31254.19
G1 X-11.89 Y-31.97 Z1.2 F1620.0 E31257.709
G1 X-13.53 Y-33.22 Z1.2 F1620.0 E31260.716
G1 X-14.86 Y-34.5 Z1.2 F1620.0 E31263.409
G1 X-15.97 Y-35.83 Z1.2 F1620.0 E31265.938
G1 X-16.7 Y-37.55 Z1.2 F1620.0 E31268.663
G1 X-16.97 Y-39.96 Z1.2 F1620.0 E31272.205
G1 X-16.91 Y-40.15 Z1.2 F1620.0 E31272.495
G1 X-16.8 Y-40.92 Z1.2 F1620.0 E31273.629
G1 X-16.79 Y-40.92 Z1.2 F1620.0 E31273.647
G1 X-16.38 Y-40.39 Z1.2 F1620.0 E31274.622
G1 X-15.22 Y-38.3 Z1.2 F1620.0 E31278.116
G1 X-13.83 Y-36.69 Z1.2 F1620.0 E31281.216
G1 X-12.14 Y-35.42 Z1.2 F1620.0 E31284.303
G1 X-10.07 Y-34.28 Z1.2 F1620.0 E31287.745
G1 X-6.64 Y-32.66 Z1.2 F1620.0 E31293.292
G1 X-4.04 Y-31.57 Z1.2 F1620.0 E31297.4
G1 X-2.46 Y-31.5 Z1.2 F1620.0 E31299.715
G1 X-0.63 Y-32.36 Z1.2 F1620.0 E31302.668
G1 X1.03 Y-33.58 Z1.2 F1620.0 E31305.68
G1 X2.07 Y-34.59 Z1.2 F1620.0 E31307.789
G1 X2.16 Y-34.59 Z1.2 F1620.0 E31307.908
G1 X2.26 Y-34.62 Z1.2 F1620.0 E31308.073
G1 X2.4 Y-34.46 Z1.2 F1620.0 E31308.38
G1 X2.53 Y-33.62 Z1.2 F1620.0 E31309.615
G1 X2.31 Y-31.87 Z1.2 F1620.0 E31312.182
G1 X1.75 Y-30.67 Z1.2 F1620.0 E31314.117
G1 X0.74 Y-29.74 Z1.2 F1620.0 E31316.126
G1 X-0.82 Y-28.8 Z1.2 F1620.0 E31318.777
G1 X-2.51 Y-27.05 Z1.2 F1620.0 E31322.329
G1 X-3.72 Y-23.7 Z1.2 F1620.0 E31327.53
G1 X-4.47 Y-18.71 Z1.2 F1620.0 E31334.899
G1 X-4.78 Y-11.78 Z1.2 F1620.0 E31345.027
G1 X-4.88 Y4.91 Z1.2 F1620.0 E31369.38
G1 X-4.85 Y5.04 Z1.2 F1620.0 E31369.581
G1 X-4.7 Y15.18 Z1.2 F1620.0 E31384.385
G1 X-4.68 Y15.22 Z1.2 F1620.0 E31384.446
G1 X-4.4 Y19.48 Z1.2 F1620.0 E31390.68
G1 X-4.43 Y19.53 Z1.2 F1620.0 E31390.774
G1 X-4.41 Y22.55 Z1.2 F1620.0 E31395.171
G1 X-4.58 Y25.82 Z1.2 F1620.0 E31399.955
G1 X-4.98 Y28.82 Z1.2 F1620.0 E31404.368
G1 X-5.67 Y31.07 Z1.2 F1620.0 E31407.813
G1 X-6.35 Y32.71 Z1.2 F1620.0 E31410.4
G1 X-7.23 Y35.34 Z1.2 F1620.0 E31414.449
G1 X-7.69 Y36.48 Z1.2 F1620.0 E31416.251
G1 X-9.56 Y40.0 Z1.2 F1620.0 E31422.062
G1 X-10.17 Y40.7 Z1.2 F1620.0 E31423.419
G1 X-10.37 Y40.92 Z1.2 F1620.0 E31423.852
;M103
;M108 S50.04
;M108 S52.54
G1 X6.78 Y37.58 Z1.2 F2880.0
;M101
G1 X6.92 Y37.73 Z1.2 F1920.0 E31424.187
G1 X7.2 Y37.41 Z1.2 F1920.0 E31424.876
G1 X6.96 Y37.17 Z1.2 F1920.0 E31425.432
G1 X7.13 Y36.75 Z1.2 F1920.0 E31426.173
G1 X7.47 Y37.09 Z1.2 F1920.0 E31426.951
G1 X7.74 Y36.77 Z1.2 F1920.0 E31427.64
G1 X7.31 Y36.34 Z1.2 F1920.0 E31428.641
G1 X7.56 Y35.99 Z1.2 F1920.0 E31429.339
G1 X8.02 Y36.45 Z1.2 F1920.0 E31430.4
G1 X8.29 Y36.13 Z1.2 F1920.0 E31431.089
G1 X7.83 Y35.67 Z1.2 F1920.0 E31432.16
G1 X8.1 Y35.35 Z1.2 F1920.0 E31432.851
G1 X8.63 Y35.87 Z1.2 F1920.0 E31434.08
G1 X8.96 Y35.62 Z1.2 F1920.0 E31434.774
G1 X8.37 Y35.02 Z1.2 F1920.0 E31436.162
G1 X8.67 Y34.73 Z1.2 F1920.0 E31436.851
G1 X9.3 Y35.37 Z1.2 F1920.0 E31438.324
G1 X9.64 Y35.11 Z1.2 F1920.0 E31439.018
G1 X8.97 Y34.44 Z1.2 F1920.0 E31440.576
G1 X9.27 Y34.15 Z1.2 F1920.0 E31441.264
G1 X9.98 Y34.86 Z1.2 F1920.0 E31442.907
G1 X10.34 Y34.63 Z1.2 F1920.0 E31443.613
G1 X9.57 Y33.86 Z1.2 F1920.0 E31445.408
G1 X9.9 Y33.6 Z1.2 F1920.0 E31446.1
G1 X10.73 Y34.42 Z1.2 F1920.0 E31448.017
G1 X11.11 Y34.21 Z1.2 F1920.0 E31448.732
G1 X10.24 Y33.34 Z1.2 F1920.0 E31450.754
G1 X10.57 Y33.08 Z1.2 F1920.0 E31451.448
G1 X11.49 Y34.0 Z1.2 F1920.0 E31453.577
G1 X11.87 Y33.79 Z1.2 F1920.0 E31454.293
G1 X10.91 Y32.83 Z1.2 F1920.0 E31456.529
G1 X11.25 Y32.57 Z1.2 F1920.0 E31457.224
G1 X12.25 Y33.58 Z1.2 F1920.0 E31459.56
G1 X12.66 Y33.4 Z1.2 F1920.0 E31460.297
G1 X11.62 Y32.35 Z1.2 F1920.0 E31462.726
G1 X11.98 Y32.13 Z1.2 F1920.0 E31463.435
G1 X13.07 Y33.21 Z1.2 F1920.0 E31465.959
G1 X13.48 Y33.03 Z1.2 F1920.0 E31466.694
G1 X12.35 Y31.9 Z1.2 F1920.0 E31469.313
G1 X12.72 Y31.68 Z1.2 F1920.0 E31470.022
G1 X13.89 Y32.85 Z1.2 F1920.0 E31472.736
G1 X14.3 Y32.66 Z1.2 F1920.0 E31473.472
G1 X13.09 Y31.45 Z1.2 F1920.0 E31476.281
G1 X13.47 Y31.24 Z1.2 F1920.0 E31476.996
G1 X14.71 Y32.48 Z1.2 F1920.0 E31479.87
G1 X15.12 Y32.3 Z1.2 F1920.0 E31480.604
G1 X13.86 Y31.04 Z1.2 F1920.0 E31483.527
G1 X14.24 Y30.83 Z1.2 F1920.0 E31484.249
G1 X15.52 Y32.11 Z1.2 F1920.0 E31487.222
G1 X15.93 Y31.93 Z1.2 F1920.0 E31487.958
G1 X14.63 Y30.63 Z1.2 F1920.0 E31490.981
G1 X15.02 Y30.42 Z1.2 F1920.0 E31491.7
G1 X16.34 Y31.74 Z1.2 F1920.0 E31494.775
G1 X16.75 Y31.56 Z1.2 F1920.0 E31495.511
G1 X15.41 Y30.22 Z1.2 F1920.0 E31498.635
G1 X15.79 Y30.01 Z1.2 F1920.0 E31499.354
G1 X17.16 Y31.38 Z1.2 F1920.0 E31502.528
G1 X17.57 Y31.19 Z1.2 F1920.0 E31503.265
G1 X16.18 Y29.8 Z1.2 F1920.0 E31506.49
G1 X16.5 Y29.53 Z1.2 F1920.0 E31507.18
G1 X17.98 Y31.01 Z1.2 F1920.0 E31510.619
G1 X18.39 Y30.83 Z1.2 F1920.0 E31511.355
G1 X16.71 Y29.15 Z1.2 F1920.0 E31515.256
G1 X16.81 Y28.66 Z1.2 F1920.0 E31516.071
G1 X18.93 Y30.78 Z1.2 F1920.0 E31520.998
G1 X19.5 Y30.76 Z1.2 F1920.0 E31521.927
G1 X16.92 Y28.18 Z1.2 F1920.0 E31527.918
G1 X17.01 Y27.67 Z1.2 F1920.0 E31528.758
G1 X20.07 Y30.73 Z1.2 F1920.0 E31535.856
G1 X20.9 Y30.97 Z1.2 F1920.0 E31537.289
G1 X16.87 Y26.95 Z1.2 F1920.0 E31546.643
G1 X16.74 Y26.22 Z1.2 F1920.0 E31547.856
G1 X22.02 Y31.5 Z1.2 F1920.0 E31560.113
;M103
G1 X22.27 Y29.97 Z1.2 F2880.0
;M101
G1 X24.05 Y31.75 Z1.2 F1920.0 E31564.244
G1 X24.27 Y32.56 Z1.2 F1920.0 E31565.619
G1 X16.47 Y24.77 Z1.2 F1920.0 E31583.715
G1 X16.61 Y25.49 Z1.2 F1920.0 E31584.927
G1 X24.1 Y32.99 Z1.2 F1920.0 E31602.331
;M103
G1 X19.29 Y27.0 Z1.2 F2880.0
;M101
G1 X16.29 Y23.99 Z1.2 F1920.0 E31609.307
G1 X16.04 Y23.15 Z1.2 F1920.0 E31610.753
G1 X18.96 Y26.07 Z1.2 F1920.0 E31617.536
;M103
G1 X18.63 Y25.14 Z1.2 F2880.0
;M101
G1 X15.79 Y22.3 Z1.2 F1920.0 E31624.128
G1 X15.54 Y21.46 Z1.2 F1920.0 E31625.576
G1 X18.29 Y24.22 Z1.2 F1920.0 E31631.976
G1 X18.11 Y23.44 Z1.2 F1920.0 E31633.288
G1 X15.28 Y20.61 Z1.2 F1920.0 E31639.844
G1 X15.03 Y19.77 Z1.2 F1920.0 E31641.29
G1 X18.0 Y22.74 Z1.2 F1920.0 E31648.186
G1 X17.9 Y22.04 Z1.2 F1920.0 E31649.345
G1 X14.78 Y18.93 Z1.2 F1920.0 E31656.582
G1 X14.53 Y18.08 Z1.2 F1920.0 E31658.028
G1 X17.79 Y21.34 Z1.2 F1920.0 E31665.604
G1 X17.68 Y20.65 Z1.2 F1920.0 E31666.762
G1 X14.28 Y17.24 Z1.2 F1920.0 E31674.68
G1 X14.02 Y16.39 Z1.2 F1920.0 E31676.127
G1 X17.58 Y19.95 Z1.2 F1920.0 E31684.385
G1 X17.47 Y19.25 Z1.2 F1920.0 E31685.544
G1 X13.77 Y15.55 Z1.2 F1920.0 E31694.143
G1 X13.52 Y14.7 Z1.2 F1920.0 E31695.589
G1 X17.4 Y18.58 Z1.2 F1920.0 E31704.588
G1 X17.37 Y17.96 Z1.2 F1920.0 E31705.607
G1 X13.27 Y13.86 Z1.2 F1920.0 E31715.127
G1 X13.02 Y13.02 Z1.2 F1920.0 E31716.573
G1 X17.34 Y17.34 Z1.2 F1920.0 E31726.613
G1 X17.31 Y16.72 Z1.2 F1920.0 E31727.632
G1 X12.76 Y12.17 Z1.2 F1920.0 E31738.193
G1 X12.51 Y11.33 Z1.2 F1920.0 E31739.641
G1 X17.28 Y16.1 Z1.2 F1920.0 E31750.724
G1 X17.26 Y15.48 Z1.2 F1920.0 E31751.743
G1 X12.26 Y10.48 Z1.2 F1920.0 E31763.347
G1 X12.01 Y9.64 Z1.2 F1920.0 E31764.793
G1 X17.23 Y14.86 Z1.2 F1920.0 E31776.917
G1 X17.2 Y14.24 Z1.2 F1920.0 E31777.936
G1 X11.76 Y8.79 Z1.2 F1920.0 E31790.581
G1 X11.5 Y7.95 Z1.2 F1920.0 E31792.028
G1 X17.17 Y13.62 Z1.2 F1920.0 E31805.194
G1 X17.15 Y13.0 Z1.2 F1920.0 E31806.213
G1 X11.25 Y7.11 Z1.2 F1920.0 E31819.9
G1 X11.0 Y6.26 Z1.2 F1920.0 E31821.348
G1 X17.12 Y12.38 Z1.2 F1920.0 E31835.557
G1 X17.09 Y11.76 Z1.2 F1920.0 E31836.573
G1 X10.75 Y5.42 Z1.2 F1920.0 E31851.307
G1 X10.56 Y4.64 Z1.2 F1920.0 E31852.618
G1 X17.09 Y11.17 Z1.2 F1920.0 E31867.784
G1 X17.1 Y10.58 Z1.2 F1920.0 E31868.754
G1 X10.43 Y3.91 Z1.2 F1920.0 E31884.241
G1 X10.29 Y3.18 Z1.2 F1920.0 E31885.461
G1 X17.1 Y9.99 Z1.2 F1920.0 E31901.272
G1 X17.1 Y9.4 Z1.2 F1920.0 E31902.243
G1 X10.15 Y2.45 Z1.2 F1920.0 E31918.376
G1 X10.02 Y1.72 Z1.2 F1920.0 E31919.595
G1 X17.1 Y8.81 Z1.2 F1920.0 E31936.051
G1 X17.1 Y8.22 Z1.2 F1920.0 E31937.02
G1 X9.88 Y0.99 Z1.2 F1920.0 E31953.798
G1 X9.74 Y0.26 Z1.2 F1920.0 E31955.016
G1 X17.11 Y7.63 Z1.2 F1920.0 E31972.115
G1 X17.11 Y7.04 Z1.2 F1920.0 E31973.084
G1 X9.6 Y-0.47 Z1.2 F1920.0 E31990.507
G1 X9.47 Y-1.2 Z1.2 F1920.0 E31991.724
G1 X17.11 Y6.45 Z1.2 F1920.0 E32009.469
G1 X17.11 Y5.86 Z1.2 F1920.0 E32010.438
G1 X9.33 Y-1.93 Z1.2 F1920.0 E32028.506
G1 X9.19 Y-2.66 Z1.2 F1920.0 E32029.724
G1 X17.11 Y5.27 Z1.2 F1920.0 E32048.114
G1 X17.11 Y4.67 Z1.2 F1920.0 E32049.084
G1 X9.06 Y-3.39 Z1.2 F1920.0 E32067.796
G1 X8.92 Y-4.11 Z1.2 F1920.0 E32069.014
G1 X17.12 Y4.08 Z1.2 F1920.0 E32088.049
G1 X17.12 Y3.49 Z1.2 F1920.0 E32089.02
G1 X8.78 Y-4.84 Z1.2 F1920.0 E32108.377
G1 X8.64 Y-5.57 Z1.2 F1920.0 E32109.596
G1 X17.12 Y2.9 Z1.2 F1920.0 E32129.277
G1 X17.12 Y2.31 Z1.2 F1920.0 E32130.247
G1 X8.51 Y-6.3 Z1.2 F1920.0 E32150.25
G1 X8.37 Y-7.03 Z1.2 F1920.0 E32151.469
G1 X17.12 Y1.72 Z1.2 F1920.0 E32171.796
G1 X17.13 Y1.13 Z1.2 F1920.0 E32172.766
G1 X8.23 Y-7.76 Z1.2 F1920.0 E32193.413
G1 X8.02 Y-8.56 Z1.2 F1920.0 E32194.776
G1 X17.13 Y0.54 Z1.2 F1920.0 E32215.915
G1 X17.13 Y-0.05 Z1.2 F1920.0 E32216.884
G1 X7.76 Y-9.42 Z1.2 F1920.0 E32238.638
;M103
G1 X15.35 Y-32.05 Z1.2 F2880.0
;M101
G1 X10.63 Y-36.76 Z1.2 F1920.0 E32249.597
G1 X10.5 Y-36.3 Z1.2 F1920.0 E32250.392
G1 X16.37 Y-30.43 Z1.2 F1920.0 E32264.017
G1 X16.63 Y-29.58 Z1.2 F1920.0 E32265.477
G1 X10.38 Y-35.83 Z1.2 F1920.0 E32279.99
G1 X10.25 Y-35.36 Z1.2 F1920.0 E32280.785
G1 X16.89 Y-28.73 Z1.2 F1920.0 E32296.187
G1 X16.99 Y-28.03 Z1.2 F1920.0 E32297.348
G1 X10.13 Y-34.89 Z1.2 F1920.0 E32313.283
G1 X10.01 Y-34.42 Z1.2 F1920.0 E32314.078
G1 X17.09 Y-27.34 Z1.2 F1920.0 E32330.515
G1 X17.18 Y-26.66 Z1.2 F1920.0 E32331.648
G1 X9.88 Y-33.96 Z1.2 F1920.0 E32348.587
G1 X9.76 Y-33.49 Z1.2 F1920.0 E32349.382
G1 X17.27 Y-25.98 Z1.2 F1920.0 E32366.822
G1 X17.32 Y-25.33 Z1.2 F1920.0 E32367.885
G1 X9.63 Y-33.02 Z1.2 F1920.0 E32385.736
G1 X9.51 Y-32.55 Z1.2 F1920.0 E32386.532
G1 X17.35 Y-24.71 Z1.2 F1920.0 E32404.747
G1 X17.39 Y-24.08 Z1.2 F1920.0 E32405.776
G1 X9.39 Y-32.08 Z1.2 F1920.0 E32424.357
G1 X9.26 Y-31.61 Z1.2 F1920.0 E32425.152
G1 X17.42 Y-23.46 Z1.2 F1920.0 E32444.096
G1 X17.45 Y-22.83 Z1.2 F1920.0 E32445.124
G1 X9.15 Y-31.13 Z1.2 F1920.0 E32464.396
G1 X9.05 Y-30.64 Z1.2 F1920.0 E32465.217
G1 X17.47 Y-22.22 Z1.2 F1920.0 E32484.761
G1 X17.46 Y-21.64 Z1.2 F1920.0 E32485.725
G1 X8.95 Y-30.15 Z1.2 F1920.0 E32505.495
G1 X8.84 Y-29.66 Z1.2 F1920.0 E32506.316
G1 X17.45 Y-21.05 Z1.2 F1920.0 E32526.315
G1 X17.45 Y-20.46 Z1.2 F1920.0 E32527.28
G1 X8.74 Y-29.17 Z1.2 F1920.0 E32547.507
G1 X8.64 Y-28.68 Z1.2 F1920.0 E32548.327
G1 X17.45 Y-19.88 Z1.2 F1920.0 E32568.782
G1 X17.46 Y-19.27 Z1.2 F1920.0 E32569.778
G1 X8.53 Y-28.2 Z1.2 F1920.0 E32590.507
G1 X8.45 Y-27.68 Z1.2 F1920.0 E32591.36
G1 X17.43 Y-18.71 Z1.2 F1920.0 E32612.191
G1 X17.39 Y-18.16 Z1.2 F1920.0 E32613.104
G1 X8.4 Y-27.14 Z1.2 F1920.0 E32633.976
G1 X8.34 Y-26.61 Z1.2 F1920.0 E32634.862
G1 X17.35 Y-17.6 Z1.2 F1920.0 E32655.776
G1 X17.31 Y-17.04 Z1.2 F1920.0 E32656.691
G1 X8.29 Y-26.07 Z1.2 F1920.0 E32677.647
G1 X8.23 Y-25.53 Z1.2 F1920.0 E32678.533
G1 X17.28 Y-16.49 Z1.2 F1920.0 E32699.531
G1 X17.24 Y-15.93 Z1.2 F1920.0 E32700.446
G1 X8.18 Y-25.0 Z1.2 F1920.0 E32721.486
G1 X8.12 Y-24.46 Z1.2 F1920.0 E32722.373
G1 X17.19 Y-15.4 Z1.2 F1920.0 E32743.416
G1 X17.17 Y-14.81 Z1.2 F1920.0 E32744.371
G1 X8.07 Y-23.92 Z1.2 F1920.0 E32765.516
G1 X8.01 Y-23.38 Z1.2 F1920.0 E32766.404
G1 X17.17 Y-14.22 Z1.2 F1920.0 E32787.672
G1 X17.17 Y-13.63 Z1.2 F1920.0 E32788.642
G1 X7.96 Y-22.85 Z1.2 F1920.0 E32810.034
G1 X7.9 Y-22.31 Z1.2 F1920.0 E32810.92
G1 X17.17 Y-13.04 Z1.2 F1920.0 E32832.436
G1 X17.17 Y-12.45 Z1.2 F1920.0 E32833.406
G1 X7.85 Y-21.77 Z1.2 F1920.0 E32855.046
G1 X7.72 Y-21.31 Z1.2 F1920.0 E32855.832
G1 X17.17 Y-11.86 Z1.2 F1920.0 E32877.774
G1 X17.16 Y-11.27 Z1.2 F1920.0 E32878.745
G1 X7.58 Y-20.86 Z1.2 F1920.0 E32901.005
G1 X7.44 Y-20.4 Z1.2 F1920.0 E32901.784
G1 X17.16 Y-10.68 Z1.2 F1920.0 E32924.363
G1 X17.16 Y-10.09 Z1.2 F1920.0 E32925.332
G1 X7.23 Y-20.02 Z1.2 F1920.0 E32948.38
G1 X6.94 Y-19.72 Z1.2 F1920.0 E32949.068
G1 X17.16 Y-9.5 Z1.2 F1920.0 E32972.792
G1 X17.16 Y-8.91 Z1.2 F1920.0 E32973.76
G1 X6.64 Y-19.42 Z1.2 F1920.0 E32998.176
G1 X6.34 Y-19.13 Z1.2 F1920.0 E32998.863
G1 X17.15 Y-8.32 Z1.2 F1920.0 E33023.972
G1 X17.15 Y-7.73 Z1.2 F1920.0 E33024.94
G1 X6.04 Y-18.84 Z1.2 F1920.0 E33050.742
G1 X5.74 Y-18.55 Z1.2 F1920.0 E33051.432
G1 X17.15 Y-7.14 Z1.2 F1920.0 E33077.926
G1 X17.15 Y-6.55 Z1.2 F1920.0 E33078.897
G1 X5.44 Y-18.26 Z1.2 F1920.0 E33106.085
G1 X5.14 Y-17.96 Z1.2 F1920.0 E33106.772
G1 X17.15 Y-5.96 Z1.2 F1920.0 E33134.652
G1 X17.15 Y-5.37 Z1.2 F1920.0 E33135.622
G1 X4.84 Y-17.67 Z1.2 F1920.0 E33164.195
G1 X4.54 Y-17.38 Z1.2 F1920.0 E33164.884
G1 X17.14 Y-4.78 Z1.2 F1920.0 E33194.15
G1 X17.14 Y-4.18 Z1.2 F1920.0 E33195.12
G1 X4.24 Y-17.09 Z1.2 F1920.0 E33225.08
G1 X3.94 Y-16.8 Z1.2 F1920.0 E33225.768
G1 X17.14 Y-3.59 Z1.2 F1920.0 E33256.42
G1 X17.14 Y-3.0 Z1.2 F1920.0 E33257.39
G1 X3.64 Y-16.5 Z1.2 F1920.0 E33288.736
G1 X3.34 Y-16.21 Z1.2 F1920.0 E33289.425
G1 X17.14 Y-2.41 Z1.2 F1920.0 E33321.464
G1 X17.13 Y-1.82 Z1.2 F1920.0 E33322.432
G1 X3.04 Y-15.92 Z1.2 F1920.0 E33355.163
G1 X2.74 Y-15.63 Z1.2 F1920.0 E33355.85
G1 X17.13 Y-1.23 Z1.2 F1920.0 E33389.275
G1 X17.13 Y-0.64 Z1.2 F1920.0 E33390.243
G1 X2.45 Y-15.32 Z1.2 F1920.0 E33424.322
G1 X2.19 Y-14.99 Z1.2 F1920.0 E33425.013
G1 X6.52 Y-10.66 Z1.2 F1920.0 E33435.056
G1 X5.86 Y-10.73 Z1.2 F1920.0 E33436.132
G1 X1.93 Y-14.66 Z1.2 F1920.0 E33445.272
G1 X1.66 Y-14.33 Z1.2 F1920.0 E33445.963
G1 X5.23 Y-10.76 Z1.2 F1920.0 E33454.251
G1 X4.6 Y-10.8 Z1.2 F1920.0 E33455.287
G1 X1.4 Y-14.01 Z1.2 F1920.0 E33462.727
G1 X1.14 Y-13.67 Z1.2 F1920.0 E33463.42
G1 X3.97 Y-10.84 Z1.2 F1920.0 E33469.995
G1 X3.36 Y-10.86 Z1.2 F1920.0 E33471.004
G1 X0.91 Y-13.31 Z1.2 F1920.0 E33476.692
G1 X0.67 Y-12.95 Z1.2 F1920.0 E33477.395
G1 X2.82 Y-10.8 Z1.2 F1920.0 E33482.387
G1 X2.29 Y-10.74 Z1.2 F1920.0 E33483.266
G1 X0.44 Y-12.59 Z1.2 F1920.0 E33487.562
G1 X0.21 Y-12.23 Z1.2 F1920.0 E33488.265
G1 X1.76 Y-10.68 Z1.2 F1920.0 E33491.864
G1 X1.23 Y-10.62 Z1.2 F1920.0 E33492.739
G1 X-0.02 Y-11.87 Z1.2 F1920.0 E33495.649
G1 X-0.25 Y-11.51 Z1.2 F1920.0 E33496.351
G1 X0.8 Y-10.46 Z1.2 F1920.0 E33498.792
G1 X0.37 Y-10.3 Z1.2 F1920.0 E33499.549
G1 X-0.47 Y-11.13 Z1.2 F1920.0 E33501.491
G1 X-0.68 Y-10.75 Z1.2 F1920.0 E33502.206
G1 X-0.07 Y-10.14 Z1.2 F1920.0 E33503.629
G1 X-0.5 Y-9.98 Z1.2 F1920.0 E33504.387
G1 X-0.89 Y-10.37 Z1.2 F1920.0 E33505.293
G1 X-1.1 Y-9.99 Z1.2 F1920.0 E33506.009
G1 X-0.93 Y-9.82 Z1.2 F1920.0 E33506.395
;M103
G1 X6.77 Y-20.59 Z1.2 F3600.0
G1 X14.64 Y-33.94 Z1.2 F2880.0
;M101
G1 X10.88 Y-37.7 Z1.2 F1920.0 E33515.131
G1 X10.75 Y-37.23 Z1.2 F1920.0 E33515.926
G1 X15.71 Y-32.28 Z1.2 F1920.0 E33527.432
G1 X16.06 Y-31.33 Z1.2 F1920.0 E33529.092
;M103
G1 X13.93 Y-35.83 Z1.2 F2880.0
;M101
G1 X11.12 Y-38.64 Z1.2 F1920.0 E33535.608
G1 X11.0 Y-38.17 Z1.2 F1920.0 E33536.403
G1 X15.0 Y-34.17 Z1.2 F1920.0 E33545.688
G1 X15.35 Y-33.22 Z1.2 F1920.0 E33547.347
;M103
G1 X12.64 Y-38.3 Z1.2 F2880.0
;M101
G1 X11.44 Y-39.51 Z1.2 F1920.0 E33550.14
G1 X11.26 Y-39.09 Z1.2 F1920.0 E33550.88
G1 X14.29 Y-36.06 Z1.2 F1920.0 E33557.91
G1 X14.64 Y-35.12 Z1.2 F1920.0 E33559.569
;M103
G1 X11.62 Y-39.92 Z1.2 F2880.0
;M101
G1 X12.98 Y-38.55 Z1.2 F1920.0 E33562.739
G1 X13.65 Y-37.29 Z1.2 F1920.0 E33565.084
;M103
G1 X14.11 Y-37.2 Z1.2 F3600.0
;M101
G1 X14.58 Y-36.31 Z1.2 F1920.0 E33566.741
G1 X16.59 Y-30.93 Z1.2 F1920.0 E33576.163
G1 X17.26 Y-28.73 Z1.2 F1920.0 E33579.947
G1 X17.65 Y-25.78 Z1.2 F1920.0 E33584.83
G1 X17.82 Y-22.54 Z1.2 F1920.0 E33590.16
G1 X17.8 Y-19.41 Z1.2 F1920.0 E33595.3
G1 X17.83 Y-19.36 Z1.2 F1920.0 E33595.385
G1 X17.56 Y-15.33 Z1.2 F1920.0 E33602.016
G1 X17.53 Y-15.29 Z1.2 F1920.0 E33602.104
G1 X17.45 Y11.79 Z1.2 F1920.0 E33646.558
G1 X17.76 Y18.75 Z1.2 F1920.0 E33658.0
G1 X18.52 Y23.81 Z1.2 F1920.0 E33666.393
G1 X19.78 Y27.28 Z1.2 F1920.0 E33672.459
G1 X21.57 Y29.13 Z1.2 F1920.0 E33676.689
G1 X23.13 Y30.08 Z1.2 F1920.0 E33679.691
G1 X24.06 Y30.93 Z1.2 F1920.0 E33681.747
G1 X24.56 Y31.99 Z1.2 F1920.0 E33683.679
G1 X24.73 Y33.37 Z1.2 F1920.0 E33685.964
G1 X24.29 Y33.58 Z1.2 F1920.0 E33686.763
G1 X22.24 Y32.0 Z1.2 F1920.0 E33691.012
G1 X20.28 Y31.07 Z1.2 F1920.0 E33694.574
G1 X18.51 Y31.16 Z1.2 F1920.0 E33697.479
G1 X12.39 Y33.91 Z1.2 F1920.0 E33708.494
G1 X10.29 Y35.07 Z1.2 F1920.0 E33712.442
G1 X8.54 Y36.39 Z1.2 F1920.0 E33716.035
G1 X7.09 Y38.06 Z1.2 F1920.0 E33719.667
G1 X6.72 Y38.73 Z1.2 F1920.0 E33720.929
G1 X6.26 Y38.6 Z1.2 F1920.0 E33721.713
G1 X6.36 Y37.65 Z1.2 F1920.0 E33723.278
G1 X7.05 Y36.05 Z1.2 F1920.0 E33726.145
G1 X8.1 Y34.78 Z1.2 F1920.0 E33728.849
G1 X9.4 Y33.53 Z1.2 F1920.0 E33731.801
G1 X11.0 Y32.31 Z1.2 F1920.0 E33735.107
G1 X13.03 Y31.07 Z1.2 F1920.0 E33739.011
G1 X16.15 Y29.42 Z1.2 F1920.0 E33744.82
G1 X16.37 Y29.02 Z1.2 F1920.0 E33745.564
G1 X16.66 Y27.72 Z1.2 F1920.0 E33747.746
G1 X16.05 Y24.42 Z1.2 F1920.0 E33753.25
G1 X10.3 Y5.15 Z1.2 F1920.0 E33786.271
G1 X7.83 Y-7.98 Z1.2 F1920.0 E33808.203
G1 X7.25 Y-9.86 Z1.2 F1920.0 E33811.442
G1 X6.89 Y-10.36 Z1.2 F1920.0 E33812.442
G1 X6.31 Y-10.28 Z1.2 F1920.0 E33813.413
G1 X6.04 Y-10.36 Z1.2 F1920.0 E33813.87
G1 X3.46 Y-10.52 Z1.2 F1920.0 E33818.124
G1 X1.33 Y-10.27 Z1.2 F1920.0 E33821.642
G1 X-1.74 Y-9.14 Z1.2 F1920.0 E33827.013
G1 X-1.68 Y-9.6 Z1.2 F1920.0 E33827.775
G1 X-0.64 Y-11.57 Z1.2 F1920.0 E33831.43
G1 X0.88 Y-13.93 Z1.2 F1920.0 E33836.049
G1 X2.31 Y-15.71 Z1.2 F1920.0 E33839.794
G1 X6.93 Y-20.2 Z1.2 F1920.0 E33850.37
G1 X7.08 Y-20.45 Z1.2 F1920.0 E33850.853
G1 X7.49 Y-21.8 Z1.2 F1920.0 E33853.169
G1 X8.13 Y-28.01 Z1.2 F1920.0 E33863.418
G1 X8.88 Y-31.57 Z1.2 F1920.0 E33869.392
G1 X10.88 Y-39.09 Z1.2 F1920.0 E33882.164
G1 X11.49 Y-40.51 Z1.2 F1920.0 E33884.703
G1 X11.89 Y-40.75 Z1.2 F1920.0 E33885.464
G1 X12.75 Y-39.76 Z1.2 F1920.0 E33887.608
G1 X13.97 Y-37.46 Z1.2 F1920.0 E33891.888
G1 X14.11 Y-37.2 Z1.2 F1920.0 E33892.375
;M103
;M108 S37.53
;M108 S39.41
G1 X14.48 Y-37.39 Z1.2 F3600.0
;M101
G1 X14.96 Y-36.48 Z1.2 F1620.0 E33893.878
G1 X15.42 Y-35.34 Z1.2 F1620.0 E33895.68
G1 X16.3 Y-32.71 Z1.2 F1620.0 E33899.729
G1 X16.99 Y-31.07 Z1.2 F1620.0 E33902.316
G1 X17.67 Y-28.82 Z1.2 F1620.0 E33905.76
G1 X18.07 Y-25.82 Z1.2 F1620.0 E33910.175
G1 X18.24 Y-22.55 Z1.2 F1620.0 E33914.958
G1 X18.22 Y-19.53 Z1.2 F1620.0 E33919.354
G1 X18.25 Y-19.48 Z1.2 F1620.0 E33919.449
G1 X17.97 Y-15.22 Z1.2 F1620.0 E33925.687
G1 X17.95 Y-15.18 Z1.2 F1620.0 E33925.747
G1 X17.8 Y-5.04 Z1.2 F1620.0 E33940.549
G1 X17.77 Y-4.91 Z1.2 F1620.0 E33940.75
G1 X17.87 Y11.78 Z1.2 F1620.0 E33965.101
G1 X18.18 Y18.71 Z1.2 F1620.0 E33975.23
G1 X18.93 Y23.7 Z1.2 F1620.0 E33982.599
G1 X20.14 Y27.05 Z1.2 F1620.0 E33987.8
G1 X21.83 Y28.8 Z1.2 F1620.0 E33991.351
G1 X23.39 Y29.74 Z1.2 F1620.0 E33994.002
G1 X24.4 Y30.67 Z1.2 F1620.0 E33996.011
G1 X24.96 Y31.87 Z1.2 F1620.0 E33997.947
G1 X25.18 Y33.62 Z1.2 F1620.0 E34000.513
G1 X25.05 Y34.46 Z1.2 F1620.0 E34001.748
G1 X24.92 Y34.62 Z1.2 F1620.0 E34002.056
G1 X24.81 Y34.59 Z1.2 F1620.0 E34002.221
G1 X24.73 Y34.59 Z1.2 F1620.0 E34002.34
G1 X23.69 Y33.58 Z1.2 F1620.0 E34004.448
G1 X22.03 Y32.36 Z1.2 F1620.0 E34007.46
G1 X20.2 Y31.5 Z1.2 F1620.0 E34010.414
G1 X18.61 Y31.57 Z1.2 F1620.0 E34012.729
G1 X12.58 Y34.28 Z1.2 F1620.0 E34022.381
G1 X10.51 Y35.42 Z1.2 F1620.0 E34025.824
G1 X8.82 Y36.69 Z1.2 F1620.0 E34028.91
G1 X7.43 Y38.3 Z1.2 F1620.0 E34032.01
G1 X6.28 Y40.39 Z1.2 F1620.0 E34035.502
G1 X5.86 Y40.92 Z1.2 F1620.0 E34036.48
G1 X5.85 Y40.92 Z1.2 F1620.0 E34036.498
G1 X5.74 Y40.15 Z1.2 F1620.0 E34037.63
G1 X5.68 Y39.96 Z1.2 F1620.0 E34037.919
G1 X5.95 Y37.55 Z1.2 F1620.0 E34041.462
G1 X6.69 Y35.83 Z1.2 F1620.0 E34044.189
G1 X7.79 Y34.5 Z1.2 F1620.0 E34046.717
G1 X9.12 Y33.22 Z1.2 F1620.0 E34049.411
G1 X10.76 Y31.97 Z1.2 F1620.0 E34052.416
G1 X12.82 Y30.71 Z1.2 F1620.0 E34055.937
G1 X15.84 Y29.11 Z1.2 F1620.0 E34060.937
G1 X15.97 Y28.87 Z1.2 F1620.0 E34061.328
G1 X16.23 Y27.71 Z1.2 F1620.0 E34063.056
G1 X15.64 Y24.52 Z1.2 F1620.0 E34067.798
G1 X14.25 Y19.6 Z1.2 F1620.0 E34075.253
G1 X12.09 Y12.86 Z1.2 F1620.0 E34085.594
G1 X9.89 Y5.25 Z1.2 F1620.0 E34097.151
G1 X8.35 Y-2.43 Z1.2 F1620.0 E34108.589
G1 X7.42 Y-7.88 Z1.2 F1620.0 E34116.653
G1 X6.87 Y-9.67 Z1.2 F1620.0 E34119.391
G1 X6.7 Y-9.91 Z1.2 F1620.0 E34119.815
G1 X6.27 Y-9.85 Z1.2 F1620.0 E34120.444
G1 X6.01 Y-9.89 Z1.2 F1620.0 E34120.832
G1 X5.96 Y-9.95 Z1.2 F1620.0 E34120.944
G1 X5.06 Y-10.05 Z1.2 F1620.0 E34122.262
G1 X3.47 Y-10.1 Z1.2 F1620.0 E34124.581
G1 X1.42 Y-9.86 Z1.2 F1620.0 E34127.591
G1 X-2.02 Y-8.59 Z1.2 F1620.0 E34132.941
G1 X-2.23 Y-8.72 Z1.2 F1620.0 E34133.31
G1 X-2.39 Y-8.75 Z1.2 F1620.0 E34133.547
G1 X-2.09 Y-9.73 Z1.2 F1620.0 E34135.049
G1 X-1.0 Y-11.78 Z1.2 F1620.0 E34138.434
G1 X0.54 Y-14.18 Z1.2 F1620.0 E34142.6
G1 X2.0 Y-15.99 Z1.2 F1620.0 E34145.999
G1 X6.6 Y-20.47 Z1.2 F1620.0 E34155.359
G1 X6.7 Y-20.63 Z1.2 F1620.0 E34155.632
G1 X7.08 Y-21.89 Z1.2 F1620.0 E34157.557
G1 X7.72 Y-28.08 Z1.2 F1620.0 E34166.642
G1 X8.47 Y-31.67 Z1.2 F1620.0 E34172.001
G1 X10.48 Y-39.23 Z1.2 F1620.0 E34183.414
G1 X11.16 Y-40.81 Z1.2 F1620.0 E34185.927
G1 X11.98 Y-41.28 Z1.2 F1620.0 E34187.3
G1 X13.09 Y-40.0 Z1.2 F1620.0 E34189.782
G1 X14.34 Y-37.66 Z1.2 F1620.0 E34193.656
G1 X14.48 Y-37.39 Z1.2 F1620.0 E34194.09
;M103
;M108 S50.04
G1 X14.39 Y-35.72 Z1.5 F3600.0
;M101
G1 X9.05 Y-30.38 Z1.5 F2400.0 E34203.54
G1 X8.89 Y-29.63 Z1.5 F2400.0 E34204.499
G1 X14.55 Y-35.28 Z1.5 F2400.0 E34214.511
G1 X14.71 Y-34.85 Z1.5 F2400.0 E34215.088
G1 X8.74 Y-28.88 Z1.5 F2400.0 E34225.661
G1 X8.58 Y-28.13 Z1.5 F2400.0 E34226.62
G1 X14.87 Y-34.42 Z1.5 F2400.0 E34237.755
G1 X15.03 Y-33.99 Z1.5 F2400.0 E34238.332
G1 X8.49 Y-27.45 Z1.5 F2400.0 E34249.905
G1 X8.42 Y-26.79 Z1.5 F2400.0 E34250.736
G1 X15.19 Y-33.55 Z1.5 F2400.0 E34262.712
G1 X15.35 Y-33.12 Z1.5 F2400.0 E34263.288
G1 X8.35 Y-26.12 Z1.5 F2400.0 E34275.668
G1 X8.29 Y-25.46 Z1.5 F2400.0 E34276.498
G1 X15.51 Y-32.69 Z1.5 F2400.0 E34289.28
G1 X15.67 Y-32.26 Z1.5 F2400.0 E34289.858
G1 X8.22 Y-24.8 Z1.5 F2400.0 E34303.045
G1 X8.15 Y-24.14 Z1.5 F2400.0 E34303.876
G1 X15.83 Y-31.82 Z1.5 F2400.0 E34317.466
G1 X15.99 Y-31.39 Z1.5 F2400.0 E34318.043
G1 X8.08 Y-23.48 Z1.5 F2400.0 E34332.036
G1 X8.01 Y-22.82 Z1.5 F2400.0 E34332.867
G1 X16.15 Y-30.96 Z1.5 F2400.0 E34347.264
G1 X16.29 Y-30.51 Z1.5 F2400.0 E34347.857
G1 X7.94 Y-22.16 Z1.5 F2400.0 E34362.62
G1 X7.82 Y-21.45 Z1.5 F2400.0 E34363.525
G1 X16.43 Y-30.05 Z1.5 F2400.0 E34378.745
G1 X16.56 Y-29.6 Z1.5 F2400.0 E34379.34
G1 X7.56 Y-20.59 Z1.5 F2400.0 E34395.265
;M103
G1 X0.32 Y-12.16 Z1.5 F3600.0
;M101
G1 X16.84 Y-28.69 Z1.5 F2400.0 E34424.495
G1 X16.7 Y-29.14 Z1.5 F2400.0 E34425.089
G1 X1.77 Y-14.21 Z1.5 F2400.0 E34451.509
;M103
G1 X6.62 Y-10.14 Z1.5 F3600.0
G1 X7.02 Y-9.71 Z1.5 F3600.0
G1 X7.55 Y-8.0 Z1.5 F3600.0
G1 X8.44 Y-2.82 Z1.5 F3600.0
G1 X10.05 Y5.22 Z1.5 F3600.0
G1 X12.25 Y12.82 Z1.5 F3600.0
G1 X14.41 Y19.56 Z1.5 F3600.0
G1 X15.81 Y24.48 Z1.5 F3600.0
G1 X16.42 Y27.85 Z1.5 F3600.0
G1 X16.23 Y28.74 Z1.5 F3600.0
G1 X14.2 Y32.01 Z1.5 F3600.0
;M101
G1 X19.17 Y27.04 Z1.5 F2400.0 E34460.312
G1 X19.02 Y26.6 Z1.5 F2400.0 E34460.894
G1 X16.96 Y28.65 Z1.5 F2400.0 E34464.531
G1 X17.13 Y27.89 Z1.5 F2400.0 E34465.503
G1 X18.87 Y26.16 Z1.5 F2400.0 E34468.575
G1 X18.71 Y25.72 Z1.5 F2400.0 E34469.157
G1 X17.05 Y27.38 Z1.5 F2400.0 E34472.103
G1 X16.96 Y26.88 Z1.5 F2400.0 E34472.739
G1 X18.56 Y25.28 Z1.5 F2400.0 E34475.578
G1 X18.41 Y24.84 Z1.5 F2400.0 E34476.161
G1 X16.86 Y26.38 Z1.5 F2400.0 E34478.894
G1 X16.77 Y25.88 Z1.5 F2400.0 E34479.53
G1 X18.26 Y24.4 Z1.5 F2400.0 E34482.158
G1 X18.1 Y23.96 Z1.5 F2400.0 E34482.74
G1 X16.68 Y25.38 Z1.5 F2400.0 E34485.261
G1 X16.59 Y24.88 Z1.5 F2400.0 E34485.897
G1 X18.02 Y23.45 Z1.5 F2400.0 E34488.432
G1 X17.94 Y22.93 Z1.5 F2400.0 E34489.084
G1 X16.49 Y24.38 Z1.5 F2400.0 E34491.647
G1 X16.36 Y23.92 Z1.5 F2400.0 E34492.248
G1 X17.87 Y22.42 Z1.5 F2400.0 E34494.907
G1 X17.79 Y21.9 Z1.5 F2400.0 E34495.558
G1 X16.23 Y23.46 Z1.5 F2400.0 E34498.322
G1 X16.09 Y23.01 Z1.5 F2400.0 E34498.917
G1 X17.71 Y21.39 Z1.5 F2400.0 E34501.787
G1 X17.64 Y20.87 Z1.5 F2400.0 E34502.438
G1 X15.95 Y22.55 Z1.5 F2400.0 E34505.412
G1 X15.82 Y22.1 Z1.5 F2400.0 E34506.008
G1 X17.56 Y20.35 Z1.5 F2400.0 E34509.088
G1 X17.48 Y19.84 Z1.5 F2400.0 E34509.74
G1 X15.68 Y21.64 Z1.5 F2400.0 E34512.927
G1 X15.55 Y21.18 Z1.5 F2400.0 E34513.522
G1 X17.41 Y19.32 Z1.5 F2400.0 E34516.813
G1 X17.33 Y18.81 Z1.5 F2400.0 E34517.465
G1 X15.41 Y20.73 Z1.5 F2400.0 E34520.862
G1 X15.27 Y20.27 Z1.5 F2400.0 E34521.457
G1 X17.3 Y18.24 Z1.5 F2400.0 E34525.049
G1 X17.28 Y17.67 Z1.5 F2400.0 E34525.759
G1 X15.14 Y19.82 Z1.5 F2400.0 E34529.546
G1 X15.0 Y19.36 Z1.5 F2400.0 E34530.142
G1 X17.25 Y17.11 Z1.5 F2400.0 E34534.124
G1 X17.23 Y16.54 Z1.5 F2400.0 E34534.834
G1 X14.86 Y18.9 Z1.5 F2400.0 E34539.013
G1 X14.73 Y18.45 Z1.5 F2400.0 E34539.608
G1 X17.2 Y15.98 Z1.5 F2400.0 E34543.983
G1 X17.17 Y15.41 Z1.5 F2400.0 E34544.693
G1 X14.59 Y17.99 Z1.5 F2400.0 E34549.263
G1 X14.45 Y17.54 Z1.5 F2400.0 E34549.858
G1 X17.15 Y14.84 Z1.5 F2400.0 E34554.622
G1 X17.12 Y14.28 Z1.5 F2400.0 E34555.332
G1 X14.32 Y17.08 Z1.5 F2400.0 E34560.293
G1 X14.18 Y16.62 Z1.5 F2400.0 E34560.888
G1 X17.1 Y13.71 Z1.5 F2400.0 E34566.044
G1 X17.07 Y13.14 Z1.5 F2400.0 E34566.754
G1 X14.04 Y16.17 Z1.5 F2400.0 E34572.106
G1 X13.91 Y15.71 Z1.5 F2400.0 E34572.701
G1 X17.04 Y12.58 Z1.5 F2400.0 E34578.247
G1 X17.02 Y12.01 Z1.5 F2400.0 E34578.957
G1 X13.77 Y15.26 Z1.5 F2400.0 E34584.7
G1 X13.64 Y14.8 Z1.5 F2400.0 E34585.296
G1 X17.01 Y11.43 Z1.5 F2400.0 E34591.26
G1 X17.0 Y10.84 Z1.5 F2400.0 E34591.999
G1 X13.5 Y14.34 Z1.5 F2400.0 E34598.2
G1 X13.36 Y13.89 Z1.5 F2400.0 E34598.795
G1 X17.0 Y10.25 Z1.5 F2400.0 E34605.232
G1 X17.0 Y9.66 Z1.5 F2400.0 E34605.97
G1 X13.23 Y13.43 Z1.5 F2400.0 E34612.644
G1 X13.09 Y12.98 Z1.5 F2400.0 E34613.239
G1 X17.0 Y9.07 Z1.5 F2400.0 E34620.149
G1 X16.99 Y8.48 Z1.5 F2400.0 E34620.885
G1 X12.95 Y12.52 Z1.5 F2400.0 E34628.032
G1 X12.82 Y12.06 Z1.5 F2400.0 E34628.627
G1 X16.99 Y7.89 Z1.5 F2400.0 E34636.01
G1 X16.99 Y7.3 Z1.5 F2400.0 E34636.747
G1 X12.68 Y11.61 Z1.5 F2400.0 E34644.366
G1 X12.54 Y11.15 Z1.5 F2400.0 E34644.961
G1 X16.98 Y6.71 Z1.5 F2400.0 E34652.816
G1 X16.98 Y6.12 Z1.5 F2400.0 E34653.553
G1 X12.41 Y10.7 Z1.5 F2400.0 E34661.645
G1 X12.27 Y10.24 Z1.5 F2400.0 E34662.239
G1 X16.98 Y5.53 Z1.5 F2400.0 E34670.567
G1 X16.98 Y4.94 Z1.5 F2400.0 E34671.304
G1 X12.14 Y9.78 Z1.5 F2400.0 E34679.869
G1 X12.0 Y9.33 Z1.5 F2400.0 E34680.464
G1 X16.97 Y4.35 Z1.5 F2400.0 E34689.266
G1 X16.97 Y3.76 Z1.5 F2400.0 E34690.003
G1 X11.86 Y8.87 Z1.5 F2400.0 E34699.04
G1 X11.73 Y8.42 Z1.5 F2400.0 E34699.635
G1 X16.97 Y3.17 Z1.5 F2400.0 E34708.909
G1 X16.96 Y2.58 Z1.5 F2400.0 E34709.648
G1 X11.59 Y7.96 Z1.5 F2400.0 E34719.158
G1 X11.45 Y7.5 Z1.5 F2400.0 E34719.753
G1 X16.96 Y2.0 Z1.5 F2400.0 E34729.499
G1 X16.96 Y1.41 Z1.5 F2400.0 E34730.237
G1 X11.32 Y7.05 Z1.5 F2400.0 E34740.22
G1 X11.18 Y6.59 Z1.5 F2400.0 E34740.815
G1 X16.96 Y0.82 Z1.5 F2400.0 E34751.034
G1 X16.95 Y0.23 Z1.5 F2400.0 E34751.772
G1 X11.04 Y6.14 Z1.5 F2400.0 E34762.228
G1 X10.91 Y5.68 Z1.5 F2400.0 E34762.824
G1 X16.95 Y-0.36 Z1.5 F2400.0 E34773.515
G1 X16.95 Y-0.95 Z1.5 F2400.0 E34774.253
G1 X10.77 Y5.22 Z1.5 F2400.0 E34785.18
G1 X10.66 Y4.74 Z1.5 F2400.0 E34785.8
G1 X16.94 Y-1.54 Z1.5 F2400.0 E34796.916
G1 X16.94 Y-2.13 Z1.5 F2400.0 E34797.654
G1 X10.57 Y4.24 Z1.5 F2400.0 E34808.932
G1 X10.47 Y3.74 Z1.5 F2400.0 E34809.567
G1 X16.94 Y-2.72 Z1.5 F2400.0 E34821.007
G1 X16.94 Y-3.31 Z1.5 F2400.0 E34821.744
G1 X10.38 Y3.25 Z1.5 F2400.0 E34833.344
G1 X10.29 Y2.75 Z1.5 F2400.0 E34833.978
G1 X16.93 Y-3.9 Z1.5 F2400.0 E34845.741
G1 X16.93 Y-4.49 Z1.5 F2400.0 E34846.478
G1 X10.19 Y2.25 Z1.5 F2400.0 E34858.4
G1 X10.1 Y1.75 Z1.5 F2400.0 E34859.034
G1 X16.96 Y-5.11 Z1.5 F2400.0 E34871.177
G1 X17.03 Y-5.77 Z1.5 F2400.0 E34872.008
G1 X10.0 Y1.25 Z1.5 F2400.0 E34884.44
G1 X9.91 Y0.75 Z1.5 F2400.0 E34885.074
G1 X17.04 Y-6.38 Z1.5 F2400.0 E34897.687
G1 X17.05 Y-6.98 Z1.5 F2400.0 E34898.439
G1 X9.82 Y0.26 Z1.5 F2400.0 E34911.234
G1 X9.72 Y-0.24 Z1.5 F2400.0 E34911.87
G1 X17.06 Y-7.58 Z1.5 F2400.0 E34924.847
G1 X17.07 Y-8.18 Z1.5 F2400.0 E34925.599
G1 X9.63 Y-0.74 Z1.5 F2400.0 E34938.758
G1 X9.53 Y-1.24 Z1.5 F2400.0 E34939.392
G1 X17.07 Y-8.78 Z1.5 F2400.0 E34952.732
G1 X17.08 Y-9.38 Z1.5 F2400.0 E34953.484
G1 X9.44 Y-1.74 Z1.5 F2400.0 E34967.006
G1 X9.35 Y-2.24 Z1.5 F2400.0 E34967.64
G1 X17.09 Y-9.98 Z1.5 F2400.0 E34981.344
G1 X17.1 Y-10.58 Z1.5 F2400.0 E34982.096
G1 X9.25 Y-2.74 Z1.5 F2400.0 E34995.981
G1 X9.16 Y-3.23 Z1.5 F2400.0 E34996.615
G1 X17.11 Y-11.18 Z1.5 F2400.0 E35010.681
G1 X17.12 Y-11.79 Z1.5 F2400.0 E35011.433
G1 X9.06 Y-3.73 Z1.5 F2400.0 E35025.682
G1 X8.97 Y-4.23 Z1.5 F2400.0 E35026.317
G1 X17.13 Y-12.39 Z1.5 F2400.0 E35040.747
G1 X17.13 Y-12.99 Z1.5 F2400.0 E35041.499
G1 X8.88 Y-4.73 Z1.5 F2400.0 E35056.111
G1 X8.78 Y-5.23 Z1.5 F2400.0 E35056.746
G1 X17.14 Y-13.59 Z1.5 F2400.0 E35071.539
G1 X17.15 Y-14.19 Z1.5 F2400.0 E35072.291
G1 X8.69 Y-5.73 Z1.5 F2400.0 E35087.265
G1 X8.59 Y-6.22 Z1.5 F2400.0 E35087.899
G1 X17.16 Y-14.79 Z1.5 F2400.0 E35103.056
G1 X17.24 Y-15.46 Z1.5 F2400.0 E35103.898
G1 X8.5 Y-6.72 Z1.5 F2400.0 E35119.355
G1 X8.4 Y-7.22 Z1.5 F2400.0 E35119.989
G1 X17.28 Y-16.09 Z1.5 F2400.0 E35135.687
G1 X17.32 Y-16.73 Z1.5 F2400.0 E35136.482
G1 X8.31 Y-7.72 Z1.5 F2400.0 E35152.419
G1 X8.21 Y-8.21 Z1.5 F2400.0 E35153.048
G1 X17.36 Y-17.36 Z1.5 F2400.0 E35169.234
G1 X17.4 Y-18.0 Z1.5 F2400.0 E35170.029
G1 X8.07 Y-8.66 Z1.5 F2400.0 E35186.534
G1 X7.93 Y-9.12 Z1.5 F2400.0 E35187.127
G1 X17.44 Y-18.63 Z1.5 F2400.0 E35203.953
G1 X17.48 Y-19.25 Z1.5 F2400.0 E35204.733
G1 X7.79 Y-9.57 Z1.5 F2400.0 E35221.86
G1 X7.66 Y-10.03 Z1.5 F2400.0 E35222.453
G1 X17.38 Y-19.75 Z1.5 F2400.0 E35239.665
G1 X17.39 Y-20.35 Z1.5 F2400.0 E35240.412
G1 X7.41 Y-10.37 Z1.5 F2400.0 E35258.075
G1 X7.16 Y-10.71 Z1.5 F2400.0 E35258.605
G1 X17.39 Y-20.95 Z1.5 F2400.0 E35276.72
G1 X17.4 Y-21.55 Z1.5 F2400.0 E35277.468
G1 X6.78 Y-10.93 Z1.5 F2400.0 E35296.252
G1 X6.24 Y-10.98 Z1.5 F2400.0 E35296.937
G1 X17.4 Y-22.14 Z1.5 F2400.0 E35316.695
G1 X17.4 Y-22.73 Z1.5 F2400.0 E35317.426
G1 X5.73 Y-11.06 Z1.5 F2400.0 E35338.071
G1 X5.18 Y-11.11 Z1.5 F2400.0 E35338.756
G1 X17.37 Y-23.29 Z1.5 F2400.0 E35360.313
G1 X17.34 Y-23.85 Z1.5 F2400.0 E35361.017
G1 X4.64 Y-11.15 Z1.5 F2400.0 E35383.486
G1 X4.09 Y-11.2 Z1.5 F2400.0 E35384.17
G1 X17.31 Y-24.42 Z1.5 F2400.0 E35407.55
G1 X17.28 Y-24.98 Z1.5 F2400.0 E35408.254
G1 X3.55 Y-11.25 Z1.5 F2400.0 E35432.545
G1 X2.93 Y-11.22 Z1.5 F2400.0 E35433.32
G1 X17.25 Y-25.54 Z1.5 F2400.0 E35458.655
G1 X17.19 Y-26.08 Z1.5 F2400.0 E35459.33
G1 X2.27 Y-11.16 Z1.5 F2400.0 E35485.723
G1 X1.62 Y-11.1 Z1.5 F2400.0 E35486.543
G1 X17.12 Y-26.6 Z1.5 F2400.0 E35513.967
G1 X17.05 Y-27.12 Z1.5 F2400.0 E35514.627
G1 X0.99 Y-11.06 Z1.5 F2400.0 E35543.05
G1 X0.09 Y-10.75 Z1.5 F2400.0 E35544.234
G1 X16.98 Y-27.65 Z1.5 F2400.0 E35574.119
G1 X16.91 Y-28.17 Z1.5 F2400.0 E35574.779
G1 X-0.61 Y-10.65 Z1.5 F2400.0 E35605.778
;M103
G1 X6.83 Y-20.59 Z1.5 F3600.0
G1 X9.21 Y-31.13 Z1.5 F3600.0
;M101
G1 X14.23 Y-36.15 Z1.5 F2400.0 E35614.667
G1 X14.03 Y-36.54 Z1.5 F2400.0 E35615.219
G1 X9.4 Y-31.91 Z1.5 F2400.0 E35623.425
G1 X9.61 Y-32.71 Z1.5 F2400.0 E35624.468
G1 X13.83 Y-36.93 Z1.5 F2400.0 E35631.934
G1 X13.62 Y-37.32 Z1.5 F2400.0 E35632.482
G1 X9.82 Y-33.52 Z1.5 F2400.0 E35639.208
G1 X10.03 Y-34.32 Z1.5 F2400.0 E35640.251
G1 X13.42 Y-37.71 Z1.5 F2400.0 E35646.236
G1 X13.21 Y-38.09 Z1.5 F2400.0 E35646.784
G1 X10.25 Y-35.13 Z1.5 F2400.0 E35652.03
G1 X10.46 Y-35.93 Z1.5 F2400.0 E35653.073
G1 X13.01 Y-38.48 Z1.5 F2400.0 E35657.578
G1 X12.8 Y-38.87 Z1.5 F2400.0 E35658.127
G1 X10.67 Y-36.74 Z1.5 F2400.0 E35661.89
G1 X10.89 Y-37.54 Z1.5 F2400.0 E35662.931
G1 X12.6 Y-39.25 Z1.5 F2400.0 E35665.955
G1 X12.37 Y-39.62 Z1.5 F2400.0 E35666.493
G1 X11.1 Y-38.35 Z1.5 F2400.0 E35668.734
G1 X11.4 Y-39.24 Z1.5 F2400.0 E35669.916
G1 X12.09 Y-39.93 Z1.5 F2400.0 E35671.128
;M103
G1 X18.36 Y30.22 Z1.5 F3600.0
;M101
G1 X20.14 Y28.43 Z1.5 F2400.0 E35674.28
G1 X19.86 Y28.13 Z1.5 F2400.0 E35674.804
G1 X16.58 Y31.41 Z1.5 F2400.0 E35680.602
G1 X15.51 Y31.88 Z1.5 F2400.0 E35682.069
;M103
G1 X16.34 Y31.05 Z1.5 F3600.0
;M101
G1 X19.57 Y27.82 Z1.5 F2400.0 E35687.785
G1 X19.32 Y27.48 Z1.5 F2400.0 E35688.317
G1 X14.44 Y32.36 Z1.5 F2400.0 E35696.964
G1 X13.37 Y32.84 Z1.5 F2400.0 E35698.431
;M103
G1 X14.06 Y31.55 Z1.5 F3600.0
;M101
G1 X12.29 Y33.32 Z1.5 F2400.0 E35701.562
;M103
G1 X7.29 Y36.55 Z1.5 F3600.0
;M101
G1 X10.73 Y33.1 Z1.5 F2400.0 E35707.659
G1 X12.43 Y32.0 Z1.5 F2400.0 E35710.188
;M103
G1 X9.28 Y35.15 Z1.5 F3600.0
;M101
G1 X11.0 Y33.43 Z1.5 F2400.0 E35713.222
G1 X10.98 Y34.05 Z1.5 F2400.0 E35713.992
G1 X13.81 Y31.21 Z1.5 F2400.0 E35719.011
G1 X15.07 Y30.55 Z1.5 F2400.0 E35720.782
;M103
G1 X24.12 Y32.16 Z1.5 F3600.0
;M101
G1 X23.82 Y32.46 Z1.5 F2400.0 E35721.32
G1 X23.47 Y32.21 Z1.5 F2400.0 E35721.851
G1 X23.94 Y31.74 Z1.5 F2400.0 E35722.683
G1 X23.77 Y31.33 Z1.5 F2400.0 E35723.248
G1 X23.13 Y31.96 Z1.5 F2400.0 E35724.37
G1 X22.79 Y31.71 Z1.5 F2400.0 E35724.901
G1 X23.47 Y31.03 Z1.5 F2400.0 E35726.099
G1 X23.16 Y30.75 Z1.5 F2400.0 E35726.623
G1 X22.45 Y31.46 Z1.5 F2400.0 E35727.883
G1 X22.04 Y31.27 Z1.5 F2400.0 E35728.439
G1 X22.84 Y30.48 Z1.5 F2400.0 E35729.843
G1 X22.47 Y30.25 Z1.5 F2400.0 E35730.382
G1 X21.64 Y31.08 Z1.5 F2400.0 E35731.854
G1 X21.23 Y30.9 Z1.5 F2400.0 E35732.413
G1 X22.1 Y30.03 Z1.5 F2400.0 E35733.955
G1 X21.74 Y29.8 Z1.5 F2400.0 E35734.492
G1 X20.83 Y30.71 Z1.5 F2400.0 E35736.103
G1 X20.42 Y30.52 Z1.5 F2400.0 E35736.661
G1 X21.37 Y29.57 Z1.5 F2400.0 E35738.342
G1 X21.05 Y29.3 Z1.5 F2400.0 E35738.867
G1 X19.84 Y30.51 Z1.5 F2400.0 E35741.012
G1 X19.22 Y30.54 Z1.5 F2400.0 E35741.793
G1 X20.73 Y29.03 Z1.5 F2400.0 E35744.474
G1 X20.43 Y28.74 Z1.5 F2400.0 E35744.999
G1 X18.59 Y30.58 Z1.5 F2400.0 E35748.249
G1 X17.65 Y30.93 Z1.5 F2400.0 E35749.509
;M103
G1 X17.82 Y31.24 Z1.5 F3600.0
;M101
G1 X17.79 Y31.25 Z1.5 F2400.0 E35749.538
G1 X12.39 Y33.67 Z1.5 F2400.0 E35756.943
G1 X10.29 Y34.84 Z1.5 F2400.0 E35759.955
G1 X8.54 Y36.15 Z1.5 F2400.0 E35762.69
G1 X7.09 Y37.81 Z1.5 F2400.0 E35765.445
G1 X6.72 Y38.48 Z1.5 F2400.0 E35766.404
G1 X6.35 Y38.37 Z1.5 F2400.0 E35766.882
G1 X6.43 Y37.74 Z1.5 F2400.0 E35767.687
G1 X7.05 Y36.19 Z1.5 F2400.0 E35769.772
G1 X8.1 Y34.93 Z1.5 F2400.0 E35771.827
G1 X9.39 Y33.68 Z1.5 F2400.0 E35774.078
G1 X11.0 Y32.46 Z1.5 F2400.0 E35776.597
G1 X13.02 Y31.22 Z1.5 F2400.0 E35779.565
G1 X16.17 Y29.57 Z1.5 F2400.0 E35784.011
G1 X16.55 Y28.87 Z1.5 F2400.0 E35785.01
G1 X16.77 Y27.85 Z1.5 F2400.0 E35786.308
G1 X16.14 Y24.4 Z1.5 F2400.0 E35790.701
G1 X10.37 Y5.14 Z1.5 F2400.0 E35815.854
G1 X7.88 Y-8.07 Z1.5 F2400.0 E35832.672
G1 X7.33 Y-9.87 Z1.5 F2400.0 E35835.017
G1 X6.81 Y-10.57 Z1.5 F2400.0 E35836.116
G1 X6.34 Y-10.51 Z1.5 F2400.0 E35836.707
G1 X6.05 Y-10.67 Z1.5 F2400.0 E35837.129
G1 X3.38 Y-10.9 Z1.5 F2400.0 E35840.484
G1 X1.59 Y-10.74 Z1.5 F2400.0 E35842.726
G1 X1.29 Y-10.78 Z1.5 F2400.0 E35843.11
G1 X-1.39 Y-9.87 Z1.5 F2400.0 E35846.65
G1 X-1.41 Y-9.9 Z1.5 F2400.0 E35846.686
G1 X-0.61 Y-11.4 Z1.5 F2400.0 E35848.812
G1 X0.93 Y-13.74 Z1.5 F2400.0 E35852.31
G1 X2.37 Y-15.51 Z1.5 F2400.0 E35855.165
G1 X6.86 Y-19.96 Z1.5 F2400.0 E35863.078
G1 X7.15 Y-20.45 Z1.5 F2400.0 E35863.792
G1 X7.54 Y-21.75 Z1.5 F2400.0 E35865.488
G1 X8.19 Y-28.02 Z1.5 F2400.0 E35873.37
G1 X8.94 Y-31.57 Z1.5 F2400.0 E35877.911
G1 X10.92 Y-39.06 Z1.5 F2400.0 E35887.598
G1 X11.6 Y-40.49 Z1.5 F2400.0 E35889.582
G1 X11.91 Y-40.67 Z1.5 F2400.0 E35890.028
G1 X12.75 Y-39.72 Z1.5 F2400.0 E35891.611
G1 X14.54 Y-36.36 Z1.5 F2400.0 E35896.375
G1 X16.5 Y-31.04 Z1.5 F2400.0 E35903.466
G1 X17.2 Y-28.72 Z1.5 F2400.0 E35906.496
G1 X17.59 Y-25.77 Z1.5 F2400.0 E35910.221
G1 X17.76 Y-22.52 Z1.5 F2400.0 E35914.296
G1 X17.74 Y-19.5 Z1.5 F2400.0 E35918.075
G1 X17.85 Y-19.34 Z1.5 F2400.0 E35918.319
G1 X17.58 Y-15.31 Z1.5 F2400.0 E35923.372
G1 X17.52 Y-15.19 Z1.5 F2400.0 E35923.533
G1 X17.38 Y-5.34 Z1.5 F2400.0 E35935.86
G1 X17.28 Y-4.93 Z1.5 F2400.0 E35936.382
G1 X17.36 Y11.81 Z1.5 F2400.0 E35957.322
G1 X17.68 Y18.77 Z1.5 F2400.0 E35966.043
G1 X18.43 Y23.82 Z1.5 F2400.0 E35972.435
G1 X19.68 Y27.43 Z1.5 F2400.0 E35977.208
G1 X20.84 Y28.65 Z1.5 F2400.0 E35979.307
G1 X21.59 Y29.29 Z1.5 F2400.0 E35980.54
G1 X23.13 Y30.24 Z1.5 F2400.0 E35982.812
G1 X24.05 Y31.1 Z1.5 F2400.0 E35984.386
G1 X24.48 Y32.1 Z1.5 F2400.0 E35985.754
G1 X24.64 Y33.24 Z1.5 F2400.0 E35987.185
G1 X24.31 Y33.34 Z1.5 F2400.0 E35987.615
G1 X23.95 Y33.0 Z1.5 F2400.0 E35988.233
G1 X22.24 Y31.75 Z1.5 F2400.0 E35990.883
G1 X20.27 Y30.85 Z1.5 F2400.0 E35993.59
G1 X18.5 Y30.94 Z1.5 F2400.0 E35995.815
G1 X17.82 Y31.24 Z1.5 F2400.0 E35996.752
;M103
;M108 S37.53
G1 X17.93 Y31.61 Z1.5 F3600.0
;M101
G1 X17.22 Y31.89 Z1.5 F1800.0 E35997.715
G1 X12.58 Y34.04 Z1.5 F1800.0 E36004.11
G1 X10.52 Y35.19 Z1.5 F1800.0 E36007.066
G1 X8.83 Y36.46 Z1.5 F1800.0 E36009.71
G1 X7.43 Y38.05 Z1.5 F1800.0 E36012.356
G1 X6.28 Y40.12 Z1.5 F1800.0 E36015.319
G1 X6.02 Y40.42 Z1.5 F1800.0 E36015.816
G1 X5.92 Y40.36 Z1.5 F1800.0 E36015.961
G1 X5.75 Y39.83 Z1.5 F1800.0 E36016.651
G1 X6.02 Y37.63 Z1.5 F1800.0 E36019.423
G1 X6.68 Y35.97 Z1.5 F1800.0 E36021.659
G1 X7.79 Y34.64 Z1.5 F1800.0 E36023.825
G1 X9.12 Y33.36 Z1.5 F1800.0 E36026.135
G1 X10.76 Y32.11 Z1.5 F1800.0 E36028.712
G1 X12.82 Y30.86 Z1.5 F1800.0 E36031.723
G1 X15.86 Y29.25 Z1.5 F1800.0 E36036.028
G1 X16.16 Y28.72 Z1.5 F1800.0 E36036.795
G1 X16.35 Y27.85 Z1.5 F1800.0 E36037.911
G1 X15.73 Y24.5 Z1.5 F1800.0 E36042.173
G1 X14.33 Y19.59 Z1.5 F1800.0 E36048.561
G1 X12.16 Y12.84 Z1.5 F1800.0 E36057.419
G1 X9.97 Y5.24 Z1.5 F1800.0 E36067.325
G1 X8.36 Y-2.81 Z1.5 F1800.0 E36077.586
G1 X7.47 Y-7.98 Z1.5 F1800.0 E36084.148
G1 X6.95 Y-9.68 Z1.5 F1800.0 E36086.37
G1 X6.62 Y-10.13 Z1.5 F1800.0 E36087.07
G1 X6.26 Y-10.08 Z1.5 F1800.0 E36087.52
G1 X6.07 Y-10.11 Z1.5 F1800.0 E36087.766
G1 X5.92 Y-10.27 Z1.5 F1800.0 E36088.041
G1 X4.98 Y-10.39 Z1.5 F1800.0 E36089.219
G1 X4.22 Y-10.4 Z1.5 F1800.0 E36090.175
G1 X3.37 Y-10.48 Z1.5 F1800.0 E36091.237
G1 X1.58 Y-10.32 Z1.5 F1800.0 E36093.494
G1 X1.33 Y-10.35 Z1.5 F1800.0 E36093.814
G1 X-1.61 Y-9.36 Z1.5 F1800.0 E36097.692
G1 X-2.09 Y-9.11 Z1.5 F1800.0 E36098.369
G1 X-1.87 Y-9.91 Z1.5 F1800.0 E36099.406
G1 X-0.97 Y-11.62 Z1.5 F1800.0 E36101.821
G1 X0.59 Y-13.99 Z1.5 F1800.0 E36105.37
G1 X2.06 Y-15.79 Z1.5 F1800.0 E36108.281
G1 X4.84 Y-18.54 Z1.5 F1800.0 E36113.175
G1 X5.01 Y-18.79 Z1.5 F1800.0 E36113.55
G1 X6.53 Y-20.23 Z1.5 F1800.0 E36116.164
G1 X6.76 Y-20.62 Z1.5 F1800.0 E36116.741
G1 X7.13 Y-21.83 Z1.5 F1800.0 E36118.325
G1 X7.78 Y-28.08 Z1.5 F1800.0 E36126.184
G1 X8.53 Y-31.67 Z1.5 F1800.0 E36130.766
G1 X10.52 Y-39.2 Z1.5 F1800.0 E36140.508
G1 X11.23 Y-40.77 Z1.5 F1800.0 E36142.671
G1 X11.28 Y-40.79 Z1.5 F1800.0 E36142.743
G1 X11.99 Y-41.2 Z1.5 F1800.0 E36143.771
G1 X13.1 Y-39.96 Z1.5 F1800.0 E36145.847
G1 X14.92 Y-36.53 Z1.5 F1800.0 E36150.703
G1 X15.38 Y-35.37 Z1.5 F1800.0 E36152.266
G1 X16.25 Y-32.73 Z1.5 F1800.0 E36155.754
G1 X16.89 Y-31.18 Z1.5 F1800.0 E36157.844
G1 X17.61 Y-28.81 Z1.5 F1800.0 E36160.942
G1 X18.01 Y-25.81 Z1.5 F1800.0 E36164.729
G1 X18.18 Y-22.53 Z1.5 F1800.0 E36168.842
G1 X18.16 Y-19.62 Z1.5 F1800.0 E36172.475
G1 X18.27 Y-19.45 Z1.5 F1800.0 E36172.737
G1 X18.0 Y-15.19 Z1.5 F1800.0 E36178.08
G1 X17.94 Y-15.08 Z1.5 F1800.0 E36178.228
G1 X17.8 Y-5.29 Z1.5 F1800.0 E36190.483
G1 X17.7 Y-4.89 Z1.5 F1800.0 E36190.999
G1 X17.78 Y11.79 Z1.5 F1800.0 E36211.868
G1 X18.1 Y18.73 Z1.5 F1800.0 E36220.551
G1 X18.84 Y23.72 Z1.5 F1800.0 E36226.868
G1 X20.05 Y27.21 Z1.5 F1800.0 E36231.481
G1 X21.12 Y28.35 Z1.5 F1800.0 E36233.438
G1 X21.83 Y28.95 Z1.5 F1800.0 E36234.602
G1 X23.39 Y29.91 Z1.5 F1800.0 E36236.886
G1 X24.4 Y30.85 Z1.5 F1800.0 E36238.622
G1 X24.89 Y31.99 Z1.5 F1800.0 E36240.172
G1 X25.1 Y33.52 Z1.5 F1800.0 E36242.109
G1 X24.98 Y34.11 Z1.5 F1800.0 E36242.856
G1 X24.9 Y34.32 Z1.5 F1800.0 E36243.132
G1 X24.72 Y34.32 Z1.5 F1800.0 E36243.357
G1 X23.68 Y33.32 Z1.5 F1800.0 E36245.154
G1 X22.03 Y32.12 Z1.5 F1800.0 E36247.717
G1 X20.19 Y31.27 Z1.5 F1800.0 E36250.244
G1 X18.59 Y31.35 Z1.5 F1800.0 E36252.254
G1 X17.93 Y31.61 Z1.5 F1800.0 E36253.133
;M103
;M108 S50.04
G1 X-5.51 Y-14.63 Z1.5 F3600.0
;M101
G1 X-10.59 Y-9.56 Z1.5 F2400.0 E36262.105
G1 X-10.84 Y-8.71 Z1.5 F2400.0 E36263.208
G1 X-5.54 Y-14.01 Z1.5 F2400.0 E36272.576
G1 X-5.57 Y-13.39 Z1.5 F2400.0 E36273.354
G1 X-11.09 Y-7.87 Z1.5 F2400.0 E36283.12
G1 X-11.34 Y-7.02 Z1.5 F2400.0 E36284.223
G1 X-5.6 Y-12.77 Z1.5 F2400.0 E36294.387
G1 X-5.63 Y-12.14 Z1.5 F2400.0 E36295.165
G1 X-11.6 Y-6.18 Z1.5 F2400.0 E36305.726
G1 X-11.85 Y-5.33 Z1.5 F2400.0 E36306.831
G1 X-5.64 Y-11.54 Z1.5 F2400.0 E36317.81
G1 X-5.65 Y-10.94 Z1.5 F2400.0 E36318.554
G1 X-12.03 Y-4.56 Z1.5 F2400.0 E36329.838
G1 X-12.16 Y-3.83 Z1.5 F2400.0 E36330.768
G1 X-5.65 Y-10.35 Z1.5 F2400.0 E36342.29
G1 X-5.65 Y-9.75 Z1.5 F2400.0 E36343.035
G1 X-12.3 Y-3.1 Z1.5 F2400.0 E36354.796
G1 X-12.44 Y-2.37 Z1.5 F2400.0 E36355.726
G1 X-5.66 Y-9.15 Z1.5 F2400.0 E36367.725
G1 X-5.66 Y-8.56 Z1.5 F2400.0 E36368.469
G1 X-12.58 Y-1.64 Z1.5 F2400.0 E36380.708
G1 X-12.71 Y-0.91 Z1.5 F2400.0 E36381.637
G1 X-5.66 Y-7.96 Z1.5 F2400.0 E36394.113
G1 X-5.66 Y-7.37 Z1.5 F2400.0 E36394.859
G1 X-12.85 Y-0.18 Z1.5 F2400.0 E36407.573
G1 X-12.99 Y0.55 Z1.5 F2400.0 E36408.502
G1 X-5.67 Y-6.77 Z1.5 F2400.0 E36421.454
G1 X-5.67 Y-6.18 Z1.5 F2400.0 E36422.199
G1 X-13.13 Y1.28 Z1.5 F2400.0 E36435.39
G1 X-13.26 Y2.01 Z1.5 F2400.0 E36436.319
G1 X-5.67 Y-5.58 Z1.5 F2400.0 E36449.749
G1 X-5.68 Y-4.99 Z1.5 F2400.0 E36450.495
G1 X-13.4 Y2.74 Z1.5 F2400.0 E36464.162
G1 X-13.54 Y3.47 Z1.5 F2400.0 E36465.091
G1 X-5.68 Y-4.39 Z1.5 F2400.0 E36478.998
G1 X-5.68 Y-3.8 Z1.5 F2400.0 E36479.742
G1 X-13.68 Y4.2 Z1.5 F2400.0 E36493.887
G1 X-13.81 Y4.93 Z1.5 F2400.0 E36494.816
G1 X-5.68 Y-3.2 Z1.5 F2400.0 E36509.199
G1 X-5.69 Y-2.61 Z1.5 F2400.0 E36509.943
G1 X-13.95 Y5.66 Z1.5 F2400.0 E36524.564
G1 X-14.09 Y6.39 Z1.5 F2400.0 E36525.493
G1 X-5.69 Y-2.01 Z1.5 F2400.0 E36540.353
G1 X-5.69 Y-1.42 Z1.5 F2400.0 E36541.097
G1 X-14.23 Y7.12 Z1.5 F2400.0 E36556.195
G1 X-14.37 Y7.85 Z1.5 F2400.0 E36557.125
G1 X-5.7 Y-0.82 Z1.5 F2400.0 E36572.461
G1 X-5.7 Y-0.23 Z1.5 F2400.0 E36573.205
G1 X-14.57 Y8.65 Z1.5 F2400.0 E36588.907
G1 X-14.84 Y9.51 Z1.5 F2400.0 E36590.027
G1 X-5.7 Y0.37 Z1.5 F2400.0 E36606.189
G1 X-5.71 Y0.97 Z1.5 F2400.0 E36606.934
G1 X-20.02 Y15.28 Z1.5 F2400.0 E36632.255
G1 X-19.72 Y15.57 Z1.5 F2400.0 E36632.779
G1 X-5.71 Y1.56 Z1.5 F2400.0 E36657.568
G1 X-5.71 Y2.16 Z1.5 F2400.0 E36658.312
G1 X-19.42 Y15.87 Z1.5 F2400.0 E36682.57
G1 X-19.12 Y16.16 Z1.5 F2400.0 E36683.095
G1 X-5.71 Y2.75 Z1.5 F2400.0 E36706.821
G1 X-5.72 Y3.35 Z1.5 F2400.0 E36707.567
G1 X-18.83 Y16.46 Z1.5 F2400.0 E36730.761
G1 X-18.53 Y16.75 Z1.5 F2400.0 E36731.284
G1 X-5.72 Y3.94 Z1.5 F2400.0 E36753.948
G1 X-5.72 Y4.54 Z1.5 F2400.0 E36754.692
G1 X-18.23 Y17.05 Z1.5 F2400.0 E36776.823
G1 X-17.93 Y17.34 Z1.5 F2400.0 E36777.346
G1 X-5.69 Y5.1 Z1.5 F2400.0 E36799.0
G1 X-5.62 Y5.62 Z1.5 F2400.0 E36799.659
G1 X-17.64 Y17.64 Z1.5 F2400.0 E36820.911
G1 X-17.34 Y17.93 Z1.5 F2400.0 E36821.434
G1 X-5.62 Y6.21 Z1.5 F2400.0 E36842.174
G1 X-5.61 Y6.79 Z1.5 F2400.0 E36842.905
G1 X-17.04 Y18.23 Z1.5 F2400.0 E36863.133
G1 X-16.74 Y18.52 Z1.5 F2400.0 E36863.657
G1 X-5.6 Y7.38 Z1.5 F2400.0 E36883.374
G1 X-5.59 Y7.96 Z1.5 F2400.0 E36884.105
G1 X-16.45 Y18.82 Z1.5 F2400.0 E36903.309
G1 X-16.15 Y19.11 Z1.5 F2400.0 E36903.834
G1 X-5.58 Y8.54 Z1.5 F2400.0 E36922.527
G1 X-5.57 Y9.13 Z1.5 F2400.0 E36923.258
G1 X-15.85 Y19.41 Z1.5 F2400.0 E36941.44
G1 X-15.55 Y19.7 Z1.5 F2400.0 E36941.964
G1 X-5.57 Y9.71 Z1.5 F2400.0 E36959.635
G1 X-5.56 Y10.3 Z1.5 F2400.0 E36960.365
G1 X-15.32 Y20.06 Z1.5 F2400.0 E36977.641
G1 X-15.13 Y20.46 Z1.5 F2400.0 E36978.196
G1 X-5.55 Y10.88 Z1.5 F2400.0 E36995.147
G1 X-5.54 Y11.46 Z1.5 F2400.0 E36995.878
G1 X-14.99 Y20.92 Z1.5 F2400.0 E37012.598
G1 X-14.85 Y21.37 Z1.5 F2400.0 E37013.192
G1 X-5.53 Y12.05 Z1.5 F2400.0 E37029.682
G1 X-5.52 Y12.63 Z1.5 F2400.0 E37030.413
G1 X-14.74 Y21.85 Z1.5 F2400.0 E37046.72
G1 X-14.69 Y22.39 Z1.5 F2400.0 E37047.395
G1 X-5.52 Y13.22 Z1.5 F2400.0 E37063.618
G1 X-5.51 Y13.8 Z1.5 F2400.0 E37064.349
G1 X-14.63 Y22.92 Z1.5 F2400.0 E37080.489
G1 X-14.57 Y23.46 Z1.5 F2400.0 E37081.164
G1 X-5.5 Y14.38 Z1.5 F2400.0 E37097.222
G1 X-5.49 Y14.97 Z1.5 F2400.0 E37097.952
G1 X-14.52 Y24.0 Z1.5 F2400.0 E37113.926
G1 X-14.46 Y24.53 Z1.5 F2400.0 E37114.601
G1 X-5.41 Y15.49 Z1.5 F2400.0 E37130.611
G1 X-5.38 Y16.04 Z1.5 F2400.0 E37131.308
G1 X-14.41 Y25.07 Z1.5 F2400.0 E37147.283
G1 X-14.35 Y25.61 Z1.5 F2400.0 E37147.958
G1 X-5.34 Y16.6 Z1.5 F2400.0 E37163.899
G1 X-5.31 Y17.15 Z1.5 F2400.0 E37164.596
G1 X-14.3 Y26.14 Z1.5 F2400.0 E37180.504
G1 X-14.24 Y26.68 Z1.5 F2400.0 E37181.179
G1 X-5.27 Y17.71 Z1.5 F2400.0 E37197.052
G1 X-5.23 Y18.27 Z1.5 F2400.0 E37197.749
G1 X-14.19 Y27.22 Z1.5 F2400.0 E37213.59
G1 X-14.13 Y27.76 Z1.5 F2400.0 E37214.265
G1 X-5.2 Y18.82 Z1.5 F2400.0 E37230.072
G1 X-5.27 Y19.49 Z1.5 F2400.0 E37230.912
G1 X-14.05 Y28.26 Z1.5 F2400.0 E37246.438
G1 X-13.94 Y28.75 Z1.5 F2400.0 E37247.064
G1 X-5.27 Y20.08 Z1.5 F2400.0 E37262.417
G1 X-5.26 Y20.66 Z1.5 F2400.0 E37263.152
G1 X-13.84 Y29.24 Z1.5 F2400.0 E37278.331
G1 X-13.74 Y29.73 Z1.5 F2400.0 E37278.956
G1 X-5.26 Y21.25 Z1.5 F2400.0 E37293.962
G1 X-5.25 Y21.84 Z1.5 F2400.0 E37294.696
G1 X-13.63 Y30.22 Z1.5 F2400.0 E37309.529
G1 X-13.53 Y30.71 Z1.5 F2400.0 E37310.154
G1 X-5.25 Y22.43 Z1.5 F2400.0 E37324.812
G1 X-5.27 Y23.04 Z1.5 F2400.0 E37325.588
G1 X-13.43 Y31.2 Z1.5 F2400.0 E37340.016
G1 X-13.32 Y31.68 Z1.5 F2400.0 E37340.634
G1 X-5.31 Y23.67 Z1.5 F2400.0 E37354.807
G1 X-5.34 Y24.3 Z1.5 F2400.0 E37355.59
G1 X-13.19 Y32.15 Z1.5 F2400.0 E37369.485
G1 X-13.07 Y32.62 Z1.5 F2400.0 E37370.092
G1 X-5.37 Y24.92 Z1.5 F2400.0 E37383.709
G1 X-5.41 Y25.55 Z1.5 F2400.0 E37384.492
G1 X-12.95 Y33.09 Z1.5 F2400.0 E37397.832
G1 X-12.82 Y33.55 Z1.5 F2400.0 E37398.437
G1 X-5.48 Y26.21 Z1.5 F2400.0 E37411.428
G1 X-5.57 Y26.9 Z1.5 F2400.0 E37412.292
G1 X-12.7 Y34.02 Z1.5 F2400.0 E37424.902
G1 X-12.57 Y34.49 Z1.5 F2400.0 E37425.508
G1 X-5.66 Y27.58 Z1.5 F2400.0 E37437.738
G1 X-5.75 Y28.26 Z1.5 F2400.0 E37438.602
G1 X-12.45 Y34.96 Z1.5 F2400.0 E37450.452
G1 X-12.33 Y35.43 Z1.5 F2400.0 E37451.057
G1 X-5.91 Y29.02 Z1.5 F2400.0 E37462.399
G1 X-6.17 Y29.87 Z1.5 F2400.0 E37463.509
G1 X-12.2 Y35.9 Z1.5 F2400.0 E37474.179
G1 X-12.08 Y36.37 Z1.5 F2400.0 E37474.784
G1 X-6.43 Y30.71 Z1.5 F2400.0 E37484.782
;M103
G1 X-6.75 Y31.63 Z1.5 F3600.0
;M101
G1 X-11.95 Y36.83 Z1.5 F2400.0 E37493.986
G1 X-11.83 Y37.3 Z1.5 F2400.0 E37494.593
G1 X-7.1 Y32.57 Z1.5 F2400.0 E37502.965
;M103
G1 X-7.44 Y33.51 Z1.5 F3600.0
;M101
G1 X-11.71 Y37.77 Z1.5 F2400.0 E37510.503
G1 X-11.58 Y38.24 Z1.5 F2400.0 E37511.11
G1 X-7.79 Y34.45 Z1.5 F2400.0 E37517.816
;M103
G1 X-8.14 Y35.39 Z1.5 F3600.0
;M101
G1 X-11.46 Y38.71 Z1.5 F2400.0 E37523.688
G1 X-11.3 Y39.14 Z1.5 F2400.0 E37524.266
G1 X-8.52 Y36.37 Z1.5 F2400.0 E37529.175
;M103
G1 X-9.19 Y37.63 Z1.5 F3600.0
;M101
G1 X-11.11 Y39.54 Z1.5 F2400.0 E37532.562
G1 X-10.92 Y39.94 Z1.5 F2400.0 E37533.118
G1 X-9.86 Y38.89 Z1.5 F2400.0 E37534.981
;M103
G1 X-16.22 Y10.88 Z1.5 F3600.0
;M101
G1 X-20.28 Y14.95 Z1.5 F2400.0 E37542.175
G1 X-20.55 Y14.62 Z1.5 F2400.0 E37542.703
G1 X-16.99 Y11.06 Z1.5 F2400.0 E37549.003
G1 X-17.64 Y11.12 Z1.5 F2400.0 E37549.817
G1 X-20.81 Y14.3 Z1.5 F2400.0 E37555.439
G1 X-21.08 Y13.97 Z1.5 F2400.0 E37555.967
G1 X-18.28 Y11.18 Z1.5 F2400.0 E37560.909
G1 X-18.93 Y11.23 Z1.5 F2400.0 E37561.724
G1 X-21.34 Y13.64 Z1.5 F2400.0 E37565.987
G1 X-21.59 Y13.3 Z1.5 F2400.0 E37566.519
G1 X-19.53 Y11.24 Z1.5 F2400.0 E37570.16
G1 X-20.07 Y11.19 Z1.5 F2400.0 E37570.84
G1 X-21.83 Y12.94 Z1.5 F2400.0 E37573.939
G1 X-22.06 Y12.58 Z1.5 F2400.0 E37574.474
G1 X-20.62 Y11.14 Z1.5 F2400.0 E37577.03
G1 X-21.19 Y11.12 Z1.5 F2400.0 E37577.746
G1 X-22.3 Y12.23 Z1.5 F2400.0 E37579.707
G1 X-22.53 Y11.87 Z1.5 F2400.0 E37580.243
G1 X-21.71 Y11.04 Z1.5 F2400.0 E37581.702
G1 X-22.15 Y10.89 Z1.5 F2400.0 E37582.288
G1 X-22.77 Y11.51 Z1.5 F2400.0 E37583.38
G1 X-23.0 Y11.15 Z1.5 F2400.0 E37583.918
G1 X-22.59 Y10.74 Z1.5 F2400.0 E37584.634
G1 X-23.03 Y10.59 Z1.5 F2400.0 E37585.218
G1 X-23.2 Y10.76 Z1.5 F2400.0 E37585.513
;M103
G1 X-16.71 Y10.32 Z1.5 F3600.0
G1 X-16.56 Y10.16 Z1.5 F3600.0
G1 X-16.39 Y10.16 Z1.5 F3600.0
G1 X-16.03 Y10.14 Z1.5 F3600.0
G1 X-15.63 Y9.71 Z1.5 F3600.0
G1 X-10.33 Y-10.4 Z1.5 F3600.0
;M101
G1 X-5.49 Y-15.25 Z1.5 F2400.0 E37594.087
G1 X-5.46 Y-15.87 Z1.5 F2400.0 E37594.865
G1 X-10.08 Y-11.25 Z1.5 F2400.0 E37603.041
G1 X-9.83 Y-12.09 Z1.5 F2400.0 E37604.146
G1 X-5.43 Y-16.49 Z1.5 F2400.0 E37611.924
G1 X-5.4 Y-17.11 Z1.5 F2400.0 E37612.7
G1 X-9.57 Y-12.94 Z1.5 F2400.0 E37620.082
G1 X-9.32 Y-13.78 Z1.5 F2400.0 E37621.186
G1 X-5.37 Y-17.73 Z1.5 F2400.0 E37628.17
G1 X-5.35 Y-18.35 Z1.5 F2400.0 E37628.948
G1 X-9.07 Y-14.63 Z1.5 F2400.0 E37635.535
G1 X-8.82 Y-15.47 Z1.5 F2400.0 E37636.638
G1 X-5.3 Y-18.99 Z1.5 F2400.0 E37642.864
G1 X-5.19 Y-19.69 Z1.5 F2400.0 E37643.744
G1 X-8.56 Y-16.32 Z1.5 F2400.0 E37649.705
G1 X-8.31 Y-17.16 Z1.5 F2400.0 E37650.809
G1 X-5.09 Y-20.38 Z1.5 F2400.0 E37656.506
G1 X-4.99 Y-21.08 Z1.5 F2400.0 E37657.387
G1 X-8.06 Y-18.01 Z1.5 F2400.0 E37662.82
G1 X-7.8 Y-18.85 Z1.5 F2400.0 E37663.923
G1 X-4.88 Y-21.78 Z1.5 F2400.0 E37669.092
G1 X-4.78 Y-22.47 Z1.5 F2400.0 E37669.972
G1 X-7.55 Y-19.7 Z1.5 F2400.0 E37674.877
G1 X-7.3 Y-20.55 Z1.5 F2400.0 E37675.982
G1 X-4.68 Y-23.17 Z1.5 F2400.0 E37680.621
G1 X-4.57 Y-23.86 Z1.5 F2400.0 E37681.501
G1 X-7.05 Y-21.39 Z1.5 F2400.0 E37685.877
G1 X-6.79 Y-22.24 Z1.5 F2400.0 E37686.981
G1 X-4.27 Y-24.76 Z1.5 F2400.0 E37691.443
G1 X-3.96 Y-25.66 Z1.5 F2400.0 E37692.642
G1 X-6.54 Y-23.08 Z1.5 F2400.0 E37697.211
G1 X-6.29 Y-23.93 Z1.5 F2400.0 E37698.315
G1 X-3.64 Y-26.57 Z1.5 F2400.0 E37702.993
G1 X-3.33 Y-27.48 Z1.5 F2400.0 E37704.194
G1 X-6.1 Y-24.71 Z1.5 F2400.0 E37709.095
G1 X-5.96 Y-25.43 Z1.5 F2400.0 E37710.019
G1 X0.8 Y-32.19 Z1.5 F2400.0 E37721.975
G1 X1.5 Y-32.3 Z1.5 F2400.0 E37722.866
G1 X-1.15 Y-29.66 Z1.5 F2400.0 E37727.549
;M103
G1 X-1.91 Y-30.67 Z1.5 F3600.0
;M101
G1 X-5.69 Y-26.89 Z1.5 F2400.0 E37734.241
G1 X-5.83 Y-26.16 Z1.5 F2400.0 E37735.166
G1 X-0.81 Y-31.18 Z1.5 F2400.0 E37744.038
;M103
G1 X0.94 Y-31.15 Z1.5 F3600.0
;M101
G1 X1.11 Y-31.33 Z1.5 F2400.0 E37744.345
;M103
G1 X-2.67 Y-30.51 Z1.5 F3600.0
;M101
G1 X-5.56 Y-27.61 Z1.5 F2400.0 E37749.462
G1 X-5.59 Y-28.18 Z1.5 F2400.0 E37750.172
G1 X-3.23 Y-30.53 Z1.5 F2400.0 E37754.336
G1 X-3.8 Y-30.56 Z1.5 F2400.0 E37755.042
G1 X-5.69 Y-28.67 Z1.5 F2400.0 E37758.397
G1 X-5.83 Y-29.12 Z1.5 F2400.0 E37758.989
G1 X-4.33 Y-30.62 Z1.5 F2400.0 E37761.653
G1 X-4.74 Y-30.81 Z1.5 F2400.0 E37762.214
G1 X-6.04 Y-29.5 Z1.5 F2400.0 E37764.526
G1 X-6.28 Y-29.86 Z1.5 F2400.0 E37765.062
G1 X-5.15 Y-30.99 Z1.5 F2400.0 E37767.064
G1 X-5.56 Y-31.17 Z1.5 F2400.0 E37767.626
G1 X-6.67 Y-30.06 Z1.5 F2400.0 E37769.589
G1 X-7.05 Y-30.27 Z1.5 F2400.0 E37770.138
G1 X-5.96 Y-31.36 Z1.5 F2400.0 E37772.064
G1 X-6.37 Y-31.54 Z1.5 F2400.0 E37772.626
G1 X-7.44 Y-30.47 Z1.5 F2400.0 E37774.514
G1 X-7.83 Y-30.68 Z1.5 F2400.0 E37775.061
G1 X-6.78 Y-31.72 Z1.5 F2400.0 E37776.91
G1 X-7.19 Y-31.91 Z1.5 F2400.0 E37777.471
G1 X-8.22 Y-30.88 Z1.5 F2400.0 E37779.282
G1 X-8.6 Y-31.09 Z1.5 F2400.0 E37779.831
G1 X-7.6 Y-32.09 Z1.5 F2400.0 E37781.604
G1 X-8.01 Y-32.27 Z1.5 F2400.0 E37782.165
G1 X-8.99 Y-31.29 Z1.5 F2400.0 E37783.901
G1 X-9.38 Y-31.49 Z1.5 F2400.0 E37784.449
G1 X-8.42 Y-32.45 Z1.5 F2400.0 E37786.146
G1 X-8.83 Y-32.64 Z1.5 F2400.0 E37786.707
G1 X-9.75 Y-31.72 Z1.5 F2400.0 E37788.338
G1 X-10.12 Y-31.94 Z1.5 F2400.0 E37788.878
