G21 (This is GCode, generated with Skeinforge version 35 from ReplicatorG)
G21 (Ultimaker profile - Quality print from alterations/start.gcode)
G21 (Metric: The unit is a millimeter)
M18 (Disable motors for now, to allow manual moving of the head)
G90 (Absolute positioning)
G92 X0 Y0 Z0 E0 (set origin to current position)
G91 (Relative positioning)
G1 Z35.0 F400 (lower platform for cleaning nozzle)
G92 E0 (zero the extruded length)
G1 E260 F1000 (extrude some to get the flow going)
G1 E-20 F3000 (reverse a little)
G92 E0 (zero the extruded length)
M1 (Clean the nozzle and press YES to continue...)
G1 Z-1.0 F100 (rise platform again)
G1 Z-34.0 F400 (rise platform again)
G90 (Absolute positioning)
G1 Z0.4 (Tool slightly above the platform)
G92 Z0.4 E0 (zero the extruded length)
G21 (end of start.txt)
G90
G21
;M103
M105
M106
M113 S1.0
;M108 S50.04
M104 S245.0
M104 S244.606
;M108 S30.14
;M108 S31.65
G1 X-16.55 Y-16.55 Z0.3 F1301.088
;M101
G1 X-16.55 Y16.55 Z0.3 F1301.088 E48.32
G1 X16.55 Y16.55 Z0.3 F1301.088 E96.64
G1 X16.55 Y-16.55 Z0.3 F1301.088 E144.959
G1 X-16.55 Y-16.55 Z0.3 F1301.088 E193.279
;M103
G1 X13.55 Y-0.1 Z0.3 F2891.307
;M101
G1 X13.55 Y-13.55 Z0.3 F1301.088 E212.916
G1 X-13.55 Y-13.55 Z0.3 F1301.088 E252.478
G1 X-13.55 Y13.55 Z0.3 F1301.088 E292.041
G1 X13.55 Y13.55 Z0.3 F1301.088 E331.603
G1 X13.55 Y0.0 Z0.3 F1301.088 E351.385
G1 X13.55 Y-0.1 Z0.3 F1301.088 E351.529
;M103
M104 S245.0
;M108 S39.41
;M108 S50.04
M104 S244.448
;M108 S27.17
G1 X13.55 Y0.0 Z0.6 F2605.967
;M101
G1 X13.55 Y-13.55 Z0.6 F1302.983 E368.486
G1 X-13.55 Y-13.55 Z0.6 F1302.983 E402.399
G1 X-13.55 Y13.55 Z0.6 F1302.983 E436.312
G1 X13.55 Y13.55 Z0.6 F1302.983 E470.225
G1 X13.55 Y0.0 Z0.6 F1302.983 E487.182
;M103
M104 S245.0
;M108 S37.53
;M108 S50.04
M104 S244.448
;M108 S27.17
G1 X13.55 Y0.0 Z0.9 F2605.776
;M101
G1 X13.55 Y-13.55 Z0.9 F1302.888 E504.139
G1 X-13.55 Y-13.55 Z0.9 F1302.888 E538.055
G1 X-13.55 Y13.55 Z0.9 F1302.888 E571.971
G1 X13.55 Y13.55 Z0.9 F1302.888 E605.886
G1 X13.55 Y0.0 Z0.9 F1302.888 E622.844
;M103
M104 S245.0
;M108 S37.53
;M108 S50.04
M104 S244.448
;M108 S27.17
G1 X13.55 Y0.0 Z1.2 F2605.776
;M101
G1 X13.55 Y-13.55 Z1.2 F1302.888 E639.802
G1 X-13.55 Y-13.55 Z1.2 F1302.888 E673.717
G1 X-13.55 Y13.55 Z1.2 F1302.888 E707.633
G1 X13.55 Y13.55 Z1.2 F1302.888 E741.548
G1 X13.55 Y0.0 Z1.2 F1302.888 E758.506
;M103
M104 S245.0
;M108 S37.53
;M108 S50.04
M104 S244.448
;M108 S27.17
G1 X13.55 Y0.0 Z1.5 F2605.776
;M101
G1 X13.55 Y-13.55 Z1.5 F1302.888 E775.464
G1 X-13.55 Y-13.55 Z1.5 F1302.888 E809.38
G1 X-13.55 Y13.55 Z1.5 F1302.888 E843.295
G1 X13.55 Y13.55 Z1.5 F1302.888 E877.211
G1 X13.55 Y0.0 Z1.5 F1302.888 E894.169
;M103
M104 S245.0
;M108 S37.53
;M108 S50.04
M104 S244.448
;M108 S27.17
G1 X13.55 Y0.0 Z1.8 F2605.776
;M101
G1 X13.55 Y-13.55 Z1.8 F1302.888 E911.126
G1 X-13.55 Y-13.55 Z1.8 F1302.888 E945.042
G1 X-13.55 Y13.55 Z1.8 F1302.888 E978.957
G1 X13.55 Y13.55 Z1.8 F1302.888 E1012.873
G1 X13.55 Y0.0 Z1.8 F1302.888 E1029.831
;M103
M104 S245.0
;M108 S37.53
;M108 S50.04
M104 S244.448
;M108 S27.17
G1 X13.55 Y0.0 Z2.1 F2605.776
;M101
G1 X13.55 Y-13.55 Z2.1 F1302.888 E1046.789
G1 X-13.55 Y-13.55 Z2.1 F1302.888 E1080.704
G1 X-13.55 Y13.55 Z2.1 F1302.888 E1114.62
G1 X13.55 Y13.55 Z2.1 F1302.888 E1148.535
G1 X13.55 Y0.0 Z2.1 F1302.888 E1165.493
;M103
M104 S245.0
;M108 S37.53
;M108 S50.04
M104 S244.448
;M108 S27.17
G1 X13.55 Y0.0 Z2.4 F2605.776
;M101
G1 X13.55 Y-13.55 Z2.4 F1302.888 E1182.451
G1 X-13.55 Y-13.55 Z2.4 F1302.888 E1216.367
G1 X-13.55 Y13.55 Z2.4 F1302.888 E1250.282
G1 X13.55 Y13.55 Z2.4 F1302.888 E1284.198
G1 X13.55 Y0.0 Z2.4 F1302.888 E1301.155
;M103
M104 S245.0
;M108 S37.53
;M108 S50.04
M104 S244.448
;M108 S27.17
G1 X13.55 Y0.0 Z2.7 F2605.776
;M101
G1 X13.55 Y-13.55 Z2.7 F1302.888 E1318.113
G1 X-13.55 Y-13.55 Z2.7 F1302.888 E1352.029
G1 X-13.55 Y13.55 Z2.7 F1302.888 E1385.944
G1 X13.55 Y13.55 Z2.7 F1302.888 E1419.86
G1 X13.55 Y0.0 Z2.7 F1302.888 E1436.818
;M103
M104 S245.0
;M108 S37.53
;M108 S50.04
M104 S244.448
;M108 S27.17
G1 X13.55 Y0.0 Z3.0 F2605.776
;M101
G1 X13.55 Y-13.55 Z3.0 F1302.888 E1453.776
G1 X-13.55 Y-13.55 Z3.0 F1302.888 E1487.691
G1 X-13.55 Y13.55 Z3.0 F1302.888 E1521.607
G1 X13.55 Y13.55 Z3.0 F1302.888 E1555.522
G1 X13.55 Y0.0 Z3.0 F1302.888 E1572.48
;M103
M104 S245.0
;M108 S37.53
;M108 S50.04
M104 S244.448
;M108 S27.17
G1 X13.55 Y0.0 Z3.3 F2605.776
;M101
G1 X13.55 Y-13.55 Z3.3 F1302.888 E1589.438
G1 X-13.55 Y-13.55 Z3.3 F1302.888 E1623.353
G1 X-13.55 Y13.55 Z3.3 F1302.888 E1657.269
G1 X13.55 Y13.55 Z3.3 F1302.888 E1691.185
G1 X13.55 Y0.0 Z3.3 F1302.888 E1708.142
;M103
M104 S245.0
;M108 S37.53
;M108 S50.04
M104 S244.448
;M108 S27.17
G1 X13.55 Y0.0 Z3.6 F2605.776
;M101
G1 X13.55 Y-13.55 Z3.6 F1302.888 E1725.1
G1 X-13.55 Y-13.55 Z3.6 F1302.888 E1759.016
G1 X-13.55 Y13.55 Z3.6 F1302.888 E1792.931
G1 X13.55 Y13.55 Z3.6 F1302.888 E1826.847
G1 X13.55 Y0.0 Z3.6 F1302.888 E1843.805
;M103
M104 S245.0
;M108 S37.53
;M108 S50.04
M104 S244.448
;M108 S27.17
G1 X13.55 Y0.0 Z3.9 F2605.776
;M101
G1 X13.55 Y-13.55 Z3.9 F1302.888 E1860.763
G1 X-13.55 Y-13.55 Z3.9 F1302.888 E1894.678
G1 X-13.55 Y13.55 Z3.9 F1302.888 E1928.594
G1 X13.55 Y13.55 Z3.9 F1302.888 E1962.509
G1 X13.55 Y0.0 Z3.9 F1302.888 E1979.467
;M103
M104 S245.0
;M108 S37.53
;M108 S50.04
M104 S244.448
;M108 S27.17
G1 X13.55 Y0.0 Z4.2 F2605.776
;M101
G1 X13.55 Y-13.55 Z4.2 F1302.888 E1996.425
G1 X-13.55 Y-13.55 Z4.2 F1302.888 E2030.34
G1 X-13.55 Y13.55 Z4.2 F1302.888 E2064.256
G1 X13.55 Y13.55 Z4.2 F1302.888 E2098.172
G1 X13.55 Y0.0 Z4.2 F1302.888 E2115.129
;M103
M104 S245.0
;M108 S37.53
;M108 S50.04
M104 S244.448
;M108 S27.17
G1 X13.55 Y0.0 Z4.5 F2605.776
;M101
G1 X13.55 Y-13.55 Z4.5 F1302.888 E2132.087
G1 X-13.55 Y-13.55 Z4.5 F1302.888 E2166.003
G1 X-13.55 Y13.55 Z4.5 F1302.888 E2199.918
G1 X13.55 Y13.55 Z4.5 F1302.888 E2233.834
G1 X13.55 Y0.0 Z4.5 F1302.888 E2250.792
;M103
M104 S245.0
;M108 S37.53
;M108 S50.04
M104 S244.448
;M108 S27.17
G1 X13.55 Y0.0 Z4.8 F2605.776
;M101
G1 X13.55 Y-13.55 Z4.8 F1302.888 E2267.749
G1 X-13.55 Y-13.55 Z4.8 F1302.888 E2301.665
G1 X-13.55 Y13.55 Z4.8 F1302.888 E2335.581
G1 X13.55 Y13.55 Z4.8 F1302.888 E2369.496
G1 X13.55 Y0.0 Z4.8 F1302.888 E2386.454
;M103
M104 S245.0
;M108 S37.53
;M108 S50.04
M104 S244.448
;M108 S27.17
G1 X13.55 Y0.0 Z5.1 F2605.776
;M101
G1 X13.55 Y-13.55 Z5.1 F1302.888 E2403.412
G1 X-13.55 Y-13.55 Z5.1 F1302.888 E2437.327
G1 X-13.55 Y13.55 Z5.1 F1302.888 E2471.243
G1 X13.55 Y13.55 Z5.1 F1302.888 E2505.159
G1 X13.55 Y0.0 Z5.1 F1302.888 E2522.116
;M103
M104 S245.0
;M108 S37.53
;M108 S50.04
M104 S244.448
;M108 S27.17
G1 X13.55 Y0.0 Z5.4 F2605.776
;M101
G1 X13.55 Y-13.55 Z5.4 F1302.888 E2539.074
G1 X-13.55 Y-13.55 Z5.4 F1302.888 E2572.99
G1 X-13.55 Y13.55 Z5.4 F1302.888 E2606.905
G1 X13.55 Y13.55 Z5.4 F1302.888 E2640.821
G1 X13.55 Y0.0 Z5.4 F1302.888 E2657.779
;M103
M104 S245.0
;M108 S37.53
;M108 S50.04
M104 S244.448
;M108 S27.17
G1 X13.55 Y0.0 Z5.7 F2605.776
;M101
G1 X13.55 Y-13.55 Z5.7 F1302.888 E2674.736
G1 X-13.55 Y-13.55 Z5.7 F1302.888 E2708.652
G1 X-13.55 Y13.55 Z5.7 F1302.888 E2742.568
G1 X13.55 Y13.55 Z5.7 F1302.888 E2776.483
G1 X13.55 Y0.0 Z5.7 F1302.888 E2793.441
;M103
M104 S245.0
;M108 S37.53
;M108 S50.04
M104 S244.448
;M108 S27.17
G1 X13.55 Y0.0 Z6.0 F2605.776
;M101
G1 X13.55 Y-13.55 Z6.0 F1302.888 E2810.399
G1 X-13.55 Y-13.55 Z6.0 F1302.888 E2844.314
G1 X-13.55 Y13.55 Z6.0 F1302.888 E2878.23
G1 X13.55 Y13.55 Z6.0 F1302.888 E2912.145
G1 X13.55 Y0.0 Z6.0 F1302.888 E2929.103
;M103
M104 S245.0
;M108 S37.53
;M108 S50.04
M104 S244.448
;M108 S27.17
G1 X13.55 Y0.0 Z6.3 F2605.776
;M101
G1 X13.55 Y-13.55 Z6.3 F1302.888 E2946.061
G1 X-13.55 Y-13.55 Z6.3 F1302.888 E2979.977
G1 X-13.55 Y13.55 Z6.3 F1302.888 E3013.892
G1 X13.55 Y13.55 Z6.3 F1302.888 E3047.808
G1 X13.55 Y0.0 Z6.3 F1302.888 E3064.766
;M103
M104 S245.0
;M108 S37.53
;M108 S50.04
M104 S244.448
;M108 S27.17
G1 X13.55 Y0.0 Z6.6 F2605.776
;M101
G1 X13.55 Y-13.55 Z6.6 F1302.888 E3081.723
G1 X-13.55 Y-13.55 Z6.6 F1302.888 E3115.639
G1 X-13.55 Y13.55 Z6.6 F1302.888 E3149.555
G1 X13.55 Y13.55 Z6.6 F1302.888 E3183.47
G1 X13.55 Y0.0 Z6.6 F1302.888 E3200.428
;M103
M104 S245.0
;M108 S37.53
;M108 S50.04
M104 S244.448
;M108 S27.17
G1 X13.55 Y0.0 Z6.9 F2605.776
;M101
G1 X13.55 Y-13.55 Z6.9 F1302.888 E3217.386
G1 X-13.55 Y-13.55 Z6.9 F1302.888 E3251.301
G1 X-13.55 Y13.55 Z6.9 F1302.888 E3285.217
G1 X13.55 Y13.55 Z6.9 F1302.888 E3319.132
G1 X13.55 Y0.0 Z6.9 F1302.888 E3336.09
;M103
M104 S245.0
;M108 S37.53
;M108 S50.04
M104 S244.448
;M108 S27.17
G1 X13.55 Y0.0 Z7.2 F2605.776
;M101
G1 X13.55 Y-13.55 Z7.2 F1302.888 E3353.048
G1 X-13.55 Y-13.55 Z7.2 F1302.888 E3386.964
G1 X-13.55 Y13.55 Z7.2 F1302.888 E3420.879
G1 X13.55 Y13.55 Z7.2 F1302.888 E3454.795
G1 X13.55 Y0.0 Z7.2 F1302.888 E3471.753
;M103
M104 S245.0
;M108 S37.53
;M108 S50.04
M104 S244.448
;M108 S27.17
G1 X13.55 Y0.0 Z7.5 F2605.776
;M101
G1 X13.55 Y-13.55 Z7.5 F1302.888 E3488.71
G1 X-13.55 Y-13.55 Z7.5 F1302.888 E3522.626
G1 X-13.55 Y13.55 Z7.5 F1302.888 E3556.541
G1 X13.55 Y13.55 Z7.5 F1302.888 E3590.457
G1 X13.55 Y0.0 Z7.5 F1302.888 E3607.415
;M103
M104 S245.0
;M108 S37.53
;M108 S50.04
M104 S244.448
;M108 S27.17
G1 X13.55 Y0.0 Z7.8 F2605.776
;M101
G1 X13.55 Y-13.55 Z7.8 F1302.888 E3624.373
G1 X-13.55 Y-13.55 Z7.8 F1302.888 E3658.288
G1 X-13.55 Y13.55 Z7.8 F1302.888 E3692.204
G1 X13.55 Y13.55 Z7.8 F1302.888 E3726.119
G1 X13.55 Y0.0 Z7.8 F1302.888 E3743.077
;M103
M104 S245.0
;M108 S37.53
;M108 S50.04
M104 S244.448
;M108 S27.17
G1 X13.55 Y0.0 Z8.1 F2605.776
;M101
G1 X13.55 Y-13.55 Z8.1 F1302.888 E3760.035
G1 X-13.55 Y-13.55 Z8.1 F1302.888 E3793.951
G1 X-13.55 Y13.55 Z8.1 F1302.888 E3827.866
G1 X13.55 Y13.55 Z8.1 F1302.888 E3861.782
G1 X13.55 Y0.0 Z8.1 F1302.888 E3878.739
;M103
M104 S245.0
;M108 S37.53
;M108 S50.04
M104 S244.448
;M108 S27.17
G1 X13.55 Y0.0 Z8.4 F2605.776
;M101
G1 X13.55 Y-13.55 Z8.4 F1302.888 E3895.697
G1 X-13.55 Y-13.55 Z8.4 F1302.888 E3929.613
G1 X-13.55 Y13.55 Z8.4 F1302.888 E3963.528
G1 X13.55 Y13.55 Z8.4 F1302.888 E3997.444
G1 X13.55 Y0.0 Z8.4 F1302.888 E4014.402
;M103
M104 S245.0
;M108 S37.53
;M108 S50.04
M104 S244.448
;M108 S27.17
G1 X13.55 Y0.0 Z8.7 F2605.776
;M101
G1 X13.55 Y-13.55 Z8.7 F1302.888 E4031.36
G1 X-13.55 Y-13.55 Z8.7 F1302.888 E4065.275
G1 X-13.55 Y13.55 Z8.7 F1302.888 E4099.191
G1 X13.55 Y13.55 Z8.7 F1302.888 E4133.106
G1 X13.55 Y0.0 Z8.7 F1302.888 E4150.064
;M103
M104 S245.0
;M108 S37.53
;M108 S50.04
M104 S244.448
;M108 S27.17
G1 X13.55 Y0.0 Z9.0 F2605.776
;M101
G1 X13.55 Y-13.55 Z9.0 F1302.888 E4167.022
G1 X-13.55 Y-13.55 Z9.0 F1302.888 E4200.937
G1 X-13.55 Y13.55 Z9.0 F1302.888 E4234.853
G1 X13.55 Y13.55 Z9.0 F1302.888 E4268.769
G1 X13.55 Y0.0 Z9.0 F1302.888 E4285.726
;M103
M104 S245.0
;M108 S37.53
;M108 S50.04
M104 S244.448
;M108 S27.17
G1 X13.55 Y0.0 Z9.3 F2605.776
;M101
G1 X13.55 Y-13.55 Z9.3 F1302.888 E4302.684
G1 X-13.55 Y-13.55 Z9.3 F1302.888 E4336.6
G1 X-13.55 Y13.55 Z9.3 F1302.888 E4370.515
G1 X13.55 Y13.55 Z9.3 F1302.888 E4404.431
G1 X13.55 Y0.0 Z9.3 F1302.888 E4421.389
;M103
M104 S245.0
;M108 S37.53
;M108 S50.04
M104 S244.448
;M108 S27.17
G1 X13.55 Y0.0 Z9.6 F2605.776
;M101
G1 X13.55 Y-13.55 Z9.6 F1302.888 E4438.347
G1 X-13.55 Y-13.55 Z9.6 F1302.888 E4472.262
G1 X-13.55 Y13.55 Z9.6 F1302.888 E4506.178
G1 X13.55 Y13.55 Z9.6 F1302.888 E4540.093
G1 X13.55 Y0.0 Z9.6 F1302.888 E4557.051
;M103
M104 S245.0
;M108 S37.53
;M108 S50.04
M104 S244.448
;M108 S27.17
G1 X13.55 Y0.0 Z9.9 F2605.776
;M101
G1 X13.55 Y-13.55 Z9.9 F1302.888 E4574.009
G1 X-13.55 Y-13.55 Z9.9 F1302.888 E4607.924
G1 X-13.55 Y13.55 Z9.9 F1302.888 E4641.84
G1 X13.55 Y13.55 Z9.9 F1302.888 E4675.756
G1 X13.55 Y0.0 Z9.9 F1302.888 E4692.713
;M103
M104 S245.0
;M108 S37.53
;M108 S50.04
M104 S244.448
;M108 S27.17
G1 X13.55 Y0.0 Z10.2 F2605.776
;M101
G1 X13.55 Y-13.55 Z10.2 F1302.888 E4709.671
G1 X-13.55 Y-13.55 Z10.2 F1302.888 E4743.587
G1 X-13.55 Y13.55 Z10.2 F1302.888 E4777.502
G1 X13.55 Y13.55 Z10.2 F1302.888 E4811.418
G1 X13.55 Y0.0 Z10.2 F1302.888 E4828.376
;M103
M104 S245.0
;M108 S37.53
;M108 S50.04
M104 S244.448
;M108 S27.17
G1 X13.55 Y0.0 Z10.5 F2605.776
;M101
G1 X13.55 Y-13.55 Z10.5 F1302.888 E4845.334
G1 X-13.55 Y-13.55 Z10.5 F1302.888 E4879.249
G1 X-13.55 Y13.55 Z10.5 F1302.888 E4913.165
G1 X13.55 Y13.55 Z10.5 F1302.888 E4947.08
G1 X13.55 Y0.0 Z10.5 F1302.888 E4964.038
;M103
M104 S245.0
;M108 S37.53
;M108 S50.04
M104 S244.448
;M108 S27.17
G1 X13.55 Y0.0 Z10.8 F2605.776
;M101
G1 X13.55 Y-13.55 Z10.8 F1302.888 E4980.996
G1 X-13.55 Y-13.55 Z10.8 F1302.888 E5014.911
G1 X-13.55 Y13.55 Z10.8 F1302.888 E5048.827
G1 X13.55 Y13.55 Z10.8 F1302.888 E5082.743
G1 X13.55 Y0.0 Z10.8 F1302.888 E5099.7
;M103
M104 S245.0
;M108 S37.53
;M108 S50.04
M104 S244.448
;M108 S27.17
G1 X13.55 Y0.0 Z11.1 F2605.776
;M101
G1 X13.55 Y-13.55 Z11.1 F1302.888 E5116.658
G1 X-13.55 Y-13.55 Z11.1 F1302.888 E5150.574
G1 X-13.55 Y13.55 Z11.1 F1302.888 E5184.489
G1 X13.55 Y13.55 Z11.1 F1302.888 E5218.405
G1 X13.55 Y0.0 Z11.1 F1302.888 E5235.363
;M103
M104 S245.0
;M108 S37.53
;M108 S50.04
M104 S244.448
;M108 S27.17
G1 X13.55 Y0.0 Z11.4 F2605.776
;M101
G1 X13.55 Y-13.55 Z11.4 F1302.888 E5252.32
G1 X-13.55 Y-13.55 Z11.4 F1302.888 E5286.236
G1 X-13.55 Y13.55 Z11.4 F1302.888 E5320.152
G1 X13.55 Y13.55 Z11.4 F1302.888 E5354.067
G1 X13.55 Y0.0 Z11.4 F1302.888 E5371.025
;M103
M104 S245.0
;M108 S37.53
;M108 S50.04
M104 S244.448
;M108 S27.17
G1 X13.55 Y0.0 Z11.7 F2605.776
;M101
G1 X13.55 Y-13.55 Z11.7 F1302.888 E5387.983
G1 X-13.55 Y-13.55 Z11.7 F1302.888 E5421.898
G1 X-13.55 Y13.55 Z11.7 F1302.888 E5455.814
G1 X13.55 Y13.55 Z11.7 F1302.888 E5489.73
G1 X13.55 Y0.0 Z11.7 F1302.888 E5506.687
;M103
M104 S245.0
;M108 S37.53
;M108 S50.04
M104 S244.448
;M108 S27.17
G1 X13.55 Y0.0 Z12.0 F2605.776
;M101
G1 X13.55 Y-13.55 Z12.0 F1302.888 E5523.645
G1 X-13.55 Y-13.55 Z12.0 F1302.888 E5557.561
G1 X-13.55 Y13.55 Z12.0 F1302.888 E5591.476
G1 X13.55 Y13.55 Z12.0 F1302.888 E5625.392
G1 X13.55 Y0.0 Z12.0 F1302.888 E5642.35
;M103
M104 S245.0
;M108 S37.53
;M108 S50.04
M104 S244.448
;M108 S27.17
G1 X13.55 Y0.0 Z12.3 F2605.776
;M101
G1 X13.55 Y-13.55 Z12.3 F1302.888 E5659.307
G1 X-13.55 Y-13.55 Z12.3 F1302.888 E5693.223
G1 X-13.55 Y13.55 Z12.3 F1302.888 E5727.139
G1 X13.55 Y13.55 Z12.3 F1302.888 E5761.054
G1 X13.55 Y0.0 Z12.3 F1302.888 E5778.012
;M103
M104 S245.0
;M108 S37.53
;M108 S50.04
M104 S244.448
;M108 S27.17
G1 X13.55 Y0.0 Z12.6 F2605.776
;M101
G1 X13.55 Y-13.55 Z12.6 F1302.888 E5794.97
G1 X-13.55 Y-13.55 Z12.6 F1302.888 E5828.885
G1 X-13.55 Y13.55 Z12.6 F1302.888 E5862.801
G1 X13.55 Y13.55 Z12.6 F1302.888 E5896.716
G1 X13.55 Y0.0 Z12.6 F1302.888 E5913.674
;M103
M104 S245.0
;M108 S37.53
;M108 S50.04
M104 S244.448
;M108 S27.17
G1 X13.55 Y0.0 Z12.9 F2605.776
;M101
G1 X13.55 Y-13.55 Z12.9 F1302.888 E5930.632
G1 X-13.55 Y-13.55 Z12.9 F1302.888 E5964.548
G1 X-13.55 Y13.55 Z12.9 F1302.888 E5998.463
G1 X13.55 Y13.55 Z12.9 F1302.888 E6032.379
G1 X13.55 Y0.0 Z12.9 F1302.888 E6049.337
;M103
M104 S245.0
;M108 S37.53
;M108 S50.04
M104 S244.448
;M108 S27.17
G1 X13.55 Y0.0 Z13.2 F2605.776
;M101
G1 X13.55 Y-13.55 Z13.2 F1302.888 E6066.294
G1 X-13.55 Y-13.55 Z13.2 F1302.888 E6100.21
G1 X-13.55 Y13.55 Z13.2 F1302.888 E6134.126
G1 X13.55 Y13.55 Z13.2 F1302.888 E6168.041
G1 X13.55 Y0.0 Z13.2 F1302.888 E6184.999
;M103
M104 S245.0
;M108 S37.53
;M108 S50.04
M104 S244.448
;M108 S27.17
G1 X13.55 Y0.0 Z13.5 F2605.776
;M101
G1 X13.55 Y-13.55 Z13.5 F1302.888 E6201.957
G1 X-13.55 Y-13.55 Z13.5 F1302.888 E6235.872
G1 X-13.55 Y13.55 Z13.5 F1302.888 E6269.788
G1 X13.55 Y13.55 Z13.5 F1302.888 E6303.703
G1 X13.55 Y0.0 Z13.5 F1302.888 E6320.661
;M103
M104 S245.0
;M108 S37.53
;M108 S50.04
M104 S244.448
;M108 S27.17
G1 X13.55 Y0.0 Z13.8 F2605.776
;M101
G1 X13.55 Y-13.55 Z13.8 F1302.888 E6337.619
G1 X-13.55 Y-13.55 Z13.8 F1302.888 E6371.535
G1 X-13.55 Y13.55 Z13.8 F1302.888 E6405.45
G1 X13.55 Y13.55 Z13.8 F1302.888 E6439.366
G1 X13.55 Y0.0 Z13.8 F1302.888 E6456.324
;M103
M104 S245.0
;M108 S37.53
;M108 S50.04
M104 S244.448
;M108 S27.17
G1 X13.55 Y0.0 Z14.1 F2605.776
;M101
G1 X13.55 Y-13.55 Z14.1 F1302.888 E6473.281
G1 X-13.55 Y-13.55 Z14.1 F1302.888 E6507.197
G1 X-13.55 Y13.55 Z14.1 F1302.888 E6541.112
G1 X13.55 Y13.55 Z14.1 F1302.888 E6575.028
G1 X13.55 Y0.0 Z14.1 F1302.888 E6591.986
;M103
M104 S245.0
;M108 S37.53
;M108 S50.04
M104 S244.448
;M108 S27.17
G1 X13.55 Y0.0 Z14.4 F2605.776
;M101
G1 X13.55 Y-13.55 Z14.4 F1302.888 E6608.944
G1 X-13.55 Y-13.55 Z14.4 F1302.888 E6642.859
G1 X-13.55 Y13.55 Z14.4 F1302.888 E6676.775
G1 X13.55 Y13.55 Z14.4 F1302.888 E6710.69
G1 X13.55 Y0.0 Z14.4 F1302.888 E6727.648
;M103
M104 S245.0
;M108 S37.53
;M108 S50.04
M104 S244.448
;M108 S27.17
G1 X13.55 Y0.0 Z14.7 F2605.776
;M101
G1 X13.55 Y-13.55 Z14.7 F1302.888 E6744.606
G1 X-13.55 Y-13.55 Z14.7 F1302.888 E6778.522
G1 X-13.55 Y13.55 Z14.7 F1302.888 E6812.437
G1 X13.55 Y13.55 Z14.7 F1302.888 E6846.353
G1 X13.55 Y0.0 Z14.7 F1302.888 E6863.31
;M103
M104 S245.0
;M108 S37.53
;M108 S50.04
M104 S244.448
;M108 S27.17
G1 X13.55 Y0.0 Z15.0 F2605.776
;M101
G1 X13.55 Y-13.55 Z15.0 F1302.888 E6880.268
G1 X-13.55 Y-13.55 Z15.0 F1302.888 E6914.184
G1 X-13.55 Y13.55 Z15.0 F1302.888 E6948.099
G1 X13.55 Y13.55 Z15.0 F1302.888 E6982.015
G1 X13.55 Y0.0 Z15.0 F1302.888 E6998.973
;M103
M104 S245.0
;M108 S37.53
;M108 S50.04
M104 S244.448
;M108 S27.17
G1 X13.55 Y0.0 Z15.3 F2605.776
;M101
G1 X13.55 Y-13.55 Z15.3 F1302.888 E7015.931
G1 X-13.55 Y-13.55 Z15.3 F1302.888 E7049.846
G1 X-13.55 Y13.55 Z15.3 F1302.888 E7083.762
G1 X13.55 Y13.55 Z15.3 F1302.888 E7117.677
G1 X13.55 Y0.0 Z15.3 F1302.888 E7134.635
;M103
M104 S245.0
;M108 S37.53
;M108 S50.04
M104 S244.448
;M108 S27.17
G1 X13.55 Y0.0 Z15.6 F2605.776
;M101
G1 X13.55 Y-13.55 Z15.6 F1302.888 E7151.593
G1 X-13.55 Y-13.55 Z15.6 F1302.888 E7185.508
G1 X-13.55 Y13.55 Z15.6 F1302.888 E7219.424
G1 X13.55 Y13.55 Z15.6 F1302.888 E7253.34
G1 X13.55 Y0.0 Z15.6 F1302.888 E7270.297
;M103
M104 S245.0
;M108 S37.53
;M108 S50.04
M104 S244.448
;M108 S27.17
G1 X13.55 Y0.0 Z15.9 F2605.776
;M101
G1 X13.55 Y-13.55 Z15.9 F1302.888 E7287.255
G1 X-13.55 Y-13.55 Z15.9 F1302.888 E7321.171
G1 X-13.55 Y13.55 Z15.9 F1302.888 E7355.086
G1 X13.55 Y13.55 Z15.9 F1302.888 E7389.002
G1 X13.55 Y0.0 Z15.9 F1302.888 E7405.96
;M103
M104 S245.0
;M108 S37.53
;M108 S50.04
M104 S244.448
;M108 S27.17
G1 X13.55 Y0.0 Z16.2 F2605.776
;M101
G1 X13.55 Y-13.55 Z16.2 F1302.888 E7422.918
G1 X-13.55 Y-13.55 Z16.2 F1302.888 E7456.833
G1 X-13.55 Y13.55 Z16.2 F1302.888 E7490.749
G1 X13.55 Y13.55 Z16.2 F1302.888 E7524.664
G1 X13.55 Y0.0 Z16.2 F1302.888 E7541.622
;M103
M104 S245.0
;M108 S37.53
;M108 S50.04
M104 S244.448
;M108 S27.17
G1 X13.55 Y0.0 Z16.5 F2605.776
;M101
G1 X13.55 Y-13.55 Z16.5 F1302.888 E7558.58
G1 X-13.55 Y-13.55 Z16.5 F1302.888 E7592.495
G1 X-13.55 Y13.55 Z16.5 F1302.888 E7626.411
G1 X13.55 Y13.55 Z16.5 F1302.888 E7660.327
G1 X13.55 Y0.0 Z16.5 F1302.888 E7677.284
;M103
M104 S245.0
;M108 S37.53
;M108 S50.04
M104 S244.448
;M108 S27.17
G1 X13.55 Y0.0 Z16.8 F2605.776
;M101
G1 X13.55 Y-13.55 Z16.8 F1302.888 E7694.242
G1 X-13.55 Y-13.55 Z16.8 F1302.888 E7728.158
G1 X-13.55 Y13.55 Z16.8 F1302.888 E7762.073
G1 X13.55 Y13.55 Z16.8 F1302.888 E7795.989
G1 X13.55 Y0.0 Z16.8 F1302.888 E7812.947
;M103
M104 S245.0
;M108 S37.53
;M108 S50.04
M104 S244.448
;M108 S27.17
G1 X13.55 Y0.0 Z17.1 F2605.776
;M101
G1 X13.55 Y-13.55 Z17.1 F1302.888 E7829.904
G1 X-13.55 Y-13.55 Z17.1 F1302.888 E7863.82
G1 X-13.55 Y13.55 Z17.1 F1302.888 E7897.736
G1 X13.55 Y13.55 Z17.1 F1302.888 E7931.651
G1 X13.55 Y0.0 Z17.1 F1302.888 E7948.609
;M103
M104 S245.0
;M108 S37.53
;M108 S50.04
M104 S244.448
;M108 S27.17
G1 X13.55 Y0.0 Z17.4 F2605.776
;M101
G1 X13.55 Y-13.55 Z17.4 F1302.888 E7965.567
G1 X-13.55 Y-13.55 Z17.4 F1302.888 E7999.482
G1 X-13.55 Y13.55 Z17.4 F1302.888 E8033.398
G1 X13.55 Y13.55 Z17.4 F1302.888 E8067.314
G1 X13.55 Y0.0 Z17.4 F1302.888 E8084.271
;M103
M104 S245.0
;M108 S37.53
;M108 S50.04
M104 S244.448
;M108 S27.17
G1 X13.55 Y0.0 Z17.7 F2605.776
;M101
G1 X13.55 Y-13.55 Z17.7 F1302.888 E8101.229
G1 X-13.55 Y-13.55 Z17.7 F1302.888 E8135.145
G1 X-13.55 Y13.55 Z17.7 F1302.888 E8169.06
G1 X13.55 Y13.55 Z17.7 F1302.888 E8202.976
G1 X13.55 Y0.0 Z17.7 F1302.888 E8219.934
;M103
M104 S245.0
;M108 S37.53
;M108 S50.04
M104 S244.448
;M108 S27.17
G1 X13.55 Y0.0 Z18.0 F2605.776
;M101
G1 X13.55 Y-13.55 Z18.0 F1302.888 E8236.891
G1 X-13.55 Y-13.55 Z18.0 F1302.888 E8270.807
G1 X-13.55 Y13.55 Z18.0 F1302.888 E8304.723
G1 X13.55 Y13.55 Z18.0 F1302.888 E8338.638
G1 X13.55 Y0.0 Z18.0 F1302.888 E8355.596
;M103
M104 S245.0
;M108 S37.53
;M108 S50.04
M104 S244.448
;M108 S27.17
G1 X13.55 Y0.0 Z18.3 F2605.776
;M101
G1 X13.55 Y-13.55 Z18.3 F1302.888 E8372.554
G1 X-13.55 Y-13.55 Z18.3 F1302.888 E8406.469
G1 X-13.55 Y13.55 Z18.3 F1302.888 E8440.385
G1 X13.55 Y13.55 Z18.3 F1302.888 E8474.3
G1 X13.55 Y0.0 Z18.3 F1302.888 E8491.258
;M103
M104 S245.0
;M108 S37.53
;M108 S50.04
M104 S244.448
;M108 S27.17
G1 X13.55 Y0.0 Z18.6 F2605.776
;M101
G1 X13.55 Y-13.55 Z18.6 F1302.888 E8508.216
G1 X-13.55 Y-13.55 Z18.6 F1302.888 E8542.132
G1 X-13.55 Y13.55 Z18.6 F1302.888 E8576.047
G1 X13.55 Y13.55 Z18.6 F1302.888 E8609.963
G1 X13.55 Y0.0 Z18.6 F1302.888 E8626.921
;M103
M104 S245.0
;M108 S37.53
;M108 S50.04
M104 S244.448
;M108 S27.17
G1 X13.55 Y0.0 Z18.9 F2605.776
;M101
G1 X13.55 Y-13.55 Z18.9 F1302.888 E8643.878
G1 X-13.55 Y-13.55 Z18.9 F1302.888 E8677.794
G1 X-13.55 Y13.55 Z18.9 F1302.888 E8711.71
G1 X13.55 Y13.55 Z18.9 F1302.888 E8745.625
G1 X13.55 Y0.0 Z18.9 F1302.888 E8762.583
;M103
M104 S245.0
;M108 S37.53
;M108 S50.04
M104 S244.448
;M108 S27.17
G1 X13.55 Y0.0 Z19.2 F2605.776
;M101
G1 X13.55 Y-13.55 Z19.2 F1302.888 E8779.541
G1 X-13.55 Y-13.55 Z19.2 F1302.888 E8813.456
G1 X-13.55 Y13.55 Z19.2 F1302.888 E8847.372
G1 X13.55 Y13.55 Z19.2 F1302.888 E8881.287
G1 X13.55 Y0.0 Z19.2 F1302.888 E8898.245
;M103
M104 S245.0
;M108 S37.53
;M108 S50.04
M104 S244.448
;M108 S27.17
G1 X13.55 Y0.0 Z19.5 F2605.776
;M101
G1 X13.55 Y-13.55 Z19.5 F1302.888 E8915.203
G1 X-13.55 Y-13.55 Z19.5 F1302.888 E8949.119
G1 X-13.55 Y13.55 Z19.5 F1302.888 E8983.034
G1 X13.55 Y13.55 Z19.5 F1302.888 E9016.95
G1 X13.55 Y0.0 Z19.5 F1302.888 E9033.908
;M103
M104 S245.0
;M108 S37.53
;M108 S50.04
M104 S244.448
;M108 S27.17
G1 X13.55 Y0.0 Z19.8 F2605.776
;M101
G1 X13.55 Y-13.55 Z19.8 F1302.888 E9050.865
G1 X-13.55 Y-13.55 Z19.8 F1302.888 E9084.781
G1 X-13.55 Y13.55 Z19.8 F1302.888 E9118.696
G1 X13.55 Y13.55 Z19.8 F1302.888 E9152.612
G1 X13.55 Y0.0 Z19.8 F1302.888 E9169.57
;M103
M104 S245.0
;M108 S37.53
;M108 S50.04
M104 S244.448
;M108 S27.17
G1 X13.55 Y0.0 Z20.1 F2605.776
;M101
G1 X13.55 Y-13.55 Z20.1 F1302.888 E9186.528
G1 X-13.55 Y-13.55 Z20.1 F1302.888 E9220.443
G1 X-13.55 Y13.55 Z20.1 F1302.888 E9254.359
G1 X13.55 Y13.55 Z20.1 F1302.888 E9288.274
G1 X13.55 Y0.0 Z20.1 F1302.888 E9305.232
;M103
M104 S245.0
;M108 S37.53
;M108 S50.04
M104 S244.448
;M108 S27.17
G1 X13.55 Y0.0 Z20.4 F2605.776
;M101
G1 X13.55 Y-13.55 Z20.4 F1302.888 E9322.19
G1 X-13.55 Y-13.55 Z20.4 F1302.888 E9356.106
G1 X-13.55 Y13.55 Z20.4 F1302.888 E9390.021
G1 X13.55 Y13.55 Z20.4 F1302.888 E9423.937
G1 X13.55 Y0.0 Z20.4 F1302.888 E9440.894
;M103
M104 S245.0
;M108 S37.53
;M108 S50.04
M104 S244.448
;M108 S27.17
G1 X13.55 Y0.0 Z20.7 F2605.776
;M101
G1 X13.55 Y-13.55 Z20.7 F1302.888 E9457.852
G1 X-13.55 Y-13.55 Z20.7 F1302.888 E9491.768
G1 X-13.55 Y13.55 Z20.7 F1302.888 E9525.683
G1 X13.55 Y13.55 Z20.7 F1302.888 E9559.599
G1 X13.55 Y0.0 Z20.7 F1302.888 E9576.557
;M103
M104 S245.0
;M108 S37.53
;M108 S50.04
M104 S244.448
;M108 S27.17
G1 X13.55 Y0.0 Z21.0 F2605.776
;M101
G1 X13.55 Y-13.55 Z21.0 F1302.888 E9593.515
G1 X-13.55 Y-13.55 Z21.0 F1302.888 E9627.43
G1 X-13.55 Y13.55 Z21.0 F1302.888 E9661.346
G1 X13.55 Y13.55 Z21.0 F1302.888 E9695.261
G1 X13.55 Y0.0 Z21.0 F1302.888 E9712.219
;M103
M104 S245.0
;M108 S37.53
;M108 S50.04
M104 S244.448
;M108 S27.17
G1 X13.55 Y0.0 Z21.3 F2605.776
;M101
G1 X13.55 Y-13.55 Z21.3 F1302.888 E9729.177
G1 X-13.55 Y-13.55 Z21.3 F1302.888 E9763.092
G1 X-13.55 Y13.55 Z21.3 F1302.888 E9797.008
G1 X13.55 Y13.55 Z21.3 F1302.888 E9830.924
G1 X13.55 Y0.0 Z21.3 F1302.888 E9847.881
;M103
M104 S245.0
;M108 S37.53
;M108 S50.04
M104 S244.448
;M108 S27.17
G1 X13.55 Y0.0 Z21.6 F2605.776
;M101
G1 X13.55 Y-13.55 Z21.6 F1302.888 E9864.839
G1 X-13.55 Y-13.55 Z21.6 F1302.888 E9898.755
G1 X-13.55 Y13.55 Z21.6 F1302.888 E9932.67
G1 X13.55 Y13.55 Z21.6 F1302.888 E9966.586
G1 X13.55 Y0.0 Z21.6 F1302.888 E9983.544
;M103
M104 S245.0
;M108 S37.53
;M108 S50.04
M104 S244.448
;M108 S27.17
G1 X13.55 Y0.0 Z21.9 F2605.776
;M101
G1 X13.55 Y-13.55 Z21.9 F1302.888 E10000.502
G1 X-13.55 Y-13.55 Z21.9 F1302.888 E10034.417
G1 X-13.55 Y13.55 Z21.9 F1302.888 E10068.333
G1 X13.55 Y13.55 Z21.9 F1302.888 E10102.248
G1 X13.55 Y0.0 Z21.9 F1302.888 E10119.206
;M103
M104 S245.0
;M108 S37.53
;M108 S50.04
M104 S244.448
;M108 S27.17
G1 X13.55 Y0.0 Z22.2 F2605.776
;M101
G1 X13.55 Y-13.55 Z22.2 F1302.888 E10136.164
G1 X-13.55 Y-13.55 Z22.2 F1302.888 E10170.079
G1 X-13.55 Y13.55 Z22.2 F1302.888 E10203.995
G1 X13.55 Y13.55 Z22.2 F1302.888 E10237.911
G1 X13.55 Y0.0 Z22.2 F1302.888 E10254.868
;M103
M104 S245.0
;M108 S37.53
;M108 S50.04
M104 S244.448
;M108 S27.17
G1 X13.55 Y0.0 Z22.5 F2605.776
;M101
G1 X13.55 Y-13.55 Z22.5 F1302.888 E10271.826
G1 X-13.55 Y-13.55 Z22.5 F1302.888 E10305.742
G1 X-13.55 Y13.55 Z22.5 F1302.888 E10339.657
G1 X13.55 Y13.55 Z22.5 F1302.888 E10373.573
G1 X13.55 Y0.0 Z22.5 F1302.888 E10390.531
;M103
M104 S245.0
;M108 S37.53
;M108 S50.04
M104 S244.448
;M108 S27.17
G1 X13.55 Y0.0 Z22.8 F2605.776
;M101
G1 X13.55 Y-13.55 Z22.8 F1302.888 E10407.488
G1 X-13.55 Y-13.55 Z22.8 F1302.888 E10441.404
G1 X-13.55 Y13.55 Z22.8 F1302.888 E10475.32
G1 X13.55 Y13.55 Z22.8 F1302.888 E10509.235
G1 X13.55 Y0.0 Z22.8 F1302.888 E10526.193
;M103
M104 S245.0
;M108 S37.53
;M108 S50.04
M104 S244.448
;M108 S27.17
G1 X13.55 Y0.0 Z23.1 F2605.776
;M101
G1 X13.55 Y-13.55 Z23.1 F1302.888 E10543.151
G1 X-13.55 Y-13.55 Z23.1 F1302.888 E10577.066
G1 X-13.55 Y13.55 Z23.1 F1302.888 E10610.982
G1 X13.55 Y13.55 Z23.1 F1302.888 E10644.898
G1 X13.55 Y0.0 Z23.1 F1302.888 E10661.855
;M103
M104 S245.0
;M108 S37.53
;M108 S50.04
M104 S244.448
;M108 S27.17
G1 X13.55 Y0.0 Z23.4 F2605.776
;M101
G1 X13.55 Y-13.55 Z23.4 F1302.888 E10678.813
G1 X-13.55 Y-13.55 Z23.4 F1302.888 E10712.729
G1 X-13.55 Y13.55 Z23.4 F1302.888 E10746.644
G1 X13.55 Y13.55 Z23.4 F1302.888 E10780.56
G1 X13.55 Y0.0 Z23.4 F1302.888 E10797.518
;M103
M104 S245.0
;M108 S37.53
;M108 S50.04
M104 S244.448
;M108 S27.17
G1 X13.55 Y0.0 Z23.7 F2605.776
;M101
G1 X13.55 Y-13.55 Z23.7 F1302.888 E10814.475
G1 X-13.55 Y-13.55 Z23.7 F1302.888 E10848.391
G1 X-13.55 Y13.55 Z23.7 F1302.888 E10882.307
G1 X13.55 Y13.55 Z23.7 F1302.888 E10916.222
G1 X13.55 Y0.0 Z23.7 F1302.888 E10933.18
;M103
M104 S245.0
;M108 S37.53
;M108 S50.04
M104 S244.448
;M108 S27.17
G1 X13.55 Y0.0 Z24.0 F2605.776
;M101
G1 X13.55 Y-13.55 Z24.0 F1302.888 E10950.138
G1 X-13.55 Y-13.55 Z24.0 F1302.888 E10984.053
G1 X-13.55 Y13.55 Z24.0 F1302.888 E11017.969
G1 X13.55 Y13.55 Z24.0 F1302.888 E11051.885
G1 X13.55 Y0.0 Z24.0 F1302.888 E11068.842
;M103
M104 S245.0
;M108 S37.53
;M108 S50.04
M104 S244.448
;M108 S27.17
G1 X13.55 Y0.0 Z24.3 F2605.776
;M101
G1 X13.55 Y-13.55 Z24.3 F1302.888 E11085.8
G1 X-13.55 Y-13.55 Z24.3 F1302.888 E11119.716
G1 X-13.55 Y13.55 Z24.3 F1302.888 E11153.631
G1 X13.55 Y13.55 Z24.3 F1302.888 E11187.547
G1 X13.55 Y0.0 Z24.3 F1302.888 E11204.505
;M103
M104 S245.0
;M108 S37.53
;M108 S50.04
M104 S244.448
;M108 S27.17
G1 X13.55 Y0.0 Z24.6 F2605.776
;M101
G1 X13.55 Y-13.55 Z24.6 F1302.888 E11221.462
G1 X-13.55 Y-13.55 Z24.6 F1302.888 E11255.378
G1 X-13.55 Y13.55 Z24.6 F1302.888 E11289.294
G1 X13.55 Y13.55 Z24.6 F1302.888 E11323.209
G1 X13.55 Y0.0 Z24.6 F1302.888 E11340.167
;M103
M104 S245.0
;M108 S37.53
;M108 S50.04
M104 S244.448
;M108 S27.17
G1 X13.55 Y0.0 Z24.9 F2605.776
;M101
G1 X13.55 Y-13.55 Z24.9 F1302.888 E11357.125
G1 X-13.55 Y-13.55 Z24.9 F1302.888 E11391.04
G1 X-13.55 Y13.55 Z24.9 F1302.888 E11424.956
G1 X13.55 Y13.55 Z24.9 F1302.888 E11458.871
G1 X13.55 Y0.0 Z24.9 F1302.888 E11475.829
;M103
M104 S245.0
;M108 S37.53
;M108 S50.04
M104 S244.448
;M108 S27.17
G1 X13.55 Y0.0 Z25.2 F2605.776
;M101
G1 X13.55 Y-13.55 Z25.2 F1302.888 E11492.787
G1 X-13.55 Y-13.55 Z25.2 F1302.888 E11526.703
G1 X-13.55 Y13.55 Z25.2 F1302.888 E11560.618
G1 X13.55 Y13.55 Z25.2 F1302.888 E11594.534
G1 X13.55 Y0.0 Z25.2 F1302.888 E11611.492
;M103
M104 S245.0
;M108 S37.53
;M108 S50.04
M104 S244.448
;M108 S27.17
G1 X13.55 Y0.0 Z25.5 F2605.776
;M101
G1 X13.55 Y-13.55 Z25.5 F1302.888 E11628.449
G1 X-13.55 Y-13.55 Z25.5 F1302.888 E11662.365
G1 X-13.55 Y13.55 Z25.5 F1302.888 E11696.281
G1 X13.55 Y13.55 Z25.5 F1302.888 E11730.196
G1 X13.55 Y0.0 Z25.5 F1302.888 E11747.154
;M103
M104 S245.0
;M108 S37.53
;M108 S50.04
M104 S244.448
;M108 S27.17
G1 X13.55 Y0.0 Z25.8 F2605.776
;M101
G1 X13.55 Y-13.55 Z25.8 F1302.888 E11764.112
G1 X-13.55 Y-13.55 Z25.8 F1302.888 E11798.027
G1 X-13.55 Y13.55 Z25.8 F1302.888 E11831.943
G1 X13.55 Y13.55 Z25.8 F1302.888 E11865.858
G1 X13.55 Y0.0 Z25.8 F1302.888 E11882.816
;M103
M104 S245.0
;M108 S37.53
;M108 S50.04
M104 S244.448
;M108 S27.17
G1 X13.55 Y0.0 Z26.1 F2605.776
;M101
G1 X13.55 Y-13.55 Z26.1 F1302.888 E11899.774
G1 X-13.55 Y-13.55 Z26.1 F1302.888 E11933.69
G1 X-13.55 Y13.55 Z26.1 F1302.888 E11967.605
G1 X13.55 Y13.55 Z26.1 F1302.888 E12001.521
G1 X13.55 Y0.0 Z26.1 F1302.888 E12018.479
;M103
M104 S245.0
;M108 S37.53
;M108 S50.04
M104 S244.448
;M108 S27.17
G1 X13.55 Y0.0 Z26.4 F2605.776
;M101
G1 X13.55 Y-13.55 Z26.4 F1302.888 E12035.436
G1 X-13.55 Y-13.55 Z26.4 F1302.888 E12069.352
G1 X-13.55 Y13.55 Z26.4 F1302.888 E12103.267
G1 X13.55 Y13.55 Z26.4 F1302.888 E12137.183
G1 X13.55 Y0.0 Z26.4 F1302.888 E12154.141
;M103
M104 S245.0
;M108 S37.53
;M108 S50.04
M104 S244.448
;M108 S27.17
G1 X13.55 Y0.0 Z26.7 F2605.776
;M101
G1 X13.55 Y-13.55 Z26.7 F1302.888 E12171.099
G1 X-13.55 Y-13.55 Z26.7 F1302.888 E12205.014
G1 X-13.55 Y13.55 Z26.7 F1302.888 E12238.93
G1 X13.55 Y13.55 Z26.7 F1302.888 E12272.845
G1 X13.55 Y0.0 Z26.7 F1302.888 E12289.803
;M103
M104 S245.0
;M108 S37.53
;M108 S50.04
M104 S244.448
;M108 S27.17
G1 X13.55 Y0.0 Z27.0 F2605.776
;M101
G1 X13.55 Y-13.55 Z27.0 F1302.888 E12306.761
G1 X-13.55 Y-13.55 Z27.0 F1302.888 E12340.677
G1 X-13.55 Y13.55 Z27.0 F1302.888 E12374.592
G1 X13.55 Y13.55 Z27.0 F1302.888 E12408.508
G1 X13.55 Y0.0 Z27.0 F1302.888 E12425.465
;M103
M104 S245.0
;M108 S37.53
;M108 S50.04
M104 S244.448
;M108 S27.17
G1 X13.55 Y0.0 Z27.3 F2605.776
;M101
G1 X13.55 Y-13.55 Z27.3 F1302.888 E12442.423
G1 X-13.55 Y-13.55 Z27.3 F1302.888 E12476.339
G1 X-13.55 Y13.55 Z27.3 F1302.888 E12510.254
G1 X13.55 Y13.55 Z27.3 F1302.888 E12544.17
G1 X13.55 Y0.0 Z27.3 F1302.888 E12561.128
;M103
M104 S245.0
;M108 S37.53
;M108 S50.04
M104 S244.448
;M108 S27.17
G1 X13.55 Y0.0 Z27.6 F2605.776
;M101
G1 X13.55 Y-13.55 Z27.6 F1302.888 E12578.086
G1 X-13.55 Y-13.55 Z27.6 F1302.888 E12612.001
G1 X-13.55 Y13.55 Z27.6 F1302.888 E12645.917
G1 X13.55 Y13.55 Z27.6 F1302.888 E12679.832
G1 X13.55 Y0.0 Z27.6 F1302.888 E12696.79
;M103
M104 S245.0
;M108 S37.53
M104 S0
;M103
M104 S0 (end.gcode v2.0 - turning off extruder )
G90 (absolute positioning - end of end.gcode)
G92 X0 Y0 Z0 (set current as home position)
G92 E0 (reset extrusion position)
G1 X13.49 Y13.49 Z27.6 F3600.0
G1 X13.79 Y-13.85 Z27.6 F3600.0
G1 X-13.74 Y-13.74 Z27.6 F3600.0
G1 X-20.0 F3000.0 (rapidly move extruder away from the object, hopefully)
G1 Z10.0 F400.0 (platform down a little more)
G90 (absolute positioning - end of end.gcode)
M113 S0.0
M107
