G21 (This is GCode, generated with Skeinforge version 35 from ReplicatorG)
G21 (Ultimaker profile - Quality print from alterations/start.gcode)
G21 (Metric: The unit is a millimeter)
M18 (Disable motors for now, to allow manual moving of the head)
G90 (Absolute positioning)
G21 (end of start.txt)
G90
G21
;M103
M105
M106
M113 S1.0
;M108 S50.04
M104 S245.0
;M108 S52.54
G1 X18.27 Y7.41 Z0.3 F1620.0
;M101
G1 X18.27 Y-7.43 Z0.3 F1620.0 E28.881
G1 X-18.28 Y-7.43 Z0.3 F1620.0 E99.988
G1 X-18.28 Y7.41 Z0.3 F1620.0 E128.869
G1 X18.27 Y7.41 Z0.3 F1620.0 E199.975
;M103
G1 X13.64 Y-3.54 Z0.3 F2880.0
;M101
G1 X13.71 Y-3.47 Z0.3 F1920.0 E200.158
G1 X13.34 Y-3.25 Z0.3 F1920.0 E200.871
G1 X13.09 Y-3.5 Z0.3 F1920.0 E201.448
G1 X12.96 Y-3.03 Z0.3 F1920.0 E202.24
G1 X12.55 Y-3.45 Z0.3 F1920.0 E203.208
G1 X12.0 Y-3.4 Z0.3 F1920.0 E204.107
G1 X12.59 Y-2.82 Z0.3 F1920.0 E205.467
G1 X12.21 Y-2.6 Z0.3 F1920.0 E206.18
G1 X11.46 Y-3.36 Z0.3 F1920.0 E207.934
G1 X10.91 Y-3.31 Z0.3 F1920.0 E208.832
G1 X11.83 Y-2.38 Z0.3 F1920.0 E210.978
G1 X11.46 Y-2.17 Z0.3 F1920.0 E211.69
G1 X10.37 Y-3.26 Z0.3 F1920.0 E214.228
G1 X9.82 Y-3.21 Z0.3 F1920.0 E215.126
G1 X11.08 Y-1.95 Z0.3 F1920.0 E218.056
G1 X10.71 Y-1.73 Z0.3 F1920.0 E218.768
G1 X9.28 Y-3.17 Z0.3 F1920.0 E222.091
G1 X8.73 Y-3.12 Z0.3 F1920.0 E222.989
G1 X10.33 Y-1.52 Z0.3 F1920.0 E226.704
G1 X9.95 Y-1.3 Z0.3 F1920.0 E227.417
G1 X8.19 Y-3.07 Z0.3 F1920.0 E231.525
G1 X7.64 Y-3.02 Z0.3 F1920.0 E232.423
G1 X9.58 Y-1.09 Z0.3 F1920.0 E236.923
G1 X9.2 Y-0.87 Z0.3 F1920.0 E237.636
G1 X7.1 Y-2.98 Z0.3 F1920.0 E242.528
G1 X6.55 Y-2.93 Z0.3 F1920.0 E243.426
G1 X8.83 Y-0.65 Z0.3 F1920.0 E248.711
G1 X8.45 Y-0.44 Z0.3 F1920.0 E249.423
G1 X6.01 Y-2.88 Z0.3 F1920.0 E255.099
G1 X5.46 Y-2.83 Z0.3 F1920.0 E255.997
G1 X8.07 Y-0.22 Z0.3 F1920.0 E262.067
G1 X7.7 Y-0.0 Z0.3 F1920.0 E262.779
G1 X4.92 Y-2.79 Z0.3 F1920.0 E269.241
G1 X4.37 Y-2.74 Z0.3 F1920.0 E270.139
G1 X7.32 Y0.21 Z0.3 F1920.0 E276.992
G1 X6.95 Y0.43 Z0.3 F1920.0 E277.705
G1 X3.83 Y-2.69 Z0.3 F1920.0 E284.952
G1 X3.28 Y-2.64 Z0.3 F1920.0 E285.85
G1 X6.57 Y0.65 Z0.3 F1920.0 E293.488
G1 X6.19 Y0.86 Z0.3 F1920.0 E294.2
G1 X2.74 Y-2.6 Z0.3 F1920.0 E302.231
G1 X2.19 Y-2.55 Z0.3 F1920.0 E303.129
G1 X5.82 Y1.08 Z0.3 F1920.0 E311.553
G1 X5.44 Y1.3 Z0.3 F1920.0 E312.265
G1 X1.65 Y-2.5 Z0.3 F1920.0 E321.079
G1 X1.1 Y-2.45 Z0.3 F1920.0 E321.977
G1 X5.07 Y1.51 Z0.3 F1920.0 E331.185
G1 X4.69 Y1.73 Z0.3 F1920.0 E331.897
G1 X0.56 Y-2.41 Z0.3 F1920.0 E341.496
G1 X0.01 Y-2.36 Z0.3 F1920.0 E342.394
G1 X4.31 Y1.94 Z0.3 F1920.0 E352.385
G1 X3.94 Y2.16 Z0.3 F1920.0 E353.098
G1 X-0.53 Y-2.31 Z0.3 F1920.0 E363.483
G1 X-0.77 Y-1.95 Z0.3 F1920.0 E364.187
G1 X3.56 Y2.38 Z0.3 F1920.0 E374.241
G1 X3.19 Y2.59 Z0.3 F1920.0 E374.953
G1 X-0.83 Y-1.42 Z0.3 F1920.0 E384.279
G1 X-0.92 Y-0.92 Z0.3 F1920.0 E385.119
G1 X2.79 Y2.79 Z0.3 F1920.0 E393.731
G1 X2.38 Y2.97 Z0.3 F1920.0 E394.469
G1 X-1.01 Y-0.42 Z0.3 F1920.0 E402.336
G1 X-1.18 Y0.01 Z0.3 F1920.0 E403.085
G1 X1.93 Y3.11 Z0.3 F1920.0 E410.298
G1 X1.47 Y3.25 Z0.3 F1920.0 E411.076
G1 X-1.35 Y0.43 Z0.3 F1920.0 E417.631
G1 X-1.52 Y0.85 Z0.3 F1920.0 E418.374
G1 X1.02 Y3.39 Z0.3 F1920.0 E424.284
G1 X0.51 Y3.48 Z0.3 F1920.0 E425.128
G1 X-1.76 Y1.2 Z0.3 F1920.0 E430.411
G1 X-2.0 Y1.56 Z0.3 F1920.0 E431.113
G1 X0.0 Y3.55 Z0.3 F1920.0 E435.753
G1 X-0.52 Y3.63 Z0.3 F1920.0 E436.617
G1 X-2.24 Y1.91 Z0.3 F1920.0 E440.599
G1 X-2.53 Y2.21 Z0.3 F1920.0 E441.286
G1 X-1.11 Y3.63 Z0.3 F1920.0 E444.576
G1 X-1.71 Y3.63 Z0.3 F1920.0 E445.548
G1 X-2.83 Y2.5 Z0.3 F1920.0 E448.156
G1 X-3.13 Y2.8 Z0.3 F1920.0 E448.844
G1 X-2.3 Y3.63 Z0.3 F1920.0 E450.77
G1 X-2.89 Y3.63 Z0.3 F1920.0 E451.742
G1 X-3.49 Y3.03 Z0.3 F1920.0 E453.13
G1 X-3.85 Y3.26 Z0.3 F1920.0 E453.836
G1 X-3.48 Y3.63 Z0.3 F1920.0 E454.697
G1 X-4.07 Y3.63 Z0.3 F1920.0 E455.669
G1 X-4.23 Y3.47 Z0.3 F1920.0 E456.034
;M103
G1 X-12.36 Y3.63 Z0.3 F2880.0
;M101
G1 X-12.51 Y3.48 Z0.3 F1920.0 E456.386
G1 X-12.96 Y3.63 Z0.3 F1920.0 E457.152
G1 X-13.94 Y2.65 Z0.3 F1920.0 E459.432
G1 X-14.36 Y2.82 Z0.3 F1920.0 E460.181
G1 X-13.55 Y3.63 Z0.3 F1920.0 E462.074
G1 X-14.17 Y3.6 Z0.3 F1920.0 E463.1
G1 X-14.46 Y3.31 Z0.3 F1920.0 E463.768
;M103
G1 X-14.78 Y3.48 Z0.3 F3600.0
;M101
G1 X-14.84 Y3.29 Z0.3 F1920.0 E464.092
G1 X-14.84 Y2.99 Z0.3 F1920.0 E464.578
G1 X-14.74 Y2.72 Z0.3 F1920.0 E465.06
G1 X-14.55 Y2.49 Z0.3 F1920.0 E465.545
G1 X-14.3 Y2.34 Z0.3 F1920.0 E466.031
G1 X-14.01 Y2.28 Z0.3 F1920.0 E466.512
G1 X-13.72 Y2.32 Z0.3 F1920.0 E466.998
G1 X-12.58 Y3.08 Z0.3 F1920.0 E469.246
G1 X-11.55 Y3.47 Z0.3 F1920.0 E471.049
G1 X-11.0 Y3.57 Z0.3 F1920.0 E471.974
G1 X-5.91 Y3.57 Z0.3 F1920.0 E480.326
G1 X-5.36 Y3.48 Z0.3 F1920.0 E481.251
G1 X-4.31 Y3.12 Z0.3 F1920.0 E483.06
G1 X-3.38 Y2.54 Z0.3 F1920.0 E484.869
G1 X-2.53 Y1.71 Z0.3 F1920.0 E486.821
G1 X-1.82 Y0.65 Z0.3 F1920.0 E488.906
G1 X-1.35 Y-0.53 Z0.3 F1920.0 E490.993
G1 X-1.13 Y-1.78 Z0.3 F1920.0 E493.081
G1 X-1.12 Y-2.35 Z0.3 F1920.0 E494.012
G1 X-1.07 Y-2.47 Z0.3 F1920.0 E494.23
G1 X-1.0 Y-2.56 Z0.3 F1920.0 E494.424
G1 X-0.86 Y-2.65 Z0.3 F1920.0 E494.693
G1 X14.73 Y-4.0 Z0.3 F1920.0 E520.381
G1 X14.82 Y-3.91 Z0.3 F1920.0 E520.599
G1 X14.84 Y-3.78 Z0.3 F1920.0 E520.814
G1 X14.78 Y-3.67 Z0.3 F1920.0 E521.019
G1 X3.18 Y3.01 Z0.3 F1920.0 E542.998
G1 X2.49 Y3.31 Z0.3 F1920.0 E544.231
G1 X1.04 Y3.76 Z0.3 F1920.0 E546.716
G1 X-0.45 Y3.98 Z0.3 F1920.0 E549.188
G1 X-14.2 Y3.99 Z0.3 F1920.0 E571.763
G1 X-14.56 Y3.8 Z0.3 F1920.0 E572.441
G1 X-14.75 Y3.57 Z0.3 F1920.0 E572.925
G1 X-14.78 Y3.48 Z0.3 F1920.0 E573.086
;M103
;M108 S37.53
;M108 S39.41
G1 X-15.2 Y3.57 Z0.3 F3600.0
;M101
G1 X-15.26 Y3.36 Z0.3 F1620.0 E573.406
G1 X-15.28 Y3.14 Z0.3 F1620.0 E573.728
G1 X-15.26 Y2.92 Z0.3 F1620.0 E574.048
G1 X-15.2 Y2.71 Z0.3 F1620.0 E574.368
G1 X-15.11 Y2.51 Z0.3 F1620.0 E574.689
G1 X-14.98 Y2.33 Z0.3 F1620.0 E575.01
G1 X-14.83 Y2.17 Z0.3 F1620.0 E575.33
G1 X-14.65 Y2.04 Z0.3 F1620.0 E575.65
G1 X-14.45 Y1.95 Z0.3 F1620.0 E575.972
G1 X-14.24 Y1.88 Z0.3 F1620.0 E576.293
G1 X-14.02 Y1.86 Z0.3 F1620.0 E576.613
G1 X-13.81 Y1.87 Z0.3 F1620.0 E576.934
G1 X-13.59 Y1.92 Z0.3 F1620.0 E577.254
G1 X-13.39 Y2.01 Z0.3 F1620.0 E577.574
G1 X-12.81 Y2.44 Z0.3 F1620.0 E578.639
G1 X-12.38 Y2.7 Z0.3 F1620.0 E579.367
G1 X-11.93 Y2.91 Z0.3 F1620.0 E580.096
G1 X-11.45 Y3.06 Z0.3 F1620.0 E580.824
G1 X-10.96 Y3.15 Z0.3 F1620.0 E581.551
G1 X-5.95 Y3.16 Z0.3 F1620.0 E588.87
G1 X-5.45 Y3.07 Z0.3 F1620.0 E589.608
G1 X-4.96 Y2.93 Z0.3 F1620.0 E590.346
G1 X-4.49 Y2.74 Z0.3 F1620.0 E591.083
G1 X-4.05 Y2.5 Z0.3 F1620.0 E591.822
G1 X-3.64 Y2.21 Z0.3 F1620.0 E592.558
G1 X-3.25 Y1.88 Z0.3 F1620.0 E593.296
G1 X-2.85 Y1.44 Z0.3 F1620.0 E594.163
G1 X-2.5 Y0.97 Z0.3 F1620.0 E595.027
G1 X-2.19 Y0.46 Z0.3 F1620.0 E595.894
G1 X-1.95 Y-0.08 Z0.3 F1620.0 E596.761
G1 X-1.75 Y-0.64 Z0.3 F1620.0 E597.625
G1 X-1.62 Y-1.22 Z0.3 F1620.0 E598.492
G1 X-1.55 Y-1.81 Z0.3 F1620.0 E599.357
G1 X-1.54 Y-2.42 Z0.3 F1620.0 E600.252
G1 X-1.45 Y-2.68 Z0.3 F1620.0 E600.645
G1 X-1.29 Y-2.88 Z0.3 F1620.0 E601.019
G1 X-1.07 Y-3.02 Z0.3 F1620.0 E601.395
G1 X-0.95 Y-3.06 Z0.3 F1620.0 E601.585
G1 X14.71 Y-4.43 Z0.3 F1620.0 E624.523
G1 X14.9 Y-4.38 Z0.3 F1620.0 E624.816
G1 X15.08 Y-4.27 Z0.3 F1620.0 E625.123
G1 X15.2 Y-4.1 Z0.3 F1620.0 E625.428
G1 X15.27 Y-3.9 Z0.3 F1620.0 E625.736
G1 X15.26 Y-3.69 Z0.3 F1620.0 E626.041
G1 X15.18 Y-3.49 Z0.3 F1620.0 E626.348
G1 X15.05 Y-3.34 Z0.3 F1620.0 E626.641
G1 X3.37 Y3.39 Z0.3 F1620.0 E646.323
G1 X2.64 Y3.7 Z0.3 F1620.0 E647.476
G1 X1.9 Y3.96 Z0.3 F1620.0 E648.627
G1 X1.14 Y4.17 Z0.3 F1620.0 E649.778
G1 X0.36 Y4.31 Z0.3 F1620.0 E650.928
G1 X-0.42 Y4.4 Z0.3 F1620.0 E652.081
G1 X-14.26 Y4.41 Z0.3 F1620.0 E672.274
G1 X-14.47 Y4.34 Z0.3 F1620.0 E672.597
G1 X-14.67 Y4.24 Z0.3 F1620.0 E672.918
G1 X-14.84 Y4.11 Z0.3 F1620.0 E673.238
G1 X-14.99 Y3.96 Z0.3 F1620.0 E673.557
G1 X-15.12 Y3.77 Z0.3 F1620.0 E673.878
G1 X-15.2 Y3.57 Z0.3 F1620.0 E674.199
;M103
;M108 S50.04
G1 X-5.43 Y3.15 Z0.6 F3600.0
G1 X4.14 Y1.79 Z0.6 F3600.0
;M101
G1 X9.29 Y-3.36 Z0.6 F2400.0 E683.307
G1 X8.64 Y-3.31 Z0.6 F2400.0 E684.122
G1 X2.06 Y3.27 Z0.6 F2400.0 E695.763
G1 X1.2 Y3.54 Z0.6 F2400.0 E696.883
G1 X7.99 Y-3.25 Z0.6 F2400.0 E708.892
G1 X7.34 Y-3.19 Z0.6 F2400.0 E709.707
G1 X0.47 Y3.68 Z0.6 F2400.0 E721.866
G1 X-0.23 Y3.78 Z0.6 F2400.0 E722.749
G1 X6.69 Y-3.14 Z0.6 F2400.0 E734.996
G1 X6.04 Y-3.08 Z0.6 F2400.0 E735.809
G1 X-0.86 Y3.82 Z0.6 F2400.0 E748.018
G1 X-1.45 Y3.82 Z0.6 F2400.0 E748.76
G1 X5.4 Y-3.03 Z0.6 F2400.0 E760.869
G1 X4.75 Y-2.97 Z0.6 F2400.0 E761.684
G1 X-2.04 Y3.82 Z0.6 F2400.0 E773.695
G1 X-2.64 Y3.82 Z0.6 F2400.0 E774.436
G1 X4.1 Y-2.91 Z0.6 F2400.0 E786.347
G1 X3.45 Y-2.86 Z0.6 F2400.0 E787.161
G1 X-3.23 Y3.82 Z0.6 F2400.0 E798.973
G1 X-3.82 Y3.82 Z0.6 F2400.0 E799.715
G1 X2.8 Y-2.8 Z0.6 F2400.0 E811.429
G1 X2.15 Y-2.74 Z0.6 F2400.0 E812.244
G1 X-4.41 Y3.82 Z0.6 F2400.0 E823.859
G1 X-4.6 Y3.41 Z0.6 F2400.0 E824.421
G1 X-5.01 Y3.82 Z0.6 F2400.0 E825.147
G1 X-5.41 Y3.63 Z0.6 F2400.0 E825.701
G1 X-5.6 Y3.82 Z0.6 F2400.0 E826.043
G1 X-6.11 Y3.74 Z0.6 F2400.0 E826.684
G1 X-6.19 Y3.82 Z0.6 F2400.0 E826.839
G1 X-6.7 Y3.74 Z0.6 F2400.0 E827.48
G1 X-6.79 Y3.82 Z0.6 F2400.0 E827.636
G1 X-7.29 Y3.74 Z0.6 F2400.0 E828.276
G1 X-7.38 Y3.82 Z0.6 F2400.0 E828.434
G1 X-7.88 Y3.74 Z0.6 F2400.0 E829.073
G1 X-7.97 Y3.82 Z0.6 F2400.0 E829.231
G1 X-8.47 Y3.73 Z0.6 F2400.0 E829.87
G1 X-8.56 Y3.83 Z0.6 F2400.0 E830.03
G1 X-9.07 Y3.73 Z0.6 F2400.0 E830.669
G1 X-9.16 Y3.83 Z0.6 F2400.0 E830.829
G1 X-9.66 Y3.73 Z0.6 F2400.0 E831.467
G1 X-9.75 Y3.83 Z0.6 F2400.0 E831.628
G1 X-10.25 Y3.73 Z0.6 F2400.0 E832.265
G1 X-10.34 Y3.83 Z0.6 F2400.0 E832.428
G1 X-10.84 Y3.73 Z0.6 F2400.0 E833.064
G1 X-10.94 Y3.83 Z0.6 F2400.0 E833.227
G1 X-11.35 Y3.65 Z0.6 F2400.0 E833.794
G1 X-11.53 Y3.83 Z0.6 F2400.0 E834.103
G1 X-11.83 Y3.53 Z0.6 F2400.0 E834.628
G1 X-12.12 Y3.83 Z0.6 F2400.0 E835.146
G1 X-12.28 Y3.39 Z0.6 F2400.0 E835.727
G1 X-12.71 Y3.83 Z0.6 F2400.0 E836.503
G1 X-13.31 Y3.83 Z0.6 F2400.0 E837.245
G1 X-12.68 Y3.2 Z0.6 F2400.0 E838.352
G1 X-13.03 Y2.96 Z0.6 F2400.0 E838.886
G1 X-13.9 Y3.83 Z0.6 F2400.0 E840.422
G1 X-14.38 Y3.72 Z0.6 F2400.0 E841.042
G1 X-13.38 Y2.72 Z0.6 F2400.0 E842.813
G1 X-13.75 Y2.5 Z0.6 F2400.0 E843.354
G1 X-14.64 Y3.39 Z0.6 F2400.0 E844.93
;M103
G1 X-5.49 Y2.97 Z0.6 F3600.0
G1 X-5.0 Y2.83 Z0.6 F3600.0
G1 X-4.54 Y2.64 Z0.6 F3600.0
G1 X-1.52 Y0.33 Z0.6 F3600.0
;M101
G1 X1.5 Y-2.69 Z0.6 F2400.0 E850.272
G1 X0.85 Y-2.63 Z0.6 F2400.0 E851.087
G1 X-1.16 Y-0.61 Z0.6 F2400.0 E854.655
G1 X-1.03 Y-1.34 Z0.6 F2400.0 E855.585
G1 X0.21 Y-2.58 Z0.6 F2400.0 E857.762
G1 X-0.44 Y-2.52 Z0.6 F2400.0 E858.576
G1 X-0.97 Y-1.99 Z0.6 F2400.0 E859.51
;M103
G1 X6.93 Y0.18 Z0.6 F3600.0
;M101
G1 X10.58 Y-3.48 Z0.6 F2400.0 E865.977
G1 X9.94 Y-3.42 Z0.6 F2400.0 E866.79
G1 X4.39 Y2.12 Z0.6 F2400.0 E876.593
G1 X3.02 Y2.9 Z0.6 F2400.0 E878.565
;M103
G1 X9.72 Y-1.43 Z0.6 F3600.0
;M101
G1 X11.88 Y-3.59 Z0.6 F2400.0 E882.389
G1 X11.23 Y-3.53 Z0.6 F2400.0 E883.204
G1 X7.19 Y0.52 Z0.6 F2400.0 E890.364
G1 X5.79 Y1.32 Z0.6 F2400.0 E892.379
;M103
G1 X12.51 Y-3.03 Z0.6 F3600.0
;M101
G1 X13.18 Y-3.7 Z0.6 F2400.0 E893.559
G1 X12.53 Y-3.65 Z0.6 F2400.0 E894.374
G1 X9.98 Y-1.09 Z0.6 F2400.0 E898.89
G1 X8.58 Y-0.29 Z0.6 F2400.0 E900.905
;M103
G1 X14.48 Y-3.81 Z0.6 F3600.0
;M101
G1 X14.16 Y-3.5 Z0.6 F2400.0 E901.457
G1 X13.83 Y-3.76 Z0.6 F2400.0 E901.985
G1 X12.77 Y-2.7 Z0.6 F2400.0 E903.859
G1 X11.37 Y-1.9 Z0.6 F2400.0 E905.873
;M103
G1 X11.74 Y-1.7 Z0.6 F3600.0
;M101
G1 X11.55 Y-1.59 Z0.6 F2400.0 E906.15
G1 X3.26 Y3.19 Z0.6 F2400.0 E918.116
G1 X2.56 Y3.49 Z0.6 F2400.0 E919.074
G1 X1.09 Y3.95 Z0.6 F2400.0 E921.004
G1 X-0.43 Y4.18 Z0.6 F2400.0 E922.924
G1 X-14.21 Y4.18 Z0.6 F2400.0 E940.164
G1 X-14.54 Y4.05 Z0.6 F2400.0 E940.609
G1 X-14.81 Y3.82 Z0.6 F2400.0 E941.054
G1 X-14.99 Y3.51 Z0.6 F2400.0 E941.497
G1 X-15.05 Y3.13 Z0.6 F2400.0 E941.976
G1 X-14.98 Y2.78 Z0.6 F2400.0 E942.421
G1 X-14.81 Y2.47 Z0.6 F2400.0 E942.867
G1 X-14.54 Y2.24 Z0.6 F2400.0 E943.311
G1 X-14.21 Y2.11 Z0.6 F2400.0 E943.755
G1 X-13.83 Y2.1 Z0.6 F2400.0 E944.233
G1 X-13.49 Y2.21 Z0.6 F2400.0 E944.671
G1 X-12.49 Y2.9 Z0.6 F2400.0 E946.199
G1 X-11.99 Y3.13 Z0.6 F2400.0 E946.88
G1 X-10.98 Y3.38 Z0.6 F2400.0 E948.182
G1 X-5.92 Y3.38 Z0.6 F2400.0 E954.514
G1 X-4.89 Y3.15 Z0.6 F2400.0 E955.83
G1 X-4.39 Y2.94 Z0.6 F2400.0 E956.511
G1 X-3.51 Y2.4 Z0.6 F2400.0 E957.812
G1 X-2.67 Y1.58 Z0.6 F2400.0 E959.269
G1 X-1.99 Y0.55 Z0.6 F2400.0 E960.825
G1 X-1.54 Y-0.56 Z0.6 F2400.0 E962.32
G1 X-1.4 Y-1.18 Z0.6 F2400.0 E963.11
G1 X-1.29 Y-2.47 Z0.6 F2400.0 E964.735
G1 X-1.14 Y-2.7 Z0.6 F2400.0 E965.07
G1 X-0.91 Y-2.84 Z0.6 F2400.0 E965.411
G1 X14.75 Y-4.19 Z0.6 F2400.0 E985.066
G1 X14.88 Y-4.13 Z0.6 F2400.0 E985.254
G1 X14.95 Y-4.07 Z0.6 F2400.0 E985.374
G1 X15.02 Y-3.93 Z0.6 F2400.0 E985.563
G1 X15.04 Y-3.8 Z0.6 F2400.0 E985.728
G1 X15.01 Y-3.67 Z0.6 F2400.0 E985.894
G1 X14.91 Y-3.52 Z0.6 F2400.0 E986.12
G1 X11.74 Y-1.7 Z0.6 F2400.0 E990.696
;M103
;M108 S37.53
G1 X11.95 Y-1.33 Z0.6 F3600.0
;M101
G1 X11.76 Y-1.22 Z0.6 F1800.0 E990.973
G1 X3.45 Y3.56 Z0.6 F1800.0 E1002.969
G1 X2.71 Y3.88 Z0.6 F1800.0 E1003.975
G1 X1.95 Y4.15 Z0.6 F1800.0 E1004.98
G1 X1.18 Y4.36 Z0.6 F1800.0 E1005.985
G1 X0.39 Y4.5 Z0.6 F1800.0 E1006.989
G1 X-0.41 Y4.59 Z0.6 F1800.0 E1007.994
G1 X-14.05 Y4.63 Z0.6 F1800.0 E1025.06
G1 X-14.3 Y4.6 Z0.6 F1800.0 E1025.378
G1 X-14.54 Y4.52 Z0.6 F1800.0 E1025.69
G1 X-14.76 Y4.41 Z0.6 F1800.0 E1026.002
G1 X-14.96 Y4.26 Z0.6 F1800.0 E1026.313
G1 X-15.14 Y4.08 Z0.6 F1800.0 E1026.625
G1 X-15.28 Y3.88 Z0.6 F1800.0 E1026.937
G1 X-15.38 Y3.65 Z0.6 F1800.0 E1027.248
G1 X-15.45 Y3.41 Z0.6 F1800.0 E1027.559
G1 X-15.47 Y3.13 Z0.6 F1800.0 E1027.913
G1 X-15.44 Y2.88 Z0.6 F1800.0 E1028.227
G1 X-15.38 Y2.64 Z0.6 F1800.0 E1028.541
G1 X-15.27 Y2.41 Z0.6 F1800.0 E1028.852
G1 X-15.13 Y2.21 Z0.6 F1800.0 E1029.164
G1 X-14.96 Y2.03 Z0.6 F1800.0 E1029.477
G1 X-14.76 Y1.88 Z0.6 F1800.0 E1029.787
G1 X-14.53 Y1.77 Z0.6 F1800.0 E1030.099
G1 X-14.29 Y1.7 Z0.6 F1800.0 E1030.411
G1 X-14.05 Y1.67 Z0.6 F1800.0 E1030.722
G1 X-13.77 Y1.68 Z0.6 F1800.0 E1031.074
G1 X-13.52 Y1.74 Z0.6 F1800.0 E1031.39
G1 X-13.29 Y1.84 Z0.6 F1800.0 E1031.702
G1 X-12.28 Y2.54 Z0.6 F1800.0 E1033.239
G1 X-11.84 Y2.74 Z0.6 F1800.0 E1033.84
G1 X-11.42 Y2.87 Z0.6 F1800.0 E1034.4
G1 X-10.94 Y2.96 Z0.6 F1800.0 E1035.002
G1 X-5.96 Y2.96 Z0.6 F1800.0 E1041.241
G1 X-5.51 Y2.89 Z0.6 F1800.0 E1041.809
G1 X-5.03 Y2.75 Z0.6 F1800.0 E1042.429
G1 X-4.57 Y2.56 Z0.6 F1800.0 E1043.049
G1 X-4.14 Y2.33 Z0.6 F1800.0 E1043.671
G1 X-3.76 Y2.07 Z0.6 F1800.0 E1044.237
G1 X-3.39 Y1.74 Z0.6 F1800.0 E1044.857
G1 X-3.0 Y1.31 Z0.6 F1800.0 E1045.583
G1 X-2.65 Y0.85 Z0.6 F1800.0 E1046.307
G1 X-2.36 Y0.35 Z0.6 F1800.0 E1047.032
G1 X-2.13 Y-0.14 Z0.6 F1800.0 E1047.701
G1 X-1.94 Y-0.68 Z0.6 F1800.0 E1048.424
G1 X-1.81 Y-1.25 Z0.6 F1800.0 E1049.157
G1 X-1.74 Y-1.81 Z0.6 F1800.0 E1049.863
G1 X-1.72 Y-2.46 Z0.6 F1800.0 E1050.669
G1 X-1.68 Y-2.63 Z0.6 F1800.0 E1050.897
G1 X-1.52 Y-2.91 Z0.6 F1800.0 E1051.293
G1 X-1.41 Y-3.02 Z0.6 F1800.0 E1051.492
G1 X-1.15 Y-3.2 Z0.6 F1800.0 E1051.891
G1 X-1.0 Y-3.25 Z0.6 F1800.0 E1052.09
G1 X14.57 Y-4.63 Z0.6 F1800.0 E1071.635
G1 X14.85 Y-4.61 Z0.6 F1800.0 E1071.99
G1 X15.1 Y-4.49 Z0.6 F1800.0 E1072.334
G1 X15.21 Y-4.41 Z0.6 F1800.0 E1072.507
G1 X15.3 Y-4.31 Z0.6 F1800.0 E1072.679
G1 X15.43 Y-4.06 Z0.6 F1800.0 E1073.023
G1 X15.46 Y-3.79 Z0.6 F1800.0 E1073.367
G1 X15.41 Y-3.52 Z0.6 F1800.0 E1073.712
G1 X15.27 Y-3.28 Z0.6 F1800.0 E1074.056
G1 X15.17 Y-3.19 Z0.6 F1800.0 E1074.227
G1 X11.95 Y-1.33 Z0.6 F1800.0 E1078.873
;M103
;M108 S50.04
G1 X14.37 Y-3.99 Z0.9 F3600.0
;M101
G1 X14.73 Y-3.63 Z0.9 F2400.0 E1079.51
G1 X14.36 Y-3.42 Z0.9 F2400.0 E1080.052
G1 X13.83 Y-3.94 Z0.9 F2400.0 E1080.986
G1 X13.28 Y-3.9 Z0.9 F2400.0 E1081.669
G1 X13.98 Y-3.2 Z0.9 F2400.0 E1082.901
G1 X13.6 Y-2.98 Z0.9 F2400.0 E1083.443
G1 X12.74 Y-3.85 Z0.9 F2400.0 E1084.971
G1 X12.2 Y-3.8 Z0.9 F2400.0 E1085.653
G1 X13.23 Y-2.77 Z0.9 F2400.0 E1087.478
G1 X12.85 Y-2.55 Z0.9 F2400.0 E1088.02
G1 X11.65 Y-3.75 Z0.9 F2400.0 E1090.142
G1 X11.11 Y-3.7 Z0.9 F2400.0 E1090.825
G1 X12.48 Y-2.33 Z0.9 F2400.0 E1093.244
G1 X12.1 Y-2.12 Z0.9 F2400.0 E1093.787
G1 X10.57 Y-3.65 Z0.9 F2400.0 E1096.502
G1 X10.02 Y-3.6 Z0.9 F2400.0 E1097.184
G1 X11.72 Y-1.9 Z0.9 F2400.0 E1100.196
G1 X11.35 Y-1.68 Z0.9 F2400.0 E1100.739
G1 X9.48 Y-3.56 Z0.9 F2400.0 E1104.048
G1 X8.93 Y-3.51 Z0.9 F2400.0 E1104.731
G1 X10.97 Y-1.47 Z0.9 F2400.0 E1108.338
G1 X10.6 Y-1.25 Z0.9 F2400.0 E1108.881
G1 X8.39 Y-3.46 Z0.9 F2400.0 E1112.786
G1 X7.85 Y-3.41 Z0.9 F2400.0 E1113.469
G1 X10.22 Y-1.03 Z0.9 F2400.0 E1117.67
G1 X9.85 Y-0.82 Z0.9 F2400.0 E1118.213
G1 X7.3 Y-3.36 Z0.9 F2400.0 E1122.71
G1 X6.76 Y-3.31 Z0.9 F2400.0 E1123.393
G1 X9.47 Y-0.6 Z0.9 F2400.0 E1128.188
G1 X9.09 Y-0.39 Z0.9 F2400.0 E1128.731
G1 X6.22 Y-3.26 Z0.9 F2400.0 E1133.823
G1 X5.67 Y-3.21 Z0.9 F2400.0 E1134.506
G1 X8.72 Y-0.17 Z0.9 F2400.0 E1139.894
G1 X8.34 Y0.05 Z0.9 F2400.0 E1140.437
G1 X5.13 Y-3.17 Z0.9 F2400.0 E1146.122
G1 X4.58 Y-3.12 Z0.9 F2400.0 E1146.806
G1 X7.97 Y0.26 Z0.9 F2400.0 E1152.787
G1 X7.59 Y0.48 Z0.9 F2400.0 E1153.33
G1 X4.04 Y-3.07 Z0.9 F2400.0 E1159.61
G1 X3.5 Y-3.02 Z0.9 F2400.0 E1160.293
G1 X7.21 Y0.7 Z0.9 F2400.0 E1166.869
G1 X6.84 Y0.91 Z0.9 F2400.0 E1167.412
G1 X2.95 Y-2.97 Z0.9 F2400.0 E1174.286
G1 X2.41 Y-2.92 Z0.9 F2400.0 E1174.968
G1 X6.46 Y1.13 Z0.9 F2400.0 E1182.138
G1 X6.09 Y1.35 Z0.9 F2400.0 E1182.681
G1 X1.87 Y-2.87 Z0.9 F2400.0 E1190.149
G1 X1.32 Y-2.83 Z0.9 F2400.0 E1190.832
G1 X5.71 Y1.56 Z0.9 F2400.0 E1198.597
G1 X5.33 Y1.78 Z0.9 F2400.0 E1199.14
G1 X0.78 Y-2.78 Z0.9 F2400.0 E1207.202
G1 X0.23 Y-2.73 Z0.9 F2400.0 E1207.886
G1 X4.96 Y2.0 Z0.9 F2400.0 E1216.244
G1 X4.58 Y2.21 Z0.9 F2400.0 E1216.787
G1 X-0.31 Y-2.68 Z0.9 F2400.0 E1225.441
G1 X-0.85 Y-2.63 Z0.9 F2400.0 E1226.125
G1 X4.21 Y2.43 Z0.9 F2400.0 E1235.077
G1 X3.83 Y2.65 Z0.9 F2400.0 E1235.619
G1 X-1.13 Y-2.31 Z0.9 F2400.0 E1244.389
G1 X-1.14 Y-1.74 Z0.9 F2400.0 E1245.111
G1 X3.45 Y2.86 Z0.9 F2400.0 E1253.243
G1 X3.07 Y3.07 Z0.9 F2400.0 E1253.79
G1 X-1.23 Y-1.23 Z0.9 F2400.0 E1261.403
G1 X-1.33 Y-0.73 Z0.9 F2400.0 E1262.039
G1 X2.66 Y3.25 Z0.9 F2400.0 E1269.085
G1 X2.22 Y3.4 Z0.9 F2400.0 E1269.665
G1 X-1.46 Y-0.27 Z0.9 F2400.0 E1276.168
G1 X-1.63 Y0.15 Z0.9 F2400.0 E1276.737
G1 X1.77 Y3.54 Z0.9 F2400.0 E1282.74
G1 X1.31 Y3.68 Z0.9 F2400.0 E1283.333
G1 X-1.8 Y0.57 Z0.9 F2400.0 E1288.834
G1 X-2.01 Y0.95 Z0.9 F2400.0 E1289.376
G1 X0.84 Y3.8 Z0.9 F2400.0 E1294.416
G1 X0.32 Y3.88 Z0.9 F2400.0 E1295.066
G1 X-2.25 Y1.3 Z0.9 F2400.0 E1299.618
G1 X-2.52 Y1.63 Z0.9 F2400.0 E1300.145
G1 X-0.19 Y3.95 Z0.9 F2400.0 E1304.26
G1 X-0.75 Y3.99 Z0.9 F2400.0 E1304.954
G1 X-2.79 Y1.95 Z0.9 F2400.0 E1308.562
G1 X-3.07 Y2.26 Z0.9 F2400.0 E1309.087
G1 X-1.34 Y3.99 Z0.9 F2400.0 E1312.15
G1 X-1.93 Y3.99 Z0.9 F2400.0 E1312.892
G1 X-3.39 Y2.54 Z0.9 F2400.0 E1315.468
G1 X-3.75 Y2.77 Z0.9 F2400.0 E1316.004
G1 X-2.52 Y3.99 Z0.9 F2400.0 E1318.171
G1 X-3.12 Y3.99 Z0.9 F2400.0 E1318.912
G1 X-4.12 Y2.99 Z0.9 F2400.0 E1320.681
G1 X-4.51 Y3.19 Z0.9 F2400.0 E1321.233
G1 X-3.71 Y3.99 Z0.9 F2400.0 E1322.654
G1 X-4.3 Y3.99 Z0.9 F2400.0 E1323.395
G1 X-4.94 Y3.35 Z0.9 F2400.0 E1324.532
G1 X-5.43 Y3.46 Z0.9 F2400.0 E1325.152
G1 X-4.89 Y3.99 Z0.9 F2400.0 E1326.096
G1 X-5.48 Y3.99 Z0.9 F2400.0 E1326.837
G1 X-5.92 Y3.56 Z0.9 F2400.0 E1327.604
G1 X-6.08 Y3.99 Z0.9 F2400.0 E1328.183
G1 X-6.51 Y3.56 Z0.9 F2400.0 E1328.95
G1 X-6.67 Y3.99 Z0.9 F2400.0 E1329.528
G1 X-7.1 Y3.56 Z0.9 F2400.0 E1330.295
G1 X-7.26 Y3.99 Z0.9 F2400.0 E1330.873
G1 X-7.7 Y3.56 Z0.9 F2400.0 E1331.641
G1 X-7.85 Y4.0 Z0.9 F2400.0 E1332.22
G1 X-8.29 Y3.56 Z0.9 F2400.0 E1332.988
G1 X-8.45 Y4.0 Z0.9 F2400.0 E1333.567
G1 X-8.88 Y3.56 Z0.9 F2400.0 E1334.337
G1 X-9.04 Y4.0 Z0.9 F2400.0 E1334.916
G1 X-9.47 Y3.56 Z0.9 F2400.0 E1335.685
G1 X-9.63 Y4.0 Z0.9 F2400.0 E1336.264
G1 X-10.06 Y3.56 Z0.9 F2400.0 E1337.033
G1 X-10.22 Y4.0 Z0.9 F2400.0 E1337.613
G1 X-10.66 Y3.56 Z0.9 F2400.0 E1338.384
G1 X-10.81 Y4.0 Z0.9 F2400.0 E1338.964
G1 X-11.31 Y3.5 Z0.9 F2400.0 E1339.838
G1 X-11.41 Y4.0 Z0.9 F2400.0 E1340.468
G1 X-12.18 Y3.22 Z0.9 F2400.0 E1341.844
G1 X-12.0 Y4.0 Z0.9 F2400.0 E1342.845
G1 X-13.59 Y2.4 Z0.9 F2400.0 E1345.667
G1 X-14.26 Y2.33 Z0.9 F2400.0 E1346.508
G1 X-12.59 Y4.0 Z0.9 F2400.0 E1349.464
G1 X-13.18 Y4.0 Z0.9 F2400.0 E1350.204
G1 X-14.62 Y2.56 Z0.9 F2400.0 E1352.747
G1 X-14.83 Y2.94 Z0.9 F2400.0 E1353.292
G1 X-13.77 Y4.0 Z0.9 F2400.0 E1355.16
G1 X-14.55 Y3.82 Z0.9 F2400.0 E1356.156
G1 X-14.58 Y3.79 Z0.9 F2400.0 E1356.207
;M103
G1 X-14.99 Y3.85 Z0.9 F3600.0
;M101
G1 X-15.06 Y3.77 Z0.9 F2400.0 E1356.345
G1 X-15.2 Y3.39 Z0.9 F2400.0 E1356.853
G1 X-15.2 Y2.91 Z0.9 F2400.0 E1357.454
G1 X-15.06 Y2.53 Z0.9 F2400.0 E1357.955
G1 X-14.8 Y2.22 Z0.9 F2400.0 E1358.464
G1 X-14.45 Y2.0 Z0.9 F2400.0 E1358.972
G1 X-14.06 Y1.92 Z0.9 F2400.0 E1359.473
G1 X-13.59 Y1.98 Z0.9 F2400.0 E1360.07
G1 X-12.39 Y2.76 Z0.9 F2400.0 E1361.854
G1 X-11.49 Y3.1 Z0.9 F2400.0 E1363.059
G1 X-10.97 Y3.2 Z0.9 F2400.0 E1363.724
G1 X-5.91 Y3.2 Z0.9 F2400.0 E1370.057
G1 X-4.97 Y2.99 Z0.9 F2400.0 E1371.261
G1 X-4.45 Y2.78 Z0.9 F2400.0 E1371.969
G1 X-3.64 Y2.28 Z0.9 F2400.0 E1373.159
G1 X-3.22 Y1.92 Z0.9 F2400.0 E1373.849
G1 X-2.44 Y0.97 Z0.9 F2400.0 E1375.39
G1 X-2.12 Y0.43 Z0.9 F2400.0 E1376.169
G1 X-1.72 Y-0.58 Z0.9 F2400.0 E1377.531
G1 X-1.5 Y-1.78 Z0.9 F2400.0 E1379.054
G1 X-1.48 Y-2.4 Z0.9 F2400.0 E1379.833
G1 X-1.39 Y-2.66 Z0.9 F2400.0 E1380.176
G1 X-1.24 Y-2.84 Z0.9 F2400.0 E1380.472
G1 X-1.05 Y-2.97 Z0.9 F2400.0 E1380.768
G1 X14.71 Y-4.38 Z0.9 F2400.0 E1400.558
G1 X14.88 Y-4.34 Z0.9 F2400.0 E1400.775
G1 X15.04 Y-4.23 Z0.9 F2400.0 E1401.016
G1 X15.15 Y-4.08 Z0.9 F2400.0 E1401.255
G1 X15.21 Y-3.89 Z0.9 F2400.0 E1401.496
G1 X15.21 Y-3.7 Z0.9 F2400.0 E1401.735
G1 X15.14 Y-3.52 Z0.9 F2400.0 E1401.979
G1 X15.03 Y-3.39 Z0.9 F2400.0 E1402.192
G1 X3.34 Y3.34 Z0.9 F2400.0 E1419.067
G1 X2.62 Y3.65 Z0.9 F2400.0 E1420.039
G1 X1.12 Y4.12 Z0.9 F2400.0 E1422.002
G1 X-0.42 Y4.35 Z0.9 F2400.0 E1423.955
G1 X-14.25 Y4.35 Z0.9 F2400.0 E1441.261
G1 X-14.45 Y4.29 Z0.9 F2400.0 E1441.517
G1 X-14.8 Y4.08 Z0.9 F2400.0 E1442.025
G1 X-14.99 Y3.85 Z0.9 F2400.0 E1442.397
;M103
;M108 S37.53
G1 X-15.26 Y4.2 Z0.9 F3600.0
;M101
G1 X-15.42 Y3.98 Z0.9 F1800.0 E1442.739
G1 X-15.54 Y3.73 Z0.9 F1800.0 E1443.082
G1 X-15.61 Y3.47 Z0.9 F1800.0 E1443.424
G1 X-15.64 Y3.2 Z0.9 F1800.0 E1443.764
G1 X-15.61 Y2.83 Z0.9 F1800.0 E1444.219
G1 X-15.54 Y2.57 Z0.9 F1800.0 E1444.564
G1 X-15.42 Y2.32 Z0.9 F1800.0 E1444.906
G1 X-15.27 Y2.1 Z0.9 F1800.0 E1445.248
G1 X-15.07 Y1.9 Z0.9 F1800.0 E1445.59
G1 X-14.85 Y1.74 Z0.9 F1800.0 E1445.934
G1 X-14.61 Y1.61 Z0.9 F1800.0 E1446.276
G1 X-14.35 Y1.53 Z0.9 F1800.0 E1446.618
G1 X-14.08 Y1.5 Z0.9 F1800.0 E1446.959
G1 X-13.73 Y1.52 Z0.9 F1800.0 E1447.401
G1 X-13.45 Y1.58 Z0.9 F1800.0 E1447.751
G1 X-13.2 Y1.69 Z0.9 F1800.0 E1448.1
G1 X-12.19 Y2.39 Z0.9 F1800.0 E1449.636
G1 X-11.76 Y2.58 Z0.9 F1800.0 E1450.224
G1 X-11.39 Y2.7 Z0.9 F1800.0 E1450.705
G1 X-10.93 Y2.79 Z0.9 F1800.0 E1451.29
G1 X-5.96 Y2.79 Z0.9 F1800.0 E1457.513
G1 X-5.1 Y2.59 Z0.9 F1800.0 E1458.616
G1 X-4.64 Y2.4 Z0.9 F1800.0 E1459.238
G1 X-3.89 Y1.94 Z0.9 F1800.0 E1460.341
G1 X-3.51 Y1.62 Z0.9 F1800.0 E1460.959
G1 X-3.13 Y1.2 Z0.9 F1800.0 E1461.675
G1 X-2.79 Y0.74 Z0.9 F1800.0 E1462.388
G1 X-2.5 Y0.25 Z0.9 F1800.0 E1463.101
G1 X-2.12 Y-0.71 Z0.9 F1800.0 E1464.384
G1 X-1.98 Y-1.28 Z0.9 F1800.0 E1465.121
G1 X-1.92 Y-1.81 Z0.9 F1800.0 E1465.788
G1 X-1.9 Y-2.46 Z0.9 F1800.0 E1466.6
G1 X-1.84 Y-2.7 Z0.9 F1800.0 E1466.918
G1 X-1.76 Y-2.87 Z0.9 F1800.0 E1467.146
G1 X-1.65 Y-3.02 Z0.9 F1800.0 E1467.379
G1 X-1.53 Y-3.16 Z0.9 F1800.0 E1467.611
G1 X-1.38 Y-3.27 Z0.9 F1800.0 E1467.844
G1 X-1.21 Y-3.36 Z0.9 F1800.0 E1468.076
G1 X-1.04 Y-3.42 Z0.9 F1800.0 E1468.309
G1 X14.73 Y-4.8 Z0.9 F1800.0 E1488.107
G1 X14.89 Y-4.77 Z0.9 F1800.0 E1488.316
G1 X15.05 Y-4.72 Z0.9 F1800.0 E1488.525
G1 X15.2 Y-4.64 Z0.9 F1800.0 E1488.734
G1 X15.33 Y-4.53 Z0.9 F1800.0 E1488.944
G1 X15.44 Y-4.41 Z0.9 F1800.0 E1489.154
G1 X15.53 Y-4.27 Z0.9 F1800.0 E1489.361
G1 X15.59 Y-4.11 Z0.9 F1800.0 E1489.571
G1 X15.63 Y-3.95 Z0.9 F1800.0 E1489.782
G1 X15.64 Y-3.78 Z0.9 F1800.0 E1489.989
G1 X15.62 Y-3.62 Z0.9 F1800.0 E1490.2
G1 X15.57 Y-3.46 Z0.9 F1800.0 E1490.409
G1 X15.5 Y-3.31 Z0.9 F1800.0 E1490.619
G1 X15.4 Y-3.17 Z0.9 F1800.0 E1490.826
G1 X15.28 Y-3.05 Z0.9 F1800.0 E1491.036
G1 X3.52 Y3.72 Z0.9 F1800.0 E1508.006
G1 X2.78 Y4.04 Z0.9 F1800.0 E1509.028
G1 X2.01 Y4.31 Z0.9 F1800.0 E1510.05
G1 X1.22 Y4.52 Z0.9 F1800.0 E1511.07
G1 X0.42 Y4.68 Z0.9 F1800.0 E1512.091
G1 X-0.4 Y4.77 Z0.9 F1800.0 E1513.112
G1 X-14.07 Y4.8 Z0.9 F1800.0 E1530.217
G1 X-14.35 Y4.76 Z0.9 F1800.0 E1530.566
G1 X-14.61 Y4.68 Z0.9 F1800.0 E1530.907
G1 X-14.85 Y4.56 Z0.9 F1800.0 E1531.25
G1 X-15.07 Y4.4 Z0.9 F1800.0 E1531.593
G1 X-15.26 Y4.2 Z0.9 F1800.0 E1531.936
;M103
;M108 S50.04
G1 X1.53 Y3.81 Z1.2 F3600.0
;M101
G1 X3.46 Y3.06 Z1.2 F2400.0 E1534.526
G1 X9.66 Y-3.73 Z1.2 F2400.0 E1546.027
G1 X7.06 Y-3.51 Z1.2 F2400.0 E1549.282
G1 X0.76 Y3.98 Z1.2 F2400.0 E1561.529
G1 X0.03 Y4.11 Z1.2 F2400.0 E1562.451
G1 X-1.21 Y4.17 Z1.2 F2400.0 E1564.002
G1 X6.42 Y-3.45 Z1.2 F2400.0 E1577.483
G1 X5.77 Y-3.4 Z1.2 F2400.0 E1578.297
G1 X-1.8 Y4.17 Z1.2 F2400.0 E1591.682
G1 X-2.39 Y4.17 Z1.2 F2400.0 E1592.424
G1 X5.12 Y-3.34 Z1.2 F2400.0 E1605.713
G1 X4.47 Y-3.29 Z1.2 F2400.0 E1606.526
G1 X-2.99 Y4.17 Z1.2 F2400.0 E1619.719
G1 X-3.58 Y4.17 Z1.2 F2400.0 E1620.462
G1 X3.82 Y-3.23 Z1.2 F2400.0 E1633.558
G1 X3.17 Y-3.17 Z1.2 F2400.0 E1634.371
G1 X-4.17 Y4.17 Z1.2 F2400.0 E1647.371
G1 X-4.77 Y4.18 Z1.2 F2400.0 E1648.115
G1 X2.53 Y-3.12 Z1.2 F2400.0 E1661.018
G1 X1.88 Y-3.06 Z1.2 F2400.0 E1661.832
G1 X-3.76 Y2.57 Z1.2 F2400.0 E1671.797
G1 X-4.95 Y3.18 Z1.2 F2400.0 E1673.479
G1 X-5.72 Y3.35 Z1.2 F2400.0 E1674.464
G1 X-6.35 Y3.39 Z1.2 F2400.0 E1675.248
G1 X-5.96 Y4.18 Z1.2 F2400.0 E1676.353
G1 X-6.55 Y4.18 Z1.2 F2400.0 E1677.096
G1 X-6.94 Y3.39 Z1.2 F2400.0 E1678.203
G1 X-7.14 Y4.18 Z1.2 F2400.0 E1679.228
G1 X-7.74 Y4.18 Z1.2 F2400.0 E1679.971
G1 X-7.53 Y3.39 Z1.2 F2400.0 E1680.999
G1 X-8.72 Y3.39 Z1.2 F2400.0 E1682.483
G1 X-8.33 Y4.18 Z1.2 F2400.0 E1683.592
G1 X-9.52 Y4.19 Z1.2 F2400.0 E1685.078
G1 X-9.31 Y3.39 Z1.2 F2400.0 E1686.112
G1 X-10.5 Y3.39 Z1.2 F2400.0 E1687.594
G1 X-10.11 Y4.19 Z1.2 F2400.0 E1688.707
G1 X-11.3 Y4.19 Z1.2 F2400.0 E1690.193
G1 X-11.07 Y3.37 Z1.2 F2400.0 E1691.256
G1 X-12.01 Y3.13 Z1.2 F2400.0 E1692.467
G1 X-12.12 Y3.53 Z1.2 F2400.0 E1692.991
G1 X-11.89 Y4.19 Z1.2 F2400.0 E1693.871
G1 X-12.49 Y4.2 Z1.2 F2400.0 E1694.614
G1 X-12.42 Y2.95 Z1.2 F2400.0 E1696.18
G1 X-13.49 Y2.23 Z1.2 F2400.0 E1697.783
G1 X-13.08 Y4.2 Z1.2 F2400.0 E1700.291
G1 X-14.22 Y4.15 Z1.2 F2400.0 E1701.721
G1 X-14.63 Y3.97 Z1.2 F2400.0 E1702.28
G1 X-14.9 Y3.65 Z1.2 F2400.0 E1702.805
G1 X-15.03 Y3.18 Z1.2 F2400.0 E1703.406
G1 X-13.95 Y2.1 Z1.2 F2400.0 E1705.318
;M103
G1 X-10.93 Y2.69 Z1.2 F3600.0
G1 X-5.95 Y2.69 Z1.2 F3600.0
G1 X-5.14 Y2.51 Z1.2 F3600.0
G1 X-4.67 Y2.32 Z1.2 F3600.0
G1 X-1.73 Y-0.05 Z1.2 F3600.0
;M101
G1 X1.23 Y-3.01 Z1.2 F2400.0 E1710.553
G1 X0.58 Y-2.95 Z1.2 F2400.0 E1711.367
G1 X-1.47 Y-0.9 Z1.2 F2400.0 E1715.001
G1 X-1.34 Y-1.63 Z1.2 F2400.0 E1715.929
G1 X-0.07 Y-2.9 Z1.2 F2400.0 E1718.174
G1 X-0.72 Y-2.84 Z1.2 F2400.0 E1718.988
G1 X-1.3 Y-2.25 Z1.2 F2400.0 E1720.03
;M103
G1 X14.82 Y-4.15 Z1.2 F3600.0
;M101
G1 X15.02 Y-3.77 Z1.2 F2400.0 E1720.577
G1 X14.7 Y-3.45 Z1.2 F2400.0 E1721.141
G1 X14.19 Y-4.12 Z1.2 F2400.0 E1722.199
G1 X12.25 Y-3.96 Z1.2 F2400.0 E1724.641
G1 X13.3 Y-2.63 Z1.2 F2400.0 E1726.751
G1 X10.49 Y-1.01 Z1.2 F2400.0 E1730.814
G1 X11.6 Y-3.9 Z1.2 F2400.0 E1734.689
G1 X10.3 Y-3.79 Z1.2 F2400.0 E1736.317
G1 X9.08 Y-0.2 Z1.2 F2400.0 E1741.065
G1 X4.86 Y2.25 Z1.2 F2400.0 E1747.16
;M103
G1 X5.06 Y2.54 Z1.2 F3600.0
;M101
G1 X5.04 Y2.55 Z1.2 F2400.0 E1747.189
G1 X3.41 Y3.5 Z1.2 F2400.0 E1749.547
G1 X1.93 Y4.08 Z1.2 F2400.0 E1751.532
G1 X0.38 Y4.43 Z1.2 F2400.0 E1753.528
G1 X-0.41 Y4.52 Z1.2 F2400.0 E1754.517
G1 X-14.06 Y4.55 Z1.2 F2400.0 E1771.592
G1 X-14.51 Y4.45 Z1.2 F2400.0 E1772.178
G1 X-14.91 Y4.22 Z1.2 F2400.0 E1772.75
G1 X-15.2 Y3.87 Z1.2 F2400.0 E1773.321
G1 X-15.36 Y3.44 Z1.2 F2400.0 E1773.896
G1 X-15.39 Y3.22 Z1.2 F2400.0 E1774.177
G1 X-15.37 Y2.87 Z1.2 F2400.0 E1774.616
G1 X-15.21 Y2.44 Z1.2 F2400.0 E1775.181
G1 X-14.91 Y2.09 Z1.2 F2400.0 E1775.754
G1 X-14.53 Y1.85 Z1.2 F2400.0 E1776.327
G1 X-14.08 Y1.74 Z1.2 F2400.0 E1776.899
G1 X-13.85 Y1.75 Z1.2 F2400.0 E1777.183
G1 X-13.32 Y1.91 Z1.2 F2400.0 E1777.885
G1 X-12.29 Y2.62 Z1.2 F2400.0 E1779.448
G1 X-11.81 Y2.82 Z1.2 F2400.0 E1780.098
G1 X-10.97 Y3.03 Z1.2 F2400.0 E1781.178
G1 X-5.91 Y3.03 Z1.2 F2400.0 E1787.507
G1 X-5.04 Y2.83 Z1.2 F2400.0 E1788.631
G1 X-4.51 Y2.62 Z1.2 F2400.0 E1789.337
G1 X-3.76 Y2.15 Z1.2 F2400.0 E1790.445
G1 X-2.93 Y1.34 Z1.2 F2400.0 E1791.896
G1 X-2.26 Y0.32 Z1.2 F2400.0 E1793.421
G1 X-1.89 Y-0.61 Z1.2 F2400.0 E1794.673
G1 X-1.67 Y-1.78 Z1.2 F2400.0 E1796.161
G1 X-1.66 Y-2.41 Z1.2 F2400.0 E1796.954
G1 X-1.6 Y-2.63 Z1.2 F2400.0 E1797.234
G1 X-1.46 Y-2.87 Z1.2 F2400.0 E1797.591
G1 X-1.24 Y-3.06 Z1.2 F2400.0 E1797.952
G1 X-0.99 Y-3.17 Z1.2 F2400.0 E1798.3
G1 X14.83 Y-4.54 Z1.2 F2400.0 E1818.161
G1 X15.06 Y-4.43 Z1.2 F2400.0 E1818.475
G1 X15.24 Y-4.26 Z1.2 F2400.0 E1818.786
G1 X15.36 Y-4.04 Z1.2 F2400.0 E1819.1
G1 X15.39 Y-3.79 Z1.2 F2400.0 E1819.413
G1 X15.34 Y-3.55 Z1.2 F2400.0 E1819.726
G1 X15.21 Y-3.33 Z1.2 F2400.0 E1820.039
G1 X5.06 Y2.54 Z1.2 F2400.0 E1834.707
;M103
;M108 S37.53
G1 X5.25 Y2.92 Z1.2 F3600.0
;M101
G1 X3.6 Y3.87 Z1.2 F1800.0 E1837.094
G1 X2.84 Y4.2 Z1.2 F1800.0 E1838.132
G1 X2.06 Y4.48 Z1.2 F1800.0 E1839.17
G1 X1.25 Y4.69 Z1.2 F1800.0 E1840.207
G1 X0.44 Y4.85 Z1.2 F1800.0 E1841.244
G1 X-0.38 Y4.94 Z1.2 F1800.0 E1842.282
G1 X-14.09 Y4.97 Z1.2 F1800.0 E1859.423
G1 X-14.39 Y4.93 Z1.2 F1800.0 E1859.802
G1 X-14.67 Y4.84 Z1.2 F1800.0 E1860.175
G1 X-14.94 Y4.71 Z1.2 F1800.0 E1860.549
G1 X-15.18 Y4.54 Z1.2 F1800.0 E1860.922
G1 X-15.39 Y4.32 Z1.2 F1800.0 E1861.296
G1 X-15.56 Y4.08 Z1.2 F1800.0 E1861.668
G1 X-15.69 Y3.81 Z1.2 F1800.0 E1862.043
G1 X-15.78 Y3.52 Z1.2 F1800.0 E1862.415
G1 X-15.81 Y3.23 Z1.2 F1800.0 E1862.792
G1 X-15.78 Y2.79 Z1.2 F1800.0 E1863.335
G1 X-15.7 Y2.5 Z1.2 F1800.0 E1863.714
G1 X-15.57 Y2.23 Z1.2 F1800.0 E1864.087
G1 X-15.4 Y1.99 Z1.2 F1800.0 E1864.46
G1 X-15.19 Y1.77 Z1.2 F1800.0 E1864.833
G1 X-14.95 Y1.6 Z1.2 F1800.0 E1865.206
G1 X-14.69 Y1.46 Z1.2 F1800.0 E1865.58
G1 X-14.4 Y1.37 Z1.2 F1800.0 E1865.952
G1 X-14.11 Y1.33 Z1.2 F1800.0 E1866.325
G1 X-13.8 Y1.33 Z1.2 F1800.0 E1866.706
G1 X-13.38 Y1.42 Z1.2 F1800.0 E1867.244
G1 X-13.1 Y1.55 Z1.2 F1800.0 E1867.626
G1 X-12.49 Y2.01 Z1.2 F1800.0 E1868.589
G1 X-12.09 Y2.24 Z1.2 F1800.0 E1869.164
G1 X-11.67 Y2.43 Z1.2 F1800.0 E1869.735
G1 X-10.92 Y2.61 Z1.2 F1800.0 E1870.707
G1 X-5.96 Y2.61 Z1.2 F1800.0 E1876.914
G1 X-5.16 Y2.43 Z1.2 F1800.0 E1877.936
G1 X-4.7 Y2.24 Z1.2 F1800.0 E1878.556
G1 X-4.01 Y1.82 Z1.2 F1800.0 E1879.578
G1 X-3.63 Y1.49 Z1.2 F1800.0 E1880.194
G1 X-3.25 Y1.08 Z1.2 F1800.0 E1880.899
G1 X-2.92 Y0.63 Z1.2 F1800.0 E1881.603
G1 X-2.64 Y0.14 Z1.2 F1800.0 E1882.303
G1 X-2.29 Y-0.73 Z1.2 F1800.0 E1883.48
G1 X-2.15 Y-1.31 Z1.2 F1800.0 E1884.218
G1 X-2.09 Y-1.81 Z1.2 F1800.0 E1884.847
G1 X-2.07 Y-2.47 Z1.2 F1800.0 E1885.674
G1 X-2.0 Y-2.77 Z1.2 F1800.0 E1886.066
G1 X-1.9 Y-2.96 Z1.2 F1800.0 E1886.334
G1 X-1.78 Y-3.14 Z1.2 F1800.0 E1886.6
G1 X-1.64 Y-3.29 Z1.2 F1800.0 E1886.864
G1 X-1.47 Y-3.42 Z1.2 F1800.0 E1887.13
G1 X-1.28 Y-3.52 Z1.2 F1800.0 E1887.395
G1 X-1.07 Y-3.59 Z1.2 F1800.0 E1887.666
G1 X14.74 Y-4.97 Z1.2 F1800.0 E1907.527
G1 X14.94 Y-4.94 Z1.2 F1800.0 E1907.773
G1 X15.12 Y-4.88 Z1.2 F1800.0 E1908.018
G1 X15.29 Y-4.78 Z1.2 F1800.0 E1908.265
G1 X15.45 Y-4.66 Z1.2 F1800.0 E1908.51
G1 X15.58 Y-4.51 Z1.2 F1800.0 E1908.756
G1 X15.68 Y-4.35 Z1.2 F1800.0 E1909.001
G1 X15.76 Y-4.17 Z1.2 F1800.0 E1909.248
G1 X15.8 Y-3.97 Z1.2 F1800.0 E1909.494
G1 X15.81 Y-3.78 Z1.2 F1800.0 E1909.739
G1 X15.79 Y-3.58 Z1.2 F1800.0 E1909.986
G1 X15.73 Y-3.39 Z1.2 F1800.0 E1910.231
G1 X15.65 Y-3.22 Z1.2 F1800.0 E1910.478
G1 X15.53 Y-3.06 Z1.2 F1800.0 E1910.724
G1 X15.39 Y-2.92 Z1.2 F1800.0 E1910.969
G1 X5.25 Y2.92 Z1.2 F1800.0 E1925.605
;M103
;M108 S50.04
G1 X14.6 Y-4.36 Z1.5 F3600.0
;M101
G1 X15.19 Y-3.76 Z1.5 F2400.0 E1926.652
G1 X14.98 Y-3.38 Z1.5 F2400.0 E1927.197
G1 X14.23 Y-2.95 Z1.5 F2400.0 E1928.281
G1 X14.06 Y-4.31 Z1.5 F2400.0 E1929.995
G1 X12.97 Y-4.21 Z1.5 F2400.0 E1931.363
G1 X13.86 Y-2.73 Z1.5 F2400.0 E1933.522
G1 X12.73 Y-2.08 Z1.5 F2400.0 E1935.151
G1 X12.42 Y-4.16 Z1.5 F2400.0 E1937.783
G1 X9.7 Y-3.93 Z1.5 F2400.0 E1941.203
G1 X12.35 Y-1.87 Z1.5 F2400.0 E1945.402
G1 X10.47 Y-0.78 Z1.5 F2400.0 E1948.115
G1 X9.15 Y-3.88 Z1.5 F2400.0 E1952.322
G1 X5.89 Y-3.59 Z1.5 F2400.0 E1956.424
G1 X10.1 Y-0.57 Z1.5 F2400.0 E1962.907
G1 X8.22 Y0.52 Z1.5 F2400.0 E1965.62
G1 X5.34 Y-3.54 Z1.5 F2400.0 E1971.842
G1 X3.71 Y-3.4 Z1.5 F2400.0 E1973.894
G1 X7.84 Y0.73 Z1.5 F2400.0 E1981.204
G1 X7.47 Y0.95 Z1.5 F2400.0 E1981.747
G1 X3.17 Y-3.35 Z1.5 F2400.0 E1989.355
G1 X2.62 Y-3.3 Z1.5 F2400.0 E1990.039
G1 X7.09 Y1.17 Z1.5 F2400.0 E1997.948
G1 X6.71 Y1.38 Z1.5 F2400.0 E1998.49
G1 X2.08 Y-3.26 Z1.5 F2400.0 E2006.696
G1 X1.53 Y-3.21 Z1.5 F2400.0 E2007.38
G1 X6.34 Y1.6 Z1.5 F2400.0 E2015.884
G1 X5.96 Y1.82 Z1.5 F2400.0 E2016.427
G1 X0.99 Y-3.16 Z1.5 F2400.0 E2025.229
G1 X0.44 Y-3.11 Z1.5 F2400.0 E2025.913
G1 X5.59 Y2.03 Z1.5 F2400.0 E2035.014
G1 X5.21 Y2.25 Z1.5 F2400.0 E2035.557
G1 X-0.1 Y-3.07 Z1.5 F2400.0 E2044.956
G1 X-0.65 Y-3.02 Z1.5 F2400.0 E2045.639
G1 X4.83 Y2.47 Z1.5 F2400.0 E2055.337
G1 X4.46 Y2.68 Z1.5 F2400.0 E2055.879
G1 X-1.13 Y-2.91 Z1.5 F2400.0 E2065.769
G1 X-1.41 Y-2.59 Z1.5 F2400.0 E2066.295
G1 X4.08 Y2.9 Z1.5 F2400.0 E2076.01
G1 X3.71 Y3.12 Z1.5 F2400.0 E2076.553
G1 X-1.48 Y-2.08 Z1.5 F2400.0 E2085.735
G1 X-1.72 Y-0.54 Z1.5 F2400.0 E2087.685
G1 X3.33 Y3.33 Z1.5 F2400.0 E2095.642
G1 X2.5 Y3.68 Z1.5 F2400.0 E2096.774
G1 X1.14 Y4.1 Z1.5 F2400.0 E2098.552
G1 X0.63 Y4.18 Z1.5 F2400.0 E2099.202
G1 X-1.88 Y-0.1 Z1.5 F2400.0 E2105.404
G1 X-2.5 Y1.06 Z1.5 F2400.0 E2107.046
G1 X-3.03 Y1.71 Z1.5 F2400.0 E2108.099
G1 X0.11 Y4.26 Z1.5 F2400.0 E2113.162
G1 X-0.41 Y4.33 Z1.5 F2400.0 E2113.813
G1 X-3.37 Y4.34 Z1.5 F2400.0 E2117.516
G1 X-3.32 Y2.02 Z1.5 F2400.0 E2120.42
G1 X-3.64 Y2.29 Z1.5 F2400.0 E2120.946
G1 X-4.37 Y2.74 Z1.5 F2400.0 E2122.022
G1 X-3.96 Y4.34 Z1.5 F2400.0 E2124.078
G1 X-4.55 Y4.34 Z1.5 F2400.0 E2124.819
G1 X-4.78 Y2.92 Z1.5 F2400.0 E2126.609
G1 X-5.23 Y3.07 Z1.5 F2400.0 E2127.201
G1 X-5.14 Y4.34 Z1.5 F2400.0 E2128.794
G1 X-5.74 Y4.34 Z1.5 F2400.0 E2129.535
G1 X-5.71 Y3.18 Z1.5 F2400.0 E2130.986
G1 X-6.86 Y3.21 Z1.5 F2400.0 E2132.423
G1 X-6.33 Y4.34 Z1.5 F2400.0 E2133.977
G1 X-8.11 Y4.34 Z1.5 F2400.0 E2136.2
G1 X-7.45 Y3.21 Z1.5 F2400.0 E2137.826
G1 X-9.23 Y3.21 Z1.5 F2400.0 E2140.048
G1 X-8.7 Y4.34 Z1.5 F2400.0 E2141.6
G1 X-10.48 Y4.34 Z1.5 F2400.0 E2143.823
G1 X-9.82 Y3.21 Z1.5 F2400.0 E2145.448
G1 X-11.0 Y3.21 Z1.5 F2400.0 E2146.929
G1 X-11.79 Y3.02 Z1.5 F2400.0 E2147.94
G1 X-11.07 Y4.33 Z1.5 F2400.0 E2149.812
G1 X-12.85 Y4.33 Z1.5 F2400.0 E2152.035
G1 X-13.08 Y2.32 Z1.5 F2400.0 E2154.569
G1 X-14.07 Y1.93 Z1.5 F2400.0 E2155.896
G1 X-14.52 Y2.06 Z1.5 F2400.0 E2156.494
G1 X-14.86 Y2.32 Z1.5 F2400.0 E2157.023
G1 X-15.1 Y2.68 Z1.5 F2400.0 E2157.559
G1 X-13.44 Y4.33 Z1.5 F2400.0 E2160.493
G1 X-14.03 Y4.33 Z1.5 F2400.0 E2161.233
G1 X-15.2 Y3.17 Z1.5 F2400.0 E2163.296
;M103
G1 X-15.48 Y3.63 Z1.5 F3600.0
;M101
G1 X-15.56 Y3.3 Z1.5 F2400.0 E2163.725
G1 X-15.54 Y2.83 Z1.5 F2400.0 E2164.315
G1 X-15.35 Y2.35 Z1.5 F2400.0 E2164.953
G1 X-15.03 Y1.96 Z1.5 F2400.0 E2165.589
G1 X-14.6 Y1.69 Z1.5 F2400.0 E2166.225
G1 X-14.11 Y1.57 Z1.5 F2400.0 E2166.859
G1 X-13.86 Y1.57 Z1.5 F2400.0 E2167.17
G1 X-13.45 Y1.66 Z1.5 F2400.0 E2167.699
G1 X-12.19 Y2.47 Z1.5 F2400.0 E2169.566
G1 X-11.72 Y2.67 Z1.5 F2400.0 E2170.201
G1 X-10.96 Y2.86 Z1.5 F2400.0 E2171.185
G1 X-5.91 Y2.86 Z1.5 F2400.0 E2177.499
G1 X-5.1 Y2.67 Z1.5 F2400.0 E2178.541
G1 X-4.58 Y2.46 Z1.5 F2400.0 E2179.248
G1 X-3.88 Y2.03 Z1.5 F2400.0 E2180.27
G1 X-3.46 Y1.67 Z1.5 F2400.0 E2180.959
G1 X-2.7 Y0.74 Z1.5 F2400.0 E2182.471
G1 X-2.27 Y-0.07 Z1.5 F2400.0 E2183.613
G1 X-2.06 Y-0.64 Z1.5 F2400.0 E2184.368
G1 X-1.84 Y-1.77 Z1.5 F2400.0 E2185.813
G1 X-1.83 Y-2.4 Z1.5 F2400.0 E2186.595
G1 X-1.75 Y-2.71 Z1.5 F2400.0 E2187.001
G1 X-1.59 Y-2.98 Z1.5 F2400.0 E2187.399
G1 X-1.33 Y-3.21 Z1.5 F2400.0 E2187.828
G1 X-1.03 Y-3.34 Z1.5 F2400.0 E2188.236
G1 X14.74 Y-4.72 Z1.5 F2400.0 E2208.043
G1 X15.02 Y-4.65 Z1.5 F2400.0 E2208.405
G1 X15.28 Y-4.48 Z1.5 F2400.0 E2208.792
G1 X15.46 Y-4.23 Z1.5 F2400.0 E2209.177
G1 X15.56 Y-3.94 Z1.5 F2400.0 E2209.564
G1 X15.55 Y-3.63 Z1.5 F2400.0 E2209.948
G1 X15.43 Y-3.34 Z1.5 F2400.0 E2210.337
G1 X15.25 Y-3.12 Z1.5 F2400.0 E2210.697
G1 X3.49 Y3.65 Z1.5 F2400.0 E2227.676
G1 X2.75 Y3.98 Z1.5 F2400.0 E2228.682
G1 X1.2 Y4.45 Z1.5 F2400.0 E2230.709
G1 X-0.4 Y4.69 Z1.5 F2400.0 E2232.728
G1 X-14.34 Y4.69 Z1.5 F2400.0 E2250.168
G1 X-14.81 Y4.5 Z1.5 F2400.0 E2250.804
G1 X-15.19 Y4.17 Z1.5 F2400.0 E2251.438
G1 X-15.45 Y3.74 Z1.5 F2400.0 E2252.063
G1 X-15.48 Y3.63 Z1.5 F2400.0 E2252.204
;M103
;M108 S37.53
G1 X-15.85 Y3.89 Z1.5 F3600.0
;M101
G1 X-15.98 Y3.36 Z1.5 F1800.0 E2252.887
G1 X-15.99 Y3.09 Z1.5 F1800.0 E2253.224
G1 X-15.95 Y2.75 Z1.5 F1800.0 E2253.654
G1 X-15.86 Y2.43 Z1.5 F1800.0 E2254.064
G1 X-15.72 Y2.14 Z1.5 F1800.0 E2254.468
G1 X-15.53 Y1.88 Z1.5 F1800.0 E2254.872
G1 X-15.31 Y1.64 Z1.5 F1800.0 E2255.276
G1 X-15.05 Y1.45 Z1.5 F1800.0 E2255.679
G1 X-14.76 Y1.3 Z1.5 F1800.0 E2256.083
G1 X-14.46 Y1.2 Z1.5 F1800.0 E2256.488
G1 X-14.14 Y1.15 Z1.5 F1800.0 E2256.89
G1 X-13.81 Y1.16 Z1.5 F1800.0 E2257.298
G1 X-13.31 Y1.26 Z1.5 F1800.0 E2257.937
G1 X-13.01 Y1.4 Z1.5 F1800.0 E2258.351
G1 X-12.38 Y1.87 Z1.5 F1800.0 E2259.328
G1 X-12.0 Y2.1 Z1.5 F1800.0 E2259.89
G1 X-11.59 Y2.27 Z1.5 F1800.0 E2260.447
G1 X-10.91 Y2.44 Z1.5 F1800.0 E2261.325
G1 X-5.96 Y2.44 Z1.5 F1800.0 E2267.516
G1 X-5.23 Y2.27 Z1.5 F1800.0 E2268.455
G1 X-4.77 Y2.08 Z1.5 F1800.0 E2269.076
G1 X-4.13 Y1.69 Z1.5 F1800.0 E2270.014
G1 X-3.75 Y1.37 Z1.5 F1800.0 E2270.63
G1 X-3.38 Y0.96 Z1.5 F1800.0 E2271.324
G1 X-3.05 Y0.51 Z1.5 F1800.0 E2272.018
G1 X-2.65 Y-0.24 Z1.5 F1800.0 E2273.087
G1 X-2.46 Y-0.76 Z1.5 F1800.0 E2273.775
G1 X-2.32 Y-1.34 Z1.5 F1800.0 E2274.516
G1 X-2.26 Y-1.8 Z1.5 F1800.0 E2275.107
G1 X-2.25 Y-2.44 Z1.5 F1800.0 E2275.899
G1 X-2.22 Y-2.65 Z1.5 F1800.0 E2276.167
G1 X-2.14 Y-2.87 Z1.5 F1800.0 E2276.461
G1 X-2.05 Y-3.06 Z1.5 F1800.0 E2276.72
G1 X-1.91 Y-3.25 Z1.5 F1800.0 E2277.02
G1 X-1.75 Y-3.42 Z1.5 F1800.0 E2277.318
G1 X-1.56 Y-3.57 Z1.5 F1800.0 E2277.615
G1 X-1.34 Y-3.68 Z1.5 F1800.0 E2277.915
G1 X-1.12 Y-3.75 Z1.5 F1800.0 E2278.213
G1 X14.76 Y-5.15 Z1.5 F1800.0 E2298.148
G1 X14.98 Y-5.11 Z1.5 F1800.0 E2298.43
G1 X15.19 Y-5.04 Z1.5 F1800.0 E2298.713
G1 X15.39 Y-4.93 Z1.5 F1800.0 E2298.996
G1 X15.57 Y-4.79 Z1.5 F1800.0 E2299.278
G1 X15.72 Y-4.62 Z1.5 F1800.0 E2299.561
G1 X15.84 Y-4.43 Z1.5 F1800.0 E2299.842
G1 X15.92 Y-4.22 Z1.5 F1800.0 E2300.125
G1 X15.97 Y-4.0 Z1.5 F1800.0 E2300.408
G1 X15.98 Y-3.77 Z1.5 F1800.0 E2300.69
G1 X15.96 Y-3.55 Z1.5 F1800.0 E2300.972
G1 X15.89 Y-3.33 Z1.5 F1800.0 E2301.255
G1 X15.79 Y-3.13 Z1.5 F1800.0 E2301.538
G1 X15.66 Y-2.94 Z1.5 F1800.0 E2301.82
G1 X15.5 Y-2.79 Z1.5 F1800.0 E2302.102
G1 X3.67 Y4.03 Z1.5 F1800.0 E2319.178
G1 X2.9 Y4.37 Z1.5 F1800.0 E2320.232
G1 X2.11 Y4.64 Z1.5 F1800.0 E2321.286
G1 X1.29 Y4.86 Z1.5 F1800.0 E2322.339
G1 X0.47 Y5.02 Z1.5 F1800.0 E2323.392
G1 X-0.37 Y5.11 Z1.5 F1800.0 E2324.446
G1 X-14.1 Y5.15 Z1.5 F1800.0 E2341.625
G1 X-14.43 Y5.1 Z1.5 F1800.0 E2342.036
G1 X-14.74 Y5.0 Z1.5 F1800.0 E2342.439
G1 X-15.03 Y4.86 Z1.5 F1800.0 E2342.844
G1 X-15.29 Y4.67 Z1.5 F1800.0 E2343.248
G1 X-15.51 Y4.44 Z1.5 F1800.0 E2343.65
G1 X-15.7 Y4.18 Z1.5 F1800.0 E2344.055
G1 X-15.85 Y3.89 Z1.5 F1800.0 E2344.461
;M103
;M108 S50.04
G1 X-5.27 Y2.9 Z1.8 F3600.0
;M101
G1 X-6.0 Y3.04 Z1.8 F2400.0 E2345.393
G1 X-7.78 Y3.04 Z1.8 F2400.0 E2347.619
G1 X-7.49 Y4.53 Z1.8 F2400.0 E2349.515
G1 X-8.68 Y4.53 Z1.8 F2400.0 E2351.001
G1 X-8.37 Y3.04 Z1.8 F2400.0 E2352.905
G1 X-9.56 Y3.04 Z1.8 F2400.0 E2354.389
G1 X-9.27 Y4.53 Z1.8 F2400.0 E2356.289
G1 X-10.46 Y4.53 Z1.8 F2400.0 E2357.774
G1 X-10.15 Y3.04 Z1.8 F2400.0 E2359.683
G1 X-10.74 Y3.04 Z1.8 F2400.0 E2360.424
G1 X-11.27 Y2.98 Z1.8 F2400.0 E2361.092
G1 X-11.05 Y4.54 Z1.8 F2400.0 E2363.059
G1 X-12.24 Y4.54 Z1.8 F2400.0 E2364.546
G1 X-11.73 Y2.85 Z1.8 F2400.0 E2366.754
G1 X-12.16 Y2.68 Z1.8 F2400.0 E2367.326
G1 X-12.9 Y2.24 Z1.8 F2400.0 E2368.405
G1 X-12.83 Y4.54 Z1.8 F2400.0 E2371.29
G1 X-14.02 Y4.54 Z1.8 F2400.0 E2372.775
G1 X-14.51 Y4.44 Z1.8 F2400.0 E2373.4
G1 X-14.88 Y4.22 Z1.8 F2400.0 E2373.94
G1 X-15.15 Y3.9 Z1.8 F2400.0 E2374.465
G1 X-15.33 Y3.49 Z1.8 F2400.0 E2375.028
G1 X-13.26 Y2.01 Z1.8 F2400.0 E2378.217
G1 X-13.65 Y1.81 Z1.8 F2400.0 E2378.768
G1 X-14.23 Y1.79 Z1.8 F2400.0 E2379.488
G1 X-15.34 Y2.9 Z1.8 F2400.0 E2381.46
;M103
G1 X-5.27 Y2.19 Z1.8 F3600.0
G1 X1.59 Y-0.4 Z1.8 F3600.0
;M101
G1 X-0.19 Y-0.4 Z1.8 F2400.0 E2383.683
G1 X-3.33 Y4.52 Z1.8 F2400.0 E2390.987
G1 X-6.9 Y4.53 Z1.8 F2400.0 E2395.445
G1 X-4.27 Y2.49 Z1.8 F2400.0 E2399.605
;M103
G1 X-2.74 Y4.51 Z1.8 F3600.0
;M101
G1 X-0.96 Y4.51 Z1.8 F2400.0 E2401.833
G1 X2.18 Y-0.4 Z1.8 F2400.0 E2409.128
G1 X3.37 Y-0.4 Z1.8 F2400.0 E2410.609
;M103
G1 X4.55 Y-0.4 Z1.8 F3600.0
;M101
G1 X3.96 Y-0.4 Z1.8 F2400.0 E2411.35
G1 X-0.36 Y4.51 Z1.8 F2400.0 E2419.527
G1 X1.84 Y4.09 Z1.8 F2400.0 E2422.32
G1 X3.91 Y3.2 Z1.8 F2400.0 E2425.149
G1 X5.14 Y-0.4 Z1.8 F2400.0 E2429.907
G1 X5.48 Y-0.16 Z1.8 F2400.0 E2430.431
G1 X6.03 Y-0.7 Z1.8 F2400.0 E2431.403
G1 X10.69 Y-4.17 Z1.8 F2400.0 E2438.663
G1 X6.8 Y-3.83 Z1.8 F2400.0 E2443.547
G1 X6.83 Y-3.42 Z1.8 F2400.0 E2444.071
G1 X6.03 Y-1.89 Z1.8 F2400.0 E2446.23
G1 X6.03 Y-3.07 Z1.8 F2400.0 E2447.712
G1 X6.15 Y-3.78 Z1.8 F2400.0 E2448.607
G1 X5.57 Y-3.2 Z1.8 F2400.0 E2449.633
G1 X5.5 Y-3.72 Z1.8 F2400.0 E2450.295
G1 X4.97 Y-3.2 Z1.8 F2400.0 E2451.225
G1 X4.85 Y-3.67 Z1.8 F2400.0 E2451.833
G1 X4.38 Y-3.19 Z1.8 F2400.0 E2452.669
G1 X4.2 Y-3.61 Z1.8 F2400.0 E2453.236
G1 X3.78 Y-3.19 Z1.8 F2400.0 E2453.977
G1 X3.55 Y-3.55 Z1.8 F2400.0 E2454.514
G1 X3.19 Y-3.19 Z1.8 F2400.0 E2455.161
G1 X2.91 Y-3.5 Z1.8 F2400.0 E2455.686
G1 X2.59 Y-3.19 Z1.8 F2400.0 E2456.238
G1 X2.26 Y-3.44 Z1.8 F2400.0 E2456.767
G1 X2.0 Y-3.18 Z1.8 F2400.0 E2457.224
G1 X1.61 Y-3.39 Z1.8 F2400.0 E2457.773
G1 X1.4 Y-3.18 Z1.8 F2400.0 E2458.136
G1 X0.96 Y-3.33 Z1.8 F2400.0 E2458.722
G1 X0.81 Y-3.18 Z1.8 F2400.0 E2458.989
G1 X0.31 Y-3.27 Z1.8 F2400.0 E2459.622
G1 X0.21 Y-3.18 Z1.8 F2400.0 E2459.795
;M103
G1 X-0.12 Y-2.53 Z1.8 F3600.0
G1 X5.2 Y-2.36 Z1.8 F3600.0
G1 X5.2 Y-1.24 Z1.8 F3600.0
G1 X-0.43 Y-1.1 Z1.8 F3600.0
G1 X-0.78 Y-0.4 Z1.8 F3600.0
;M101
G1 X-1.37 Y-0.4 Z1.8 F2400.0 E2460.537
G1 X-2.46 Y0.68 Z1.8 F2400.0 E2462.456
;M103
G1 X15.17 Y-3.33 Z1.8 F3600.0
;M101
G1 X15.1 Y-3.25 Z1.8 F2400.0 E2462.586
G1 X15.32 Y-4.07 Z1.8 F2400.0 E2463.644
G1 X15.07 Y-4.41 Z1.8 F2400.0 E2464.173
G1 X14.58 Y-4.51 Z1.8 F2400.0 E2464.801
G1 X12.63 Y-4.34 Z1.8 F2400.0 E2467.243
G1 X13.7 Y-2.45 Z1.8 F2400.0 E2469.961
G1 X10.91 Y-0.84 Z1.8 F2400.0 E2473.999
G1 X11.98 Y-4.28 Z1.8 F2400.0 E2478.516
G1 X11.33 Y-4.22 Z1.8 F2400.0 E2479.329
G1 X9.51 Y-0.03 Z1.8 F2400.0 E2485.055
G1 X5.31 Y2.39 Z1.8 F2400.0 E2491.112
;M103
G1 X5.34 Y2.79 Z1.8 F3600.0
;M101
G1 X3.56 Y3.81 Z1.8 F2400.0 E2493.678
G1 X2.04 Y4.41 Z1.8 F2400.0 E2495.729
G1 X0.43 Y4.78 Z1.8 F2400.0 E2497.787
G1 X-0.38 Y4.87 Z1.8 F2400.0 E2498.81
G1 X-14.09 Y4.9 Z1.8 F2400.0 E2515.96
G1 X-14.64 Y4.78 Z1.8 F2400.0 E2516.669
G1 X-15.12 Y4.49 Z1.8 F2400.0 E2517.367
G1 X-15.48 Y4.06 Z1.8 F2400.0 E2518.065
G1 X-15.7 Y3.54 Z1.8 F2400.0 E2518.77
G1 X-15.74 Y3.04 Z1.8 F2400.0 E2519.394
G1 X-15.62 Y2.51 Z1.8 F2400.0 E2520.071
G1 X-15.34 Y2.03 Z1.8 F2400.0 E2520.768
G1 X-14.92 Y1.66 Z1.8 F2400.0 E2521.467
G1 X-14.41 Y1.45 Z1.8 F2400.0 E2522.164
G1 X-13.85 Y1.4 Z1.8 F2400.0 E2522.868
G1 X-13.39 Y1.5 Z1.8 F2400.0 E2523.454
G1 X-12.09 Y2.33 Z1.8 F2400.0 E2525.382
G1 X-11.44 Y2.58 Z1.8 F2400.0 E2526.254
G1 X-10.94 Y2.68 Z1.8 F2400.0 E2526.895
G1 X-5.91 Y2.68 Z1.8 F2400.0 E2533.184
G1 X-5.17 Y2.51 Z1.8 F2400.0 E2534.143
G1 X-4.65 Y2.3 Z1.8 F2400.0 E2534.842
G1 X-4.17 Y2.02 Z1.8 F2400.0 E2535.532
G1 X-3.59 Y1.55 Z1.8 F2400.0 E2536.47
G1 X-2.83 Y0.62 Z1.8 F2400.0 E2537.97
G1 X-2.44 Y-0.1 Z1.8 F2400.0 E2539.0
G1 X-2.21 Y-0.76 Z1.8 F2400.0 E2539.87
G1 X5.68 Y-0.76 Z1.8 F2400.0 E2549.737
G1 X5.68 Y-2.84 Z1.8 F2400.0 E2552.344
G1 X-1.15 Y-2.86 Z1.8 F2400.0 E2560.883
G1 X-1.5 Y-3.33 Z1.8 F2400.0 E2561.614
G1 X-1.58 Y-3.24 Z1.8 F2400.0 E2561.767
G1 X-1.42 Y-3.36 Z1.8 F2400.0 E2562.013
G1 X-1.07 Y-3.51 Z1.8 F2400.0 E2562.489
G1 X14.75 Y-4.9 Z1.8 F2400.0 E2582.364
G1 X14.92 Y-4.87 Z1.8 F2400.0 E2582.574
G1 X15.25 Y-4.72 Z1.8 F2400.0 E2583.031
G1 X15.52 Y-4.47 Z1.8 F2400.0 E2583.489
G1 X15.69 Y-4.14 Z1.8 F2400.0 E2583.95
G1 X15.74 Y-3.78 Z1.8 F2400.0 E2584.406
G1 X15.66 Y-3.42 Z1.8 F2400.0 E2584.866
G1 X15.48 Y-3.11 Z1.8 F2400.0 E2585.324
G1 X15.36 Y-2.99 Z1.8 F2400.0 E2585.533
G1 X5.49 Y2.7 Z1.8 F2400.0 E2599.78
G1 X5.34 Y2.79 Z1.8 F2400.0 E2599.998
;M103
;M108 S37.53
G1 X5.7 Y3.06 Z1.8 F3600.0
;M101
G1 X3.75 Y4.18 Z1.8 F1800.0 E2602.812
G1 X2.97 Y4.53 Z1.8 F1800.0 E2603.883
G1 X2.16 Y4.81 Z1.8 F1800.0 E2604.953
G1 X1.33 Y5.03 Z1.8 F1800.0 E2606.023
G1 X0.49 Y5.19 Z1.8 F1800.0 E2607.091
G1 X-0.36 Y5.29 Z1.8 F1800.0 E2608.162
G1 X-14.12 Y5.32 Z1.8 F1800.0 E2625.379
G1 X-14.47 Y5.27 Z1.8 F1800.0 E2625.821
G1 X-14.8 Y5.17 Z1.8 F1800.0 E2626.254
G1 X-15.11 Y5.01 Z1.8 F1800.0 E2626.689
G1 X-15.39 Y4.81 Z1.8 F1800.0 E2627.123
G1 X-15.64 Y4.56 Z1.8 F1800.0 E2627.558
G1 X-15.84 Y4.28 Z1.8 F1800.0 E2627.991
G1 X-16.0 Y3.97 Z1.8 F1800.0 E2628.425
G1 X-16.11 Y3.64 Z1.8 F1800.0 E2628.863
G1 X-16.15 Y3.37 Z1.8 F1800.0 E2629.202
G1 X-16.16 Y3.02 Z1.8 F1800.0 E2629.64
G1 X-16.11 Y2.7 Z1.8 F1800.0 E2630.039
G1 X-16.02 Y2.36 Z1.8 F1800.0 E2630.483
G1 X-15.87 Y2.05 Z1.8 F1800.0 E2630.917
G1 X-15.67 Y1.77 Z1.8 F1800.0 E2631.351
G1 X-15.43 Y1.52 Z1.8 F1800.0 E2631.785
G1 X-15.15 Y1.31 Z1.8 F1800.0 E2632.22
G1 X-14.84 Y1.15 Z1.8 F1800.0 E2632.654
G1 X-14.51 Y1.04 Z1.8 F1800.0 E2633.088
G1 X-14.17 Y0.98 Z1.8 F1800.0 E2633.522
G1 X-13.82 Y0.98 Z1.8 F1800.0 E2633.958
G1 X-13.54 Y1.02 Z1.8 F1800.0 E2634.307
G1 X-13.25 Y1.11 Z1.8 F1800.0 E2634.694
G1 X-12.92 Y1.25 Z1.8 F1800.0 E2635.145
G1 X-12.28 Y1.73 Z1.8 F1800.0 E2636.137
G1 X-11.91 Y1.95 Z1.8 F1800.0 E2636.68
G1 X-11.32 Y2.18 Z1.8 F1800.0 E2637.465
G1 X-10.9 Y2.27 Z1.8 F1800.0 E2638.01
G1 X-5.96 Y2.26 Z1.8 F1800.0 E2644.185
G1 X-5.29 Y2.11 Z1.8 F1800.0 E2645.043
G1 X-4.83 Y1.92 Z1.8 F1800.0 E2645.663
G1 X-4.41 Y1.68 Z1.8 F1800.0 E2646.276
G1 X-3.88 Y1.25 Z1.8 F1800.0 E2647.134
G1 X-3.51 Y0.84 Z1.8 F1800.0 E2647.818
G1 X-3.19 Y0.4 Z1.8 F1800.0 E2648.5
G1 X-2.83 Y-0.28 Z1.8 F1800.0 E2649.46
G1 X-2.64 Y-0.79 Z1.8 F1800.0 E2650.139
G1 X-2.54 Y-1.18 Z1.8 F1800.0 E2650.645
G1 X5.26 Y-1.18 Z1.8 F1800.0 E2660.4
G1 X5.26 Y-2.43 Z1.8 F1800.0 E2661.962
G1 X-2.42 Y-2.43 Z1.8 F1800.0 E2671.57
G1 X-2.38 Y-2.69 Z1.8 F1800.0 E2671.902
G1 X-2.31 Y-2.91 Z1.8 F1800.0 E2672.195
G1 X-2.19 Y-3.15 Z1.8 F1800.0 E2672.528
G1 X-2.04 Y-3.37 Z1.8 F1800.0 E2672.858
G1 X-1.86 Y-3.56 Z1.8 F1800.0 E2673.191
G1 X-1.65 Y-3.72 Z1.8 F1800.0 E2673.521
G1 X-1.41 Y-3.84 Z1.8 F1800.0 E2673.858
G1 X-1.16 Y-3.92 Z1.8 F1800.0 E2674.182
G1 X14.77 Y-5.32 Z1.8 F1800.0 E2694.187
G1 X15.02 Y-5.28 Z1.8 F1800.0 E2694.507
G1 X15.26 Y-5.19 Z1.8 F1800.0 E2694.825
G1 X15.49 Y-5.07 Z1.8 F1800.0 E2695.145
G1 X15.69 Y-4.91 Z1.8 F1800.0 E2695.464
G1 X15.86 Y-4.72 Z1.8 F1800.0 E2695.783
G1 X15.99 Y-4.51 Z1.8 F1800.0 E2696.101
G1 X16.09 Y-4.27 Z1.8 F1800.0 E2696.422
G1 X16.14 Y-4.02 Z1.8 F1800.0 E2696.74
G1 X16.16 Y-3.77 Z1.8 F1800.0 E2697.058
G1 X16.13 Y-3.51 Z1.8 F1800.0 E2697.378
G1 X16.06 Y-3.27 Z1.8 F1800.0 E2697.698
G1 X15.94 Y-3.04 Z1.8 F1800.0 E2698.017
G1 X15.79 Y-2.83 Z1.8 F1800.0 E2698.335
G1 X15.61 Y-2.65 Z1.8 F1800.0 E2698.654
G1 X5.7 Y3.06 Z1.8 F1800.0 E2712.968
;M103
;M108 S50.04
G1 X5.52 Y-0.4 Z2.1 F3600.0
;M101
G1 X6.03 Y-0.48 Z2.1 F2400.0 E2713.616
G1 X7.72 Y1.2 Z2.1 F2400.0 E2716.597
G1 X5.46 Y2.5 Z2.1 F2400.0 E2719.852
G1 X4.93 Y-0.4 Z2.1 F2400.0 E2723.548
G1 X1.37 Y-0.4 Z2.1 F2400.0 E2727.994
G1 X5.09 Y2.72 Z2.1 F2400.0 E2734.062
G1 X3.17 Y3.77 Z2.1 F2400.0 E2736.793
G1 X0.78 Y-0.4 Z2.1 F2400.0 E2742.805
G1 X-1.0 Y-0.4 Z2.1 F2400.0 E2745.028
G1 X2.75 Y3.93 Z2.1 F2400.0 E2752.194
G1 X1.89 Y4.26 Z2.1 F2400.0 E2753.345
G1 X0.92 Y4.47 Z2.1 F2400.0 E2754.582
G1 X-1.59 Y-0.4 Z2.1 F2400.0 E2761.446
G1 X-2.15 Y-0.38 Z2.1 F2400.0 E2762.152
G1 X-2.32 Y0.05 Z2.1 F2400.0 E2762.727
G1 X-2.75 Y0.81 Z2.1 F2400.0 E2763.812
G1 X-3.28 Y1.46 Z2.1 F2400.0 E2764.866
G1 X0.44 Y4.59 Z2.1 F2400.0 E2770.938
G1 X-2.42 Y4.69 Z2.1 F2400.0 E2774.517
G1 X-2.42 Y4.27 Z2.1 F2400.0 E2775.041
G1 X-3.56 Y1.77 Z2.1 F2400.0 E2778.477
G1 X-4.24 Y2.27 Z2.1 F2400.0 E2779.536
G1 X-3.01 Y4.69 Z2.1 F2400.0 E2782.927
G1 X-4.79 Y4.69 Z2.1 F2400.0 E2785.145
G1 X-4.62 Y2.49 Z2.1 F2400.0 E2787.913
G1 X-5.04 Y2.66 Z2.1 F2400.0 E2788.481
G1 X-6.02 Y2.86 Z2.1 F2400.0 E2789.734
G1 X-7.21 Y2.86 Z2.1 F2400.0 E2791.215
G1 X-5.38 Y4.69 Z2.1 F2400.0 E2794.455
G1 X-8.33 Y4.7 Z2.1 F2400.0 E2798.152
G1 X-7.8 Y2.86 Z2.1 F2400.0 E2800.545
G1 X-9.57 Y2.87 Z2.1 F2400.0 E2802.765
G1 X-8.92 Y4.7 Z2.1 F2400.0 E2805.202
G1 X-10.7 Y4.71 Z2.1 F2400.0 E2807.422
G1 X-10.7 Y4.29 Z2.1 F2400.0 E2807.945
G1 X-10.17 Y2.87 Z2.1 F2400.0 E2809.842
G1 X-10.76 Y2.87 Z2.1 F2400.0 E2810.581
G1 X-11.46 Y2.76 Z2.1 F2400.0 E2811.464
G1 X-11.29 Y4.71 Z2.1 F2400.0 E2813.908
G1 X-12.47 Y4.71 Z2.1 F2400.0 E2815.387
G1 X-12.58 Y2.23 Z2.1 F2400.0 E2818.489
G1 X-13.8 Y1.6 Z2.1 F2400.0 E2820.212
G1 X-14.35 Y1.64 Z2.1 F2400.0 E2820.906
G1 X-14.77 Y1.81 Z2.1 F2400.0 E2821.474
G1 X-15.11 Y2.07 Z2.1 F2400.0 E2822.002
G1 X-15.36 Y2.41 Z2.1 F2400.0 E2822.532
G1 X-15.52 Y2.84 Z2.1 F2400.0 E2823.106
G1 X-13.06 Y4.71 Z2.1 F2400.0 E2826.977
G1 X-14.29 Y4.67 Z2.1 F2400.0 E2828.517
G1 X-15.52 Y3.44 Z2.1 F2400.0 E2830.688
;M103
G1 X-5.34 Y2.03 Z2.1 F3600.0
G1 X-4.86 Y1.84 Z2.1 F3600.0
G1 X-4.42 Y1.58 Z2.1 F3600.0
G1 X-3.94 Y1.18 Z2.1 F3600.0
G1 X-3.57 Y0.78 Z2.1 F3600.0
G1 X-3.3 Y0.4 Z2.1 F3600.0
G1 X2.51 Y-1.1 Z2.1 F3600.0
G1 X5.2 Y-1.24 Z2.1 F3600.0
G1 X5.34 Y-2.07 Z2.1 F3600.0
G1 X14.86 Y-4.69 Z2.1 F3600.0
;M101
G1 X15.51 Y-4.04 Z2.1 F2400.0 E2831.854
G1 X15.48 Y-3.48 Z2.1 F2400.0 E2832.554
G1 X15.23 Y-3.13 Z2.1 F2400.0 E2833.085
G1 X14.48 Y-2.7 Z2.1 F2400.0 E2834.17
G1 X14.31 Y-4.65 Z2.1 F2400.0 E2836.618
G1 X11.04 Y-4.37 Z2.1 F2400.0 E2840.729
G1 X14.11 Y-2.48 Z2.1 F2400.0 E2845.236
G1 X11.85 Y-1.18 Z2.1 F2400.0 E2848.491
G1 X10.49 Y-4.32 Z2.1 F2400.0 E2852.77
G1 X7.76 Y-4.09 Z2.1 F2400.0 E2856.195
G1 X11.48 Y-0.97 Z2.1 F2400.0 E2862.265
G1 X9.6 Y0.12 Z2.1 F2400.0 E2864.978
G1 X7.22 Y-4.04 Z2.1 F2400.0 E2870.972
G1 X5.03 Y-3.85 Z2.1 F2400.0 E2873.712
G1 X5.09 Y-3.2 Z2.1 F2400.0 E2874.531
G1 X4.5 Y-3.2 Z2.1 F2400.0 E2875.275
G1 X4.49 Y-3.81 Z2.1 F2400.0 E2876.028
G1 X3.4 Y-3.71 Z2.1 F2400.0 E2877.398
G1 X3.9 Y-3.21 Z2.1 F2400.0 E2878.295
G1 X3.31 Y-3.21 Z2.1 F2400.0 E2879.04
G1 X2.85 Y-3.67 Z2.1 F2400.0 E2879.85
G1 X2.71 Y-3.21 Z2.1 F2400.0 E2880.445
G1 X2.31 Y-3.62 Z2.1 F2400.0 E2881.168
G1 X2.12 Y-3.21 Z2.1 F2400.0 E2881.727
G1 X1.76 Y-3.57 Z2.1 F2400.0 E2882.364
G1 X1.52 Y-3.22 Z2.1 F2400.0 E2882.899
G1 X1.21 Y-3.53 Z2.1 F2400.0 E2883.45
G1 X0.93 Y-3.22 Z2.1 F2400.0 E2883.975
G1 X0.67 Y-3.48 Z2.1 F2400.0 E2884.437
G1 X0.34 Y-3.22 Z2.1 F2400.0 E2884.965
G1 X0.12 Y-3.43 Z2.1 F2400.0 E2885.341
G1 X-0.26 Y-3.22 Z2.1 F2400.0 E2885.886
G1 X-0.42 Y-3.39 Z2.1 F2400.0 E2886.177
G1 X-0.86 Y-3.22 Z2.1 F2400.0 E2886.753
G1 X-0.97 Y-3.34 Z2.1 F2400.0 E2886.955
;M103
G1 X5.69 Y-3.2 Z2.1 F3600.0
;M101
G1 X6.03 Y-2.85 Z2.1 F2400.0 E2887.566
G1 X6.03 Y-1.08 Z2.1 F2400.0 E2889.789
G1 X8.09 Y0.99 Z2.1 F2400.0 E2893.436
G1 X9.22 Y0.34 Z2.1 F2400.0 E2895.063
;M103
G1 X9.52 Y0.57 Z2.1 F3600.0
;M101
G1 X9.4 Y0.64 Z2.1 F2400.0 E2895.245
G1 X3.64 Y3.97 Z2.1 F2400.0 E2903.566
G1 X2.09 Y4.57 Z2.1 F2400.0 E2905.648
G1 X0.46 Y4.95 Z2.1 F2400.0 E2907.74
G1 X-0.37 Y5.04 Z2.1 F2400.0 E2908.779
G1 X-14.12 Y5.07 Z2.1 F2400.0 E2925.986
G1 X-14.71 Y4.93 Z2.1 F2400.0 E2926.738
G1 X-15.23 Y4.62 Z2.1 F2400.0 E2927.497
G1 X-15.63 Y4.16 Z2.1 F2400.0 E2928.257
G1 X-15.86 Y3.6 Z2.1 F2400.0 E2929.019
G1 X-15.91 Y3.03 Z2.1 F2400.0 E2929.73
G1 X-15.87 Y2.73 Z2.1 F2400.0 E2930.117
G1 X-15.65 Y2.17 Z2.1 F2400.0 E2930.862
G1 X-15.27 Y1.7 Z2.1 F2400.0 E2931.622
G1 X-14.75 Y1.38 Z2.1 F2400.0 E2932.383
G1 X-14.2 Y1.23 Z2.1 F2400.0 E2933.092
G1 X-13.85 Y1.23 Z2.1 F2400.0 E2933.534
G1 X-13.31 Y1.35 Z2.1 F2400.0 E2934.228
G1 X-11.99 Y2.18 Z2.1 F2400.0 E2936.18
G1 X-11.42 Y2.4 Z2.1 F2400.0 E2936.943
G1 X-10.93 Y2.51 Z2.1 F2400.0 E2937.575
G1 X-5.91 Y2.51 Z2.1 F2400.0 E2943.859
G1 X-5.23 Y2.35 Z2.1 F2400.0 E2944.724
G1 X-4.71 Y2.14 Z2.1 F2400.0 E2945.426
G1 X-4.23 Y1.85 Z2.1 F2400.0 E2946.127
G1 X-3.71 Y1.43 Z2.1 F2400.0 E2946.97
G1 X-2.96 Y0.51 Z2.1 F2400.0 E2948.449
G1 X-2.62 Y-0.13 Z2.1 F2400.0 E2949.361
G1 X-2.39 Y-0.76 Z2.1 F2400.0 E2950.196
G1 X5.68 Y-0.76 Z2.1 F2400.0 E2960.287
G1 X5.68 Y-2.84 Z2.1 F2400.0 E2962.893
G1 X-1.86 Y-2.87 Z2.1 F2400.0 E2972.315
G1 X-1.89 Y-3.15 Z2.1 F2400.0 E2972.667
G1 X-1.69 Y-3.37 Z2.1 F2400.0 E2973.042
G1 X-1.51 Y-3.51 Z2.1 F2400.0 E2973.328
G1 X-1.11 Y-3.68 Z2.1 F2400.0 E2973.868
G1 X14.77 Y-5.07 Z2.1 F2400.0 E2993.809
G1 X14.96 Y-5.04 Z2.1 F2400.0 E2994.053
G1 X15.35 Y-4.87 Z2.1 F2400.0 E2994.585
G1 X15.66 Y-4.57 Z2.1 F2400.0 E2995.118
G1 X15.85 Y-4.2 Z2.1 F2400.0 E2995.647
G1 X15.91 Y-3.77 Z2.1 F2400.0 E2996.179
G1 X15.82 Y-3.36 Z2.1 F2400.0 E2996.712
G1 X15.61 Y-2.99 Z2.1 F2400.0 E2997.242
G1 X15.47 Y-2.86 Z2.1 F2400.0 E2997.486
G1 X9.52 Y0.57 Z2.1 F2400.0 E3006.069
;M103
;M108 S37.53
G1 X9.61 Y1.01 Z2.1 F3600.0
;M101
G1 X3.83 Y4.34 Z2.1 F1800.0 E3014.419
G1 X3.03 Y4.69 Z2.1 F1800.0 E3015.505
G1 X2.21 Y4.97 Z2.1 F1800.0 E3016.591
G1 X1.37 Y5.2 Z2.1 F1800.0 E3017.678
G1 X0.52 Y5.36 Z2.1 F1800.0 E3018.762
G1 X-0.35 Y5.46 Z2.1 F1800.0 E3019.85
G1 X-14.15 Y5.49 Z2.1 F1800.0 E3037.124
G1 X-14.51 Y5.44 Z2.1 F1800.0 E3037.577
G1 X-14.87 Y5.33 Z2.1 F1800.0 E3038.042
G1 X-15.2 Y5.16 Z2.1 F1800.0 E3038.507
G1 X-15.5 Y4.94 Z2.1 F1800.0 E3038.971
G1 X-15.77 Y4.68 Z2.1 F1800.0 E3039.437
G1 X-15.98 Y4.38 Z2.1 F1800.0 E3039.9
G1 X-16.15 Y4.05 Z2.1 F1800.0 E3040.365
G1 X-16.27 Y3.7 Z2.1 F1800.0 E3040.83
G1 X-16.33 Y3.33 Z2.1 F1800.0 E3041.297
G1 X-16.33 Y3.01 Z2.1 F1800.0 E3041.702
G1 X-16.28 Y2.64 Z2.1 F1800.0 E3042.168
G1 X-16.18 Y2.3 Z2.1 F1800.0 E3042.616
G1 X-16.01 Y1.96 Z2.1 F1800.0 E3043.081
G1 X-15.8 Y1.66 Z2.1 F1800.0 E3043.546
G1 X-15.54 Y1.39 Z2.1 F1800.0 E3044.01
G1 X-15.25 Y1.17 Z2.1 F1800.0 E3044.474
G1 X-14.92 Y0.99 Z2.1 F1800.0 E3044.94
G1 X-14.57 Y0.87 Z2.1 F1800.0 E3045.405
G1 X-14.24 Y0.82 Z2.1 F1800.0 E3045.813
G1 X-13.83 Y0.81 Z2.1 F1800.0 E3046.337
G1 X-13.5 Y0.85 Z2.1 F1800.0 E3046.745
G1 X-13.16 Y0.95 Z2.1 F1800.0 E3047.193
G1 X-12.82 Y1.11 Z2.1 F1800.0 E3047.655
G1 X-12.17 Y1.59 Z2.1 F1800.0 E3048.673
G1 X-11.81 Y1.81 Z2.1 F1800.0 E3049.197
G1 X-11.3 Y2.0 Z2.1 F1800.0 E3049.876
G1 X-10.89 Y2.09 Z2.1 F1800.0 E3050.41
G1 X-5.95 Y2.09 Z2.1 F1800.0 E3056.58
G1 X-5.36 Y1.95 Z2.1 F1800.0 E3057.344
G1 X-4.9 Y1.76 Z2.1 F1800.0 E3057.965
G1 X-4.47 Y1.51 Z2.1 F1800.0 E3058.588
G1 X-4.0 Y1.12 Z2.1 F1800.0 E3059.351
G1 X-3.63 Y0.72 Z2.1 F1800.0 E3060.026
G1 X-3.32 Y0.29 Z2.1 F1800.0 E3060.699
G1 X-3.0 Y-0.31 Z2.1 F1800.0 E3061.544
G1 X-2.81 Y-0.81 Z2.1 F1800.0 E3062.218
G1 X-2.72 Y-1.18 Z2.1 F1800.0 E3062.691
G1 X5.26 Y-1.18 Z2.1 F1800.0 E3072.668
G1 X5.26 Y-2.43 Z2.1 F1800.0 E3074.23
G1 X-2.6 Y-2.43 Z2.1 F1800.0 E3084.055
G1 X-2.55 Y-2.73 Z2.1 F1800.0 E3084.44
G1 X-2.46 Y-3.01 Z2.1 F1800.0 E3084.802
G1 X-2.33 Y-3.26 Z2.1 F1800.0 E3085.161
G1 X-2.17 Y-3.49 Z2.1 F1800.0 E3085.512
G1 X-1.97 Y-3.69 Z2.1 F1800.0 E3085.865
G1 X-1.73 Y-3.87 Z2.1 F1800.0 E3086.236
G1 X-1.47 Y-4.0 Z2.1 F1800.0 E3086.602
G1 X-1.2 Y-4.09 Z2.1 F1800.0 E3086.962
G1 X14.79 Y-5.49 Z2.1 F1800.0 E3107.032
G1 X15.07 Y-5.45 Z2.1 F1800.0 E3107.387
G1 X15.33 Y-5.35 Z2.1 F1800.0 E3107.742
G1 X15.58 Y-5.21 Z2.1 F1800.0 E3108.098
G1 X15.81 Y-5.04 Z2.1 F1800.0 E3108.454
G1 X15.99 Y-4.83 Z2.1 F1800.0 E3108.809
G1 X16.15 Y-4.58 Z2.1 F1800.0 E3109.165
G1 X16.25 Y-4.32 Z2.1 F1800.0 E3109.52
G1 X16.32 Y-4.04 Z2.1 F1800.0 E3109.877
G1 X16.33 Y-3.76 Z2.1 F1800.0 E3110.232
G1 X16.3 Y-3.48 Z2.1 F1800.0 E3110.588
G1 X16.22 Y-3.21 Z2.1 F1800.0 E3110.943
G1 X16.09 Y-2.95 Z2.1 F1800.0 E3111.299
G1 X15.93 Y-2.72 Z2.1 F1800.0 E3111.654
G1 X15.72 Y-2.52 Z2.1 F1800.0 E3112.009
G1 X9.61 Y1.01 Z2.1 F1800.0 E3120.841
;M103
;M108 S50.04
G1 X15.58 Y-4.32 Z2.4 F3600.0
;M101
G1 X15.31 Y-4.65 Z2.4 F2400.0 E3121.368
G1 X14.92 Y-4.85 Z2.4 F2400.0 E3121.915
G1 X11.37 Y-0.71 Z2.4 F2400.0 E3128.747
;M103
G1 X15.71 Y-3.86 Z2.4 F3600.0
;M101
G1 X14.17 Y-2.32 Z2.4 F2400.0 E3131.476
G1 X12.77 Y-1.51 Z2.4 F2400.0 E3133.498
;M103
G1 X12.38 Y-4.68 Z2.4 F3600.0
;M101
G1 X10.43 Y-4.5 Z2.4 F2400.0 E3135.944
G1 X10.46 Y-4.09 Z2.4 F2400.0 E3136.468
G1 X6.33 Y-0.41 Z2.4 F2400.0 E3143.394
G1 X5.74 Y-0.4 Z2.4 F2400.0 E3144.137
G1 X4.37 Y3.33 Z2.4 F2400.0 E3149.112
G1 X3.12 Y3.99 Z2.4 F2400.0 E3150.887
G1 X1.35 Y4.58 Z2.4 F2400.0 E3153.216
G1 X-0.07 Y4.81 Z2.4 F2400.0 E3155.01
G1 X5.14 Y-0.4 Z2.4 F2400.0 E3164.229
G1 X1.59 Y-0.4 Z2.4 F2400.0 E3168.676
G1 X-0.71 Y4.86 Z2.4 F2400.0 E3175.855
G1 X-4.27 Y4.86 Z2.4 F2400.0 E3180.313
G1 X1.0 Y-0.4 Z2.4 F2400.0 E3189.633
G1 X-1.37 Y-0.4 Z2.4 F2400.0 E3192.598
G1 X-4.44 Y2.66 Z2.4 F2400.0 E3198.014
G1 X-5.17 Y2.71 Z2.4 F2400.0 E3198.937
G1 X-4.87 Y4.87 Z2.4 F2400.0 E3201.664
G1 X-6.65 Y4.87 Z2.4 F2400.0 E3203.893
G1 X-6.24 Y2.69 Z2.4 F2400.0 E3206.67
G1 X-7.43 Y2.69 Z2.4 F2400.0 E3208.155
G1 X-7.24 Y4.87 Z2.4 F2400.0 E3210.893
G1 X-10.21 Y4.88 Z2.4 F2400.0 E3214.607
G1 X-8.02 Y2.69 Z2.4 F2400.0 E3218.478
G1 X-10.98 Y2.69 Z2.4 F2400.0 E3222.183
G1 X-10.8 Y4.88 Z2.4 F2400.0 E3224.93
G1 X-14.32 Y4.84 Z2.4 F2400.0 E3229.324
G1 X-11.47 Y2.58 Z2.4 F2400.0 E3233.869
G1 X-11.9 Y2.42 Z2.4 F2400.0 E3234.444
G1 X-13.37 Y1.52 Z2.4 F2400.0 E3236.602
G1 X-13.86 Y1.42 Z2.4 F2400.0 E3237.226
G1 X-14.76 Y4.69 Z2.4 F2400.0 E3241.471
G1 X-15.12 Y4.46 Z2.4 F2400.0 E3242.008
G1 X-15.4 Y4.14 Z2.4 F2400.0 E3242.533
G1 X-15.6 Y3.75 Z2.4 F2400.0 E3243.084
G1 X-15.7 Y3.26 Z2.4 F2400.0 E3243.709
G1 X-15.63 Y2.59 Z2.4 F2400.0 E3244.553
G1 X-14.55 Y1.52 Z2.4 F2400.0 E3246.455
;M103
G1 X-10.88 Y2.0 Z2.4 F3600.0
G1 X-5.95 Y1.99 Z2.4 F3600.0
G1 X-5.4 Y1.87 Z2.4 F3600.0
G1 X-2.64 Y0.27 Z2.4 F3600.0
;M101
G1 X-1.97 Y-0.4 Z2.4 F2400.0 E3247.642
;M103
G1 X-1.79 Y-1.1 Z2.4 F3600.0
G1 X5.2 Y-1.24 Z2.4 F3600.0
G1 X5.2 Y-2.36 Z2.4 F3600.0
G1 X-1.63 Y-2.54 Z2.4 F3600.0
G1 X-1.44 Y-3.3 Z2.4 F3600.0
;M101
G1 X-1.35 Y-3.39 Z2.4 F2400.0 E3247.806
G1 X-0.92 Y-3.22 Z2.4 F2400.0 E3248.379
G1 X-0.61 Y-3.54 Z2.4 F2400.0 E3248.933
G1 X-0.33 Y-3.22 Z2.4 F2400.0 E3249.457
G1 X0.04 Y-3.59 Z2.4 F2400.0 E3250.116
G1 X0.26 Y-3.22 Z2.4 F2400.0 E3250.658
G1 X0.69 Y-3.65 Z2.4 F2400.0 E3251.422
G1 X0.85 Y-3.22 Z2.4 F2400.0 E3251.999
G1 X1.34 Y-3.71 Z2.4 F2400.0 E3252.866
G1 X1.44 Y-3.22 Z2.4 F2400.0 E3253.494
G1 X1.99 Y-3.76 Z2.4 F2400.0 E3254.465
G1 X2.03 Y-3.21 Z2.4 F2400.0 E3255.156
G1 X2.62 Y-3.21 Z2.4 F2400.0 E3255.894
G1 X2.64 Y-3.82 Z2.4 F2400.0 E3256.658
G1 X3.29 Y-3.88 Z2.4 F2400.0 E3257.474
G1 X3.21 Y-3.21 Z2.4 F2400.0 E3258.318
G1 X4.39 Y-3.2 Z2.4 F2400.0 E3259.795
G1 X3.94 Y-3.94 Z2.4 F2400.0 E3260.872
G1 X5.23 Y-4.05 Z2.4 F2400.0 E3262.503
G1 X4.98 Y-3.2 Z2.4 F2400.0 E3263.61
G1 X5.57 Y-3.2 Z2.4 F2400.0 E3264.348
G1 X6.03 Y-3.07 Z2.4 F2400.0 E3264.949
G1 X5.88 Y-4.11 Z2.4 F2400.0 E3266.257
G1 X9.78 Y-4.45 Z2.4 F2400.0 E3271.15
G1 X9.82 Y-4.03 Z2.4 F2400.0 E3271.673
G1 X6.03 Y-2.48 Z2.4 F2400.0 E3276.789
G1 X6.03 Y-1.29 Z2.4 F2400.0 E3278.271
;M103
G1 X5.77 Y2.52 Z2.4 F3600.0
;M101
G1 X9.97 Y0.1 Z2.4 F2400.0 E3284.336
G1 X13.03 Y-4.73 Z2.4 F2400.0 E3291.491
G1 X14.32 Y-4.85 Z2.4 F2400.0 E3293.122
;M103
G1 X14.66 Y-5.23 Z2.4 F3600.0
;M101
G1 X14.78 Y-5.24 Z2.4 F2400.0 E3293.271
G1 X15.0 Y-5.21 Z2.4 F2400.0 E3293.553
G1 X15.45 Y-5.01 Z2.4 F2400.0 E3294.157
G1 X15.8 Y-4.68 Z2.4 F2400.0 E3294.762
G1 X16.02 Y-4.25 Z2.4 F2400.0 E3295.366
G1 X16.08 Y-3.77 Z2.4 F2400.0 E3295.971
G1 X15.99 Y-3.29 Z2.4 F2400.0 E3296.576
G1 X15.74 Y-2.88 Z2.4 F2400.0 E3297.181
G1 X15.58 Y-2.72 Z2.4 F2400.0 E3297.462
G1 X3.71 Y4.12 Z2.4 F2400.0 E3314.597
G1 X2.94 Y4.46 Z2.4 F2400.0 E3315.652
G1 X1.32 Y4.96 Z2.4 F2400.0 E3317.777
G1 X-0.36 Y5.21 Z2.4 F2400.0 E3319.892
G1 X-14.14 Y5.24 Z2.4 F2400.0 E3337.131
G1 X-14.77 Y5.1 Z2.4 F2400.0 E3337.949
G1 X-15.34 Y4.76 Z2.4 F2400.0 E3338.771
G1 X-15.77 Y4.26 Z2.4 F2400.0 E3339.594
G1 X-16.02 Y3.67 Z2.4 F2400.0 E3340.394
G1 X-16.08 Y3.02 Z2.4 F2400.0 E3341.218
G1 X-15.94 Y2.38 Z2.4 F2400.0 E3342.035
G1 X-15.61 Y1.81 Z2.4 F2400.0 E3342.858
G1 X-15.12 Y1.38 Z2.4 F2400.0 E3343.681
G1 X-14.51 Y1.11 Z2.4 F2400.0 E3344.505
G1 X-13.88 Y1.05 Z2.4 F2400.0 E3345.308
G1 X-13.23 Y1.19 Z2.4 F2400.0 E3346.131
G1 X-11.9 Y2.04 Z2.4 F2400.0 E3348.109
G1 X-11.4 Y2.23 Z2.4 F2400.0 E3348.777
G1 X-10.92 Y2.34 Z2.4 F2400.0 E3349.392
G1 X-5.91 Y2.33 Z2.4 F2400.0 E3355.666
G1 X-5.3 Y2.19 Z2.4 F2400.0 E3356.45
G1 X-4.77 Y1.98 Z2.4 F2400.0 E3357.155
G1 X-4.25 Y1.66 Z2.4 F2400.0 E3357.919
G1 X-3.83 Y1.3 Z2.4 F2400.0 E3358.614
G1 X-3.44 Y0.87 Z2.4 F2400.0 E3359.344
G1 X-2.82 Y-0.11 Z2.4 F2400.0 E3360.79
G1 X-2.57 Y-0.76 Z2.4 F2400.0 E3361.662
G1 X5.68 Y-0.76 Z2.4 F2400.0 E3371.976
G1 X5.68 Y-2.84 Z2.4 F2400.0 E3374.582
G1 X-2.1 Y-2.87 Z2.4 F2400.0 E3384.31
G1 X-2.16 Y-3.05 Z2.4 F2400.0 E3384.542
G1 X-1.97 Y-3.34 Z2.4 F2400.0 E3384.975
G1 X-1.6 Y-3.66 Z2.4 F2400.0 E3385.596
G1 X-1.15 Y-3.85 Z2.4 F2400.0 E3386.198
G1 X14.29 Y-5.2 Z2.4 F2400.0 E3405.595
G1 X14.66 Y-5.23 Z2.4 F2400.0 E3406.061
;M103
;M108 S37.53
G1 X14.8 Y-5.67 Z2.4 F3600.0
;M101
G1 X15.11 Y-5.61 Z2.4 F1800.0 E3406.453
G1 X15.4 Y-5.51 Z2.4 F1800.0 E3406.845
G1 X15.68 Y-5.36 Z2.4 F1800.0 E3407.237
G1 X15.92 Y-5.16 Z2.4 F1800.0 E3407.629
G1 X16.13 Y-4.93 Z2.4 F1800.0 E3408.021
G1 X16.3 Y-4.66 Z2.4 F1800.0 E3408.414
G1 X16.42 Y-4.37 Z2.4 F1800.0 E3408.805
G1 X16.49 Y-4.07 Z2.4 F1800.0 E3409.199
G1 X16.5 Y-3.75 Z2.4 F1800.0 E3409.591
G1 X16.47 Y-3.44 Z2.4 F1800.0 E3409.982
G1 X16.38 Y-3.14 Z2.4 F1800.0 E3410.375
G1 X16.24 Y-2.86 Z2.4 F1800.0 E3410.768
G1 X16.06 Y-2.61 Z2.4 F1800.0 E3411.16
G1 X15.83 Y-2.39 Z2.4 F1800.0 E3411.552
G1 X3.9 Y4.5 Z2.4 F1800.0 E3428.785
G1 X3.09 Y4.85 Z2.4 F1800.0 E3429.888
G1 X2.26 Y5.14 Z2.4 F1800.0 E3430.989
G1 X1.41 Y5.37 Z2.4 F1800.0 E3432.093
G1 X0.54 Y5.53 Z2.4 F1800.0 E3433.194
G1 X-0.33 Y5.63 Z2.4 F1800.0 E3434.297
G1 X-14.17 Y5.66 Z2.4 F1800.0 E3451.603
G1 X-14.55 Y5.61 Z2.4 F1800.0 E3452.093
G1 X-14.93 Y5.49 Z2.4 F1800.0 E3452.587
G1 X-15.29 Y5.31 Z2.4 F1800.0 E3453.083
G1 X-15.61 Y5.08 Z2.4 F1800.0 E3453.578
G1 X-15.89 Y4.8 Z2.4 F1800.0 E3454.073
G1 X-16.13 Y4.48 Z2.4 F1800.0 E3454.569
G1 X-16.31 Y4.13 Z2.4 F1800.0 E3455.065
G1 X-16.43 Y3.78 Z2.4 F1800.0 E3455.533
G1 X-16.5 Y3.39 Z2.4 F1800.0 E3456.028
G1 X-16.5 Y2.99 Z2.4 F1800.0 E3456.524
G1 X-16.45 Y2.6 Z2.4 F1800.0 E3457.02
G1 X-16.33 Y2.23 Z2.4 F1800.0 E3457.507
G1 X-16.16 Y1.87 Z2.4 F1800.0 E3458.003
G1 X-15.94 Y1.55 Z2.4 F1800.0 E3458.496
G1 X-15.66 Y1.26 Z2.4 F1800.0 E3458.993
G1 X-15.34 Y1.02 Z2.4 F1800.0 E3459.488
G1 X-14.99 Y0.84 Z2.4 F1800.0 E3459.984
G1 X-14.62 Y0.71 Z2.4 F1800.0 E3460.479
G1 X-14.25 Y0.64 Z2.4 F1800.0 E3460.949
G1 X-13.85 Y0.63 Z2.4 F1800.0 E3461.446
G1 X-13.46 Y0.68 Z2.4 F1800.0 E3461.941
G1 X-13.08 Y0.8 Z2.4 F1800.0 E3462.436
G1 X-12.73 Y0.96 Z2.4 F1800.0 E3462.921
G1 X-12.07 Y1.46 Z2.4 F1800.0 E3463.957
G1 X-11.72 Y1.66 Z2.4 F1800.0 E3464.464
G1 X-11.28 Y1.83 Z2.4 F1800.0 E3465.051
G1 X-10.88 Y1.92 Z2.4 F1800.0 E3465.568
G1 X-5.96 Y1.91 Z2.4 F1800.0 E3471.723
G1 X-5.42 Y1.79 Z2.4 F1800.0 E3472.405
G1 X-4.96 Y1.6 Z2.4 F1800.0 E3473.028
G1 X-4.5 Y1.32 Z2.4 F1800.0 E3473.71
G1 X-4.12 Y1.0 Z2.4 F1800.0 E3474.33
G1 X-3.76 Y0.61 Z2.4 F1800.0 E3474.993
G1 X-3.45 Y0.18 Z2.4 F1800.0 E3475.654
G1 X-3.2 Y-0.29 Z2.4 F1800.0 E3476.317
G1 X-2.98 Y-0.84 Z2.4 F1800.0 E3477.054
G1 X-2.89 Y-1.18 Z2.4 F1800.0 E3477.496
G1 X5.26 Y-1.18 Z2.4 F1800.0 E3487.694
G1 X5.26 Y-2.43 Z2.4 F1800.0 E3489.256
G1 X-2.77 Y-2.43 Z2.4 F1800.0 E3499.298
G1 X-2.72 Y-2.79 Z2.4 F1800.0 E3499.752
G1 X-2.62 Y-3.07 Z2.4 F1800.0 E3500.13
G1 X-2.48 Y-3.35 Z2.4 F1800.0 E3500.524
G1 X-2.29 Y-3.61 Z2.4 F1800.0 E3500.918
G1 X-2.07 Y-3.83 Z2.4 F1800.0 E3501.311
G1 X-1.82 Y-4.02 Z2.4 F1800.0 E3501.704
G1 X-1.54 Y-4.16 Z2.4 F1800.0 E3502.097
G1 X-1.24 Y-4.26 Z2.4 F1800.0 E3502.49
G1 X14.26 Y-5.62 Z2.4 F1800.0 E3521.95
G1 X14.8 Y-5.67 Z2.4 F1800.0 E3522.632
;M103
;M108 S50.04
G1 X15.27 Y-4.87 Z2.7 F3600.0
;M101
G1 X15.73 Y-4.42 Z2.7 F2400.0 E3523.43
G1 X15.87 Y-3.68 Z2.7 F2400.0 E3524.365
G1 X15.73 Y-3.23 Z2.7 F2400.0 E3524.962
G1 X15.47 Y-2.89 Z2.7 F2400.0 E3525.489
G1 X15.1 Y-2.67 Z2.7 F2400.0 E3526.028
G1 X14.52 Y-5.03 Z2.7 F2400.0 E3529.063
G1 X11.25 Y-4.74 Z2.7 F2400.0 E3533.167
G1 X14.73 Y-2.45 Z2.7 F2400.0 E3538.367
G1 X12.47 Y-1.15 Z2.7 F2400.0 E3541.623
G1 X10.71 Y-4.69 Z2.7 F2400.0 E3546.569
G1 X7.99 Y-4.45 Z2.7 F2400.0 E3549.989
G1 X12.1 Y-0.94 Z2.7 F2400.0 E3556.756
G1 X10.22 Y0.15 Z2.7 F2400.0 E3559.469
G1 X7.44 Y-4.41 Z2.7 F2400.0 E3566.14
G1 X5.26 Y-4.22 Z2.7 F2400.0 E3568.875
G1 X5.09 Y-3.2 Z2.7 F2400.0 E3570.162
G1 X4.5 Y-3.2 Z2.7 F2400.0 E3570.904
G1 X4.72 Y-4.17 Z2.7 F2400.0 E3572.143
G1 X3.63 Y-4.07 Z2.7 F2400.0 E3573.51
G1 X3.91 Y-3.2 Z2.7 F2400.0 E3574.653
G1 X2.72 Y-3.2 Z2.7 F2400.0 E3576.136
G1 X3.08 Y-4.03 Z2.7 F2400.0 E3577.26
G1 X2.0 Y-3.93 Z2.7 F2400.0 E3578.628
G1 X2.13 Y-3.21 Z2.7 F2400.0 E3579.548
G1 X0.94 Y-3.21 Z2.7 F2400.0 E3581.033
G1 X1.45 Y-3.88 Z2.7 F2400.0 E3582.091
G1 X-0.18 Y-3.74 Z2.7 F2400.0 E3584.143
G1 X0.35 Y-3.21 Z2.7 F2400.0 E3585.083
G1 X-0.25 Y-3.21 Z2.7 F2400.0 E3585.825
G1 X-0.73 Y-3.69 Z2.7 F2400.0 E3586.679
G1 X-0.84 Y-3.21 Z2.7 F2400.0 E3587.298
G1 X-1.25 Y-3.62 Z2.7 F2400.0 E3588.016
G1 X-1.61 Y-3.39 Z2.7 F2400.0 E3588.555
G1 X-1.43 Y-3.21 Z2.7 F2400.0 E3588.871
;M103
G1 X-1.08 Y-2.53 Z2.7 F3600.0
G1 X5.2 Y-2.36 Z2.7 F3600.0
G1 X5.2 Y-1.24 Z2.7 F3600.0
G1 X-0.77 Y-1.1 Z2.7 F3600.0
G1 X-0.4 Y-0.4 Z2.7 F3600.0
;M101
G1 X1.37 Y-0.4 Z2.7 F2400.0 E3591.096
G1 X3.83 Y3.83 Z2.7 F2400.0 E3597.222
G1 X5.71 Y2.75 Z2.7 F2400.0 E3599.935
G1 X1.97 Y-0.4 Z2.7 F2400.0 E3606.058
G1 X5.52 Y-0.4 Z2.7 F2400.0 E3610.504
G1 X6.09 Y2.53 Z2.7 F2400.0 E3614.243
G1 X8.34 Y1.23 Z2.7 F2400.0 E3617.498
G1 X6.03 Y-0.48 Z2.7 F2400.0 E3621.095
G1 X6.03 Y-2.85 Z2.7 F2400.0 E3624.059
G1 X8.72 Y1.01 Z2.7 F2400.0 E3629.947
G1 X9.84 Y0.36 Z2.7 F2400.0 E3631.575
;M103
G1 X-2.58 Y-0.21 Z2.7 F3600.0
;M101
G1 X-2.18 Y-0.4 Z2.7 F2400.0 E3632.127
G1 X-1.0 Y-0.4 Z2.7 F2400.0 E3633.61
G1 X3.44 Y4.03 Z2.7 F2400.0 E3641.459
G1 X1.23 Y4.78 Z2.7 F2400.0 E3644.382
G1 X0.2 Y4.93 Z2.7 F2400.0 E3645.685
G1 X-2.78 Y0.18 Z2.7 F2400.0 E3652.7
G1 X-3.23 Y0.91 Z2.7 F2400.0 E3653.776
G1 X-4.13 Y1.8 Z2.7 F2400.0 E3655.348
G1 X-0.32 Y5.01 Z2.7 F2400.0 E3661.58
G1 X-3.87 Y5.02 Z2.7 F2400.0 E3666.023
G1 X-4.49 Y2.03 Z2.7 F2400.0 E3669.841
G1 X-5.31 Y2.39 Z2.7 F2400.0 E3670.967
G1 X-5.79 Y2.5 Z2.7 F2400.0 E3671.583
G1 X-6.96 Y2.52 Z2.7 F2400.0 E3673.039
G1 X-4.46 Y5.01 Z2.7 F2400.0 E3677.45
G1 X-8.02 Y5.01 Z2.7 F2400.0 E3681.903
G1 X-7.55 Y2.52 Z2.7 F2400.0 E3685.071
G1 X-11.14 Y2.49 Z2.7 F2400.0 E3689.566
G1 X-8.62 Y5.01 Z2.7 F2400.0 E3694.031
G1 X-11.58 Y5.01 Z2.7 F2400.0 E3697.742
G1 X-12.06 Y2.16 Z2.7 F2400.0 E3701.352
G1 X-13.49 Y1.33 Z2.7 F2400.0 E3703.419
G1 X-14.16 Y1.25 Z2.7 F2400.0 E3704.263
G1 X-14.64 Y1.36 Z2.7 F2400.0 E3704.881
G1 X-15.03 Y1.55 Z2.7 F2400.0 E3705.435
G1 X-15.35 Y1.83 Z2.7 F2400.0 E3705.959
G1 X-15.6 Y2.17 Z2.7 F2400.0 E3706.49
G1 X-12.18 Y5.0 Z2.7 F2400.0 E3712.048
G1 X-14.62 Y4.93 Z2.7 F2400.0 E3715.108
G1 X-15.79 Y3.76 Z2.7 F2400.0 E3717.181
G1 X-15.89 Y3.07 Z2.7 F2400.0 E3718.055
G1 X-15.79 Y2.57 Z2.7 F2400.0 E3718.683
;M103
G1 X-16.07 Y2.27 Z2.7 F3600.0
;M101
G1 X-15.74 Y1.71 Z2.7 F2400.0 E3719.5
G1 X-15.49 Y1.45 Z2.7 F2400.0 E3719.943
G1 X-15.21 Y1.24 Z2.7 F2400.0 E3720.386
G1 X-14.9 Y1.07 Z2.7 F2400.0 E3720.827
G1 X-14.56 Y0.96 Z2.7 F2400.0 E3721.272
G1 X-14.22 Y0.89 Z2.7 F2400.0 E3721.715
G1 X-13.86 Y0.88 Z2.7 F2400.0 E3722.156
G1 X-13.51 Y0.93 Z2.7 F2400.0 E3722.601
G1 X-13.17 Y1.03 Z2.7 F2400.0 E3723.041
G1 X-11.81 Y1.9 Z2.7 F2400.0 E3725.066
G1 X-11.37 Y2.07 Z2.7 F2400.0 E3725.645
G1 X-10.91 Y2.17 Z2.7 F2400.0 E3726.244
G1 X-5.91 Y2.16 Z2.7 F2400.0 E3732.493
G1 X-5.36 Y2.03 Z2.7 F2400.0 E3733.208
G1 X-4.84 Y1.82 Z2.7 F2400.0 E3733.903
G1 X-4.37 Y1.54 Z2.7 F2400.0 E3734.599
G1 X-3.94 Y1.18 Z2.7 F2400.0 E3735.287
G1 X-3.56 Y0.76 Z2.7 F2400.0 E3736.006
G1 X-2.96 Y-0.21 Z2.7 F2400.0 E3737.427
G1 X-2.74 Y-0.76 Z2.7 F2400.0 E3738.169
G1 X5.68 Y-0.76 Z2.7 F2400.0 E3748.7
G1 X5.68 Y-2.84 Z2.7 F2400.0 E3751.307
G1 X-1.73 Y-2.85 Z2.7 F2400.0 E3760.575
G1 X-2.24 Y-3.25 Z2.7 F2400.0 E3761.377
G1 X-1.91 Y-3.64 Z2.7 F2400.0 E3762.016
G1 X-1.44 Y-3.93 Z2.7 F2400.0 E3762.702
G1 X-1.19 Y-4.01 Z2.7 F2400.0 E3763.026
G1 X14.8 Y-5.41 Z2.7 F2400.0 E3783.105
G1 X15.3 Y-5.28 Z2.7 F2400.0 E3783.756
G1 X15.75 Y-4.98 Z2.7 F2400.0 E3784.43
G1 X16.07 Y-4.55 Z2.7 F2400.0 E3785.105
G1 X16.23 Y-4.03 Z2.7 F2400.0 E3785.779
G1 X16.22 Y-3.49 Z2.7 F2400.0 E3786.454
G1 X16.02 Y-2.99 Z2.7 F2400.0 E3787.128
G1 X15.68 Y-2.6 Z2.7 F2400.0 E3787.78
G1 X3.78 Y4.27 Z2.7 F2400.0 E3804.967
G1 X3.0 Y4.61 Z2.7 F2400.0 E3806.037
G1 X1.35 Y5.12 Z2.7 F2400.0 E3808.193
G1 X-0.34 Y5.38 Z2.7 F2400.0 E3810.338
G1 X-14.5 Y5.36 Z2.7 F2400.0 E3828.046
G1 X-14.84 Y5.25 Z2.7 F2400.0 E3828.49
G1 X-15.15 Y5.09 Z2.7 F2400.0 E3828.932
G1 X-15.44 Y4.89 Z2.7 F2400.0 E3829.375
G1 X-15.7 Y4.64 Z2.7 F2400.0 E3829.818
G1 X-15.91 Y4.36 Z2.7 F2400.0 E3830.261
G1 X-16.07 Y4.04 Z2.7 F2400.0 E3830.705
G1 X-16.18 Y3.71 Z2.7 F2400.0 E3831.146
G1 X-16.24 Y3.36 Z2.7 F2400.0 E3831.59
G1 X-16.25 Y3.01 Z2.7 F2400.0 E3832.032
G1 X-16.1 Y2.32 Z2.7 F2400.0 E3832.916
G1 X-16.07 Y2.27 Z2.7 F2400.0 E3832.982
;M103
;M108 S37.53
G1 X-16.49 Y2.16 Z2.7 F3600.0
;M101
G1 X-16.3 Y1.79 Z2.7 F1800.0 E3833.505
G1 X-16.06 Y1.44 Z2.7 F1800.0 E3834.031
G1 X-15.77 Y1.14 Z2.7 F1800.0 E3834.556
G1 X-15.44 Y0.89 Z2.7 F1800.0 E3835.081
G1 X-15.07 Y0.69 Z2.7 F1800.0 E3835.605
G1 X-14.67 Y0.55 Z2.7 F1800.0 E3836.132
G1 X-14.26 Y0.47 Z2.7 F1800.0 E3836.656
G1 X-13.84 Y0.47 Z2.7 F1800.0 E3837.18
G1 X-13.42 Y0.52 Z2.7 F1800.0 E3837.706
G1 X-13.02 Y0.64 Z2.7 F1800.0 E3838.23
G1 X-12.64 Y0.82 Z2.7 F1800.0 E3838.756
G1 X-11.97 Y1.32 Z2.7 F1800.0 E3839.802
G1 X-11.62 Y1.52 Z2.7 F1800.0 E3840.302
G1 X-11.25 Y1.67 Z2.7 F1800.0 E3840.802
G1 X-10.86 Y1.75 Z2.7 F1800.0 E3841.304
G1 X-5.96 Y1.75 Z2.7 F1800.0 E3847.431
G1 X-5.48 Y1.63 Z2.7 F1800.0 E3848.046
G1 X-5.03 Y1.45 Z2.7 F1800.0 E3848.661
G1 X-4.61 Y1.19 Z2.7 F1800.0 E3849.274
G1 X-4.23 Y0.88 Z2.7 F1800.0 E3849.886
G1 X-3.88 Y0.49 Z2.7 F1800.0 E3850.538
G1 X-3.59 Y0.07 Z2.7 F1800.0 E3851.185
G1 X-3.34 Y-0.38 Z2.7 F1800.0 E3851.833
G1 X-3.15 Y-0.87 Z2.7 F1800.0 E3852.48
G1 X-3.07 Y-1.18 Z2.7 F1800.0 E3852.886
G1 X5.26 Y-1.18 Z2.7 F1800.0 E3863.298
G1 X5.26 Y-2.43 Z2.7 F1800.0 E3864.86
G1 X-2.94 Y-2.43 Z2.7 F1800.0 E3875.111
G1 X-2.88 Y-2.82 Z2.7 F1800.0 E3875.601
G1 X-2.78 Y-3.14 Z2.7 F1800.0 E3876.026
G1 X-2.62 Y-3.44 Z2.7 F1800.0 E3876.453
G1 X-2.42 Y-3.72 Z2.7 F1800.0 E3876.878
G1 X-2.18 Y-3.96 Z2.7 F1800.0 E3877.304
G1 X-1.91 Y-4.16 Z2.7 F1800.0 E3877.728
G1 X-1.6 Y-4.31 Z2.7 F1800.0 E3878.154
G1 X-1.28 Y-4.42 Z2.7 F1800.0 E3878.581
G1 X14.81 Y-5.83 Z2.7 F1800.0 E3898.787
G1 X15.15 Y-5.77 Z2.7 F1800.0 E3899.214
G1 X15.47 Y-5.66 Z2.7 F1800.0 E3899.641
G1 X15.77 Y-5.5 Z2.7 F1800.0 E3900.068
G1 X16.04 Y-5.28 Z2.7 F1800.0 E3900.496
G1 X16.27 Y-5.03 Z2.7 F1800.0 E3900.923
G1 X16.45 Y-4.74 Z2.7 F1800.0 E3901.351
G1 X16.58 Y-4.42 Z2.7 F1800.0 E3901.778
G1 X16.65 Y-4.09 Z2.7 F1800.0 E3902.205
G1 X16.67 Y-3.75 Z2.7 F1800.0 E3902.632
G1 X16.63 Y-3.41 Z2.7 F1800.0 E3903.061
G1 X16.53 Y-3.08 Z2.7 F1800.0 E3903.487
G1 X16.38 Y-2.78 Z2.7 F1800.0 E3903.914
G1 X16.18 Y-2.5 Z2.7 F1800.0 E3904.342
G1 X15.94 Y-2.26 Z2.7 F1800.0 E3904.769
G1 X3.97 Y4.65 Z2.7 F1800.0 E3922.053
G1 X3.15 Y5.0 Z2.7 F1800.0 E3923.171
G1 X2.31 Y5.3 Z2.7 F1800.0 E3924.288
G1 X1.45 Y5.53 Z2.7 F1800.0 E3925.407
G1 X0.57 Y5.7 Z2.7 F1800.0 E3926.524
G1 X-0.32 Y5.8 Z2.7 F1800.0 E3927.642
G1 X-14.18 Y5.83 Z2.7 F1800.0 E3944.978
G1 X-14.59 Y5.77 Z2.7 F1800.0 E3945.505
G1 X-14.99 Y5.64 Z2.7 F1800.0 E3946.029
G1 X-15.37 Y5.45 Z2.7 F1800.0 E3946.555
G1 X-15.71 Y5.21 Z2.7 F1800.0 E3947.078
G1 X-16.01 Y4.92 Z2.7 F1800.0 E3947.604
G1 X-16.26 Y4.58 Z2.7 F1800.0 E3948.129
G1 X-16.46 Y4.21 Z2.7 F1800.0 E3948.655
G1 X-16.59 Y3.81 Z2.7 F1800.0 E3949.179
G1 X-16.66 Y3.4 Z2.7 F1800.0 E3949.705
G1 X-16.67 Y2.98 Z2.7 F1800.0 E3950.229
G1 X-16.61 Y2.56 Z2.7 F1800.0 E3950.753
G1 X-16.49 Y2.16 Z2.7 F1800.0 E3951.279
;M103
;M108 S50.04
G1 X-10.79 Y2.49 Z3.0 F3600.0
;M101
G1 X-11.3 Y2.41 Z3.0 F2400.0 E3951.927
G1 X-11.75 Y2.27 Z3.0 F2400.0 E3952.515
G1 X-12.13 Y2.06 Z3.0 F2400.0 E3953.063
G1 X-13.34 Y5.04 Z3.0 F2400.0 E3957.088
G1 X-14.5 Y5.02 Z3.0 F2400.0 E3958.54
G1 X-14.92 Y4.85 Z3.0 F2400.0 E3959.11
G1 X-15.27 Y4.61 Z3.0 F2400.0 E3959.642
G1 X-15.55 Y4.3 Z3.0 F2400.0 E3960.167
G1 X-15.77 Y3.92 Z3.0 F2400.0 E3960.708
G1 X-12.49 Y1.82 Z3.0 F2400.0 E3965.585
G1 X-13.23 Y1.38 Z3.0 F2400.0 E3966.666
G1 X-13.67 Y1.23 Z3.0 F2400.0 E3967.253
G1 X-14.26 Y1.23 Z3.0 F2400.0 E3967.985
G1 X-15.91 Y2.87 Z3.0 F2400.0 E3970.901
G1 X-15.9 Y3.46 Z3.0 F2400.0 E3971.635
;M103
G1 X-5.47 Y1.68 Z3.0 F3600.0
G1 X-5.01 Y1.49 Z3.0 F3600.0
G1 X-4.58 Y1.23 Z3.0 F3600.0
G1 X-4.2 Y0.92 Z3.0 F3600.0
G1 X-3.85 Y0.53 Z3.0 F3600.0
G1 X-3.54 Y0.1 Z3.0 F3600.0
G1 X-3.48 Y-0.02 Z3.0 F3600.0
G1 X0.37 Y-1.1 Z3.0 F3600.0
G1 X5.2 Y-1.24 Z3.0 F3600.0
G1 X5.2 Y-2.36 Z3.0 F3600.0
G1 X3.18 Y-2.52 Z3.0 F3600.0
G1 X11.94 Y-4.84 Z3.0 F3600.0
;M101
G1 X11.3 Y-4.78 Z3.0 F2400.0 E3972.45
G1 X6.33 Y-0.41 Z3.0 F2400.0 E3980.729
G1 X5.74 Y-0.4 Z3.0 F2400.0 E3981.472
G1 X3.82 Y3.88 Z3.0 F2400.0 E3987.338
G1 X1.88 Y4.64 Z3.0 F2400.0 E3989.954
G1 X-0.31 Y5.05 Z3.0 F2400.0 E3992.738
G1 X5.14 Y-0.4 Z3.0 F2400.0 E4002.387
G1 X1.59 Y-0.4 Z3.0 F2400.0 E4006.834
G1 X-0.91 Y5.06 Z3.0 F2400.0 E4014.343
G1 X-4.46 Y5.05 Z3.0 F2400.0 E4018.787
G1 X1.0 Y-0.4 Z3.0 F2400.0 E4028.439
G1 X-1.37 Y-0.4 Z3.0 F2400.0 E4031.404
G1 X-4.92 Y2.49 Z3.0 F2400.0 E4037.128
G1 X-5.05 Y5.05 Z3.0 F2400.0 E4040.338
G1 X-8.6 Y5.05 Z3.0 F2400.0 E4044.78
G1 X-6.04 Y2.49 Z3.0 F2400.0 E4049.311
G1 X-9.01 Y2.49 Z3.0 F2400.0 E4053.022
G1 X-9.19 Y5.05 Z3.0 F2400.0 E4056.229
G1 X-12.75 Y5.04 Z3.0 F2400.0 E4060.671
G1 X-10.19 Y2.49 Z3.0 F2400.0 E4065.185
G1 X-9.6 Y2.49 Z3.0 F2400.0 E4065.928
;M103
G1 X-3.25 Y0.88 Z3.0 F3600.0
;M101
G1 X-1.97 Y-0.4 Z3.0 F2400.0 E4068.206
;M103
G1 X-1.81 Y-1.1 Z3.0 F3600.0
G1 X5.2 Y-1.24 Z3.0 F3600.0
G1 X5.2 Y-2.36 Z3.0 F3600.0
G1 X-1.68 Y-2.53 Z3.0 F3600.0
G1 X-1.53 Y-3.21 Z3.0 F3600.0
;M101
G1 X-1.04 Y-3.7 Z3.0 F2400.0 E4069.074
G1 X-0.94 Y-3.21 Z3.0 F2400.0 E4069.703
G1 X-0.39 Y-3.76 Z3.0 F2400.0 E4070.673
G1 X-0.35 Y-3.21 Z3.0 F2400.0 E4071.362
G1 X0.24 Y-3.21 Z3.0 F2400.0 E4072.101
G1 X0.26 Y-3.81 Z3.0 F2400.0 E4072.861
G1 X0.91 Y-3.87 Z3.0 F2400.0 E4073.676
G1 X0.84 Y-3.21 Z3.0 F2400.0 E4074.511
G1 X1.43 Y-3.2 Z3.0 F2400.0 E4075.252
G1 X1.56 Y-3.93 Z3.0 F2400.0 E4076.17
G1 X2.02 Y-3.2 Z3.0 F2400.0 E4077.242
G1 X2.61 Y-3.2 Z3.0 F2400.0 E4077.983
G1 X2.21 Y-3.98 Z3.0 F2400.0 E4079.082
G1 X3.5 Y-4.1 Z3.0 F2400.0 E4080.713
G1 X3.2 Y-3.2 Z3.0 F2400.0 E4081.894
G1 X4.39 Y-3.2 Z3.0 F2400.0 E4083.375
G1 X4.15 Y-4.15 Z3.0 F2400.0 E4084.601
G1 X5.45 Y-4.27 Z3.0 F2400.0 E4086.232
G1 X4.98 Y-3.2 Z3.0 F2400.0 E4087.692
G1 X5.57 Y-3.2 Z3.0 F2400.0 E4088.432
G1 X6.03 Y-3.07 Z3.0 F2400.0 E4089.033
G1 X6.1 Y-4.32 Z3.0 F2400.0 E4090.602
G1 X10.65 Y-4.72 Z3.0 F2400.0 E4096.31
G1 X10.03 Y-4.25 Z3.0 F2400.0 E4097.279
G1 X6.03 Y-2.48 Z3.0 F2400.0 E4102.752
G1 X6.03 Y-1.29 Z3.0 F2400.0 E4104.235
;M103
G1 X5.22 Y3.07 Z3.0 F3600.0
;M101
G1 X9.43 Y0.65 Z3.0 F2400.0 E4110.304
G1 X12.59 Y-4.89 Z3.0 F2400.0 E4118.283
G1 X14.54 Y-5.06 Z3.0 F2400.0 E4120.73
;M103
G1 X15.85 Y-3.41 Z3.0 F3600.0
;M101
G1 X15.03 Y-2.59 Z3.0 F2400.0 E4122.189
G1 X15.45 Y-4.79 Z3.0 F2400.0 E4124.995
G1 X15.08 Y-5.01 Z3.0 F2400.0 E4125.538
G1 X13.63 Y-1.78 Z3.0 F2400.0 E4129.961
G1 X10.83 Y-0.16 Z3.0 F2400.0 E4134.007
;M103
G1 X11.24 Y0.01 Z3.0 F3600.0
;M101
G1 X11.0 Y0.14 Z3.0 F2400.0 E4134.342
G1 X3.8 Y4.3 Z3.0 F2400.0 E4144.749
G1 X3.01 Y4.65 Z3.0 F2400.0 E4145.823
G1 X2.2 Y4.93 Z3.0 F2400.0 E4146.903
G1 X1.36 Y5.16 Z3.0 F2400.0 E4147.985
G1 X0.51 Y5.32 Z3.0 F2400.0 E4149.068
G1 X-0.34 Y5.41 Z3.0 F2400.0 E4150.14
G1 X-14.15 Y5.44 Z3.0 F2400.0 E4167.414
G1 X-14.51 Y5.39 Z3.0 F2400.0 E4167.866
G1 X-14.85 Y5.28 Z3.0 F2400.0 E4168.316
G1 X-15.17 Y5.12 Z3.0 F2400.0 E4168.766
G1 X-15.46 Y4.91 Z3.0 F2400.0 E4169.215
G1 X-15.72 Y4.66 Z3.0 F2400.0 E4169.665
G1 X-15.94 Y4.38 Z3.0 F2400.0 E4170.114
G1 X-16.1 Y4.06 Z3.0 F2400.0 E4170.564
G1 X-16.22 Y3.72 Z3.0 F2400.0 E4171.014
G1 X-16.28 Y3.36 Z3.0 F2400.0 E4171.463
G1 X-16.29 Y3.0 Z3.0 F2400.0 E4171.913
G1 X-16.23 Y2.65 Z3.0 F2400.0 E4172.364
G1 X-16.13 Y2.3 Z3.0 F2400.0 E4172.812
G1 X-15.97 Y1.98 Z3.0 F2400.0 E4173.262
G1 X-15.77 Y1.69 Z3.0 F2400.0 E4173.712
G1 X-15.52 Y1.43 Z3.0 F2400.0 E4174.161
G1 X-15.23 Y1.21 Z3.0 F2400.0 E4174.611
G1 X-14.91 Y1.04 Z3.0 F2400.0 E4175.06
G1 X-14.57 Y0.92 Z3.0 F2400.0 E4175.512
G1 X-14.22 Y0.86 Z3.0 F2400.0 E4175.961
G1 X-13.86 Y0.85 Z3.0 F2400.0 E4176.41
G1 X-13.5 Y0.9 Z3.0 F2400.0 E4176.859
G1 X-13.16 Y1.0 Z3.0 F2400.0 E4177.31
G1 X-12.84 Y1.15 Z3.0 F2400.0 E4177.749
G1 X-12.18 Y1.64 Z3.0 F2400.0 E4178.779
G1 X-11.79 Y1.87 Z3.0 F2400.0 E4179.342
G1 X-11.36 Y2.03 Z3.0 F2400.0 E4179.915
G1 X-10.9 Y2.14 Z3.0 F2400.0 E4180.509
G1 X-5.92 Y2.13 Z3.0 F2400.0 E4186.744
G1 X-5.37 Y2.0 Z3.0 F2400.0 E4187.454
G1 X-4.86 Y1.79 Z3.0 F2400.0 E4188.14
G1 X-4.39 Y1.51 Z3.0 F2400.0 E4188.829
G1 X-3.97 Y1.16 Z3.0 F2400.0 E4189.511
G1 X-3.59 Y0.74 Z3.0 F2400.0 E4190.223
G1 X-3.26 Y0.28 Z3.0 F2400.0 E4190.928
G1 X-2.99 Y-0.22 Z3.0 F2400.0 E4191.636
G1 X-2.78 Y-0.76 Z3.0 F2400.0 E4192.36
G1 X5.68 Y-0.76 Z3.0 F2400.0 E4202.936
G1 X5.68 Y-2.84 Z3.0 F2400.0 E4205.543
G1 X-1.77 Y-2.85 Z3.0 F2400.0 E4214.853
G1 X-2.28 Y-3.26 Z3.0 F2400.0 E4215.669
G1 X-2.13 Y-3.47 Z3.0 F2400.0 E4215.985
G1 X-1.93 Y-3.66 Z3.0 F2400.0 E4216.336
G1 X-1.7 Y-3.83 Z3.0 F2400.0 E4216.686
G1 X-1.45 Y-3.96 Z3.0 F2400.0 E4217.037
G1 X-1.2 Y-4.04 Z3.0 F2400.0 E4217.367
G1 X14.8 Y-5.44 Z3.0 F2400.0 E4237.461
G1 X15.05 Y-5.4 Z3.0 F2400.0 E4237.785
G1 X15.31 Y-5.31 Z3.0 F2400.0 E4238.129
G1 X15.56 Y-5.18 Z3.0 F2400.0 E4238.476
G1 X15.77 Y-5.0 Z3.0 F2400.0 E4238.821
G1 X15.96 Y-4.8 Z3.0 F2400.0 E4239.166
G1 X16.1 Y-4.56 Z3.0 F2400.0 E4239.513
G1 X16.21 Y-4.31 Z3.0 F2400.0 E4239.86
G1 X16.27 Y-4.04 Z3.0 F2400.0 E4240.206
G1 X16.28 Y-3.76 Z3.0 F2400.0 E4240.55
G1 X16.25 Y-3.49 Z3.0 F2400.0 E4240.898
G1 X16.17 Y-3.22 Z3.0 F2400.0 E4241.242
G1 X16.05 Y-2.97 Z3.0 F2400.0 E4241.589
G1 X15.89 Y-2.75 Z3.0 F2400.0 E4241.935
G1 X15.71 Y-2.57 Z3.0 F2400.0 E4242.256
G1 X11.24 Y0.01 Z3.0 F2400.0 E4248.713
;M103
;M108 S37.53
G1 X11.45 Y0.37 Z3.0 F3600.0
;M101
G1 X11.21 Y0.51 Z3.0 F1800.0 E4249.049
G1 X3.99 Y4.68 Z3.0 F1800.0 E4259.486
G1 X3.17 Y5.04 Z3.0 F1800.0 E4260.607
G1 X2.32 Y5.33 Z3.0 F1800.0 E4261.727
G1 X1.45 Y5.56 Z3.0 F1800.0 E4262.849
G1 X0.57 Y5.73 Z3.0 F1800.0 E4263.969
G1 X-0.32 Y5.83 Z3.0 F1800.0 E4265.091
G1 X-14.18 Y5.86 Z3.0 F1800.0 E4282.432
G1 X-14.6 Y5.8 Z3.0 F1800.0 E4282.966
G1 X-15.01 Y5.67 Z3.0 F1800.0 E4283.498
G1 X-15.39 Y5.48 Z3.0 F1800.0 E4284.03
G1 X-15.73 Y5.24 Z3.0 F1800.0 E4284.561
G1 X-16.04 Y4.94 Z3.0 F1800.0 E4285.093
G1 X-16.29 Y4.6 Z3.0 F1800.0 E4285.625
G1 X-16.49 Y4.22 Z3.0 F1800.0 E4286.157
G1 X-16.63 Y3.82 Z3.0 F1800.0 E4286.688
G1 X-16.7 Y3.4 Z3.0 F1800.0 E4287.22
G1 X-16.7 Y2.98 Z3.0 F1800.0 E4287.752
G1 X-16.64 Y2.56 Z3.0 F1800.0 E4288.284
G1 X-16.52 Y2.15 Z3.0 F1800.0 E4288.815
G1 X-16.33 Y1.77 Z3.0 F1800.0 E4289.347
G1 X-16.09 Y1.42 Z3.0 F1800.0 E4289.878
G1 X-15.8 Y1.11 Z3.0 F1800.0 E4290.411
G1 X-15.46 Y0.86 Z3.0 F1800.0 E4290.942
G1 X-15.08 Y0.66 Z3.0 F1800.0 E4291.473
G1 X-14.68 Y0.52 Z3.0 F1800.0 E4292.007
G1 X-14.26 Y0.44 Z3.0 F1800.0 E4292.537
G1 X-13.84 Y0.43 Z3.0 F1800.0 E4293.069
G1 X-13.42 Y0.49 Z3.0 F1800.0 E4293.602
G1 X-13.01 Y0.61 Z3.0 F1800.0 E4294.133
G1 X-12.62 Y0.79 Z3.0 F1800.0 E4294.665
G1 X-11.95 Y1.29 Z3.0 F1800.0 E4295.714
G1 X-11.61 Y1.49 Z3.0 F1800.0 E4296.208
G1 X-11.24 Y1.63 Z3.0 F1800.0 E4296.702
G1 X-10.86 Y1.72 Z3.0 F1800.0 E4297.197
G1 X-5.97 Y1.71 Z3.0 F1800.0 E4303.313
G1 X-5.49 Y1.6 Z3.0 F1800.0 E4303.92
G1 X-5.05 Y1.42 Z3.0 F1800.0 E4304.527
G1 X-4.63 Y1.17 Z3.0 F1800.0 E4305.134
G1 X-4.26 Y0.86 Z3.0 F1800.0 E4305.74
G1 X-3.91 Y0.47 Z3.0 F1800.0 E4306.384
G1 X-3.62 Y0.05 Z3.0 F1800.0 E4307.027
G1 X-3.37 Y-0.4 Z3.0 F1800.0 E4307.67
G1 X-3.18 Y-0.88 Z3.0 F1800.0 E4308.313
G1 X-3.1 Y-1.18 Z3.0 F1800.0 E4308.704
G1 X5.26 Y-1.18 Z3.0 F1800.0 E4319.16
G1 X5.26 Y-2.43 Z3.0 F1800.0 E4320.723
G1 X-2.97 Y-2.43 Z3.0 F1800.0 E4331.016
G1 X-2.92 Y-2.82 Z3.0 F1800.0 E4331.517
G1 X-2.81 Y-3.15 Z3.0 F1800.0 E4331.949
G1 X-2.65 Y-3.46 Z3.0 F1800.0 E4332.381
G1 X-2.45 Y-3.74 Z3.0 F1800.0 E4332.814
G1 X-2.2 Y-3.98 Z3.0 F1800.0 E4333.246
G1 X-1.92 Y-4.19 Z3.0 F1800.0 E4333.678
G1 X-1.62 Y-4.35 Z3.0 F1800.0 E4334.11
G1 X-1.29 Y-4.45 Z3.0 F1800.0 E4334.542
G1 X14.82 Y-5.87 Z3.0 F1800.0 E4354.764
G1 X15.16 Y-5.81 Z3.0 F1800.0 E4355.199
G1 X15.49 Y-5.69 Z3.0 F1800.0 E4355.632
G1 X15.79 Y-5.53 Z3.0 F1800.0 E4356.068
G1 X16.06 Y-5.31 Z3.0 F1800.0 E4356.502
G1 X16.29 Y-5.05 Z3.0 F1800.0 E4356.937
G1 X16.48 Y-4.76 Z3.0 F1800.0 E4357.372
G1 X16.61 Y-4.43 Z3.0 F1800.0 E4357.807
G1 X16.69 Y-4.09 Z3.0 F1800.0 E4358.243
G1 X16.7 Y-3.75 Z3.0 F1800.0 E4358.676
G1 X16.66 Y-3.4 Z3.0 F1800.0 E4359.112
G1 X16.57 Y-3.07 Z3.0 F1800.0 E4359.546
G1 X16.41 Y-2.76 Z3.0 F1800.0 E4359.981
G1 X16.21 Y-2.48 Z3.0 F1800.0 E4360.416
G1 X15.96 Y-2.23 Z3.0 F1800.0 E4360.849
G1 X11.45 Y0.37 Z3.0 F1800.0 E4367.373
;M103
;M108 S50.04
G1 X-0.4 Y-0.4 Z3.3 F3600.0
;M101
G1 X1.37 Y-0.4 Z3.3 F2400.0 E4369.597
G1 X3.86 Y3.86 Z3.3 F2400.0 E4375.768
G1 X5.74 Y2.77 Z3.3 F2400.0 E4378.481
G1 X1.97 Y-0.4 Z3.3 F2400.0 E4384.649
G1 X5.52 Y-0.4 Z3.3 F2400.0 E4389.095
G1 X6.11 Y2.56 Z3.3 F2400.0 E4392.873
G1 X8.37 Y1.26 Z3.3 F2400.0 E4396.127
G1 X6.03 Y-0.48 Z3.3 F2400.0 E4399.769
G1 X6.03 Y-2.85 Z3.3 F2400.0 E4402.732
G1 X8.74 Y1.04 Z3.3 F2400.0 E4408.666
G1 X9.87 Y0.39 Z3.3 F2400.0 E4410.293
;M103
G1 X15.18 Y-4.96 Z3.3 F3600.0
;M101
G1 X15.79 Y-4.35 Z3.3 F2400.0 E4411.365
G1 X15.9 Y-3.65 Z3.3 F2400.0 E4412.256
G1 X15.75 Y-3.2 Z3.3 F2400.0 E4412.841
G1 X15.5 Y-2.86 Z3.3 F2400.0 E4413.371
G1 X15.13 Y-2.65 Z3.3 F2400.0 E4413.912
G1 X14.49 Y-5.06 Z3.3 F2400.0 E4417.035
G1 X11.22 Y-4.77 Z3.3 F2400.0 E4421.139
G1 X14.75 Y-2.43 Z3.3 F2400.0 E4426.439
G1 X12.5 Y-1.13 Z3.3 F2400.0 E4429.694
G1 X10.68 Y-4.72 Z3.3 F2400.0 E4434.737
G1 X7.95 Y-4.49 Z3.3 F2400.0 E4438.157
G1 X12.12 Y-0.91 Z3.3 F2400.0 E4445.026
G1 X10.24 Y0.17 Z3.3 F2400.0 E4447.739
G1 X7.41 Y-4.44 Z3.3 F2400.0 E4454.511
G1 X5.23 Y-4.25 Z3.3 F2400.0 E4457.246
G1 X5.09 Y-3.2 Z3.3 F2400.0 E4458.566
G1 X4.5 Y-3.2 Z3.3 F2400.0 E4459.307
G1 X4.69 Y-4.2 Z3.3 F2400.0 E4460.579
G1 X3.6 Y-4.1 Z3.3 F2400.0 E4461.946
G1 X3.91 Y-3.2 Z3.3 F2400.0 E4463.139
G1 X2.72 Y-3.2 Z3.3 F2400.0 E4464.623
G1 X3.05 Y-4.06 Z3.3 F2400.0 E4465.769
G1 X1.96 Y-3.96 Z3.3 F2400.0 E4467.137
G1 X2.13 Y-3.2 Z3.3 F2400.0 E4468.107
G1 X0.94 Y-3.21 Z3.3 F2400.0 E4469.591
G1 X1.42 Y-3.91 Z3.3 F2400.0 E4470.658
G1 X-0.22 Y-3.77 Z3.3 F2400.0 E4472.71
G1 X0.35 Y-3.21 Z3.3 F2400.0 E4473.709
G1 X-0.24 Y-3.21 Z3.3 F2400.0 E4474.451
G1 X-0.76 Y-3.72 Z3.3 F2400.0 E4475.366
G1 X-1.27 Y-3.64 Z3.3 F2400.0 E4476.014
G1 X-0.84 Y-3.21 Z3.3 F2400.0 E4476.787
G1 X-1.43 Y-3.21 Z3.3 F2400.0 E4477.528
G1 X-1.61 Y-3.39 Z3.3 F2400.0 E4477.847
;M103
G1 X-1.97 Y-2.54 Z3.3 F3600.0
G1 X5.2 Y-2.36 Z3.3 F3600.0
G1 X5.2 Y-1.24 Z3.3 F3600.0
G1 X-2.25 Y-1.1 Z3.3 F3600.0
G1 X-2.61 Y-0.24 Z3.3 F3600.0
;M101
G1 X-2.18 Y-0.4 Z3.3 F2400.0 E4478.424
G1 X-1.0 Y-0.4 Z3.3 F2400.0 E4479.906
G1 X3.46 Y4.05 Z3.3 F2400.0 E4487.792
G1 X2.19 Y4.55 Z3.3 F2400.0 E4489.507
G1 X0.25 Y4.99 Z3.3 F2400.0 E4491.99
G1 X-2.81 Y0.16 Z3.3 F2400.0 E4499.139
G1 X-3.26 Y0.89 Z3.3 F2400.0 E4500.216
G1 X-4.15 Y1.78 Z3.3 F2400.0 E4501.789
G1 X-0.28 Y5.05 Z3.3 F2400.0 E4508.124
G1 X-3.83 Y5.05 Z3.3 F2400.0 E4512.564
G1 X-4.51 Y2.0 Z3.3 F2400.0 E4516.475
G1 X-4.91 Y2.2 Z3.3 F2400.0 E4517.028
G1 X-5.82 Y2.47 Z3.3 F2400.0 E4518.216
G1 X-6.99 Y2.49 Z3.3 F2400.0 E4519.68
G1 X-4.43 Y5.05 Z3.3 F2400.0 E4524.216
G1 X-7.98 Y5.05 Z3.3 F2400.0 E4528.667
G1 X-7.58 Y2.49 Z3.3 F2400.0 E4531.909
G1 X-11.19 Y2.44 Z3.3 F2400.0 E4536.418
G1 X-8.58 Y5.05 Z3.3 F2400.0 E4541.035
G1 X-11.54 Y5.05 Z3.3 F2400.0 E4544.743
G1 X-12.21 Y2.01 Z3.3 F2400.0 E4548.628
G1 X-13.55 Y1.26 Z3.3 F2400.0 E4550.562
G1 X-14.19 Y1.21 Z3.3 F2400.0 E4551.358
G1 X-14.66 Y1.33 Z3.3 F2400.0 E4551.97
G1 X-15.06 Y1.53 Z3.3 F2400.0 E4552.522
G1 X-15.38 Y1.8 Z3.3 F2400.0 E4553.048
G1 X-15.64 Y2.13 Z3.3 F2400.0 E4553.575
G1 X-12.13 Y5.05 Z3.3 F2400.0 E4559.28
G1 X-14.54 Y5.01 Z3.3 F2400.0 E4562.294
G1 X-15.85 Y3.7 Z3.3 F2400.0 E4564.602
G1 X-15.93 Y3.03 Z3.3 F2400.0 E4565.45
G1 X-15.83 Y2.54 Z3.3 F2400.0 E4566.078
;M103
G1 X-16.02 Y2.08 Z3.3 F3600.0
;M101
G1 X-15.97 Y1.98 Z3.3 F2400.0 E4566.215
G1 X-15.77 Y1.69 Z3.3 F2400.0 E4566.665
G1 X-15.52 Y1.43 Z3.3 F2400.0 E4567.114
G1 X-15.23 Y1.21 Z3.3 F2400.0 E4567.564
G1 X-14.91 Y1.04 Z3.3 F2400.0 E4568.013
G1 X-14.57 Y0.92 Z3.3 F2400.0 E4568.464
G1 X-14.22 Y0.86 Z3.3 F2400.0 E4568.913
G1 X-13.86 Y0.85 Z3.3 F2400.0 E4569.362
G1 X-13.5 Y0.9 Z3.3 F2400.0 E4569.812
G1 X-13.16 Y1.0 Z3.3 F2400.0 E4570.262
G1 X-12.84 Y1.15 Z3.3 F2400.0 E4570.702
G1 X-12.18 Y1.64 Z3.3 F2400.0 E4571.731
G1 X-11.79 Y1.87 Z3.3 F2400.0 E4572.295
G1 X-11.36 Y2.03 Z3.3 F2400.0 E4572.868
G1 X-10.9 Y2.14 Z3.3 F2400.0 E4573.462
G1 X-5.92 Y2.13 Z3.3 F2400.0 E4579.697
G1 X-5.37 Y2.0 Z3.3 F2400.0 E4580.406
G1 X-4.86 Y1.79 Z3.3 F2400.0 E4581.093
G1 X-4.39 Y1.51 Z3.3 F2400.0 E4581.782
G1 X-3.97 Y1.16 Z3.3 F2400.0 E4582.464
G1 X-3.59 Y0.74 Z3.3 F2400.0 E4583.176
G1 X-3.26 Y0.28 Z3.3 F2400.0 E4583.881
G1 X-2.99 Y-0.22 Z3.3 F2400.0 E4584.589
G1 X-2.78 Y-0.76 Z3.3 F2400.0 E4585.313
G1 X5.68 Y-0.76 Z3.3 F2400.0 E4595.889
G1 X5.68 Y-2.84 Z3.3 F2400.0 E4598.496
G1 X-1.77 Y-2.85 Z3.3 F2400.0 E4607.806
G1 X-2.28 Y-3.26 Z3.3 F2400.0 E4608.622
G1 X-2.13 Y-3.47 Z3.3 F2400.0 E4608.938
G1 X-1.93 Y-3.66 Z3.3 F2400.0 E4609.288
G1 X-1.7 Y-3.83 Z3.3 F2400.0 E4609.639
G1 X-1.45 Y-3.96 Z3.3 F2400.0 E4609.989
G1 X-1.2 Y-4.04 Z3.3 F2400.0 E4610.32
G1 X14.8 Y-5.44 Z3.3 F2400.0 E4630.414
G1 X15.05 Y-5.4 Z3.3 F2400.0 E4630.737
G1 X15.31 Y-5.31 Z3.3 F2400.0 E4631.082
G1 X15.56 Y-5.18 Z3.3 F2400.0 E4631.429
G1 X15.77 Y-5.0 Z3.3 F2400.0 E4631.773
G1 X15.96 Y-4.8 Z3.3 F2400.0 E4632.119
G1 X16.1 Y-4.56 Z3.3 F2400.0 E4632.466
G1 X16.21 Y-4.31 Z3.3 F2400.0 E4632.812
G1 X16.27 Y-4.04 Z3.3 F2400.0 E4633.158
G1 X16.28 Y-3.76 Z3.3 F2400.0 E4633.503
G1 X16.25 Y-3.49 Z3.3 F2400.0 E4633.851
G1 X16.17 Y-3.22 Z3.3 F2400.0 E4634.195
G1 X16.05 Y-2.97 Z3.3 F2400.0 E4634.542
G1 X15.89 Y-2.75 Z3.3 F2400.0 E4634.888
G1 X15.71 Y-2.57 Z3.3 F2400.0 E4635.209
G1 X3.8 Y4.3 Z3.3 F2400.0 E4652.408
G1 X3.01 Y4.65 Z3.3 F2400.0 E4653.482
G1 X2.2 Y4.93 Z3.3 F2400.0 E4654.562
G1 X1.36 Y5.16 Z3.3 F2400.0 E4655.645
G1 X0.51 Y5.32 Z3.3 F2400.0 E4656.727
G1 X-0.34 Y5.41 Z3.3 F2400.0 E4657.8
G1 X-14.15 Y5.44 Z3.3 F2400.0 E4675.073
G1 X-14.51 Y5.39 Z3.3 F2400.0 E4675.525
G1 X-14.85 Y5.28 Z3.3 F2400.0 E4675.975
G1 X-15.17 Y5.12 Z3.3 F2400.0 E4676.425
G1 X-15.46 Y4.91 Z3.3 F2400.0 E4676.875
G1 X-15.72 Y4.66 Z3.3 F2400.0 E4677.324
G1 X-15.94 Y4.38 Z3.3 F2400.0 E4677.774
G1 X-16.1 Y4.06 Z3.3 F2400.0 E4678.223
G1 X-16.22 Y3.72 Z3.3 F2400.0 E4678.673
G1 X-16.28 Y3.36 Z3.3 F2400.0 E4679.123
G1 X-16.29 Y3.0 Z3.3 F2400.0 E4679.572
G1 X-16.23 Y2.65 Z3.3 F2400.0 E4680.023
G1 X-16.13 Y2.3 Z3.3 F2400.0 E4680.472
G1 X-16.02 Y2.08 Z3.3 F2400.0 E4680.785
;M103
;M108 S37.53
G1 X-16.33 Y1.77 Z3.3 F3600.0
;M101
G1 X-16.09 Y1.42 Z3.3 F1800.0 E4681.316
G1 X-15.8 Y1.11 Z3.3 F1800.0 E4681.849
G1 X-15.46 Y0.86 Z3.3 F1800.0 E4682.38
G1 X-15.08 Y0.66 Z3.3 F1800.0 E4682.911
G1 X-14.68 Y0.52 Z3.3 F1800.0 E4683.445
G1 X-14.26 Y0.44 Z3.3 F1800.0 E4683.975
G1 X-13.84 Y0.43 Z3.3 F1800.0 E4684.507
G1 X-13.42 Y0.49 Z3.3 F1800.0 E4685.04
G1 X-13.01 Y0.61 Z3.3 F1800.0 E4685.571
G1 X-12.62 Y0.79 Z3.3 F1800.0 E4686.103
G1 X-11.95 Y1.29 Z3.3 F1800.0 E4687.152
G1 X-11.61 Y1.49 Z3.3 F1800.0 E4687.646
G1 X-11.24 Y1.63 Z3.3 F1800.0 E4688.14
G1 X-10.86 Y1.72 Z3.3 F1800.0 E4688.635
G1 X-5.97 Y1.71 Z3.3 F1800.0 E4694.751
G1 X-5.49 Y1.6 Z3.3 F1800.0 E4695.358
G1 X-5.05 Y1.42 Z3.3 F1800.0 E4695.965
G1 X-4.63 Y1.17 Z3.3 F1800.0 E4696.572
G1 X-4.26 Y0.86 Z3.3 F1800.0 E4697.178
G1 X-3.91 Y0.47 Z3.3 F1800.0 E4697.822
G1 X-3.62 Y0.05 Z3.3 F1800.0 E4698.465
G1 X-3.37 Y-0.4 Z3.3 F1800.0 E4699.108
G1 X-3.18 Y-0.88 Z3.3 F1800.0 E4699.751
G1 X-3.1 Y-1.18 Z3.3 F1800.0 E4700.142
G1 X5.26 Y-1.18 Z3.3 F1800.0 E4710.598
G1 X5.26 Y-2.43 Z3.3 F1800.0 E4712.161
G1 X-2.97 Y-2.43 Z3.3 F1800.0 E4722.454
G1 X-2.92 Y-2.82 Z3.3 F1800.0 E4722.955
G1 X-2.81 Y-3.15 Z3.3 F1800.0 E4723.387
G1 X-2.65 Y-3.46 Z3.3 F1800.0 E4723.819
G1 X-2.45 Y-3.74 Z3.3 F1800.0 E4724.252
G1 X-2.2 Y-3.98 Z3.3 F1800.0 E4724.684
G1 X-1.92 Y-4.19 Z3.3 F1800.0 E4725.116
G1 X-1.62 Y-4.35 Z3.3 F1800.0 E4725.548
G1 X-1.29 Y-4.45 Z3.3 F1800.0 E4725.98
G1 X14.82 Y-5.87 Z3.3 F1800.0 E4746.202
G1 X15.16 Y-5.81 Z3.3 F1800.0 E4746.637
G1 X15.49 Y-5.69 Z3.3 F1800.0 E4747.07
G1 X15.79 Y-5.53 Z3.3 F1800.0 E4747.506
G1 X16.06 Y-5.31 Z3.3 F1800.0 E4747.94
G1 X16.29 Y-5.05 Z3.3 F1800.0 E4748.375
G1 X16.48 Y-4.76 Z3.3 F1800.0 E4748.81
G1 X16.61 Y-4.43 Z3.3 F1800.0 E4749.245
G1 X16.69 Y-4.09 Z3.3 F1800.0 E4749.681
G1 X16.7 Y-3.75 Z3.3 F1800.0 E4750.114
G1 X16.66 Y-3.4 Z3.3 F1800.0 E4750.55
G1 X16.57 Y-3.07 Z3.3 F1800.0 E4750.984
G1 X16.41 Y-2.76 Z3.3 F1800.0 E4751.419
G1 X16.21 Y-2.48 Z3.3 F1800.0 E4751.854
G1 X15.96 Y-2.23 Z3.3 F1800.0 E4752.287
G1 X3.99 Y4.68 Z3.3 F1800.0 E4769.583
G1 X3.17 Y5.04 Z3.3 F1800.0 E4770.705
G1 X2.32 Y5.33 Z3.3 F1800.0 E4771.825
G1 X1.45 Y5.56 Z3.3 F1800.0 E4772.946
G1 X0.57 Y5.73 Z3.3 F1800.0 E4774.067
G1 X-0.32 Y5.83 Z3.3 F1800.0 E4775.188
G1 X-14.18 Y5.86 Z3.3 F1800.0 E4792.53
G1 X-14.6 Y5.8 Z3.3 F1800.0 E4793.064
G1 X-15.01 Y5.67 Z3.3 F1800.0 E4793.595
G1 X-15.39 Y5.48 Z3.3 F1800.0 E4794.127
G1 X-15.73 Y5.24 Z3.3 F1800.0 E4794.658
G1 X-16.04 Y4.94 Z3.3 F1800.0 E4795.19
G1 X-16.29 Y4.6 Z3.3 F1800.0 E4795.722
G1 X-16.49 Y4.22 Z3.3 F1800.0 E4796.255
G1 X-16.63 Y3.82 Z3.3 F1800.0 E4796.785
G1 X-16.7 Y3.4 Z3.3 F1800.0 E4797.318
G1 X-16.7 Y2.98 Z3.3 F1800.0 E4797.849
G1 X-16.64 Y2.56 Z3.3 F1800.0 E4798.381
G1 X-16.52 Y2.15 Z3.3 F1800.0 E4798.912
G1 X-16.33 Y1.77 Z3.3 F1800.0 E4799.444
;M103
;M108 S50.04
G1 X-10.79 Y2.49 Z3.6 F3600.0
;M101
G1 X-11.3 Y2.41 Z3.6 F2400.0 E4800.093
G1 X-11.75 Y2.27 Z3.6 F2400.0 E4800.68
G1 X-12.13 Y2.06 Z3.6 F2400.0 E4801.228
G1 X-13.34 Y5.04 Z3.6 F2400.0 E4805.253
G1 X-14.5 Y5.02 Z3.6 F2400.0 E4806.705
G1 X-14.92 Y4.85 Z3.6 F2400.0 E4807.275
G1 X-15.27 Y4.61 Z3.6 F2400.0 E4807.807
G1 X-15.55 Y4.3 Z3.6 F2400.0 E4808.332
G1 X-15.77 Y3.92 Z3.6 F2400.0 E4808.873
G1 X-12.49 Y1.82 Z3.6 F2400.0 E4813.75
G1 X-13.23 Y1.38 Z3.6 F2400.0 E4814.831
G1 X-13.67 Y1.23 Z3.6 F2400.0 E4815.418
G1 X-14.26 Y1.23 Z3.6 F2400.0 E4816.15
G1 X-15.91 Y2.87 Z3.6 F2400.0 E4819.066
G1 X-15.9 Y3.46 Z3.6 F2400.0 E4819.8
;M103
G1 X-5.47 Y1.68 Z3.6 F3600.0
G1 X-5.01 Y1.49 Z3.6 F3600.0
G1 X-4.58 Y1.23 Z3.6 F3600.0
G1 X-4.2 Y0.92 Z3.6 F3600.0
G1 X-3.85 Y0.53 Z3.6 F3600.0
G1 X-3.54 Y0.1 Z3.6 F3600.0
G1 X-3.48 Y-0.02 Z3.6 F3600.0
G1 X0.37 Y-1.1 Z3.6 F3600.0
G1 X5.2 Y-1.24 Z3.6 F3600.0
G1 X5.2 Y-2.36 Z3.6 F3600.0
G1 X3.18 Y-2.52 Z3.6 F3600.0
G1 X11.94 Y-4.84 Z3.6 F3600.0
;M101
G1 X11.3 Y-4.78 Z3.6 F2400.0 E4820.615
G1 X6.33 Y-0.41 Z3.6 F2400.0 E4828.894
G1 X5.74 Y-0.4 Z3.6 F2400.0 E4829.637
G1 X3.82 Y3.88 Z3.6 F2400.0 E4835.504
G1 X1.88 Y4.64 Z3.6 F2400.0 E4838.119
G1 X-0.31 Y5.05 Z3.6 F2400.0 E4840.903
G1 X5.14 Y-0.4 Z3.6 F2400.0 E4850.552
G1 X1.59 Y-0.4 Z3.6 F2400.0 E4854.999
G1 X-0.91 Y5.06 Z3.6 F2400.0 E4862.508
G1 X-4.46 Y5.05 Z3.6 F2400.0 E4866.952
G1 X1.0 Y-0.4 Z3.6 F2400.0 E4876.605
G1 X-1.37 Y-0.4 Z3.6 F2400.0 E4879.569
G1 X-4.92 Y2.49 Z3.6 F2400.0 E4885.293
G1 X-5.05 Y5.05 Z3.6 F2400.0 E4888.503
G1 X-8.6 Y5.05 Z3.6 F2400.0 E4892.946
G1 X-6.04 Y2.49 Z3.6 F2400.0 E4897.476
G1 X-9.01 Y2.49 Z3.6 F2400.0 E4901.187
G1 X-9.19 Y5.05 Z3.6 F2400.0 E4904.394
G1 X-12.75 Y5.04 Z3.6 F2400.0 E4908.837
G1 X-10.19 Y2.49 Z3.6 F2400.0 E4913.35
G1 X-9.6 Y2.49 Z3.6 F2400.0 E4914.093
;M103
G1 X-3.25 Y0.88 Z3.6 F3600.0
;M101
G1 X-1.97 Y-0.4 Z3.6 F2400.0 E4916.371
;M103
G1 X-1.81 Y-1.1 Z3.6 F3600.0
G1 X5.2 Y-1.24 Z3.6 F3600.0
G1 X5.2 Y-2.36 Z3.6 F3600.0
G1 X-1.68 Y-2.53 Z3.6 F3600.0
G1 X-1.53 Y-3.21 Z3.6 F3600.0
;M101
G1 X-1.04 Y-3.7 Z3.6 F2400.0 E4917.239
G1 X-0.94 Y-3.21 Z3.6 F2400.0 E4917.868
G1 X-0.39 Y-3.76 Z3.6 F2400.0 E4918.838
G1 X-0.35 Y-3.21 Z3.6 F2400.0 E4919.527
G1 X0.24 Y-3.21 Z3.6 F2400.0 E4920.266
G1 X0.26 Y-3.81 Z3.6 F2400.0 E4921.026
G1 X0.91 Y-3.87 Z3.6 F2400.0 E4921.841
G1 X0.84 Y-3.21 Z3.6 F2400.0 E4922.677
G1 X1.43 Y-3.2 Z3.6 F2400.0 E4923.417
G1 X1.56 Y-3.93 Z3.6 F2400.0 E4924.335
G1 X2.02 Y-3.2 Z3.6 F2400.0 E4925.408
G1 X2.61 Y-3.2 Z3.6 F2400.0 E4926.148
G1 X2.21 Y-3.98 Z3.6 F2400.0 E4927.247
G1 X3.5 Y-4.1 Z3.6 F2400.0 E4928.879
G1 X3.2 Y-3.2 Z3.6 F2400.0 E4930.059
G1 X4.39 Y-3.2 Z3.6 F2400.0 E4931.54
G1 X4.15 Y-4.15 Z3.6 F2400.0 E4932.766
G1 X5.45 Y-4.27 Z3.6 F2400.0 E4934.398
G1 X4.98 Y-3.2 Z3.6 F2400.0 E4935.857
G1 X5.57 Y-3.2 Z3.6 F2400.0 E4936.598
G1 X6.03 Y-3.07 Z3.6 F2400.0 E4937.198
G1 X6.1 Y-4.32 Z3.6 F2400.0 E4938.768
G1 X10.65 Y-4.72 Z3.6 F2400.0 E4944.475
G1 X10.03 Y-4.25 Z3.6 F2400.0 E4945.445
G1 X6.03 Y-2.48 Z3.6 F2400.0 E4950.918
G1 X6.03 Y-1.29 Z3.6 F2400.0 E4952.4
;M103
G1 X5.22 Y3.07 Z3.6 F3600.0
;M101
G1 X9.43 Y0.65 Z3.6 F2400.0 E4958.469
G1 X12.59 Y-4.89 Z3.6 F2400.0 E4966.449
G1 X14.54 Y-5.06 Z3.6 F2400.0 E4968.895
;M103
G1 X15.85 Y-3.41 Z3.6 F3600.0
;M101
G1 X15.03 Y-2.59 Z3.6 F2400.0 E4970.354
G1 X15.45 Y-4.79 Z3.6 F2400.0 E4973.16
G1 X15.08 Y-5.01 Z3.6 F2400.0 E4973.703
G1 X13.63 Y-1.78 Z3.6 F2400.0 E4978.126
G1 X10.83 Y-0.16 Z3.6 F2400.0 E4982.172
;M103
G1 X11.07 Y0.11 Z3.6 F3600.0
;M101
G1 X11.0 Y0.14 Z3.6 F2400.0 E4982.26
G1 X3.8 Y4.3 Z3.6 F2400.0 E4992.667
G1 X3.01 Y4.65 Z3.6 F2400.0 E4993.741
G1 X2.2 Y4.93 Z3.6 F2400.0 E4994.821
G1 X1.36 Y5.16 Z3.6 F2400.0 E4995.903
G1 X0.51 Y5.32 Z3.6 F2400.0 E4996.986
G1 X-0.34 Y5.41 Z3.6 F2400.0 E4998.058
G1 X-14.15 Y5.44 Z3.6 F2400.0 E5015.332
G1 X-14.51 Y5.39 Z3.6 F2400.0 E5015.784
G1 X-14.85 Y5.28 Z3.6 F2400.0 E5016.234
G1 X-15.17 Y5.12 Z3.6 F2400.0 E5016.684
G1 X-15.46 Y4.91 Z3.6 F2400.0 E5017.133
G1 X-15.72 Y4.66 Z3.6 F2400.0 E5017.583
G1 X-15.94 Y4.38 Z3.6 F2400.0 E5018.032
G1 X-16.1 Y4.06 Z3.6 F2400.0 E5018.482
G1 X-16.22 Y3.72 Z3.6 F2400.0 E5018.932
G1 X-16.28 Y3.36 Z3.6 F2400.0 E5019.381
G1 X-16.29 Y3.0 Z3.6 F2400.0 E5019.831
G1 X-16.23 Y2.65 Z3.6 F2400.0 E5020.282
G1 X-16.13 Y2.3 Z3.6 F2400.0 E5020.73
G1 X-15.97 Y1.98 Z3.6 F2400.0 E5021.18
G1 X-15.77 Y1.69 Z3.6 F2400.0 E5021.63
G1 X-15.52 Y1.43 Z3.6 F2400.0 E5022.079
G1 X-15.23 Y1.21 Z3.6 F2400.0 E5022.529
G1 X-14.91 Y1.04 Z3.6 F2400.0 E5022.978
G1 X-14.57 Y0.92 Z3.6 F2400.0 E5023.43
G1 X-14.22 Y0.86 Z3.6 F2400.0 E5023.879
G1 X-13.86 Y0.85 Z3.6 F2400.0 E5024.328
G1 X-13.5 Y0.9 Z3.6 F2400.0 E5024.777
G1 X-13.16 Y1.0 Z3.6 F2400.0 E5025.228
G1 X-12.84 Y1.15 Z3.6 F2400.0 E5025.667
G1 X-12.18 Y1.64 Z3.6 F2400.0 E5026.697
G1 X-11.79 Y1.87 Z3.6 F2400.0 E5027.26
G1 X-11.36 Y2.03 Z3.6 F2400.0 E5027.833
G1 X-10.9 Y2.14 Z3.6 F2400.0 E5028.427
G1 X-5.92 Y2.13 Z3.6 F2400.0 E5034.662
G1 X-5.37 Y2.0 Z3.6 F2400.0 E5035.372
G1 X-4.86 Y1.79 Z3.6 F2400.0 E5036.058
G1 X-4.39 Y1.51 Z3.6 F2400.0 E5036.747
G1 X-3.97 Y1.16 Z3.6 F2400.0 E5037.429
G1 X-3.59 Y0.74 Z3.6 F2400.0 E5038.141
G1 X-3.26 Y0.28 Z3.6 F2400.0 E5038.846
G1 X-2.99 Y-0.22 Z3.6 F2400.0 E5039.554
G1 X-2.78 Y-0.76 Z3.6 F2400.0 E5040.278
G1 X5.68 Y-0.76 Z3.6 F2400.0 E5050.854
G1 X5.68 Y-2.84 Z3.6 F2400.0 E5053.461
G1 X-1.77 Y-2.85 Z3.6 F2400.0 E5062.771
G1 X-2.28 Y-3.26 Z3.6 F2400.0 E5063.587
G1 X-2.13 Y-3.47 Z3.6 F2400.0 E5063.903
G1 X-1.93 Y-3.66 Z3.6 F2400.0 E5064.254
G1 X-1.7 Y-3.83 Z3.6 F2400.0 E5064.604
G1 X-1.45 Y-3.96 Z3.6 F2400.0 E5064.955
G1 X-1.2 Y-4.04 Z3.6 F2400.0 E5065.285
G1 X14.8 Y-5.44 Z3.6 F2400.0 E5085.379
G1 X15.05 Y-5.4 Z3.6 F2400.0 E5085.703
G1 X15.31 Y-5.31 Z3.6 F2400.0 E5086.047
G1 X15.56 Y-5.18 Z3.6 F2400.0 E5086.394
G1 X15.77 Y-5.0 Z3.6 F2400.0 E5086.739
G1 X15.96 Y-4.8 Z3.6 F2400.0 E5087.084
G1 X16.1 Y-4.56 Z3.6 F2400.0 E5087.431
G1 X16.21 Y-4.31 Z3.6 F2400.0 E5087.778
G1 X16.27 Y-4.04 Z3.6 F2400.0 E5088.124
G1 X16.28 Y-3.76 Z3.6 F2400.0 E5088.468
G1 X16.25 Y-3.49 Z3.6 F2400.0 E5088.816
G1 X16.17 Y-3.22 Z3.6 F2400.0 E5089.16
G1 X16.05 Y-2.97 Z3.6 F2400.0 E5089.507
G1 X15.89 Y-2.75 Z3.6 F2400.0 E5089.853
G1 X15.71 Y-2.57 Z3.6 F2400.0 E5090.174
G1 X11.07 Y0.11 Z3.6 F2400.0 E5096.879
;M103
;M108 S37.53
G1 X11.21 Y0.51 Z3.6 F3600.0
;M101
G1 X3.99 Y4.68 Z3.6 F1800.0 E5107.316
G1 X3.17 Y5.04 Z3.6 F1800.0 E5108.437
G1 X2.32 Y5.33 Z3.6 F1800.0 E5109.557
G1 X1.45 Y5.56 Z3.6 F1800.0 E5110.679
G1 X0.57 Y5.73 Z3.6 F1800.0 E5111.799
G1 X-0.32 Y5.83 Z3.6 F1800.0 E5112.921
G1 X-14.18 Y5.86 Z3.6 F1800.0 E5130.262
G1 X-14.6 Y5.8 Z3.6 F1800.0 E5130.796
G1 X-15.01 Y5.67 Z3.6 F1800.0 E5131.328
G1 X-15.39 Y5.48 Z3.6 F1800.0 E5131.86
G1 X-15.73 Y5.24 Z3.6 F1800.0 E5132.391
G1 X-16.04 Y4.94 Z3.6 F1800.0 E5132.923
G1 X-16.29 Y4.6 Z3.6 F1800.0 E5133.455
G1 X-16.49 Y4.22 Z3.6 F1800.0 E5133.987
G1 X-16.63 Y3.82 Z3.6 F1800.0 E5134.518
G1 X-16.7 Y3.4 Z3.6 F1800.0 E5135.05
G1 X-16.7 Y2.98 Z3.6 F1800.0 E5135.582
G1 X-16.64 Y2.56 Z3.6 F1800.0 E5136.114
G1 X-16.52 Y2.15 Z3.6 F1800.0 E5136.645
G1 X-16.33 Y1.77 Z3.6 F1800.0 E5137.177
G1 X-16.09 Y1.42 Z3.6 F1800.0 E5137.708
G1 X-15.8 Y1.11 Z3.6 F1800.0 E5138.241
G1 X-15.46 Y0.86 Z3.6 F1800.0 E5138.772
G1 X-15.08 Y0.66 Z3.6 F1800.0 E5139.303
G1 X-14.68 Y0.52 Z3.6 F1800.0 E5139.837
G1 X-14.26 Y0.44 Z3.6 F1800.0 E5140.367
G1 X-13.84 Y0.43 Z3.6 F1800.0 E5140.899
G1 X-13.42 Y0.49 Z3.6 F1800.0 E5141.432
G1 X-13.01 Y0.61 Z3.6 F1800.0 E5141.963
G1 X-12.62 Y0.79 Z3.6 F1800.0 E5142.495
G1 X-11.95 Y1.29 Z3.6 F1800.0 E5143.544
G1 X-11.61 Y1.49 Z3.6 F1800.0 E5144.038
G1 X-11.24 Y1.63 Z3.6 F1800.0 E5144.532
G1 X-10.86 Y1.72 Z3.6 F1800.0 E5145.027
G1 X-5.97 Y1.71 Z3.6 F1800.0 E5151.143
G1 X-5.49 Y1.6 Z3.6 F1800.0 E5151.75
G1 X-5.05 Y1.42 Z3.6 F1800.0 E5152.357
G1 X-4.63 Y1.17 Z3.6 F1800.0 E5152.964
G1 X-4.26 Y0.86 Z3.6 F1800.0 E5153.57
G1 X-3.91 Y0.47 Z3.6 F1800.0 E5154.214
G1 X-3.62 Y0.05 Z3.6 F1800.0 E5154.857
G1 X-3.37 Y-0.4 Z3.6 F1800.0 E5155.5
G1 X-3.18 Y-0.88 Z3.6 F1800.0 E5156.143
G1 X-3.1 Y-1.18 Z3.6 F1800.0 E5156.534
G1 X5.26 Y-1.18 Z3.6 F1800.0 E5166.99
G1 X5.26 Y-2.43 Z3.6 F1800.0 E5168.553
G1 X-2.97 Y-2.43 Z3.6 F1800.0 E5178.846
G1 X-2.92 Y-2.82 Z3.6 F1800.0 E5179.347
G1 X-2.81 Y-3.15 Z3.6 F1800.0 E5179.779
G1 X-2.65 Y-3.46 Z3.6 F1800.0 E5180.211
G1 X-2.45 Y-3.74 Z3.6 F1800.0 E5180.644
G1 X-2.2 Y-3.98 Z3.6 F1800.0 E5181.076
G1 X-1.92 Y-4.19 Z3.6 F1800.0 E5181.508
G1 X-1.62 Y-4.35 Z3.6 F1800.0 E5181.94
G1 X-1.29 Y-4.45 Z3.6 F1800.0 E5182.372
G1 X14.82 Y-5.87 Z3.6 F1800.0 E5202.594
G1 X15.16 Y-5.81 Z3.6 F1800.0 E5203.029
G1 X15.49 Y-5.69 Z3.6 F1800.0 E5203.462
G1 X15.79 Y-5.53 Z3.6 F1800.0 E5203.898
G1 X16.06 Y-5.31 Z3.6 F1800.0 E5204.332
G1 X16.29 Y-5.05 Z3.6 F1800.0 E5204.767
G1 X16.48 Y-4.76 Z3.6 F1800.0 E5205.202
G1 X16.61 Y-4.43 Z3.6 F1800.0 E5205.637
G1 X16.69 Y-4.09 Z3.6 F1800.0 E5206.073
G1 X16.7 Y-3.75 Z3.6 F1800.0 E5206.506
G1 X16.66 Y-3.4 Z3.6 F1800.0 E5206.942
G1 X16.57 Y-3.07 Z3.6 F1800.0 E5207.376
G1 X16.41 Y-2.76 Z3.6 F1800.0 E5207.811
G1 X16.21 Y-2.48 Z3.6 F1800.0 E5208.246
G1 X15.96 Y-2.23 Z3.6 F1800.0 E5208.679
G1 X11.21 Y0.51 Z3.6 F1800.0 E5215.538
;M103
;M108 S50.04
G1 X-0.4 Y-0.4 Z3.9 F3600.0
;M101
G1 X1.37 Y-0.4 Z3.9 F2400.0 E5217.762
G1 X3.86 Y3.86 Z3.9 F2400.0 E5223.934
G1 X5.74 Y2.77 Z3.9 F2400.0 E5226.646
G1 X1.97 Y-0.4 Z3.9 F2400.0 E5232.815
G1 X5.52 Y-0.4 Z3.9 F2400.0 E5237.261
G1 X6.11 Y2.56 Z3.9 F2400.0 E5241.038
G1 X8.37 Y1.26 Z3.9 F2400.0 E5244.292
G1 X6.03 Y-0.48 Z3.9 F2400.0 E5247.934
G1 X6.03 Y-2.85 Z3.9 F2400.0 E5250.898
G1 X8.74 Y1.04 Z3.9 F2400.0 E5256.831
G1 X9.87 Y0.39 Z3.9 F2400.0 E5258.458
;M103
G1 X15.18 Y-4.96 Z3.9 F3600.0
;M101
G1 X15.79 Y-4.35 Z3.9 F2400.0 E5259.53
G1 X15.9 Y-3.65 Z3.9 F2400.0 E5260.421
G1 X15.75 Y-3.2 Z3.9 F2400.0 E5261.007
G1 X15.5 Y-2.86 Z3.9 F2400.0 E5261.536
G1 X15.13 Y-2.65 Z3.9 F2400.0 E5262.077
G1 X14.49 Y-5.06 Z3.9 F2400.0 E5265.201
G1 X11.22 Y-4.77 Z3.9 F2400.0 E5269.305
G1 X14.75 Y-2.43 Z3.9 F2400.0 E5274.604
G1 X12.5 Y-1.13 Z3.9 F2400.0 E5277.86
G1 X10.68 Y-4.72 Z3.9 F2400.0 E5282.903
