G21 (This is GCode, generated with Skeinforge version 35 from ReplicatorG)
G21 (Ultimaker profile - Quality print - alterations/start-centered.gcode)
G21 (Metric: The unit is a millimeter)
G90 (Absolute Positioning)
G92 X0 Y0 Z0 E0 (set origin to current position)
G21 (end of start .gcode file)
G90
G21
;M103
M105
M106
M113 S1.0
;M108 S7.506
M104 S245.0
;M108 S7.881
G1 X-17.79 Y-17.79 Z0.3 F243.0
;M101
G1 X-17.79 Y17.79 Z0.3 F243.0 E69.24
G1 X17.79 Y17.79 Z0.3 F243.0 E138.48
G1 X17.79 Y-17.79 Z0.3 F243.0 E207.72
G1 X-17.79 Y-17.79 Z0.3 F243.0 E276.96
;M103
G1 X13.83 Y-14.02 Z0.3 F2880.0
;M101
G1 X14.02 Y-13.83 Z0.3 F288.0 E277.399
G1 X14.02 Y-13.23 Z0.3 F288.0 E278.372
G1 X13.23 Y-14.02 Z0.3 F288.0 E280.188
G1 X12.64 Y-14.02 Z0.3 F288.0 E281.16
G1 X14.02 Y-12.64 Z0.3 F288.0 E284.35
G1 X14.02 Y-12.05 Z0.3 F288.0 E285.324
G1 X12.05 Y-14.02 Z0.3 F288.0 E289.891
G1 X11.46 Y-14.02 Z0.3 F288.0 E290.863
G1 X14.02 Y-11.46 Z0.3 F288.0 E296.805
G1 X14.02 Y-10.87 Z0.3 F288.0 E297.777
G1 X10.87 Y-14.02 Z0.3 F288.0 E305.094
G1 X10.27 Y-14.02 Z0.3 F288.0 E306.067
G1 X14.02 Y-10.27 Z0.3 F288.0 E314.761
G1 X14.02 Y-9.68 Z0.3 F288.0 E315.733
G1 X9.68 Y-14.02 Z0.3 F288.0 E325.801
G1 X9.09 Y-14.02 Z0.3 F288.0 E326.774
G1 X14.02 Y-9.09 Z0.3 F288.0 E338.219
G1 X14.02 Y-8.49 Z0.3 F288.0 E339.191
G1 X8.49 Y-14.02 Z0.3 F288.0 E352.011
G1 X7.9 Y-14.02 Z0.3 F288.0 E352.983
G1 X14.02 Y-7.9 Z0.3 F288.0 E367.177
G1 X14.02 Y-7.31 Z0.3 F288.0 E368.151
G1 X7.31 Y-14.02 Z0.3 F288.0 E383.722
G1 X6.72 Y-14.02 Z0.3 F288.0 E384.694
G1 X14.02 Y-6.72 Z0.3 F288.0 E401.639
G1 X14.02 Y-6.13 Z0.3 F288.0 E402.611
G1 X6.13 Y-14.02 Z0.3 F288.0 E420.932
G1 X5.53 Y-14.02 Z0.3 F288.0 E421.905
G1 X14.02 Y-5.53 Z0.3 F288.0 E441.603
G1 X14.02 Y-4.94 Z0.3 F288.0 E442.574
G1 X4.94 Y-14.02 Z0.3 F288.0 E463.646
G1 X4.35 Y-14.02 Z0.3 F288.0 E464.62
G1 X14.02 Y-4.35 Z0.3 F288.0 E487.069
G1 X14.02 Y-3.76 Z0.3 F288.0 E488.041
G1 X3.76 Y-14.02 Z0.3 F288.0 E511.864
G1 X3.16 Y-14.02 Z0.3 F288.0 E512.836
G1 X14.02 Y-3.16 Z0.3 F288.0 E538.034
G1 X14.02 Y-2.57 Z0.3 F288.0 E539.008
G1 X2.57 Y-14.02 Z0.3 F288.0 E565.582
G1 X1.98 Y-14.02 Z0.3 F288.0 E566.554
G1 X14.02 Y-1.98 Z0.3 F288.0 E594.504
G1 X14.02 Y-1.39 Z0.3 F288.0 E595.477
G1 X1.39 Y-14.02 Z0.3 F288.0 E624.804
G1 X0.79 Y-14.02 Z0.3 F288.0 E625.776
G1 X14.02 Y-0.79 Z0.3 F288.0 E656.477
G1 X14.02 Y-0.2 Z0.3 F288.0 E657.449
G1 X0.2 Y-14.02 Z0.3 F288.0 E689.524
G1 X-0.39 Y-14.02 Z0.3 F288.0 E690.498
G1 X14.02 Y0.39 Z0.3 F288.0 E723.951
G1 X14.02 Y0.98 Z0.3 F288.0 E724.923
G1 X-0.98 Y-14.02 Z0.3 F288.0 E759.75
G1 X-1.58 Y-14.02 Z0.3 F288.0 E760.722
G1 X14.02 Y1.58 Z0.3 F288.0 E796.923
G1 X14.02 Y2.17 Z0.3 F288.0 E797.897
G1 X-2.17 Y-14.02 Z0.3 F288.0 E835.476
G1 X-2.76 Y-14.02 Z0.3 F288.0 E836.448
G1 X14.02 Y2.76 Z0.3 F288.0 E875.401
G1 X14.02 Y3.35 Z0.3 F288.0 E876.374
G1 X-3.35 Y-14.02 Z0.3 F288.0 E916.705
G1 X-3.95 Y-14.02 Z0.3 F288.0 E917.677
G1 X14.02 Y3.95 Z0.3 F288.0 E959.381
G1 X14.02 Y4.54 Z0.3 F288.0 E960.353
G1 X-4.54 Y-14.02 Z0.3 F288.0 E1003.433
G1 X-5.13 Y-14.02 Z0.3 F288.0 E1004.406
G1 X14.02 Y5.13 Z0.3 F288.0 E1048.863
G1 X14.02 Y5.72 Z0.3 F288.0 E1049.835
G1 X-5.72 Y-14.02 Z0.3 F288.0 E1095.665
G1 X-6.32 Y-14.02 Z0.3 F288.0 E1096.639
G1 X14.02 Y6.32 Z0.3 F288.0 E1143.847
G1 X14.02 Y6.91 Z0.3 F288.0 E1144.819
G1 X-6.91 Y-14.02 Z0.3 F288.0 E1193.401
G1 X-7.5 Y-14.02 Z0.3 F288.0 E1194.373
G1 X14.02 Y7.5 Z0.3 F288.0 E1244.33
G1 X14.02 Y8.09 Z0.3 F288.0 E1245.304
G1 X-8.09 Y-14.02 Z0.3 F288.0 E1296.638
G1 X-8.68 Y-14.02 Z0.3 F288.0 E1297.61
G1 X14.02 Y8.68 Z0.3 F288.0 E1350.318
G1 X14.02 Y9.28 Z0.3 F288.0 E1351.29
G1 X-9.28 Y-14.02 Z0.3 F288.0 E1405.374
G1 X-9.87 Y-14.02 Z0.3 F288.0 E1406.347
G1 X14.02 Y9.87 Z0.3 F288.0 E1461.807
G1 X14.02 Y10.46 Z0.3 F288.0 E1462.779
G1 X-10.46 Y-14.02 Z0.3 F288.0 E1519.614
G1 X-11.05 Y-14.02 Z0.3 F288.0 E1520.587
G1 X14.02 Y11.05 Z0.3 F288.0 E1578.799
G1 X14.02 Y11.65 Z0.3 F288.0 E1579.771
G1 X-11.65 Y-14.02 Z0.3 F288.0 E1639.357
G1 X-12.24 Y-14.02 Z0.3 F288.0 E1640.329
G1 X14.02 Y12.24 Z0.3 F288.0 E1701.29
G1 X14.02 Y12.83 Z0.3 F288.0 E1702.264
G1 X-12.83 Y-14.02 Z0.3 F288.0 E1764.601
G1 X-13.42 Y-14.02 Z0.3 F288.0 E1765.573
G1 X14.02 Y13.42 Z0.3 F288.0 E1829.286
G1 X14.02 Y14.02 Z0.3 F288.0 E1830.259
G1 X-14.02 Y-14.02 Z0.3 F288.0 E1895.349
G1 X-14.02 Y-13.42 Z0.3 F288.0 E1896.322
G1 X13.42 Y14.02 Z0.3 F288.0 E1960.034
G1 X12.83 Y14.02 Z0.3 F288.0 E1961.006
G1 X-14.02 Y-12.83 Z0.3 F288.0 E2023.344
G1 X-14.02 Y-12.24 Z0.3 F288.0 E2024.318
G1 X12.24 Y14.02 Z0.3 F288.0 E2085.279
G1 X11.65 Y14.02 Z0.3 F288.0 E2086.251
G1 X-14.02 Y-11.65 Z0.3 F288.0 E2145.837
G1 X-14.02 Y-11.05 Z0.3 F288.0 E2146.809
G1 X11.05 Y14.02 Z0.3 F288.0 E2205.02
G1 X10.46 Y14.02 Z0.3 F288.0 E2205.994
G1 X-14.02 Y-10.46 Z0.3 F288.0 E2262.829
G1 X-14.02 Y-9.87 Z0.3 F288.0 E2263.801
G1 X9.87 Y14.02 Z0.3 F288.0 E2319.261
G1 X9.28 Y14.02 Z0.3 F288.0 E2320.234
G1 X-14.02 Y-9.28 Z0.3 F288.0 E2374.317
G1 X-14.02 Y-8.68 Z0.3 F288.0 E2375.289
G1 X8.68 Y14.02 Z0.3 F288.0 E2427.998
G1 X8.09 Y14.02 Z0.3 F288.0 E2428.97
G1 X-14.02 Y-8.09 Z0.3 F288.0 E2480.304
G1 X-14.02 Y-7.5 Z0.3 F288.0 E2481.278
G1 X7.5 Y14.02 Z0.3 F288.0 E2531.235
G1 X6.91 Y14.02 Z0.3 F288.0 E2532.207
G1 X-14.02 Y-6.91 Z0.3 F288.0 E2580.789
G1 X-14.02 Y-6.32 Z0.3 F288.0 E2581.761
G1 X6.32 Y14.02 Z0.3 F288.0 E2628.969
G1 X5.72 Y14.02 Z0.3 F288.0 E2629.942
G1 X-14.02 Y-5.72 Z0.3 F288.0 E2675.773
G1 X-14.02 Y-5.13 Z0.3 F288.0 E2676.745
G1 X5.13 Y14.02 Z0.3 F288.0 E2721.202
G1 X4.54 Y14.02 Z0.3 F288.0 E2722.175
G1 X-14.02 Y-4.54 Z0.3 F288.0 E2765.255
G1 X-14.02 Y-3.95 Z0.3 F288.0 E2766.227
G1 X3.95 Y14.02 Z0.3 F288.0 E2807.931
G1 X3.35 Y14.02 Z0.3 F288.0 E2808.903
G1 X-14.02 Y-3.35 Z0.3 F288.0 E2849.233
G1 X-14.02 Y-2.76 Z0.3 F288.0 E2850.207
G1 X2.76 Y14.02 Z0.3 F288.0 E2889.16
G1 X2.17 Y14.02 Z0.3 F288.0 E2890.132
G1 X-14.02 Y-2.17 Z0.3 F288.0 E2927.711
G1 X-14.02 Y-1.58 Z0.3 F288.0 E2928.685
G1 X1.58 Y14.02 Z0.3 F288.0 E2964.886
G1 X0.98 Y14.02 Z0.3 F288.0 E2965.858
G1 X-14.02 Y-0.98 Z0.3 F288.0 E3000.685
G1 X-14.02 Y-0.39 Z0.3 F288.0 E3001.657
G1 X0.39 Y14.02 Z0.3 F288.0 E3035.11
G1 X-0.2 Y14.02 Z0.3 F288.0 E3036.083
G1 X-14.02 Y0.2 Z0.3 F288.0 E3068.159
G1 X-14.02 Y0.79 Z0.3 F288.0 E3069.131
G1 X-0.79 Y14.02 Z0.3 F288.0 E3099.832
G1 X-1.39 Y14.02 Z0.3 F288.0 E3100.804
G1 X-14.02 Y1.39 Z0.3 F288.0 E3130.13
G1 X-14.02 Y1.98 Z0.3 F288.0 E3131.104
G1 X-1.98 Y14.02 Z0.3 F288.0 E3159.053
G1 X-2.57 Y14.02 Z0.3 F288.0 E3160.025
G1 X-14.02 Y2.57 Z0.3 F288.0 E3186.6
G1 X-14.02 Y3.16 Z0.3 F288.0 E3187.574
G1 X-3.16 Y14.02 Z0.3 F288.0 E3212.772
G1 X-3.76 Y14.02 Z0.3 F288.0 E3213.744
G1 X-14.02 Y3.76 Z0.3 F288.0 E3237.567
G1 X-14.02 Y4.35 Z0.3 F288.0 E3238.539
G1 X-4.35 Y14.02 Z0.3 F288.0 E3260.988
G1 X-4.94 Y14.02 Z0.3 F288.0 E3261.962
G1 X-14.02 Y4.94 Z0.3 F288.0 E3283.033
G1 X-14.02 Y5.53 Z0.3 F288.0 E3284.005
G1 X-5.53 Y14.02 Z0.3 F288.0 E3303.703
G1 X-6.13 Y14.02 Z0.3 F288.0 E3304.676
G1 X-14.02 Y6.13 Z0.3 F288.0 E3322.996
G1 X-14.02 Y6.72 Z0.3 F288.0 E3323.968
G1 X-6.72 Y14.02 Z0.3 F288.0 E3340.914
G1 X-7.31 Y14.02 Z0.3 F288.0 E3341.886
G1 X-14.02 Y7.31 Z0.3 F288.0 E3357.457
G1 X-14.02 Y7.9 Z0.3 F288.0 E3358.431
G1 X-7.9 Y14.02 Z0.3 F288.0 E3372.625
G1 X-8.49 Y14.02 Z0.3 F288.0 E3373.597
G1 X-14.02 Y8.49 Z0.3 F288.0 E3386.417
G1 X-14.02 Y9.09 Z0.3 F288.0 E3387.389
G1 X-9.09 Y14.02 Z0.3 F288.0 E3398.833
G1 X-9.68 Y14.02 Z0.3 F288.0 E3399.807
G1 X-14.02 Y9.68 Z0.3 F288.0 E3409.875
G1 X-14.02 Y10.27 Z0.3 F288.0 E3410.847
G1 X-10.27 Y14.02 Z0.3 F288.0 E3419.541
G1 X-10.87 Y14.02 Z0.3 F288.0 E3420.514
G1 X-14.02 Y10.87 Z0.3 F288.0 E3427.831
G1 X-14.02 Y11.46 Z0.3 F288.0 E3428.803
G1 X-11.46 Y14.02 Z0.3 F288.0 E3434.745
G1 X-12.05 Y14.02 Z0.3 F288.0 E3435.717
G1 X-14.02 Y12.05 Z0.3 F288.0 E3440.284
G1 X-14.02 Y12.64 Z0.3 F288.0 E3441.257
G1 X-12.64 Y14.02 Z0.3 F288.0 E3444.448
G1 X-13.23 Y14.02 Z0.3 F288.0 E3445.42
G1 X-14.02 Y13.23 Z0.3 F288.0 E3447.236
G1 X-14.02 Y13.83 Z0.3 F288.0 E3448.209
G1 X-13.83 Y14.02 Z0.3 F288.0 E3448.648
;M103
G1 X-13.93 Y14.37 Z0.3 F3600.0
;M101
G1 X-14.37 Y14.37 Z0.3 F288.0 E3449.38
G1 X-14.37 Y-14.37 Z0.3 F288.0 E3496.574
G1 X14.37 Y-14.37 Z0.3 F288.0 E3543.769
G1 X14.37 Y14.37 Z0.3 F288.0 E3590.963
G1 X-13.83 Y14.37 Z0.3 F288.0 E3637.262
G1 X-13.93 Y14.37 Z0.3 F288.0 E3637.424
;M103
;M108 S5.629
;M108 S5.91
G1 X-13.83 Y14.79 Z0.3 F3600.0
;M101
G1 X-14.79 Y14.79 Z0.3 F243.0 E3638.831
G1 X-14.79 Y-14.79 Z0.3 F243.0 E3681.999
G1 X14.79 Y-14.79 Z0.3 F243.0 E3725.167
G1 X14.79 Y14.79 Z0.3 F243.0 E3768.334
G1 X-13.83 Y14.79 Z0.3 F243.0 E3810.096
;M103
;M108 S7.506
G1 X13.6 Y13.06 Z0.6 F3600.0
;M101
G1 X13.06 Y13.6 Z0.6 F360.0 E3811.044
G1 X12.47 Y13.6 Z0.6 F360.0 E3811.786
G1 X13.6 Y12.47 Z0.6 F360.0 E3813.783
G1 X13.6 Y11.88 Z0.6 F360.0 E3814.524
G1 X11.88 Y13.6 Z0.6 F360.0 E3817.568
G1 X11.28 Y13.6 Z0.6 F360.0 E3818.309
G1 X13.6 Y11.28 Z0.6 F360.0 E3822.401
G1 X13.6 Y10.69 Z0.6 F360.0 E3823.143
G1 X10.69 Y13.6 Z0.6 F360.0 E3828.284
G1 X10.1 Y13.6 Z0.6 F360.0 E3829.025
G1 X13.6 Y10.1 Z0.6 F360.0 E3835.213
G1 X13.6 Y9.51 Z0.6 F360.0 E3835.955
G1 X9.51 Y13.6 Z0.6 F360.0 E3843.193
G1 X8.91 Y13.6 Z0.6 F360.0 E3843.934
G1 X13.6 Y8.91 Z0.6 F360.0 E3852.219
G1 X13.6 Y8.32 Z0.6 F360.0 E3852.959
G1 X8.32 Y13.6 Z0.6 F360.0 E3862.292
G1 X7.73 Y13.6 Z0.6 F360.0 E3863.034
G1 X13.6 Y7.73 Z0.6 F360.0 E3873.415
G1 X13.6 Y7.14 Z0.6 F360.0 E3874.156
G1 X7.14 Y13.6 Z0.6 F360.0 E3885.585
G1 X6.54 Y13.6 Z0.6 F360.0 E3886.326
G1 X13.6 Y6.54 Z0.6 F360.0 E3898.804
G1 X13.6 Y5.95 Z0.6 F360.0 E3899.545
G1 X5.95 Y13.6 Z0.6 F360.0 E3913.07
G1 X5.36 Y13.6 Z0.6 F360.0 E3913.811
G1 X13.6 Y5.36 Z0.6 F360.0 E3928.384
G1 X13.6 Y4.77 Z0.6 F360.0 E3929.126
G1 X4.77 Y13.6 Z0.6 F360.0 E3944.747
G1 X4.18 Y13.6 Z0.6 F360.0 E3945.488
G1 X13.6 Y4.18 Z0.6 F360.0 E3962.157
G1 X13.6 Y3.58 Z0.6 F360.0 E3962.898
G1 X3.58 Y13.6 Z0.6 F360.0 E3980.614
G1 X2.99 Y13.6 Z0.6 F360.0 E3981.356
G1 X13.6 Y2.99 Z0.6 F360.0 E4000.122
G1 X13.6 Y2.4 Z0.6 F360.0 E4000.863
G1 X2.4 Y13.6 Z0.6 F360.0 E4020.676
G1 X1.81 Y13.6 Z0.6 F360.0 E4021.418
G1 X13.6 Y1.81 Z0.6 F360.0 E4042.28
G1 X13.6 Y1.21 Z0.6 F360.0 E4043.02
G1 X1.21 Y13.6 Z0.6 F360.0 E4064.93
G1 X0.62 Y13.6 Z0.6 F360.0 E4065.67
G1 X13.6 Y0.62 Z0.6 F360.0 E4088.627
G1 X13.6 Y0.03 Z0.6 F360.0 E4089.369
G1 X0.03 Y13.6 Z0.6 F360.0 E4113.375
G1 X-0.56 Y13.6 Z0.6 F360.0 E4114.116
G1 X13.6 Y-0.56 Z0.6 F360.0 E4139.169
G1 X13.6 Y-1.16 Z0.6 F360.0 E4139.911
G1 X-1.16 Y13.6 Z0.6 F360.0 E4166.013
G1 X-1.75 Y13.6 Z0.6 F360.0 E4166.754
G1 X13.6 Y-1.75 Z0.6 F360.0 E4193.904
G1 X13.6 Y-2.34 Z0.6 F360.0 E4194.645
G1 X-2.34 Y13.6 Z0.6 F360.0 E4222.842
G1 X-2.93 Y13.6 Z0.6 F360.0 E4223.584
G1 X13.6 Y-2.93 Z0.6 F360.0 E4252.83
G1 X13.6 Y-3.53 Z0.6 F360.0 E4253.571
G1 X-3.53 Y13.6 Z0.6 F360.0 E4283.864
G1 X-4.12 Y13.6 Z0.6 F360.0 E4284.605
G1 X13.6 Y-4.12 Z0.6 F360.0 E4315.946
G1 X13.6 Y-4.71 Z0.6 F360.0 E4316.688
G1 X-4.71 Y13.6 Z0.6 F360.0 E4349.078
G1 X-5.3 Y13.6 Z0.6 F360.0 E4349.818
G1 X13.6 Y-5.3 Z0.6 F360.0 E4383.256
G1 X13.6 Y-5.9 Z0.6 F360.0 E4383.998
G1 X-5.9 Y13.6 Z0.6 F360.0 E4418.484
G1 X-6.49 Y13.6 Z0.6 F360.0 E4419.225
G1 X13.6 Y-6.49 Z0.6 F360.0 E4454.759
G1 X13.6 Y-7.08 Z0.6 F360.0 E4455.5
G1 X-7.08 Y13.6 Z0.6 F360.0 E4492.081
G1 X-7.67 Y13.6 Z0.6 F360.0 E4492.823
G1 X13.6 Y-7.67 Z0.6 F360.0 E4530.453
G1 X13.6 Y-8.27 Z0.6 F360.0 E4531.194
G1 X-8.27 Y13.6 Z0.6 F360.0 E4569.872
G1 X-8.86 Y13.6 Z0.6 F360.0 E4570.614
G1 X13.6 Y-8.86 Z0.6 F360.0 E4610.341
G1 X13.6 Y-9.45 Z0.6 F360.0 E4611.081
G1 X-9.45 Y13.6 Z0.6 F360.0 E4651.855
G1 X-10.04 Y13.6 Z0.6 F360.0 E4652.596
G1 X13.6 Y-10.04 Z0.6 F360.0 E4694.418
G1 X13.6 Y-10.64 Z0.6 F360.0 E4695.16
G1 X-10.64 Y13.6 Z0.6 F360.0 E4738.03
G1 X-11.23 Y13.6 Z0.6 F360.0 E4738.771
G1 X13.6 Y-11.23 Z0.6 F360.0 E4782.689
G1 X13.6 Y-11.82 Z0.6 F360.0 E4783.43
G1 X-11.82 Y13.6 Z0.6 F360.0 E4828.395
G1 X-12.41 Y13.6 Z0.6 F360.0 E4829.137
G1 X13.6 Y-12.41 Z0.6 F360.0 E4875.152
G1 X13.6 Y-13.0 Z0.6 F360.0 E4875.892
G1 X-13.0 Y13.6 Z0.6 F360.0 E4922.954
G1 X-13.6 Y13.6 Z0.6 F360.0 E4923.696
G1 X13.6 Y-13.6 Z0.6 F360.0 E4971.807
G1 X13.0 Y-13.6 Z0.6 F360.0 E4972.549
G1 X-13.6 Y13.0 Z0.6 F360.0 E5019.611
G1 X-13.6 Y12.41 Z0.6 F360.0 E5020.352
G1 X12.41 Y-13.6 Z0.6 F360.0 E5066.366
G1 X11.82 Y-13.6 Z0.6 F360.0 E5067.108
G1 X-13.6 Y11.82 Z0.6 F360.0 E5112.074
G1 X-13.6 Y11.23 Z0.6 F360.0 E5112.814
G1 X11.23 Y-13.6 Z0.6 F360.0 E5156.732
G1 X10.64 Y-13.6 Z0.6 F360.0 E5157.473
G1 X-13.6 Y10.64 Z0.6 F360.0 E5200.344
G1 X-13.6 Y10.04 Z0.6 F360.0 E5201.086
G1 X10.04 Y-13.6 Z0.6 F360.0 E5242.907
G1 X9.45 Y-13.6 Z0.6 F360.0 E5243.648
G1 X-13.6 Y9.45 Z0.6 F360.0 E5284.422
G1 X-13.6 Y8.86 Z0.6 F360.0 E5285.163
G1 X8.86 Y-13.6 Z0.6 F360.0 E5324.89
G1 X8.27 Y-13.6 Z0.6 F360.0 E5325.632
G1 X-13.6 Y8.27 Z0.6 F360.0 E5364.309
G1 X-13.6 Y7.67 Z0.6 F360.0 E5365.05
G1 X7.67 Y-13.6 Z0.6 F360.0 E5402.681
G1 X7.08 Y-13.6 Z0.6 F360.0 E5403.422
G1 X-13.6 Y7.08 Z0.6 F360.0 E5440.004
G1 X-13.6 Y6.49 Z0.6 F360.0 E5440.744
G1 X6.49 Y-13.6 Z0.6 F360.0 E5476.278
G1 X5.9 Y-13.6 Z0.6 F360.0 E5477.019
G1 X-13.6 Y5.9 Z0.6 F360.0 E5511.506
G1 X-13.6 Y5.3 Z0.6 F360.0 E5512.247
G1 X5.3 Y-13.6 Z0.6 F360.0 E5545.685
G1 X4.71 Y-13.6 Z0.6 F360.0 E5546.426
G1 X-13.6 Y4.71 Z0.6 F360.0 E5578.816
G1 X-13.6 Y4.12 Z0.6 F360.0 E5579.558
G1 X4.12 Y-13.6 Z0.6 F360.0 E5610.899
G1 X3.53 Y-13.6 Z0.6 F360.0 E5611.639
G1 X-13.6 Y3.53 Z0.6 F360.0 E5641.933
G1 X-13.6 Y2.93 Z0.6 F360.0 E5642.673
G1 X2.93 Y-13.6 Z0.6 F360.0 E5671.92
G1 X2.34 Y-13.6 Z0.6 F360.0 E5672.662
G1 X-13.6 Y2.34 Z0.6 F360.0 E5700.859
G1 X-13.6 Y1.75 Z0.6 F360.0 E5701.599
G1 X1.75 Y-13.6 Z0.6 F360.0 E5728.749
G1 X1.16 Y-13.6 Z0.6 F360.0 E5729.49
G1 X-13.6 Y1.16 Z0.6 F360.0 E5755.592
G1 X-13.6 Y0.56 Z0.6 F360.0 E5756.334
G1 X0.56 Y-13.6 Z0.6 F360.0 E5781.388
G1 X-0.03 Y-13.6 Z0.6 F360.0 E5782.128
G1 X-13.6 Y-0.03 Z0.6 F360.0 E5806.134
G1 X-13.6 Y-0.62 Z0.6 F360.0 E5806.876
G1 X-0.62 Y-13.6 Z0.6 F360.0 E5829.833
G1 X-1.21 Y-13.6 Z0.6 F360.0 E5830.574
G1 X-13.6 Y-1.21 Z0.6 F360.0 E5852.483
G1 X-13.6 Y-1.81 Z0.6 F360.0 E5853.224
G1 X-1.81 Y-13.6 Z0.6 F360.0 E5874.086
G1 X-2.4 Y-13.6 Z0.6 F360.0 E5874.828
G1 X-13.6 Y-2.4 Z0.6 F360.0 E5894.641
G1 X-13.6 Y-2.99 Z0.6 F360.0 E5895.381
G1 X-2.99 Y-13.6 Z0.6 F360.0 E5914.147
G1 X-3.58 Y-13.6 Z0.6 F360.0 E5914.889
G1 X-13.6 Y-3.58 Z0.6 F360.0 E5932.605
G1 X-13.6 Y-4.18 Z0.6 F360.0 E5933.346
G1 X-4.18 Y-13.6 Z0.6 F360.0 E5950.015
G1 X-4.77 Y-13.6 Z0.6 F360.0 E5950.756
G1 X-13.6 Y-4.77 Z0.6 F360.0 E5966.378
G1 X-13.6 Y-5.36 Z0.6 F360.0 E5967.12
G1 X-5.36 Y-13.6 Z0.6 F360.0 E5981.692
G1 X-5.95 Y-13.6 Z0.6 F360.0 E5982.433
G1 X-13.6 Y-5.95 Z0.6 F360.0 E5995.958
G1 X-13.6 Y-6.54 Z0.6 F360.0 E5996.699
G1 X-6.54 Y-13.6 Z0.6 F360.0 E6009.177
G1 X-7.14 Y-13.6 Z0.6 F360.0 E6009.919
G1 X-13.6 Y-7.14 Z0.6 F360.0 E6021.348
G1 X-13.6 Y-7.73 Z0.6 F360.0 E6022.088
G1 X-7.73 Y-13.6 Z0.6 F360.0 E6032.47
G1 X-8.32 Y-13.6 Z0.6 F360.0 E6033.212
G1 X-13.6 Y-8.32 Z0.6 F360.0 E6042.544
G1 X-13.6 Y-8.91 Z0.6 F360.0 E6043.285
G1 X-8.91 Y-13.6 Z0.6 F360.0 E6051.57
G1 X-9.51 Y-13.6 Z0.6 F360.0 E6052.31
G1 X-13.6 Y-9.51 Z0.6 F360.0 E6059.548
G1 X-13.6 Y-10.1 Z0.6 F360.0 E6060.29
G1 X-10.1 Y-13.6 Z0.6 F360.0 E6066.479
G1 X-10.69 Y-13.6 Z0.6 F360.0 E6067.219
G1 X-13.6 Y-10.69 Z0.6 F360.0 E6072.36
G1 X-13.6 Y-11.28 Z0.6 F360.0 E6073.102
G1 X-11.28 Y-13.6 Z0.6 F360.0 E6077.194
G1 X-11.88 Y-13.6 Z0.6 F360.0 E6077.935
G1 X-13.6 Y-11.88 Z0.6 F360.0 E6080.98
G1 X-13.6 Y-12.47 Z0.6 F360.0 E6081.72
G1 X-12.47 Y-13.6 Z0.6 F360.0 E6083.718
G1 X-13.06 Y-13.6 Z0.6 F360.0 E6084.46
G1 X-13.6 Y-13.06 Z0.6 F360.0 E6085.408
;M103
G1 X-13.95 Y-12.84 Z0.6 F3600.0
;M101
G1 X-13.95 Y-13.06 Z0.6 F360.0 E6085.684
G1 X-13.95 Y-13.95 Z0.6 F360.0 E6086.8
G1 X13.95 Y-13.95 Z0.6 F360.0 E6121.711
G1 X13.95 Y13.95 Z0.6 F360.0 E6156.621
G1 X-13.95 Y13.95 Z0.6 F360.0 E6191.531
G1 X-13.95 Y-12.84 Z0.6 F360.0 E6225.049
;M103
G1 X-14.37 Y-12.84 Z0.6 F3600.0
;M101
G1 X-14.37 Y-13.06 Z0.6 F360.0 E6225.326
G1 X-14.37 Y-14.37 Z0.6 F360.0 E6226.966
G1 X14.37 Y-14.37 Z0.6 F360.0 E6262.925
G1 X14.37 Y14.37 Z0.6 F360.0 E6298.883
G1 X-14.37 Y14.37 Z0.6 F360.0 E6334.842
G1 X-14.37 Y-12.84 Z0.6 F360.0 E6368.884
;M103
;M108 S5.629
G1 X-14.79 Y-12.84 Z0.6 F3600.0
;M101
G1 X-14.79 Y-13.06 Z0.6 F270.0 E6369.161
G1 X-14.79 Y-14.79 Z0.6 F270.0 E6371.325
G1 X14.79 Y-14.79 Z0.6 F270.0 E6408.329
G1 X14.79 Y14.79 Z0.6 F270.0 E6445.332
G1 X-14.79 Y14.79 Z0.6 F270.0 E6482.336
G1 X-14.79 Y-12.84 Z0.6 F270.0 E6516.9
;M103
;M108 S7.506
G1 X13.83 Y-14.02 Z0.9 F3600.0
;M101
G1 X14.02 Y-13.83 Z0.9 F360.0 E6517.234
G1 X14.02 Y-13.23 Z0.9 F360.0 E6517.976
G1 X13.23 Y-14.02 Z0.9 F360.0 E6519.359
G1 X12.64 Y-14.02 Z0.9 F360.0 E6520.1
G1 X14.02 Y-12.64 Z0.9 F360.0 E6522.531
G1 X14.02 Y-12.05 Z0.9 F360.0 E6523.273
G1 X12.05 Y-14.02 Z0.9 F360.0 E6526.753
G1 X11.46 Y-14.02 Z0.9 F360.0 E6527.493
G1 X14.02 Y-11.46 Z0.9 F360.0 E6532.02
G1 X14.02 Y-10.87 Z0.9 F360.0 E6532.761
G1 X10.87 Y-14.02 Z0.9 F360.0 E6538.336
G1 X10.27 Y-14.02 Z0.9 F360.0 E6539.078
G1 X14.02 Y-10.27 Z0.9 F360.0 E6545.701
G1 X14.02 Y-9.68 Z0.9 F360.0 E6546.442
G1 X9.68 Y-14.02 Z0.9 F360.0 E6554.113
G1 X9.09 Y-14.02 Z0.9 F360.0 E6554.855
G1 X14.02 Y-9.09 Z0.9 F360.0 E6563.575
G1 X14.02 Y-8.49 Z0.9 F360.0 E6564.316
G1 X8.49 Y-14.02 Z0.9 F360.0 E6574.084
G1 X7.9 Y-14.02 Z0.9 F360.0 E6574.824
G1 X14.02 Y-7.9 Z0.9 F360.0 E6585.639
G1 X14.02 Y-7.31 Z0.9 F360.0 E6586.381
G1 X7.31 Y-14.02 Z0.9 F360.0 E6598.245
G1 X6.72 Y-14.02 Z0.9 F360.0 E6598.986
G1 X14.02 Y-6.72 Z0.9 F360.0 E6611.897
G1 X14.02 Y-6.13 Z0.9 F360.0 E6612.638
G1 X6.13 Y-14.02 Z0.9 F360.0 E6626.597
G1 X5.53 Y-14.02 Z0.9 F360.0 E6627.338
G1 X14.02 Y-5.53 Z0.9 F360.0 E6642.346
G1 X14.02 Y-4.94 Z0.9 F360.0 E6643.087
G1 X4.94 Y-14.02 Z0.9 F360.0 E6659.142
G1 X4.35 Y-14.02 Z0.9 F360.0 E6659.884
G1 X14.02 Y-4.35 Z0.9 F360.0 E6676.989
G1 X14.02 Y-3.76 Z0.9 F360.0 E6677.729
G1 X3.76 Y-14.02 Z0.9 F360.0 E6695.881
G1 X3.16 Y-14.02 Z0.9 F360.0 E6696.622
G1 X14.02 Y-3.16 Z0.9 F360.0 E6715.821
G1 X14.02 Y-2.57 Z0.9 F360.0 E6716.563
G1 X2.57 Y-14.02 Z0.9 F360.0 E6736.811
G1 X1.98 Y-14.02 Z0.9 F360.0 E6737.552
G1 X14.02 Y-1.98 Z0.9 F360.0 E6758.847
G1 X14.02 Y-1.39 Z0.9 F360.0 E6759.589
G1 X1.39 Y-14.02 Z0.9 F360.0 E6781.934
G1 X0.79 Y-14.02 Z0.9 F360.0 E6782.674
G1 X14.02 Y-0.79 Z0.9 F360.0 E6806.066
G1 X14.02 Y-0.2 Z0.9 F360.0 E6806.807
G1 X0.2 Y-14.02 Z0.9 F360.0 E6831.247
G1 X-0.39 Y-14.02 Z0.9 F360.0 E6831.988
G1 X14.02 Y0.39 Z0.9 F360.0 E6857.477
G1 X14.02 Y0.98 Z0.9 F360.0 E6858.218
G1 X-0.98 Y-14.02 Z0.9 F360.0 E6884.753
G1 X-1.58 Y-14.02 Z0.9 F360.0 E6885.494
G1 X14.02 Y1.58 Z0.9 F360.0 E6913.077
G1 X14.02 Y2.17 Z0.9 F360.0 E6913.819
G1 X-2.17 Y-14.02 Z0.9 F360.0 E6942.452
G1 X-2.76 Y-14.02 Z0.9 F360.0 E6943.192
G1 X14.02 Y2.76 Z0.9 F360.0 E6972.872
G1 X14.02 Y3.35 Z0.9 F360.0 E6973.614
G1 X-3.35 Y-14.02 Z0.9 F360.0 E7004.343
G1 X-3.95 Y-14.02 Z0.9 F360.0 E7005.083
G1 X14.02 Y3.95 Z0.9 F360.0 E7036.86
G1 X14.02 Y4.54 Z0.9 F360.0 E7037.6
G1 X-4.54 Y-14.02 Z0.9 F360.0 E7070.424
G1 X-5.13 Y-14.02 Z0.9 F360.0 E7071.166
G1 X14.02 Y5.13 Z0.9 F360.0 E7105.038
G1 X14.02 Y5.72 Z0.9 F360.0 E7105.779
G1 X-5.72 Y-14.02 Z0.9 F360.0 E7140.699
G1 X-6.32 Y-14.02 Z0.9 F360.0 E7141.441
G1 X14.02 Y6.32 Z0.9 F360.0 E7177.41
G1 X14.02 Y6.91 Z0.9 F360.0 E7178.151
G1 X-6.91 Y-14.02 Z0.9 F360.0 E7215.167
G1 X-7.5 Y-14.02 Z0.9 F360.0 E7215.908
G1 X14.02 Y7.5 Z0.9 F360.0 E7253.972
G1 X14.02 Y8.09 Z0.9 F360.0 E7254.714
G1 X-8.09 Y-14.02 Z0.9 F360.0 E7293.827
G1 X-8.68 Y-14.02 Z0.9 F360.0 E7294.567
G1 X14.02 Y8.68 Z0.9 F360.0 E7334.728
G1 X14.02 Y9.28 Z0.9 F360.0 E7335.468
G1 X-9.28 Y-14.02 Z0.9 F360.0 E7376.676
G1 X-9.87 Y-14.02 Z0.9 F360.0 E7377.418
G1 X14.02 Y9.87 Z0.9 F360.0 E7419.675
G1 X14.02 Y10.46 Z0.9 F360.0 E7420.415
G1 X-10.46 Y-14.02 Z0.9 F360.0 E7463.72
G1 X-11.05 Y-14.02 Z0.9 F360.0 E7464.462
G1 X14.02 Y11.05 Z0.9 F360.0 E7508.815
G1 X14.02 Y11.65 Z0.9 F360.0 E7509.556
G1 X-11.65 Y-14.02 Z0.9 F360.0 E7554.956
G1 X-12.24 Y-14.02 Z0.9 F360.0 E7555.697
G1 X14.02 Y12.24 Z0.9 F360.0 E7602.145
G1 X14.02 Y12.83 Z0.9 F360.0 E7602.887
G1 X-12.83 Y-14.02 Z0.9 F360.0 E7650.384
G1 X-13.42 Y-14.02 Z0.9 F360.0 E7651.125
G1 X14.02 Y13.42 Z0.9 F360.0 E7699.669
G1 X14.02 Y14.02 Z0.9 F360.0 E7700.411
G1 X-14.02 Y-14.02 Z0.9 F360.0 E7750.005
G1 X-14.02 Y-13.42 Z0.9 F360.0 E7750.747
G1 X13.42 Y14.02 Z0.9 F360.0 E7799.291
G1 X12.83 Y14.02 Z0.9 F360.0 E7800.032
G1 X-14.02 Y-12.83 Z0.9 F360.0 E7847.529
G1 X-14.02 Y-12.24 Z0.9 F360.0 E7848.271
G1 X12.24 Y14.02 Z0.9 F360.0 E7894.719
G1 X11.65 Y14.02 Z0.9 F360.0 E7895.459
G1 X-14.02 Y-11.65 Z0.9 F360.0 E7940.86
G1 X-14.02 Y-11.05 Z0.9 F360.0 E7941.601
G1 X11.05 Y14.02 Z0.9 F360.0 E7985.954
G1 X10.46 Y14.02 Z0.9 F360.0 E7986.696
G1 X-14.02 Y-10.46 Z0.9 F360.0 E8030.0
G1 X-14.02 Y-9.87 Z0.9 F360.0 E8030.741
G1 X9.87 Y14.02 Z0.9 F360.0 E8072.998
G1 X9.28 Y14.02 Z0.9 F360.0 E8073.739
G1 X-14.02 Y-9.28 Z0.9 F360.0 E8114.947
G1 X-14.02 Y-8.68 Z0.9 F360.0 E8115.688
G1 X8.68 Y14.02 Z0.9 F360.0 E8155.848
G1 X8.09 Y14.02 Z0.9 F360.0 E8156.589
G1 X-14.02 Y-8.09 Z0.9 F360.0 E8195.702
G1 X-14.02 Y-7.5 Z0.9 F360.0 E8196.444
G1 X7.5 Y14.02 Z0.9 F360.0 E8234.508
G1 X6.91 Y14.02 Z0.9 F360.0 E8235.248
G1 X-14.02 Y-6.91 Z0.9 F360.0 E8272.265
G1 X-14.02 Y-6.32 Z0.9 F360.0 E8273.005
G1 X6.32 Y14.02 Z0.9 F360.0 E8308.975
G1 X5.72 Y14.02 Z0.9 F360.0 E8309.717
G1 X-14.02 Y-5.72 Z0.9 F360.0 E8344.637
G1 X-14.02 Y-5.13 Z0.9 F360.0 E8345.377
G1 X5.13 Y14.02 Z0.9 F360.0 E8379.25
G1 X4.54 Y14.02 Z0.9 F360.0 E8379.992
G1 X-14.02 Y-4.54 Z0.9 F360.0 E8412.815
G1 X-14.02 Y-3.95 Z0.9 F360.0 E8413.556
G1 X3.95 Y14.02 Z0.9 F360.0 E8445.332
G1 X3.35 Y14.02 Z0.9 F360.0 E8446.073
G1 X-14.02 Y-3.35 Z0.9 F360.0 E8476.802
G1 X-14.02 Y-2.76 Z0.9 F360.0 E8477.544
G1 X2.76 Y14.02 Z0.9 F360.0 E8507.223
G1 X2.17 Y14.02 Z0.9 F360.0 E8507.964
G1 X-14.02 Y-2.17 Z0.9 F360.0 E8536.596
G1 X-14.02 Y-1.58 Z0.9 F360.0 E8537.338
G1 X1.58 Y14.02 Z0.9 F360.0 E8564.922
G1 X0.98 Y14.02 Z0.9 F360.0 E8565.662
G1 X-14.02 Y-0.98 Z0.9 F360.0 E8592.198
G1 X-14.02 Y-0.39 Z0.9 F360.0 E8592.939
G1 X0.39 Y14.02 Z0.9 F360.0 E8618.427
G1 X-0.2 Y14.02 Z0.9 F360.0 E8619.169
G1 X-14.02 Y0.2 Z0.9 F360.0 E8643.609
G1 X-14.02 Y0.79 Z0.9 F360.0 E8644.349
G1 X-0.79 Y14.02 Z0.9 F360.0 E8667.741
G1 X-1.39 Y14.02 Z0.9 F360.0 E8668.482
G1 X-14.02 Y1.39 Z0.9 F360.0 E8690.827
G1 X-14.02 Y1.98 Z0.9 F360.0 E8691.568
G1 X-1.98 Y14.02 Z0.9 F360.0 E8712.864
G1 X-2.57 Y14.02 Z0.9 F360.0 E8713.605
G1 X-14.02 Y2.57 Z0.9 F360.0 E8733.853
G1 X-14.02 Y3.16 Z0.9 F360.0 E8734.595
G1 X-3.16 Y14.02 Z0.9 F360.0 E8753.794
G1 X-3.76 Y14.02 Z0.9 F360.0 E8754.535
G1 X-14.02 Y3.76 Z0.9 F360.0 E8772.686
G1 X-14.02 Y4.35 Z0.9 F360.0 E8773.427
G1 X-4.35 Y14.02 Z0.9 F360.0 E8790.531
G1 X-4.94 Y14.02 Z0.9 F360.0 E8791.273
G1 X-14.02 Y4.94 Z0.9 F360.0 E8807.329
G1 X-14.02 Y5.53 Z0.9 F360.0 E8808.069
G1 X-5.53 Y14.02 Z0.9 F360.0 E8823.077
G1 X-6.13 Y14.02 Z0.9 F360.0 E8823.819
G1 X-14.02 Y6.13 Z0.9 F360.0 E8837.778
G1 X-14.02 Y6.72 Z0.9 F360.0 E8838.518
G1 X-6.72 Y14.02 Z0.9 F360.0 E8851.43
G1 X-7.31 Y14.02 Z0.9 F360.0 E8852.17
G1 X-14.02 Y7.31 Z0.9 F360.0 E8864.035
G1 X-14.02 Y7.9 Z0.9 F360.0 E8864.776
G1 X-7.9 Y14.02 Z0.9 F360.0 E8875.591
G1 X-8.49 Y14.02 Z0.9 F360.0 E8876.332
G1 X-14.02 Y8.49 Z0.9 F360.0 E8886.1
G1 X-14.02 Y9.09 Z0.9 F360.0 E8886.84
G1 X-9.09 Y14.02 Z0.9 F360.0 E8895.561
G1 X-9.68 Y14.02 Z0.9 F360.0 E8896.302
G1 X-14.02 Y9.68 Z0.9 F360.0 E8903.974
G1 X-14.02 Y10.27 Z0.9 F360.0 E8904.714
G1 X-10.27 Y14.02 Z0.9 F360.0 E8911.338
G1 X-10.87 Y14.02 Z0.9 F360.0 E8912.08
G1 X-14.02 Y10.87 Z0.9 F360.0 E8917.655
G1 X-14.02 Y11.46 Z0.9 F360.0 E8918.395
G1 X-11.46 Y14.02 Z0.9 F360.0 E8922.922
G1 X-12.05 Y14.02 Z0.9 F360.0 E8923.663
G1 X-14.02 Y12.05 Z0.9 F360.0 E8927.143
G1 X-14.02 Y12.64 Z0.9 F360.0 E8927.885
G1 X-12.64 Y14.02 Z0.9 F360.0 E8930.316
G1 X-13.23 Y14.02 Z0.9 F360.0 E8931.056
G1 X-14.02 Y13.23 Z0.9 F360.0 E8932.44
G1 X-14.02 Y13.83 Z0.9 F360.0 E8933.182
G1 X-13.83 Y14.02 Z0.9 F360.0 E8933.516
;M103
G1 X-14.12 Y14.37 Z0.9 F3600.0
;M101
G1 X-14.37 Y14.37 Z0.9 F360.0 E8933.826
G1 X-14.37 Y-14.37 Z0.9 F360.0 E8969.785
G1 X14.37 Y-14.37 Z0.9 F360.0 E9005.744
G1 X14.37 Y14.37 Z0.9 F360.0 E9041.703
G1 X-13.83 Y14.37 Z0.9 F360.0 E9076.979
G1 X-14.12 Y14.37 Z0.9 F360.0 E9077.351
;M103
;M108 S5.629
G1 X-14.12 Y14.79 Z0.9 F3600.0
;M101
G1 X-14.79 Y14.79 Z0.9 F270.0 E9078.185
G1 X-14.79 Y-14.79 Z0.9 F270.0 E9115.189
G1 X14.79 Y-14.79 Z0.9 F270.0 E9152.193
G1 X14.79 Y14.79 Z0.9 F270.0 E9189.197
G1 X-13.83 Y14.79 Z0.9 F270.0 E9224.995
G1 X-14.12 Y14.79 Z0.9 F270.0 E9225.366
;M103
;M108 S7.506
G1 X13.6 Y13.06 Z1.2 F3600.0
;M101
G1 X13.06 Y13.6 Z1.2 F360.0 E9226.314
G1 X12.47 Y13.6 Z1.2 F360.0 E9227.056
G1 X13.6 Y12.47 Z1.2 F360.0 E9229.054
G1 X13.6 Y11.88 Z1.2 F360.0 E9229.794
G1 X11.88 Y13.6 Z1.2 F360.0 E9232.839
G1 X11.28 Y13.6 Z1.2 F360.0 E9233.58
G1 X13.6 Y11.28 Z1.2 F360.0 E9237.672
G1 X13.6 Y10.69 Z1.2 F360.0 E9238.414
G1 X10.69 Y13.6 Z1.2 F360.0 E9243.555
G1 X10.1 Y13.6 Z1.2 F360.0 E9244.295
G1 X13.6 Y10.1 Z1.2 F360.0 E9250.484
G1 X13.6 Y9.51 Z1.2 F360.0 E9251.226
G1 X9.51 Y13.6 Z1.2 F360.0 E9258.464
G1 X8.91 Y13.6 Z1.2 F360.0 E9259.204
G1 X13.6 Y8.91 Z1.2 F360.0 E9267.489
G1 X13.6 Y8.32 Z1.2 F360.0 E9268.23
G1 X8.32 Y13.6 Z1.2 F360.0 E9277.562
G1 X7.73 Y13.6 Z1.2 F360.0 E9278.304
G1 X13.6 Y7.73 Z1.2 F360.0 E9288.686
G1 X13.6 Y7.14 Z1.2 F360.0 E9289.426
G1 X7.14 Y13.6 Z1.2 F360.0 E9300.855
G1 X6.54 Y13.6 Z1.2 F360.0 E9301.597
G1 X13.6 Y6.54 Z1.2 F360.0 E9314.075
G1 X13.6 Y5.95 Z1.2 F360.0 E9314.816
G1 X5.95 Y13.6 Z1.2 F360.0 E9328.341
G1 X5.36 Y13.6 Z1.2 F360.0 E9329.082
G1 X13.6 Y5.36 Z1.2 F360.0 E9343.654
G1 X13.6 Y4.77 Z1.2 F360.0 E9344.396
G1 X4.77 Y13.6 Z1.2 F360.0 E9360.018
G1 X4.18 Y13.6 Z1.2 F360.0 E9360.759
G1 X13.6 Y4.18 Z1.2 F360.0 E9377.428
G1 X13.6 Y3.58 Z1.2 F360.0 E9378.169
G1 X3.58 Y13.6 Z1.2 F360.0 E9395.885
G1 X2.99 Y13.6 Z1.2 F360.0 E9396.627
G1 X13.6 Y2.99 Z1.2 F360.0 E9415.393
G1 X13.6 Y2.4 Z1.2 F360.0 E9416.133
G1 X2.4 Y13.6 Z1.2 F360.0 E9435.946
G1 X1.81 Y13.6 Z1.2 F360.0 E9436.688
G1 X13.6 Y1.81 Z1.2 F360.0 E9457.55
G1 X13.6 Y1.21 Z1.2 F360.0 E9458.291
G1 X1.21 Y13.6 Z1.2 F360.0 E9480.2
G1 X0.62 Y13.6 Z1.2 F360.0 E9480.941
G1 X13.6 Y0.62 Z1.2 F360.0 E9503.898
G1 X13.6 Y0.03 Z1.2 F360.0 E9504.64
G1 X0.03 Y13.6 Z1.2 F360.0 E9528.646
G1 X-0.56 Y13.6 Z1.2 F360.0 E9529.386
G1 X13.6 Y-0.56 Z1.2 F360.0 E9554.44
G1 X13.6 Y-1.16 Z1.2 F360.0 E9555.182
G1 X-1.16 Y13.6 Z1.2 F360.0 E9581.284
G1 X-1.75 Y13.6 Z1.2 F360.0 E9582.025
G1 X13.6 Y-1.75 Z1.2 F360.0 E9609.175
G1 X13.6 Y-2.34 Z1.2 F360.0 E9609.915
G1 X-2.34 Y13.6 Z1.2 F360.0 E9638.112
G1 X-2.93 Y13.6 Z1.2 F360.0 E9638.854
G1 X13.6 Y-2.93 Z1.2 F360.0 E9668.101
G1 X13.6 Y-3.53 Z1.2 F360.0 E9668.841
G1 X-3.53 Y13.6 Z1.2 F360.0 E9699.135
G1 X-4.12 Y13.6 Z1.2 F360.0 E9699.875
G1 X13.6 Y-4.12 Z1.2 F360.0 E9731.216
G1 X13.6 Y-4.71 Z1.2 F360.0 E9731.958
G1 X-4.71 Y13.6 Z1.2 F360.0 E9764.348
G1 X-5.3 Y13.6 Z1.2 F360.0 E9765.089
G1 X13.6 Y-5.3 Z1.2 F360.0 E9798.527
G1 X13.6 Y-5.9 Z1.2 F360.0 E9799.268
G1 X-5.9 Y13.6 Z1.2 F360.0 E9833.755
G1 X-6.49 Y13.6 Z1.2 F360.0 E9834.496
G1 X13.6 Y-6.49 Z1.2 F360.0 E9870.03
G1 X13.6 Y-7.08 Z1.2 F360.0 E9870.77
G1 X-7.08 Y13.6 Z1.2 F360.0 E9907.352
G1 X-7.67 Y13.6 Z1.2 F360.0 E9908.093
G1 X13.6 Y-7.67 Z1.2 F360.0 E9945.724
G1 X13.6 Y-8.27 Z1.2 F360.0 E9946.465
G1 X-8.27 Y13.6 Z1.2 F360.0 E9985.142
G1 X-8.86 Y13.6 Z1.2 F360.0 E9985.884
G1 X13.6 Y-8.86 Z1.2 F360.0 E10025.611
G1 X13.6 Y-9.45 Z1.2 F360.0 E10026.352
G1 X-9.45 Y13.6 Z1.2 F360.0 E10067.126
G1 X-10.04 Y13.6 Z1.2 F360.0 E10067.867
G1 X13.6 Y-10.04 Z1.2 F360.0 E10109.688
G1 X13.6 Y-10.64 Z1.2 F360.0 E10110.43
G1 X-10.64 Y13.6 Z1.2 F360.0 E10153.301
G1 X-11.23 Y13.6 Z1.2 F360.0 E10154.042
G1 X13.6 Y-11.23 Z1.2 F360.0 E10197.96
G1 X13.6 Y-11.82 Z1.2 F360.0 E10198.7
G1 X-11.82 Y13.6 Z1.2 F360.0 E10243.666
G1 X-12.41 Y13.6 Z1.2 F360.0 E10244.408
G1 X13.6 Y-12.41 Z1.2 F360.0 E10290.422
G1 X13.6 Y-13.0 Z1.2 F360.0 E10291.163
G1 X-13.0 Y13.6 Z1.2 F360.0 E10338.225
G1 X-13.6 Y13.6 Z1.2 F360.0 E10338.967
G1 X13.6 Y-13.6 Z1.2 F360.0 E10387.078
G1 X13.0 Y-13.6 Z1.2 F360.0 E10387.82
G1 X-13.6 Y13.0 Z1.2 F360.0 E10434.882
G1 X-13.6 Y12.41 Z1.2 F360.0 E10435.622
G1 X12.41 Y-13.6 Z1.2 F360.0 E10481.637
G1 X11.82 Y-13.6 Z1.2 F360.0 E10482.379
G1 X-13.6 Y11.82 Z1.2 F360.0 E10527.344
G1 X-13.6 Y11.23 Z1.2 F360.0 E10528.085
G1 X11.23 Y-13.6 Z1.2 F360.0 E10572.003
G1 X10.64 Y-13.6 Z1.2 F360.0 E10572.744
G1 X-13.6 Y10.64 Z1.2 F360.0 E10615.614
G1 X-13.6 Y10.04 Z1.2 F360.0 E10616.356
G1 X10.04 Y-13.6 Z1.2 F360.0 E10658.178
G1 X9.45 Y-13.6 Z1.2 F360.0 E10658.919
G1 X-13.6 Y9.45 Z1.2 F360.0 E10699.693
G1 X-13.6 Y8.86 Z1.2 F360.0 E10700.433
G1 X8.86 Y-13.6 Z1.2 F360.0 E10740.16
G1 X8.27 Y-13.6 Z1.2 F360.0 E10740.902
G1 X-13.6 Y8.27 Z1.2 F360.0 E10779.58
G1 X-13.6 Y7.67 Z1.2 F360.0 E10780.321
G1 X7.67 Y-13.6 Z1.2 F360.0 E10817.951
G1 X7.08 Y-13.6 Z1.2 F360.0 E10818.693
G1 X-13.6 Y7.08 Z1.2 F360.0 E10855.274
G1 X-13.6 Y6.49 Z1.2 F360.0 E10856.015
G1 X6.49 Y-13.6 Z1.2 F360.0 E10891.549
G1 X5.9 Y-13.6 Z1.2 F360.0 E10892.29
G1 X-13.6 Y5.9 Z1.2 F360.0 E10926.776
G1 X-13.6 Y5.3 Z1.2 F360.0 E10927.518
G1 X5.3 Y-13.6 Z1.2 F360.0 E10960.956
G1 X4.71 Y-13.6 Z1.2 F360.0 E10961.696
G1 X-13.6 Y4.71 Z1.2 F360.0 E10994.086
G1 X-13.6 Y4.12 Z1.2 F360.0 E10994.828
G1 X4.12 Y-13.6 Z1.2 F360.0 E11026.169
G1 X3.53 Y-13.6 Z1.2 F360.0 E11026.91
G1 X-13.6 Y3.53 Z1.2 F360.0 E11057.203
G1 X-13.6 Y2.93 Z1.2 F360.0 E11057.944
G1 X2.93 Y-13.6 Z1.2 F360.0 E11087.19
G1 X2.34 Y-13.6 Z1.2 F360.0 E11087.932
G1 X-13.6 Y2.34 Z1.2 F360.0 E11116.129
G1 X-13.6 Y1.75 Z1.2 F360.0 E11116.87
G1 X1.75 Y-13.6 Z1.2 F360.0 E11144.02
G1 X1.16 Y-13.6 Z1.2 F360.0 E11144.761
G1 X-13.6 Y1.16 Z1.2 F360.0 E11170.863
G1 X-13.6 Y0.56 Z1.2 F360.0 E11171.605
G1 X0.56 Y-13.6 Z1.2 F360.0 E11196.658
G1 X-0.03 Y-13.6 Z1.2 F360.0 E11197.399
G1 X-13.6 Y-0.03 Z1.2 F360.0 E11221.405
G1 X-13.6 Y-0.62 Z1.2 F360.0 E11222.147
G1 X-0.62 Y-13.6 Z1.2 F360.0 E11245.104
G1 X-1.21 Y-13.6 Z1.2 F360.0 E11245.844
G1 X-13.6 Y-1.21 Z1.2 F360.0 E11267.754
G1 X-13.6 Y-1.81 Z1.2 F360.0 E11268.494
G1 X-1.81 Y-13.6 Z1.2 F360.0 E11289.356
G1 X-2.4 Y-13.6 Z1.2 F360.0 E11290.098
G1 X-13.6 Y-2.4 Z1.2 F360.0 E11309.911
G1 X-13.6 Y-2.99 Z1.2 F360.0 E11310.652
G1 X-2.99 Y-13.6 Z1.2 F360.0 E11329.418
G1 X-3.58 Y-13.6 Z1.2 F360.0 E11330.16
G1 X-13.6 Y-3.58 Z1.2 F360.0 E11347.876
G1 X-13.6 Y-4.18 Z1.2 F360.0 E11348.617
G1 X-4.18 Y-13.6 Z1.2 F360.0 E11365.286
G1 X-4.77 Y-13.6 Z1.2 F360.0 E11366.027
G1 X-13.6 Y-4.77 Z1.2 F360.0 E11381.648
G1 X-13.6 Y-5.36 Z1.2 F360.0 E11382.39
G1 X-5.36 Y-13.6 Z1.2 F360.0 E11396.963
G1 X-5.95 Y-13.6 Z1.2 F360.0 E11397.704
G1 X-13.6 Y-5.95 Z1.2 F360.0 E11411.229
G1 X-13.6 Y-6.54 Z1.2 F360.0 E11411.97
G1 X-6.54 Y-13.6 Z1.2 F360.0 E11424.448
G1 X-7.14 Y-13.6 Z1.2 F360.0 E11425.189
G1 X-13.6 Y-7.14 Z1.2 F360.0 E11436.618
G1 X-13.6 Y-7.73 Z1.2 F360.0 E11437.359
G1 X-7.73 Y-13.6 Z1.2 F360.0 E11447.74
G1 X-8.32 Y-13.6 Z1.2 F360.0 E11448.482
G1 X-13.6 Y-8.32 Z1.2 F360.0 E11457.815
G1 X-13.6 Y-8.91 Z1.2 F360.0 E11458.555
G1 X-8.91 Y-13.6 Z1.2 F360.0 E11466.84
G1 X-9.51 Y-13.6 Z1.2 F360.0 E11467.581
G1 X-13.6 Y-9.51 Z1.2 F360.0 E11474.819
G1 X-13.6 Y-10.1 Z1.2 F360.0 E11475.561
G1 X-10.1 Y-13.6 Z1.2 F360.0 E11481.749
G1 X-10.69 Y-13.6 Z1.2 F360.0 E11482.49
G1 X-13.6 Y-10.69 Z1.2 F360.0 E11487.631
G1 X-13.6 Y-11.28 Z1.2 F360.0 E11488.373
G1 X-11.28 Y-13.6 Z1.2 F360.0 E11492.465
G1 X-11.88 Y-13.6 Z1.2 F360.0 E11493.206
G1 X-13.6 Y-11.88 Z1.2 F360.0 E11496.25
G1 X-13.6 Y-12.47 Z1.2 F360.0 E11496.991
G1 X-12.47 Y-13.6 Z1.2 F360.0 E11498.988
G1 X-13.06 Y-13.6 Z1.2 F360.0 E11499.73
G1 X-13.6 Y-13.06 Z1.2 F360.0 E11500.678
;M103
G1 X-13.95 Y-13.04 Z1.2 F3600.0
;M101
G1 X-13.95 Y-13.06 Z1.2 F360.0 E11500.707
G1 X-13.95 Y-13.95 Z1.2 F360.0 E11501.823
G1 X13.95 Y-13.95 Z1.2 F360.0 E11536.734
G1 X13.95 Y13.95 Z1.2 F360.0 E11571.644
G1 X-13.95 Y13.95 Z1.2 F360.0 E11606.554
G1 X-13.95 Y-13.04 Z1.2 F360.0 E11640.32
;M103
G1 X-14.37 Y-13.06 Z1.2 F3600.0
;M101
G1 X-14.37 Y-14.37 Z1.2 F360.0 E11641.96
G1 X14.37 Y-14.37 Z1.2 F360.0 E11677.919
G1 X14.37 Y14.37 Z1.2 F360.0 E11713.878
G1 X-14.37 Y14.37 Z1.2 F360.0 E11749.836
G1 X-14.37 Y-13.06 Z1.2 F360.0 E11784.155
;M103
;M108 S5.629
G1 X-14.79 Y-13.06 Z1.2 F3600.0
;M101
G1 X-14.79 Y-14.79 Z1.2 F270.0 E11786.319
G1 X14.79 Y-14.79 Z1.2 F270.0 E11823.323
G1 X14.79 Y14.79 Z1.2 F270.0 E11860.327
G1 X-14.79 Y14.79 Z1.2 F270.0 E11897.33
G1 X-14.79 Y-13.06 Z1.2 F270.0 E11932.17
;M103
;M108 S7.506
G1 X13.06 Y-13.6 Z1.5 F3600.0
;M101
G1 X13.6 Y-13.06 Z1.5 F360.0 E11933.119
G1 X13.6 Y-12.47 Z1.5 F360.0 E11933.86
G1 X12.47 Y-13.6 Z1.5 F360.0 E11935.858
G1 X11.88 Y-13.6 Z1.5 F360.0 E11936.598
G1 X13.6 Y-11.88 Z1.5 F360.0 E11939.643
G1 X13.6 Y-11.28 Z1.5 F360.0 E11940.384
G1 X11.28 Y-13.6 Z1.5 F360.0 E11944.476
G1 X10.69 Y-13.6 Z1.5 F360.0 E11945.218
G1 X13.6 Y-10.69 Z1.5 F360.0 E11950.359
G1 X13.6 Y-10.1 Z1.5 F360.0 E11951.099
G1 X10.1 Y-13.6 Z1.5 F360.0 E11957.288
G1 X9.51 Y-13.6 Z1.5 F360.0 E11958.03
G1 X13.6 Y-9.51 Z1.5 F360.0 E11965.268
G1 X13.6 Y-8.91 Z1.5 F360.0 E11966.008
G1 X8.91 Y-13.6 Z1.5 F360.0 E11974.293
G1 X8.32 Y-13.6 Z1.5 F360.0 E11975.034
G1 X13.6 Y-8.32 Z1.5 F360.0 E11984.366
G1 X13.6 Y-7.73 Z1.5 F360.0 E11985.108
G1 X7.73 Y-13.6 Z1.5 F360.0 E11995.49
G1 X7.14 Y-13.6 Z1.5 F360.0 E11996.23
G1 X13.6 Y-7.14 Z1.5 F360.0 E12007.659
G1 X13.6 Y-6.54 Z1.5 F360.0 E12008.401
G1 X6.54 Y-13.6 Z1.5 F360.0 E12020.879
G1 X5.95 Y-13.6 Z1.5 F360.0 E12021.62
G1 X13.6 Y-5.95 Z1.5 F360.0 E12035.145
G1 X13.6 Y-5.36 Z1.5 F360.0 E12035.886
G1 X5.36 Y-13.6 Z1.5 F360.0 E12050.458
G1 X4.77 Y-13.6 Z1.5 F360.0 E12051.2
G1 X13.6 Y-4.77 Z1.5 F360.0 E12066.822
G1 X13.6 Y-4.18 Z1.5 F360.0 E12067.563
G1 X4.18 Y-13.6 Z1.5 F360.0 E12084.232
G1 X3.58 Y-13.6 Z1.5 F360.0 E12084.973
G1 X13.6 Y-3.58 Z1.5 F360.0 E12102.689
G1 X13.6 Y-2.99 Z1.5 F360.0 E12103.431
G1 X2.99 Y-13.6 Z1.5 F360.0 E12122.197
G1 X2.4 Y-13.6 Z1.5 F360.0 E12122.937
G1 X13.6 Y-2.4 Z1.5 F360.0 E12142.75
G1 X13.6 Y-1.81 Z1.5 F360.0 E12143.492
G1 X1.81 Y-13.6 Z1.5 F360.0 E12164.354
G1 X1.21 Y-13.6 Z1.5 F360.0 E12165.095
G1 X13.6 Y-1.21 Z1.5 F360.0 E12187.004
G1 X13.6 Y-0.62 Z1.5 F360.0 E12187.745
G1 X0.62 Y-13.6 Z1.5 F360.0 E12210.702
G1 X0.03 Y-13.6 Z1.5 F360.0 E12211.444
G1 X13.6 Y-0.03 Z1.5 F360.0 E12235.45
G1 X13.6 Y0.56 Z1.5 F360.0 E12236.19
G1 X-0.56 Y-13.6 Z1.5 F360.0 E12261.244
G1 X-1.16 Y-13.6 Z1.5 F360.0 E12261.986
G1 X13.6 Y1.16 Z1.5 F360.0 E12288.088
G1 X13.6 Y1.75 Z1.5 F360.0 E12288.829
G1 X-1.75 Y-13.6 Z1.5 F360.0 E12315.979
G1 X-2.34 Y-13.6 Z1.5 F360.0 E12316.719
G1 X13.6 Y2.34 Z1.5 F360.0 E12344.916
G1 X13.6 Y2.93 Z1.5 F360.0 E12345.658
G1 X-2.93 Y-13.6 Z1.5 F360.0 E12374.905
G1 X-3.53 Y-13.6 Z1.5 F360.0 E12375.645
G1 X13.6 Y3.53 Z1.5 F360.0 E12405.939
G1 X13.6 Y4.12 Z1.5 F360.0 E12406.679
G1 X-4.12 Y-13.6 Z1.5 F360.0 E12438.02
G1 X-4.71 Y-13.6 Z1.5 F360.0 E12438.762
G1 X13.6 Y4.71 Z1.5 F360.0 E12471.153
G1 X13.6 Y5.3 Z1.5 F360.0 E12471.893
G1 X-5.3 Y-13.6 Z1.5 F360.0 E12505.331
G1 X-5.9 Y-13.6 Z1.5 F360.0 E12506.072
G1 X13.6 Y5.9 Z1.5 F360.0 E12540.559
G1 X13.6 Y6.49 Z1.5 F360.0 E12541.3
G1 X-6.49 Y-13.6 Z1.5 F360.0 E12576.834
G1 X-7.08 Y-13.6 Z1.5 F360.0 E12577.574
G1 X13.6 Y7.08 Z1.5 F360.0 E12614.156
G1 X13.6 Y7.67 Z1.5 F360.0 E12614.898
G1 X-7.67 Y-13.6 Z1.5 F360.0 E12652.528
G1 X-8.27 Y-13.6 Z1.5 F360.0 E12653.269
G1 X13.6 Y8.27 Z1.5 F360.0 E12691.946
G1 X13.6 Y8.86 Z1.5 F360.0 E12692.688
G1 X-8.86 Y-13.6 Z1.5 F360.0 E12732.415
G1 X-9.45 Y-13.6 Z1.5 F360.0 E12733.156
G1 X13.6 Y9.45 Z1.5 F360.0 E12773.93
G1 X13.6 Y10.04 Z1.5 F360.0 E12774.671
G1 X-10.04 Y-13.6 Z1.5 F360.0 E12816.492
G1 X-10.64 Y-13.6 Z1.5 F360.0 E12817.234
G1 X13.6 Y10.64 Z1.5 F360.0 E12860.105
G1 X13.6 Y11.23 Z1.5 F360.0 E12860.846
G1 X-11.23 Y-13.6 Z1.5 F360.0 E12904.764
G1 X-11.82 Y-13.6 Z1.5 F360.0 E12905.504
G1 X13.6 Y11.82 Z1.5 F360.0 E12950.47
G1 X13.6 Y12.41 Z1.5 F360.0 E12951.212
G1 X-12.41 Y-13.6 Z1.5 F360.0 E12997.226
G1 X-13.0 Y-13.6 Z1.5 F360.0 E12997.967
G1 X13.6 Y13.0 Z1.5 F360.0 E13045.029
G1 X13.6 Y13.6 Z1.5 F360.0 E13045.771
G1 X-13.6 Y-13.6 Z1.5 F360.0 E13093.882
G1 X-13.6 Y-13.0 Z1.5 F360.0 E13094.624
G1 X13.0 Y13.6 Z1.5 F360.0 E13141.686
G1 X12.41 Y13.6 Z1.5 F360.0 E13142.426
G1 X-13.6 Y-12.41 Z1.5 F360.0 E13188.441
G1 X-13.6 Y-11.82 Z1.5 F360.0 E13189.183
G1 X11.82 Y13.6 Z1.5 F360.0 E13234.148
G1 X11.23 Y13.6 Z1.5 F360.0 E13234.889
G1 X-13.6 Y-11.23 Z1.5 F360.0 E13278.807
G1 X-13.6 Y-10.64 Z1.5 F360.0 E13279.548
G1 X10.64 Y13.6 Z1.5 F360.0 E13322.418
G1 X10.04 Y13.6 Z1.5 F360.0 E13323.16
G1 X-13.6 Y-10.04 Z1.5 F360.0 E13364.982
G1 X-13.6 Y-9.45 Z1.5 F360.0 E13365.723
G1 X9.45 Y13.6 Z1.5 F360.0 E13406.497
G1 X8.86 Y13.6 Z1.5 F360.0 E13407.237
G1 X-13.6 Y-8.86 Z1.5 F360.0 E13446.964
G1 X-13.6 Y-8.27 Z1.5 F360.0 E13447.706
G1 X8.27 Y13.6 Z1.5 F360.0 E13486.384
G1 X7.67 Y13.6 Z1.5 F360.0 E13487.125
G1 X-13.6 Y-7.67 Z1.5 F360.0 E13524.755
G1 X-13.6 Y-7.08 Z1.5 F360.0 E13525.497
G1 X7.08 Y13.6 Z1.5 F360.0 E13562.078
G1 X6.49 Y13.6 Z1.5 F360.0 E13562.819
G1 X-13.6 Y-6.49 Z1.5 F360.0 E13598.353
G1 X-13.6 Y-5.9 Z1.5 F360.0 E13599.094
G1 X5.9 Y13.6 Z1.5 F360.0 E13633.58
G1 X5.3 Y13.6 Z1.5 F360.0 E13634.322
G1 X-13.6 Y-5.3 Z1.5 F360.0 E13667.76
G1 X-13.6 Y-4.71 Z1.5 F360.0 E13668.5
G1 X4.71 Y13.6 Z1.5 F360.0 E13700.89
G1 X4.12 Y13.6 Z1.5 F360.0 E13701.632
G1 X-13.6 Y-4.12 Z1.5 F360.0 E13732.973
G1 X-13.6 Y-3.53 Z1.5 F360.0 E13733.714
G1 X3.53 Y13.6 Z1.5 F360.0 E13764.008
G1 X2.93 Y13.6 Z1.5 F360.0 E13764.748
G1 X-13.6 Y-2.93 Z1.5 F360.0 E13793.994
G1 X-13.6 Y-2.34 Z1.5 F360.0 E13794.736
G1 X2.34 Y13.6 Z1.5 F360.0 E13822.933
G1 X1.75 Y13.6 Z1.5 F360.0 E13823.674
G1 X-13.6 Y-1.75 Z1.5 F360.0 E13850.824
G1 X-13.6 Y-1.16 Z1.5 F360.0 E13851.565
G1 X1.16 Y13.6 Z1.5 F360.0 E13877.667
G1 X0.56 Y13.6 Z1.5 F360.0 E13878.409
G1 X-13.6 Y-0.56 Z1.5 F360.0 E13903.462
G1 X-13.6 Y0.03 Z1.5 F360.0 E13904.203
G1 X-0.03 Y13.6 Z1.5 F360.0 E13928.209
G1 X-0.62 Y13.6 Z1.5 F360.0 E13928.951
G1 X-13.6 Y0.62 Z1.5 F360.0 E13951.908
G1 X-13.6 Y1.21 Z1.5 F360.0 E13952.648
G1 X-1.21 Y13.6 Z1.5 F360.0 E13974.558
G1 X-1.81 Y13.6 Z1.5 F360.0 E13975.298
G1 X-13.6 Y1.81 Z1.5 F360.0 E13996.161
G1 X-13.6 Y2.4 Z1.5 F360.0 E13996.902
G1 X-2.4 Y13.6 Z1.5 F360.0 E14016.715
G1 X-2.99 Y13.6 Z1.5 F360.0 E14017.456
G1 X-13.6 Y2.99 Z1.5 F360.0 E14036.222
G1 X-13.6 Y3.58 Z1.5 F360.0 E14036.964
G1 X-3.58 Y13.6 Z1.5 F360.0 E14054.68
G1 X-4.18 Y13.6 Z1.5 F360.0 E14055.421
G1 X-13.6 Y4.18 Z1.5 F360.0 E14072.09
G1 X-13.6 Y4.77 Z1.5 F360.0 E14072.831
G1 X-4.77 Y13.6 Z1.5 F360.0 E14088.452
G1 X-5.36 Y13.6 Z1.5 F360.0 E14089.194
G1 X-13.6 Y5.36 Z1.5 F360.0 E14103.767
G1 X-13.6 Y5.95 Z1.5 F360.0 E14104.508
G1 X-5.95 Y13.6 Z1.5 F360.0 E14118.033
G1 X-6.54 Y13.6 Z1.5 F360.0 E14118.774
G1 X-13.6 Y6.54 Z1.5 F360.0 E14131.252
G1 X-13.6 Y7.14 Z1.5 F360.0 E14131.993
G1 X-7.14 Y13.6 Z1.5 F360.0 E14143.422
G1 X-7.73 Y13.6 Z1.5 F360.0 E14144.163
G1 X-13.6 Y7.73 Z1.5 F360.0 E14154.545
G1 X-13.6 Y8.32 Z1.5 F360.0 E14155.286
G1 X-8.32 Y13.6 Z1.5 F360.0 E14164.619
G1 X-8.91 Y13.6 Z1.5 F360.0 E14165.359
G1 X-13.6 Y8.91 Z1.5 F360.0 E14173.644
G1 X-13.6 Y9.51 Z1.5 F360.0 E14174.385
G1 X-9.51 Y13.6 Z1.5 F360.0 E14181.623
G1 X-10.1 Y13.6 Z1.5 F360.0 E14182.365
G1 X-13.6 Y10.1 Z1.5 F360.0 E14188.553
G1 X-13.6 Y10.69 Z1.5 F360.0 E14189.294
G1 X-10.69 Y13.6 Z1.5 F360.0 E14194.435
G1 X-11.28 Y13.6 Z1.5 F360.0 E14195.177
G1 X-13.6 Y11.28 Z1.5 F360.0 E14199.269
G1 X-13.6 Y11.88 Z1.5 F360.0 E14200.01
G1 X-11.88 Y13.6 Z1.5 F360.0 E14203.054
G1 X-12.47 Y13.6 Z1.5 F360.0 E14203.795
G1 X-13.6 Y12.47 Z1.5 F360.0 E14205.792
G1 X-13.6 Y13.06 Z1.5 F360.0 E14206.534
G1 X-13.06 Y13.6 Z1.5 F360.0 E14207.482
;M103
G1 X-12.72 Y13.95 Z1.5 F3600.0
;M101
G1 X-13.06 Y13.95 Z1.5 F360.0 E14207.912
G1 X-13.95 Y13.95 Z1.5 F360.0 E14209.027
G1 X-13.95 Y-13.95 Z1.5 F360.0 E14243.938
G1 X13.95 Y-13.95 Z1.5 F360.0 E14278.848
G1 X13.95 Y13.95 Z1.5 F360.0 E14313.759
G1 X-12.72 Y13.95 Z1.5 F360.0 E14347.124
;M103
G1 X-12.72 Y14.37 Z1.5 F3600.0
;M101
G1 X-13.06 Y14.37 Z1.5 F360.0 E14347.553
G1 X-14.37 Y14.37 Z1.5 F360.0 E14349.193
G1 X-14.37 Y-14.37 Z1.5 F360.0 E14385.152
G1 X14.37 Y-14.37 Z1.5 F360.0 E14421.111
G1 X14.37 Y14.37 Z1.5 F360.0 E14457.069
G1 X-12.72 Y14.37 Z1.5 F360.0 E14490.959
;M103
;M108 S5.629
G1 X-12.72 Y14.79 Z1.5 F3600.0
;M101
G1 X-13.06 Y14.79 Z1.5 F270.0 E14491.388
G1 X-14.79 Y14.79 Z1.5 F270.0 E14493.552
G1 X-14.79 Y-14.79 Z1.5 F270.0 E14530.556
G1 X14.79 Y-14.79 Z1.5 F270.0 E14567.56
G1 X14.79 Y14.79 Z1.5 F270.0 E14604.564
G1 X-12.72 Y14.79 Z1.5 F270.0 E14638.974
;M103
;M108 S7.506
G1 X13.6 Y13.06 Z1.8 F3600.0
;M101
G1 X13.06 Y13.6 Z1.8 F360.0 E14639.923
G1 X12.47 Y13.6 Z1.8 F360.0 E14640.664
G1 X13.6 Y12.47 Z1.8 F360.0 E14642.662
G1 X13.6 Y11.88 Z1.8 F360.0 E14643.402
G1 X11.88 Y13.6 Z1.8 F360.0 E14646.447
G1 X11.28 Y13.6 Z1.8 F360.0 E14647.188
G1 X13.6 Y11.28 Z1.8 F360.0 E14651.28
G1 X13.6 Y10.69 Z1.8 F360.0 E14652.022
G1 X10.69 Y13.6 Z1.8 F360.0 E14657.163
G1 X10.1 Y13.6 Z1.8 F360.0 E14657.904
G1 X13.6 Y10.1 Z1.8 F360.0 E14664.092
G1 X13.6 Y9.51 Z1.8 F360.0 E14664.834
G1 X9.51 Y13.6 Z1.8 F360.0 E14672.072
G1 X8.91 Y13.6 Z1.8 F360.0 E14672.812
G1 X13.6 Y8.91 Z1.8 F360.0 E14681.097
G1 X13.6 Y8.32 Z1.8 F360.0 E14681.838
G1 X8.32 Y13.6 Z1.8 F360.0 E14691.17
G1 X7.73 Y13.6 Z1.8 F360.0 E14691.912
G1 X13.6 Y7.73 Z1.8 F360.0 E14702.294
G1 X13.6 Y7.14 Z1.8 F360.0 E14703.034
G1 X7.14 Y13.6 Z1.8 F360.0 E14714.463
G1 X6.54 Y13.6 Z1.8 F360.0 E14715.205
G1 X13.6 Y6.54 Z1.8 F360.0 E14727.683
G1 X13.6 Y5.95 Z1.8 F360.0 E14728.424
G1 X5.95 Y13.6 Z1.8 F360.0 E14741.949
G1 X5.36 Y13.6 Z1.8 F360.0 E14742.69
G1 X13.6 Y5.36 Z1.8 F360.0 E14757.262
G1 X13.6 Y4.77 Z1.8 F360.0 E14758.004
G1 X4.77 Y13.6 Z1.8 F360.0 E14773.626
G1 X4.18 Y13.6 Z1.8 F360.0 E14774.367
G1 X13.6 Y4.18 Z1.8 F360.0 E14791.036
G1 X13.6 Y3.58 Z1.8 F360.0 E14791.777
G1 X3.58 Y13.6 Z1.8 F360.0 E14809.493
G1 X2.99 Y13.6 Z1.8 F360.0 E14810.235
G1 X13.6 Y2.99 Z1.8 F360.0 E14829.001
G1 X13.6 Y2.4 Z1.8 F360.0 E14829.741
G1 X2.4 Y13.6 Z1.8 F360.0 E14849.554
G1 X1.81 Y13.6 Z1.8 F360.0 E14850.296
G1 X13.6 Y1.81 Z1.8 F360.0 E14871.158
G1 X13.6 Y1.21 Z1.8 F360.0 E14871.899
G1 X1.21 Y13.6 Z1.8 F360.0 E14893.809
G1 X0.62 Y13.6 Z1.8 F360.0 E14894.549
G1 X13.6 Y0.62 Z1.8 F360.0 E14917.506
G1 X13.6 Y0.03 Z1.8 F360.0 E14918.248
G1 X0.03 Y13.6 Z1.8 F360.0 E14942.254
G1 X-0.56 Y13.6 Z1.8 F360.0 E14942.994
G1 X13.6 Y-0.56 Z1.8 F360.0 E14968.048
G1 X13.6 Y-1.16 Z1.8 F360.0 E14968.79
G1 X-1.16 Y13.6 Z1.8 F360.0 E14994.892
G1 X-1.75 Y13.6 Z1.8 F360.0 E14995.633
G1 X13.6 Y-1.75 Z1.8 F360.0 E15022.783
G1 X13.6 Y-2.34 Z1.8 F360.0 E15023.523
G1 X-2.34 Y13.6 Z1.8 F360.0 E15051.72
G1 X-2.93 Y13.6 Z1.8 F360.0 E15052.462
G1 X13.6 Y-2.93 Z1.8 F360.0 E15081.709
G1 X13.6 Y-3.53 Z1.8 F360.0 E15082.449
G1 X-3.53 Y13.6 Z1.8 F360.0 E15112.743
G1 X-4.12 Y13.6 Z1.8 F360.0 E15113.483
G1 X13.6 Y-4.12 Z1.8 F360.0 E15144.825
G1 X13.6 Y-4.71 Z1.8 F360.0 E15145.566
G1 X-4.71 Y13.6 Z1.8 F360.0 E15177.957
G1 X-5.3 Y13.6 Z1.8 F360.0 E15178.697
G1 X13.6 Y-5.3 Z1.8 F360.0 E15212.135
G1 X13.6 Y-5.9 Z1.8 F360.0 E15212.876
G1 X-5.9 Y13.6 Z1.8 F360.0 E15247.363
G1 X-6.49 Y13.6 Z1.8 F360.0 E15248.104
G1 X13.6 Y-6.49 Z1.8 F360.0 E15283.638
G1 X13.6 Y-7.08 Z1.8 F360.0 E15284.378
G1 X-7.08 Y13.6 Z1.8 F360.0 E15320.96
G1 X-7.67 Y13.6 Z1.8 F360.0 E15321.702
G1 X13.6 Y-7.67 Z1.8 F360.0 E15359.332
G1 X13.6 Y-8.27 Z1.8 F360.0 E15360.073
G1 X-8.27 Y13.6 Z1.8 F360.0 E15398.75
G1 X-8.86 Y13.6 Z1.8 F360.0 E15399.492
G1 X13.6 Y-8.86 Z1.8 F360.0 E15439.219
G1 X13.6 Y-9.45 Z1.8 F360.0 E15439.96
G1 X-9.45 Y13.6 Z1.8 F360.0 E15480.734
G1 X-10.04 Y13.6 Z1.8 F360.0 E15481.475
G1 X13.6 Y-10.04 Z1.8 F360.0 E15523.296
G1 X13.6 Y-10.64 Z1.8 F360.0 E15524.038
G1 X-10.64 Y13.6 Z1.8 F360.0 E15566.909
G1 X-11.23 Y13.6 Z1.8 F360.0 E15567.65
G1 X13.6 Y-11.23 Z1.8 F360.0 E15611.568
G1 X13.6 Y-11.82 Z1.8 F360.0 E15612.308
G1 X-11.82 Y13.6 Z1.8 F360.0 E15657.274
G1 X-12.41 Y13.6 Z1.8 F360.0 E15658.016
G1 X13.6 Y-12.41 Z1.8 F360.0 E15704.03
G1 X13.6 Y-13.0 Z1.8 F360.0 E15704.771
G1 X-13.0 Y13.6 Z1.8 F360.0 E15751.833
G1 X-13.6 Y13.6 Z1.8 F360.0 E15752.575
G1 X13.6 Y-13.6 Z1.8 F360.0 E15800.686
G1 X13.0 Y-13.6 Z1.8 F360.0 E15801.428
G1 X-13.6 Y13.0 Z1.8 F360.0 E15848.49
G1 X-13.6 Y12.41 Z1.8 F360.0 E15849.23
G1 X12.41 Y-13.6 Z1.8 F360.0 E15895.245
G1 X11.82 Y-13.6 Z1.8 F360.0 E15895.987
G1 X-13.6 Y11.82 Z1.8 F360.0 E15940.952
G1 X-13.6 Y11.23 Z1.8 F360.0 E15941.693
G1 X11.23 Y-13.6 Z1.8 F360.0 E15985.611
G1 X10.64 Y-13.6 Z1.8 F360.0 E15986.352
G1 X-13.6 Y10.64 Z1.8 F360.0 E16029.222
G1 X-13.6 Y10.04 Z1.8 F360.0 E16029.964
G1 X10.04 Y-13.6 Z1.8 F360.0 E16071.786
G1 X9.45 Y-13.6 Z1.8 F360.0 E16072.527
G1 X-13.6 Y9.45 Z1.8 F360.0 E16113.301
G1 X-13.6 Y8.86 Z1.8 F360.0 E16114.041
G1 X8.86 Y-13.6 Z1.8 F360.0 E16153.768
G1 X8.27 Y-13.6 Z1.8 F360.0 E16154.51
G1 X-13.6 Y8.27 Z1.8 F360.0 E16193.188
G1 X-13.6 Y7.67 Z1.8 F360.0 E16193.929
G1 X7.67 Y-13.6 Z1.8 F360.0 E16231.559
G1 X7.08 Y-13.6 Z1.8 F360.0 E16232.301
G1 X-13.6 Y7.08 Z1.8 F360.0 E16268.882
G1 X-13.6 Y6.49 Z1.8 F360.0 E16269.623
G1 X6.49 Y-13.6 Z1.8 F360.0 E16305.157
G1 X5.9 Y-13.6 Z1.8 F360.0 E16305.898
G1 X-13.6 Y5.9 Z1.8 F360.0 E16340.384
G1 X-13.6 Y5.3 Z1.8 F360.0 E16341.126
G1 X5.3 Y-13.6 Z1.8 F360.0 E16374.564
G1 X4.71 Y-13.6 Z1.8 F360.0 E16375.304
G1 X-13.6 Y4.71 Z1.8 F360.0 E16407.694
G1 X-13.6 Y4.12 Z1.8 F360.0 E16408.436
G1 X4.12 Y-13.6 Z1.8 F360.0 E16439.777
G1 X3.53 Y-13.6 Z1.8 F360.0 E16440.518
G1 X-13.6 Y3.53 Z1.8 F360.0 E16470.812
G1 X-13.6 Y2.93 Z1.8 F360.0 E16471.552
G1 X2.93 Y-13.6 Z1.8 F360.0 E16500.798
G1 X2.34 Y-13.6 Z1.8 F360.0 E16501.54
G1 X-13.6 Y2.34 Z1.8 F360.0 E16529.738
G1 X-13.6 Y1.75 Z1.8 F360.0 E16530.478
G1 X1.75 Y-13.6 Z1.8 F360.0 E16557.628
G1 X1.16 Y-13.6 Z1.8 F360.0 E16558.369
G1 X-13.6 Y1.16 Z1.8 F360.0 E16584.471
G1 X-13.6 Y0.56 Z1.8 F360.0 E16585.213
G1 X0.56 Y-13.6 Z1.8 F360.0 E16610.266
G1 X-0.03 Y-13.6 Z1.8 F360.0 E16611.007
G1 X-13.6 Y-0.03 Z1.8 F360.0 E16635.013
G1 X-13.6 Y-0.62 Z1.8 F360.0 E16635.755
G1 X-0.62 Y-13.6 Z1.8 F360.0 E16658.712
G1 X-1.21 Y-13.6 Z1.8 F360.0 E16659.452
G1 X-13.6 Y-1.21 Z1.8 F360.0 E16681.362
G1 X-13.6 Y-1.81 Z1.8 F360.0 E16682.102
G1 X-1.81 Y-13.6 Z1.8 F360.0 E16702.965
G1 X-2.4 Y-13.6 Z1.8 F360.0 E16703.706
G1 X-13.6 Y-2.4 Z1.8 F360.0 E16723.519
G1 X-13.6 Y-2.99 Z1.8 F360.0 E16724.26
G1 X-2.99 Y-13.6 Z1.8 F360.0 E16743.026
G1 X-3.58 Y-13.6 Z1.8 F360.0 E16743.768
G1 X-13.6 Y-3.58 Z1.8 F360.0 E16761.484
G1 X-13.6 Y-4.18 Z1.8 F360.0 E16762.225
G1 X-4.18 Y-13.6 Z1.8 F360.0 E16778.894
G1 X-4.77 Y-13.6 Z1.8 F360.0 E16779.635
G1 X-13.6 Y-4.77 Z1.8 F360.0 E16795.256
G1 X-13.6 Y-5.36 Z1.8 F360.0 E16795.998
G1 X-5.36 Y-13.6 Z1.8 F360.0 E16810.571
G1 X-5.95 Y-13.6 Z1.8 F360.0 E16811.312
G1 X-13.6 Y-5.95 Z1.8 F360.0 E16824.837
G1 X-13.6 Y-6.54 Z1.8 F360.0 E16825.578
G1 X-6.54 Y-13.6 Z1.8 F360.0 E16838.056
G1 X-7.14 Y-13.6 Z1.8 F360.0 E16838.797
G1 X-13.6 Y-7.14 Z1.8 F360.0 E16850.226
G1 X-13.6 Y-7.73 Z1.8 F360.0 E16850.967
G1 X-7.73 Y-13.6 Z1.8 F360.0 E16861.349
G1 X-8.32 Y-13.6 Z1.8 F360.0 E16862.09
G1 X-13.6 Y-8.32 Z1.8 F360.0 E16871.423
G1 X-13.6 Y-8.91 Z1.8 F360.0 E16872.163
G1 X-8.91 Y-13.6 Z1.8 F360.0 E16880.448
G1 X-9.51 Y-13.6 Z1.8 F360.0 E16881.189
G1 X-13.6 Y-9.51 Z1.8 F360.0 E16888.427
G1 X-13.6 Y-10.1 Z1.8 F360.0 E16889.169
G1 X-10.1 Y-13.6 Z1.8 F360.0 E16895.357
G1 X-10.69 Y-13.6 Z1.8 F360.0 E16896.098
G1 X-13.6 Y-10.69 Z1.8 F360.0 E16901.239
G1 X-13.6 Y-11.28 Z1.8 F360.0 E16901.981
G1 X-11.28 Y-13.6 Z1.8 F360.0 E16906.073
G1 X-11.88 Y-13.6 Z1.8 F360.0 E16906.814
G1 X-13.6 Y-11.88 Z1.8 F360.0 E16909.858
G1 X-13.6 Y-12.47 Z1.8 F360.0 E16910.599
G1 X-12.47 Y-13.6 Z1.8 F360.0 E16912.596
G1 X-13.06 Y-13.6 Z1.8 F360.0 E16913.338
G1 X-13.6 Y-13.06 Z1.8 F360.0 E16914.286
;M103
G1 X-13.95 Y-13.24 Z1.8 F3600.0
;M101
G1 X-13.95 Y-13.95 Z1.8 F360.0 E16915.185
G1 X13.95 Y-13.95 Z1.8 F360.0 E16950.095
G1 X13.95 Y13.95 Z1.8 F360.0 E16985.006
G1 X-13.95 Y13.95 Z1.8 F360.0 E17019.916
G1 X-13.95 Y-13.06 Z1.8 F360.0 E17053.71
G1 X-13.95 Y-13.24 Z1.8 F360.0 E17053.928
;M103
G1 X-14.37 Y-13.06 Z1.8 F3600.0
;M101
G1 X-14.37 Y-14.37 Z1.8 F360.0 E17055.568
G1 X14.37 Y-14.37 Z1.8 F360.0 E17091.527
G1 X14.37 Y14.37 Z1.8 F360.0 E17127.486
G1 X-14.37 Y14.37 Z1.8 F360.0 E17163.444
G1 X-14.37 Y-13.06 Z1.8 F360.0 E17197.763
;M103
;M108 S5.629
G1 X-14.79 Y-13.06 Z1.8 F3600.0
;M101
G1 X-14.79 Y-14.79 Z1.8 F270.0 E17199.927
G1 X14.79 Y-14.79 Z1.8 F270.0 E17236.931
G1 X14.79 Y14.79 Z1.8 F270.0 E17273.935
G1 X-14.79 Y14.79 Z1.8 F270.0 E17310.939
G1 X-14.79 Y-13.06 Z1.8 F270.0 E17345.778
;M103
;M108 S7.506
G1 X13.06 Y-13.6 Z2.1 F3600.0
;M101
G1 X13.6 Y-13.06 Z2.1 F360.0 E17346.727
G1 X13.6 Y-12.47 Z2.1 F360.0 E17347.468
G1 X12.47 Y-13.6 Z2.1 F360.0 E17349.466
G1 X11.88 Y-13.6 Z2.1 F360.0 E17350.206
G1 X13.6 Y-11.88 Z2.1 F360.0 E17353.251
G1 X13.6 Y-11.28 Z2.1 F360.0 E17353.992
G1 X11.28 Y-13.6 Z2.1 F360.0 E17358.084
G1 X10.69 Y-13.6 Z2.1 F360.0 E17358.826
G1 X13.6 Y-10.69 Z2.1 F360.0 E17363.967
G1 X13.6 Y-10.1 Z2.1 F360.0 E17364.708
G1 X10.1 Y-13.6 Z2.1 F360.0 E17370.896
G1 X9.51 Y-13.6 Z2.1 F360.0 E17371.638
G1 X13.6 Y-9.51 Z2.1 F360.0 E17378.876
G1 X13.6 Y-8.91 Z2.1 F360.0 E17379.616
G1 X8.91 Y-13.6 Z2.1 F360.0 E17387.901
G1 X8.32 Y-13.6 Z2.1 F360.0 E17388.642
G1 X13.6 Y-8.32 Z2.1 F360.0 E17397.974
G1 X13.6 Y-7.73 Z2.1 F360.0 E17398.716
G1 X7.73 Y-13.6 Z2.1 F360.0 E17409.098
G1 X7.14 Y-13.6 Z2.1 F360.0 E17409.838
G1 X13.6 Y-7.14 Z2.1 F360.0 E17421.267
G1 X13.6 Y-6.54 Z2.1 F360.0 E17422.009
G1 X6.54 Y-13.6 Z2.1 F360.0 E17434.487
G1 X5.95 Y-13.6 Z2.1 F360.0 E17435.228
G1 X13.6 Y-5.95 Z2.1 F360.0 E17448.753
G1 X13.6 Y-5.36 Z2.1 F360.0 E17449.494
G1 X5.36 Y-13.6 Z2.1 F360.0 E17464.066
G1 X4.77 Y-13.6 Z2.1 F360.0 E17464.808
G1 X13.6 Y-4.77 Z2.1 F360.0 E17480.43
G1 X13.6 Y-4.18 Z2.1 F360.0 E17481.171
G1 X4.18 Y-13.6 Z2.1 F360.0 E17497.84
G1 X3.58 Y-13.6 Z2.1 F360.0 E17498.581
G1 X13.6 Y-3.58 Z2.1 F360.0 E17516.297
G1 X13.6 Y-2.99 Z2.1 F360.0 E17517.039
G1 X2.99 Y-13.6 Z2.1 F360.0 E17535.805
G1 X2.4 Y-13.6 Z2.1 F360.0 E17536.545
G1 X13.6 Y-2.4 Z2.1 F360.0 E17556.358
G1 X13.6 Y-1.81 Z2.1 F360.0 E17557.1
G1 X1.81 Y-13.6 Z2.1 F360.0 E17577.962
G1 X1.21 Y-13.6 Z2.1 F360.0 E17578.703
G1 X13.6 Y-1.21 Z2.1 F360.0 E17600.613
G1 X13.6 Y-0.62 Z2.1 F360.0 E17601.353
G1 X0.62 Y-13.6 Z2.1 F360.0 E17624.31
G1 X0.03 Y-13.6 Z2.1 F360.0 E17625.052
G1 X13.6 Y-0.03 Z2.1 F360.0 E17649.058
G1 X13.6 Y0.56 Z2.1 F360.0 E17649.798
G1 X-0.56 Y-13.6 Z2.1 F360.0 E17674.852
G1 X-1.16 Y-13.6 Z2.1 F360.0 E17675.594
G1 X13.6 Y1.16 Z2.1 F360.0 E17701.696
G1 X13.6 Y1.75 Z2.1 F360.0 E17702.437
G1 X-1.75 Y-13.6 Z2.1 F360.0 E17729.587
G1 X-2.34 Y-13.6 Z2.1 F360.0 E17730.327
G1 X13.6 Y2.34 Z2.1 F360.0 E17758.524
G1 X13.6 Y2.93 Z2.1 F360.0 E17759.266
G1 X-2.93 Y-13.6 Z2.1 F360.0 E17788.513
G1 X-3.53 Y-13.6 Z2.1 F360.0 E17789.253
G1 X13.6 Y3.53 Z2.1 F360.0 E17819.547
G1 X13.6 Y4.12 Z2.1 F360.0 E17820.287
G1 X-4.12 Y-13.6 Z2.1 F360.0 E17851.629
G1 X-4.71 Y-13.6 Z2.1 F360.0 E17852.37
G1 X13.6 Y4.71 Z2.1 F360.0 E17884.761
G1 X13.6 Y5.3 Z2.1 F360.0 E17885.501
G1 X-5.3 Y-13.6 Z2.1 F360.0 E17918.939
G1 X-5.9 Y-13.6 Z2.1 F360.0 E17919.681
G1 X13.6 Y5.9 Z2.1 F360.0 E17954.167
G1 X13.6 Y6.49 Z2.1 F360.0 E17954.908
G1 X-6.49 Y-13.6 Z2.1 F360.0 E17990.442
G1 X-7.08 Y-13.6 Z2.1 F360.0 E17991.182
G1 X13.6 Y7.08 Z2.1 F360.0 E18027.764
G1 X13.6 Y7.67 Z2.1 F360.0 E18028.506
G1 X-7.67 Y-13.6 Z2.1 F360.0 E18066.136
G1 X-8.27 Y-13.6 Z2.1 F360.0 E18066.877
G1 X13.6 Y8.27 Z2.1 F360.0 E18105.554
G1 X13.6 Y8.86 Z2.1 F360.0 E18106.296
G1 X-8.86 Y-13.6 Z2.1 F360.0 E18146.023
G1 X-9.45 Y-13.6 Z2.1 F360.0 E18146.764
G1 X13.6 Y9.45 Z2.1 F360.0 E18187.538
G1 X13.6 Y10.04 Z2.1 F360.0 E18188.279
G1 X-10.04 Y-13.6 Z2.1 F360.0 E18230.1
G1 X-10.64 Y-13.6 Z2.1 F360.0 E18230.842
G1 X13.6 Y10.64 Z2.1 F360.0 E18273.713
G1 X13.6 Y11.23 Z2.1 F360.0 E18274.454
G1 X-11.23 Y-13.6 Z2.1 F360.0 E18318.372
G1 X-11.82 Y-13.6 Z2.1 F360.0 E18319.112
G1 X13.6 Y11.82 Z2.1 F360.0 E18364.078
G1 X13.6 Y12.41 Z2.1 F360.0 E18364.82
G1 X-12.41 Y-13.6 Z2.1 F360.0 E18410.834
G1 X-13.0 Y-13.6 Z2.1 F360.0 E18411.575
G1 X13.6 Y13.0 Z2.1 F360.0 E18458.637
G1 X13.6 Y13.6 Z2.1 F360.0 E18459.379
G1 X-13.6 Y-13.6 Z2.1 F360.0 E18507.49
G1 X-13.6 Y-13.0 Z2.1 F360.0 E18508.232
G1 X13.0 Y13.6 Z2.1 F360.0 E18555.294
G1 X12.41 Y13.6 Z2.1 F360.0 E18556.034
G1 X-13.6 Y-12.41 Z2.1 F360.0 E18602.049
G1 X-13.6 Y-11.82 Z2.1 F360.0 E18602.791
G1 X11.82 Y13.6 Z2.1 F360.0 E18647.756
G1 X11.23 Y13.6 Z2.1 F360.0 E18648.497
G1 X-13.6 Y-11.23 Z2.1 F360.0 E18692.415
G1 X-13.6 Y-10.64 Z2.1 F360.0 E18693.156
G1 X10.64 Y13.6 Z2.1 F360.0 E18736.026
G1 X10.04 Y13.6 Z2.1 F360.0 E18736.768
G1 X-13.6 Y-10.04 Z2.1 F360.0 E18778.59
G1 X-13.6 Y-9.45 Z2.1 F360.0 E18779.331
G1 X9.45 Y13.6 Z2.1 F360.0 E18820.105
G1 X8.86 Y13.6 Z2.1 F360.0 E18820.845
G1 X-13.6 Y-8.86 Z2.1 F360.0 E18860.572
G1 X-13.6 Y-8.27 Z2.1 F360.0 E18861.314
G1 X8.27 Y13.6 Z2.1 F360.0 E18899.992
G1 X7.67 Y13.6 Z2.1 F360.0 E18900.733
G1 X-13.6 Y-7.67 Z2.1 F360.0 E18938.363
G1 X-13.6 Y-7.08 Z2.1 F360.0 E18939.105
G1 X7.08 Y13.6 Z2.1 F360.0 E18975.686
G1 X6.49 Y13.6 Z2.1 F360.0 E18976.427
G1 X-13.6 Y-6.49 Z2.1 F360.0 E19011.961
G1 X-13.6 Y-5.9 Z2.1 F360.0 E19012.702
G1 X5.9 Y13.6 Z2.1 F360.0 E19047.188
G1 X5.3 Y13.6 Z2.1 F360.0 E19047.93
G1 X-13.6 Y-5.3 Z2.1 F360.0 E19081.368
G1 X-13.6 Y-4.71 Z2.1 F360.0 E19082.108
G1 X4.71 Y13.6 Z2.1 F360.0 E19114.498
G1 X4.12 Y13.6 Z2.1 F360.0 E19115.24
G1 X-13.6 Y-4.12 Z2.1 F360.0 E19146.581
G1 X-13.6 Y-3.53 Z2.1 F360.0 E19147.322
G1 X3.53 Y13.6 Z2.1 F360.0 E19177.616
G1 X2.93 Y13.6 Z2.1 F360.0 E19178.356
G1 X-13.6 Y-2.93 Z2.1 F360.0 E19207.602
G1 X-13.6 Y-2.34 Z2.1 F360.0 E19208.344
G1 X2.34 Y13.6 Z2.1 F360.0 E19236.542
G1 X1.75 Y13.6 Z2.1 F360.0 E19237.282
G1 X-13.6 Y-1.75 Z2.1 F360.0 E19264.432
G1 X-13.6 Y-1.16 Z2.1 F360.0 E19265.173
G1 X1.16 Y13.6 Z2.1 F360.0 E19291.275
G1 X0.56 Y13.6 Z2.1 F360.0 E19292.017
G1 X-13.6 Y-0.56 Z2.1 F360.0 E19317.07
G1 X-13.6 Y0.03 Z2.1 F360.0 E19317.811
G1 X-0.03 Y13.6 Z2.1 F360.0 E19341.817
G1 X-0.62 Y13.6 Z2.1 F360.0 E19342.559
G1 X-13.6 Y0.62 Z2.1 F360.0 E19365.516
G1 X-13.6 Y1.21 Z2.1 F360.0 E19366.256
G1 X-1.21 Y13.6 Z2.1 F360.0 E19388.166
G1 X-1.81 Y13.6 Z2.1 F360.0 E19388.906
G1 X-13.6 Y1.81 Z2.1 F360.0 E19409.769
G1 X-13.6 Y2.4 Z2.1 F360.0 E19410.51
G1 X-2.4 Y13.6 Z2.1 F360.0 E19430.323
G1 X-2.99 Y13.6 Z2.1 F360.0 E19431.064
G1 X-13.6 Y2.99 Z2.1 F360.0 E19449.83
G1 X-13.6 Y3.58 Z2.1 F360.0 E19450.572
G1 X-3.58 Y13.6 Z2.1 F360.0 E19468.288
G1 X-4.18 Y13.6 Z2.1 F360.0 E19469.029
G1 X-13.6 Y4.18 Z2.1 F360.0 E19485.698
G1 X-13.6 Y4.77 Z2.1 F360.0 E19486.439
G1 X-4.77 Y13.6 Z2.1 F360.0 E19502.06
G1 X-5.36 Y13.6 Z2.1 F360.0 E19502.802
G1 X-13.6 Y5.36 Z2.1 F360.0 E19517.375
G1 X-13.6 Y5.95 Z2.1 F360.0 E19518.116
G1 X-5.95 Y13.6 Z2.1 F360.0 E19531.641
G1 X-6.54 Y13.6 Z2.1 F360.0 E19532.382
G1 X-13.6 Y6.54 Z2.1 F360.0 E19544.86
G1 X-13.6 Y7.14 Z2.1 F360.0 E19545.601
G1 X-7.14 Y13.6 Z2.1 F360.0 E19557.03
G1 X-7.73 Y13.6 Z2.1 F360.0 E19557.771
G1 X-13.6 Y7.73 Z2.1 F360.0 E19568.153
G1 X-13.6 Y8.32 Z2.1 F360.0 E19568.894
G1 X-8.32 Y13.6 Z2.1 F360.0 E19578.227
G1 X-8.91 Y13.6 Z2.1 F360.0 E19578.967
G1 X-13.6 Y8.91 Z2.1 F360.0 E19587.252
G1 X-13.6 Y9.51 Z2.1 F360.0 E19587.993
G1 X-9.51 Y13.6 Z2.1 F360.0 E19595.231
G1 X-10.1 Y13.6 Z2.1 F360.0 E19595.973
G1 X-13.6 Y10.1 Z2.1 F360.0 E19602.161
G1 X-13.6 Y10.69 Z2.1 F360.0 E19602.902
G1 X-10.69 Y13.6 Z2.1 F360.0 E19608.043
G1 X-11.28 Y13.6 Z2.1 F360.0 E19608.785
G1 X-13.6 Y11.28 Z2.1 F360.0 E19612.877
G1 X-13.6 Y11.88 Z2.1 F360.0 E19613.618
G1 X-11.88 Y13.6 Z2.1 F360.0 E19616.662
G1 X-12.47 Y13.6 Z2.1 F360.0 E19617.403
G1 X-13.6 Y12.47 Z2.1 F360.0 E19619.4
G1 X-13.6 Y13.06 Z2.1 F360.0 E19620.142
G1 X-13.06 Y13.6 Z2.1 F360.0 E19621.091
;M103
G1 X-12.92 Y13.95 Z2.1 F3600.0
;M101
G1 X-13.06 Y13.95 Z2.1 F360.0 E19621.273
G1 X-13.95 Y13.95 Z2.1 F360.0 E19622.389
G1 X-13.95 Y-13.95 Z2.1 F360.0 E19657.299
G1 X13.95 Y-13.95 Z2.1 F360.0 E19692.21
G1 X13.95 Y13.95 Z2.1 F360.0 E19727.12
G1 X-12.92 Y13.95 Z2.1 F360.0 E19760.732
;M103
G1 X-13.06 Y14.37 Z2.1 F3600.0
;M101
G1 X-14.37 Y14.37 Z2.1 F360.0 E19762.372
G1 X-14.37 Y-14.37 Z2.1 F360.0 E19798.331
G1 X14.37 Y-14.37 Z2.1 F360.0 E19834.29
G1 X14.37 Y14.37 Z2.1 F360.0 E19870.248
G1 X-13.06 Y14.37 Z2.1 F360.0 E19904.567
;M103
;M108 S5.629
G1 X-13.06 Y14.79 Z2.1 F3600.0
;M101
G1 X-14.79 Y14.79 Z2.1 F270.0 E19906.731
G1 X-14.79 Y-14.79 Z2.1 F270.0 E19943.735
G1 X14.79 Y-14.79 Z2.1 F270.0 E19980.739
G1 X14.79 Y14.79 Z2.1 F270.0 E20017.743
G1 X-13.06 Y14.79 Z2.1 F270.0 E20052.582
;M103
;M108 S7.506
G1 X13.6 Y13.06 Z2.4 F3600.0
;M101
G1 X13.06 Y13.6 Z2.4 F360.0 E20053.531
G1 X12.47 Y13.6 Z2.4 F360.0 E20054.272
G1 X13.6 Y12.47 Z2.4 F360.0 E20056.27
G1 X13.6 Y11.88 Z2.4 F360.0 E20057.01
G1 X11.88 Y13.6 Z2.4 F360.0 E20060.055
G1 X11.28 Y13.6 Z2.4 F360.0 E20060.796
G1 X13.6 Y11.28 Z2.4 F360.0 E20064.888
G1 X13.6 Y10.69 Z2.4 F360.0 E20065.63
G1 X10.69 Y13.6 Z2.4 F360.0 E20070.771
G1 X10.1 Y13.6 Z2.4 F360.0 E20071.512
G1 X13.6 Y10.1 Z2.4 F360.0 E20077.7
G1 X13.6 Y9.51 Z2.4 F360.0 E20078.442
G1 X9.51 Y13.6 Z2.4 F360.0 E20085.68
G1 X8.91 Y13.6 Z2.4 F360.0 E20086.42
G1 X13.6 Y8.91 Z2.4 F360.0 E20094.705
G1 X13.6 Y8.32 Z2.4 F360.0 E20095.446
G1 X8.32 Y13.6 Z2.4 F360.0 E20104.778
G1 X7.73 Y13.6 Z2.4 F360.0 E20105.52
G1 X13.6 Y7.73 Z2.4 F360.0 E20115.902
G1 X13.6 Y7.14 Z2.4 F360.0 E20116.642
G1 X7.14 Y13.6 Z2.4 F360.0 E20128.071
G1 X6.54 Y13.6 Z2.4 F360.0 E20128.813
G1 X13.6 Y6.54 Z2.4 F360.0 E20141.291
G1 X13.6 Y5.95 Z2.4 F360.0 E20142.032
G1 X5.95 Y13.6 Z2.4 F360.0 E20155.557
G1 X5.36 Y13.6 Z2.4 F360.0 E20156.298
G1 X13.6 Y5.36 Z2.4 F360.0 E20170.87
G1 X13.6 Y4.77 Z2.4 F360.0 E20171.612
G1 X4.77 Y13.6 Z2.4 F360.0 E20187.234
G1 X4.18 Y13.6 Z2.4 F360.0 E20187.975
G1 X13.6 Y4.18 Z2.4 F360.0 E20204.644
G1 X13.6 Y3.58 Z2.4 F360.0 E20205.385
G1 X3.58 Y13.6 Z2.4 F360.0 E20223.101
G1 X2.99 Y13.6 Z2.4 F360.0 E20223.843
G1 X13.6 Y2.99 Z2.4 F360.0 E20242.609
G1 X13.6 Y2.4 Z2.4 F360.0 E20243.349
G1 X2.4 Y13.6 Z2.4 F360.0 E20263.162
G1 X1.81 Y13.6 Z2.4 F360.0 E20263.904
G1 X13.6 Y1.81 Z2.4 F360.0 E20284.766
G1 X13.6 Y1.21 Z2.4 F360.0 E20285.507
G1 X1.21 Y13.6 Z2.4 F360.0 E20307.417
G1 X0.62 Y13.6 Z2.4 F360.0 E20308.157
G1 X13.6 Y0.62 Z2.4 F360.0 E20331.114
G1 X13.6 Y0.03 Z2.4 F360.0 E20331.856
G1 X0.03 Y13.6 Z2.4 F360.0 E20355.862
G1 X-0.56 Y13.6 Z2.4 F360.0 E20356.602
G1 X13.6 Y-0.56 Z2.4 F360.0 E20381.656
G1 X13.6 Y-1.16 Z2.4 F360.0 E20382.398
G1 X-1.16 Y13.6 Z2.4 F360.0 E20408.5
G1 X-1.75 Y13.6 Z2.4 F360.0 E20409.241
G1 X13.6 Y-1.75 Z2.4 F360.0 E20436.391
G1 X13.6 Y-2.34 Z2.4 F360.0 E20437.131
G1 X-2.34 Y13.6 Z2.4 F360.0 E20465.328
G1 X-2.93 Y13.6 Z2.4 F360.0 E20466.07
G1 X13.6 Y-2.93 Z2.4 F360.0 E20495.317
G1 X13.6 Y-3.53 Z2.4 F360.0 E20496.057
G1 X-3.53 Y13.6 Z2.4 F360.0 E20526.351
G1 X-4.12 Y13.6 Z2.4 F360.0 E20527.092
G1 X13.6 Y-4.12 Z2.4 F360.0 E20558.433
G1 X13.6 Y-4.71 Z2.4 F360.0 E20559.174
G1 X-4.71 Y13.6 Z2.4 F360.0 E20591.565
G1 X-5.3 Y13.6 Z2.4 F360.0 E20592.305
G1 X13.6 Y-5.3 Z2.4 F360.0 E20625.743
G1 X13.6 Y-5.9 Z2.4 F360.0 E20626.485
G1 X-5.9 Y13.6 Z2.4 F360.0 E20660.971
G1 X-6.49 Y13.6 Z2.4 F360.0 E20661.712
G1 X13.6 Y-6.49 Z2.4 F360.0 E20697.246
G1 X13.6 Y-7.08 Z2.4 F360.0 E20697.986
G1 X-7.08 Y13.6 Z2.4 F360.0 E20734.568
G1 X-7.67 Y13.6 Z2.4 F360.0 E20735.31
G1 X13.6 Y-7.67 Z2.4 F360.0 E20772.94
G1 X13.6 Y-8.27 Z2.4 F360.0 E20773.681
G1 X-8.27 Y13.6 Z2.4 F360.0 E20812.358
G1 X-8.86 Y13.6 Z2.4 F360.0 E20813.1
G1 X13.6 Y-8.86 Z2.4 F360.0 E20852.827
G1 X13.6 Y-9.45 Z2.4 F360.0 E20853.568
G1 X-9.45 Y13.6 Z2.4 F360.0 E20894.342
G1 X-10.04 Y13.6 Z2.4 F360.0 E20895.083
G1 X13.6 Y-10.04 Z2.4 F360.0 E20936.904
G1 X13.6 Y-10.64 Z2.4 F360.0 E20937.646
G1 X-10.64 Y13.6 Z2.4 F360.0 E20980.517
G1 X-11.23 Y13.6 Z2.4 F360.0 E20981.258
G1 X13.6 Y-11.23 Z2.4 F360.0 E21025.176
G1 X13.6 Y-11.82 Z2.4 F360.0 E21025.916
G1 X-11.82 Y13.6 Z2.4 F360.0 E21070.882
G1 X-12.41 Y13.6 Z2.4 F360.0 E21071.624
G1 X13.6 Y-12.41 Z2.4 F360.0 E21117.638
G1 X13.6 Y-13.0 Z2.4 F360.0 E21118.379
G1 X-13.0 Y13.6 Z2.4 F360.0 E21165.441
G1 X-13.6 Y13.6 Z2.4 F360.0 E21166.183
G1 X13.6 Y-13.6 Z2.4 F360.0 E21214.294
G1 X13.0 Y-13.6 Z2.4 F360.0 E21215.036
G1 X-13.6 Y13.0 Z2.4 F360.0 E21262.098
G1 X-13.6 Y12.41 Z2.4 F360.0 E21262.838
G1 X12.41 Y-13.6 Z2.4 F360.0 E21308.853
G1 X11.82 Y-13.6 Z2.4 F360.0 E21309.595
G1 X-13.6 Y11.82 Z2.4 F360.0 E21354.56
G1 X-13.6 Y11.23 Z2.4 F360.0 E21355.301
G1 X11.23 Y-13.6 Z2.4 F360.0 E21399.219
G1 X10.64 Y-13.6 Z2.4 F360.0 E21399.96
G1 X-13.6 Y10.64 Z2.4 F360.0 E21442.83
G1 X-13.6 Y10.04 Z2.4 F360.0 E21443.572
G1 X10.04 Y-13.6 Z2.4 F360.0 E21485.394
G1 X9.45 Y-13.6 Z2.4 F360.0 E21486.135
G1 X-13.6 Y9.45 Z2.4 F360.0 E21526.909
G1 X-13.6 Y8.86 Z2.4 F360.0 E21527.65
G1 X8.86 Y-13.6 Z2.4 F360.0 E21567.376
G1 X8.27 Y-13.6 Z2.4 F360.0 E21568.118
G1 X-13.6 Y8.27 Z2.4 F360.0 E21606.796
G1 X-13.6 Y7.67 Z2.4 F360.0 E21607.537
G1 X7.67 Y-13.6 Z2.4 F360.0 E21645.167
G1 X7.08 Y-13.6 Z2.4 F360.0 E21645.909
G1 X-13.6 Y7.08 Z2.4 F360.0 E21682.49
G1 X-13.6 Y6.49 Z2.4 F360.0 E21683.231
G1 X6.49 Y-13.6 Z2.4 F360.0 E21718.765
G1 X5.9 Y-13.6 Z2.4 F360.0 E21719.506
G1 X-13.6 Y5.9 Z2.4 F360.0 E21753.992
G1 X-13.6 Y5.3 Z2.4 F360.0 E21754.734
G1 X5.3 Y-13.6 Z2.4 F360.0 E21788.172
G1 X4.71 Y-13.6 Z2.4 F360.0 E21788.912
G1 X-13.6 Y4.71 Z2.4 F360.0 E21821.302
G1 X-13.6 Y4.12 Z2.4 F360.0 E21822.044
G1 X4.12 Y-13.6 Z2.4 F360.0 E21853.385
G1 X3.53 Y-13.6 Z2.4 F360.0 E21854.126
G1 X-13.6 Y3.53 Z2.4 F360.0 E21884.42
G1 X-13.6 Y2.93 Z2.4 F360.0 E21885.16
G1 X2.93 Y-13.6 Z2.4 F360.0 E21914.406
G1 X2.34 Y-13.6 Z2.4 F360.0 E21915.148
G1 X-13.6 Y2.34 Z2.4 F360.0 E21943.346
G1 X-13.6 Y1.75 Z2.4 F360.0 E21944.086
G1 X1.75 Y-13.6 Z2.4 F360.0 E21971.236
G1 X1.16 Y-13.6 Z2.4 F360.0 E21971.977
G1 X-13.6 Y1.16 Z2.4 F360.0 E21998.079
G1 X-13.6 Y0.56 Z2.4 F360.0 E21998.821
G1 X0.56 Y-13.6 Z2.4 F360.0 E22023.874
G1 X-0.03 Y-13.6 Z2.4 F360.0 E22024.615
G1 X-13.6 Y-0.03 Z2.4 F360.0 E22048.621
G1 X-13.6 Y-0.62 Z2.4 F360.0 E22049.363
G1 X-0.62 Y-13.6 Z2.4 F360.0 E22072.32
G1 X-1.21 Y-13.6 Z2.4 F360.0 E22073.06
G1 X-13.6 Y-1.21 Z2.4 F360.0 E22094.97
G1 X-13.6 Y-1.81 Z2.4 F360.0 E22095.71
G1 X-1.81 Y-13.6 Z2.4 F360.0 E22116.573
G1 X-2.4 Y-13.6 Z2.4 F360.0 E22117.314
G1 X-13.6 Y-2.4 Z2.4 F360.0 E22137.127
G1 X-13.6 Y-2.99 Z2.4 F360.0 E22137.868
G1 X-2.99 Y-13.6 Z2.4 F360.0 E22156.634
G1 X-3.58 Y-13.6 Z2.4 F360.0 E22157.376
G1 X-13.6 Y-3.58 Z2.4 F360.0 E22175.092
G1 X-13.6 Y-4.18 Z2.4 F360.0 E22175.833
G1 X-4.18 Y-13.6 Z2.4 F360.0 E22192.502
G1 X-4.77 Y-13.6 Z2.4 F360.0 E22193.243
G1 X-13.6 Y-4.77 Z2.4 F360.0 E22208.864
G1 X-13.6 Y-5.36 Z2.4 F360.0 E22209.606
G1 X-5.36 Y-13.6 Z2.4 F360.0 E22224.179
G1 X-5.95 Y-13.6 Z2.4 F360.0 E22224.92
G1 X-13.6 Y-5.95 Z2.4 F360.0 E22238.445
G1 X-13.6 Y-6.54 Z2.4 F360.0 E22239.186
G1 X-6.54 Y-13.6 Z2.4 F360.0 E22251.664
G1 X-7.14 Y-13.6 Z2.4 F360.0 E22252.406
G1 X-13.6 Y-7.14 Z2.4 F360.0 E22263.834
G1 X-13.6 Y-7.73 Z2.4 F360.0 E22264.575
G1 X-7.73 Y-13.6 Z2.4 F360.0 E22274.957
G1 X-8.32 Y-13.6 Z2.4 F360.0 E22275.698
G1 X-13.6 Y-8.32 Z2.4 F360.0 E22285.031
G1 X-13.6 Y-8.91 Z2.4 F360.0 E22285.771
G1 X-8.91 Y-13.6 Z2.4 F360.0 E22294.057
G1 X-9.51 Y-13.6 Z2.4 F360.0 E22294.797
G1 X-13.6 Y-9.51 Z2.4 F360.0 E22302.035
G1 X-13.6 Y-10.1 Z2.4 F360.0 E22302.777
G1 X-10.1 Y-13.6 Z2.4 F360.0 E22308.965
G1 X-10.69 Y-13.6 Z2.4 F360.0 E22309.706
G1 X-13.6 Y-10.69 Z2.4 F360.0 E22314.847
G1 X-13.6 Y-11.28 Z2.4 F360.0 E22315.589
G1 X-11.28 Y-13.6 Z2.4 F360.0 E22319.681
G1 X-11.88 Y-13.6 Z2.4 F360.0 E22320.422
G1 X-13.6 Y-11.88 Z2.4 F360.0 E22323.466
G1 X-13.6 Y-12.47 Z2.4 F360.0 E22324.207
G1 X-12.47 Y-13.6 Z2.4 F360.0 E22326.204
G1 X-13.06 Y-13.6 Z2.4 F360.0 E22326.946
G1 X-13.6 Y-13.06 Z2.4 F360.0 E22327.895
;M103
G1 X-13.95 Y-13.43 Z2.4 F3600.0
;M101
G1 X-13.95 Y-13.95 Z2.4 F360.0 E22328.545
G1 X13.95 Y-13.95 Z2.4 F360.0 E22363.455
G1 X13.95 Y13.95 Z2.4 F360.0 E22398.366
G1 X-13.95 Y13.95 Z2.4 F360.0 E22433.276
G1 X-13.95 Y-13.06 Z2.4 F360.0 E22467.071
G1 X-13.95 Y-13.43 Z2.4 F360.0 E22467.536
;M103
G1 X-14.37 Y-13.43 Z2.4 F3600.0
;M101
G1 X-14.37 Y-14.37 Z2.4 F360.0 E22468.711
G1 X14.37 Y-14.37 Z2.4 F360.0 E22504.67
G1 X14.37 Y14.37 Z2.4 F360.0 E22540.628
G1 X-14.37 Y14.37 Z2.4 F360.0 E22576.587
G1 X-14.37 Y-13.06 Z2.4 F360.0 E22610.906
G1 X-14.37 Y-13.43 Z2.4 F360.0 E22611.371
;M103
;M108 S5.629
G1 X-14.79 Y-13.43 Z2.4 F3600.0
;M101
G1 X-14.79 Y-14.79 Z2.4 F270.0 E22613.07
G1 X14.79 Y-14.79 Z2.4 F270.0 E22650.074
G1 X14.79 Y14.79 Z2.4 F270.0 E22687.077
G1 X-14.79 Y14.79 Z2.4 F270.0 E22724.081
G1 X-14.79 Y-13.06 Z2.4 F270.0 E22758.921
G1 X-14.79 Y-13.43 Z2.4 F270.0 E22759.386
;M103
;M108 S7.506
G1 X13.06 Y-13.6 Z2.7 F3600.0
;M101
G1 X13.6 Y-13.06 Z2.7 F360.0 E22760.335
G1 X13.6 Y-12.47 Z2.7 F360.0 E22761.076
G1 X12.47 Y-13.6 Z2.7 F360.0 E22763.074
G1 X11.88 Y-13.6 Z2.7 F360.0 E22763.814
G1 X13.6 Y-11.88 Z2.7 F360.0 E22766.859
G1 X13.6 Y-11.28 Z2.7 F360.0 E22767.6
G1 X11.28 Y-13.6 Z2.7 F360.0 E22771.692
G1 X10.69 Y-13.6 Z2.7 F360.0 E22772.434
G1 X13.6 Y-10.69 Z2.7 F360.0 E22777.575
G1 X13.6 Y-10.1 Z2.7 F360.0 E22778.316
G1 X10.1 Y-13.6 Z2.7 F360.0 E22784.504
G1 X9.51 Y-13.6 Z2.7 F360.0 E22785.246
G1 X13.6 Y-9.51 Z2.7 F360.0 E22792.484
G1 X13.6 Y-8.91 Z2.7 F360.0 E22793.224
G1 X8.91 Y-13.6 Z2.7 F360.0 E22801.509
G1 X8.32 Y-13.6 Z2.7 F360.0 E22802.25
G1 X13.6 Y-8.32 Z2.7 F360.0 E22811.582
G1 X13.6 Y-7.73 Z2.7 F360.0 E22812.324
G1 X7.73 Y-13.6 Z2.7 F360.0 E22822.706
G1 X7.14 Y-13.6 Z2.7 F360.0 E22823.446
G1 X13.6 Y-7.14 Z2.7 F360.0 E22834.875
G1 X13.6 Y-6.54 Z2.7 F360.0 E22835.617
G1 X6.54 Y-13.6 Z2.7 F360.0 E22848.095
G1 X5.95 Y-13.6 Z2.7 F360.0 E22848.836
G1 X13.6 Y-5.95 Z2.7 F360.0 E22862.361
G1 X13.6 Y-5.36 Z2.7 F360.0 E22863.102
G1 X5.36 Y-13.6 Z2.7 F360.0 E22877.675
G1 X4.77 Y-13.6 Z2.7 F360.0 E22878.416
G1 X13.6 Y-4.77 Z2.7 F360.0 E22894.038
G1 X13.6 Y-4.18 Z2.7 F360.0 E22894.779
G1 X4.18 Y-13.6 Z2.7 F360.0 E22911.448
G1 X3.58 Y-13.6 Z2.7 F360.0 E22912.189
G1 X13.6 Y-3.58 Z2.7 F360.0 E22929.905
G1 X13.6 Y-2.99 Z2.7 F360.0 E22930.647
G1 X2.99 Y-13.6 Z2.7 F360.0 E22949.413
G1 X2.4 Y-13.6 Z2.7 F360.0 E22950.153
G1 X13.6 Y-2.4 Z2.7 F360.0 E22969.966
G1 X13.6 Y-1.81 Z2.7 F360.0 E22970.708
G1 X1.81 Y-13.6 Z2.7 F360.0 E22991.57
G1 X1.21 Y-13.6 Z2.7 F360.0 E22992.311
G1 X13.6 Y-1.21 Z2.7 F360.0 E23014.221
G1 X13.6 Y-0.62 Z2.7 F360.0 E23014.961
G1 X0.62 Y-13.6 Z2.7 F360.0 E23037.918
G1 X0.03 Y-13.6 Z2.7 F360.0 E23038.66
G1 X13.6 Y-0.03 Z2.7 F360.0 E23062.666
G1 X13.6 Y0.56 Z2.7 F360.0 E23063.407
G1 X-0.56 Y-13.6 Z2.7 F360.0 E23088.46
G1 X-1.16 Y-13.6 Z2.7 F360.0 E23089.202
G1 X13.6 Y1.16 Z2.7 F360.0 E23115.304
G1 X13.6 Y1.75 Z2.7 F360.0 E23116.045
G1 X-1.75 Y-13.6 Z2.7 F360.0 E23143.195
G1 X-2.34 Y-13.6 Z2.7 F360.0 E23143.935
G1 X13.6 Y2.34 Z2.7 F360.0 E23172.132
G1 X13.6 Y2.93 Z2.7 F360.0 E23172.874
G1 X-2.93 Y-13.6 Z2.7 F360.0 E23202.121
G1 X-3.53 Y-13.6 Z2.7 F360.0 E23202.861
G1 X13.6 Y3.53 Z2.7 F360.0 E23233.155
G1 X13.6 Y4.12 Z2.7 F360.0 E23233.896
G1 X-4.12 Y-13.6 Z2.7 F360.0 E23265.237
G1 X-4.71 Y-13.6 Z2.7 F360.0 E23265.978
G1 X13.6 Y4.71 Z2.7 F360.0 E23298.369
G1 X13.6 Y5.3 Z2.7 F360.0 E23299.109
G1 X-5.3 Y-13.6 Z2.7 F360.0 E23332.547
G1 X-5.9 Y-13.6 Z2.7 F360.0 E23333.289
G1 X13.6 Y5.9 Z2.7 F360.0 E23367.775
G1 X13.6 Y6.49 Z2.7 F360.0 E23368.516
G1 X-6.49 Y-13.6 Z2.7 F360.0 E23404.05
G1 X-7.08 Y-13.6 Z2.7 F360.0 E23404.79
G1 X13.6 Y7.08 Z2.7 F360.0 E23441.372
G1 X13.6 Y7.67 Z2.7 F360.0 E23442.114
G1 X-7.67 Y-13.6 Z2.7 F360.0 E23479.744
G1 X-8.27 Y-13.6 Z2.7 F360.0 E23480.485
G1 X13.6 Y8.27 Z2.7 F360.0 E23519.162
G1 X13.6 Y8.86 Z2.7 F360.0 E23519.904
G1 X-8.86 Y-13.6 Z2.7 F360.0 E23559.631
G1 X-9.45 Y-13.6 Z2.7 F360.0 E23560.372
G1 X13.6 Y9.45 Z2.7 F360.0 E23601.146
G1 X13.6 Y10.04 Z2.7 F360.0 E23601.887
G1 X-10.04 Y-13.6 Z2.7 F360.0 E23643.708
G1 X-10.64 Y-13.6 Z2.7 F360.0 E23644.45
G1 X13.6 Y10.64 Z2.7 F360.0 E23687.321
G1 X13.6 Y11.23 Z2.7 F360.0 E23688.062
G1 X-11.23 Y-13.6 Z2.7 F360.0 E23731.98
G1 X-11.82 Y-13.6 Z2.7 F360.0 E23732.72
G1 X13.6 Y11.82 Z2.7 F360.0 E23777.686
G1 X13.6 Y12.41 Z2.7 F360.0 E23778.428
G1 X-12.41 Y-13.6 Z2.7 F360.0 E23824.442
G1 X-13.0 Y-13.6 Z2.7 F360.0 E23825.183
G1 X13.6 Y13.0 Z2.7 F360.0 E23872.245
G1 X13.6 Y13.6 Z2.7 F360.0 E23872.987
G1 X-13.6 Y-13.6 Z2.7 F360.0 E23921.098
G1 X-13.6 Y-13.0 Z2.7 F360.0 E23921.84
G1 X13.0 Y13.6 Z2.7 F360.0 E23968.902
G1 X12.41 Y13.6 Z2.7 F360.0 E23969.642
G1 X-13.6 Y-12.41 Z2.7 F360.0 E24015.657
G1 X-13.6 Y-11.82 Z2.7 F360.0 E24016.399
G1 X11.82 Y13.6 Z2.7 F360.0 E24061.364
G1 X11.23 Y13.6 Z2.7 F360.0 E24062.105
G1 X-13.6 Y-11.23 Z2.7 F360.0 E24106.023
G1 X-13.6 Y-10.64 Z2.7 F360.0 E24106.764
G1 X10.64 Y13.6 Z2.7 F360.0 E24149.635
G1 X10.04 Y13.6 Z2.7 F360.0 E24150.376
G1 X-13.6 Y-10.04 Z2.7 F360.0 E24192.198
G1 X-13.6 Y-9.45 Z2.7 F360.0 E24192.939
G1 X9.45 Y13.6 Z2.7 F360.0 E24233.713
G1 X8.86 Y13.6 Z2.7 F360.0 E24234.454
G1 X-13.6 Y-8.86 Z2.7 F360.0 E24274.181
G1 X-13.6 Y-8.27 Z2.7 F360.0 E24274.922
G1 X8.27 Y13.6 Z2.7 F360.0 E24313.6
G1 X7.67 Y13.6 Z2.7 F360.0 E24314.341
G1 X-13.6 Y-7.67 Z2.7 F360.0 E24351.971
G1 X-13.6 Y-7.08 Z2.7 F360.0 E24352.713
G1 X7.08 Y13.6 Z2.7 F360.0 E24389.294
G1 X6.49 Y13.6 Z2.7 F360.0 E24390.035
G1 X-13.6 Y-6.49 Z2.7 F360.0 E24425.569
G1 X-13.6 Y-5.9 Z2.7 F360.0 E24426.31
G1 X5.9 Y13.6 Z2.7 F360.0 E24460.796
G1 X5.3 Y13.6 Z2.7 F360.0 E24461.538
G1 X-13.6 Y-5.3 Z2.7 F360.0 E24494.976
G1 X-13.6 Y-4.71 Z2.7 F360.0 E24495.716
G1 X4.71 Y13.6 Z2.7 F360.0 E24528.106
G1 X4.12 Y13.6 Z2.7 F360.0 E24528.848
G1 X-13.6 Y-4.12 Z2.7 F360.0 E24560.189
G1 X-13.6 Y-3.53 Z2.7 F360.0 E24560.93
G1 X3.53 Y13.6 Z2.7 F360.0 E24591.224
G1 X2.93 Y13.6 Z2.7 F360.0 E24591.964
G1 X-13.6 Y-2.93 Z2.7 F360.0 E24621.211
G1 X-13.6 Y-2.34 Z2.7 F360.0 E24621.952
G1 X2.34 Y13.6 Z2.7 F360.0 E24650.15
G1 X1.75 Y13.6 Z2.7 F360.0 E24650.89
G1 X-13.6 Y-1.75 Z2.7 F360.0 E24678.04
G1 X-13.6 Y-1.16 Z2.7 F360.0 E24678.781
G1 X1.16 Y13.6 Z2.7 F360.0 E24704.883
G1 X0.56 Y13.6 Z2.7 F360.0 E24705.625
G1 X-13.6 Y-0.56 Z2.7 F360.0 E24730.678
G1 X-13.6 Y0.03 Z2.7 F360.0 E24731.419
G1 X-0.03 Y13.6 Z2.7 F360.0 E24755.425
G1 X-0.62 Y13.6 Z2.7 F360.0 E24756.167
G1 X-13.6 Y0.62 Z2.7 F360.0 E24779.124
G1 X-13.6 Y1.21 Z2.7 F360.0 E24779.864
G1 X-1.21 Y13.6 Z2.7 F360.0 E24801.774
G1 X-1.81 Y13.6 Z2.7 F360.0 E24802.514
G1 X-13.6 Y1.81 Z2.7 F360.0 E24823.377
G1 X-13.6 Y2.4 Z2.7 F360.0 E24824.118
G1 X-2.4 Y13.6 Z2.7 F360.0 E24843.931
G1 X-2.99 Y13.6 Z2.7 F360.0 E24844.672
G1 X-13.6 Y2.99 Z2.7 F360.0 E24863.438
G1 X-13.6 Y3.58 Z2.7 F360.0 E24864.18
G1 X-3.58 Y13.6 Z2.7 F360.0 E24881.896
G1 X-4.18 Y13.6 Z2.7 F360.0 E24882.637
G1 X-13.6 Y4.18 Z2.7 F360.0 E24899.306
G1 X-13.6 Y4.77 Z2.7 F360.0 E24900.047
G1 X-4.77 Y13.6 Z2.7 F360.0 E24915.668
G1 X-5.36 Y13.6 Z2.7 F360.0 E24916.41
G1 X-13.6 Y5.36 Z2.7 F360.0 E24930.983
G1 X-13.6 Y5.95 Z2.7 F360.0 E24931.724
G1 X-5.95 Y13.6 Z2.7 F360.0 E24945.249
G1 X-6.54 Y13.6 Z2.7 F360.0 E24945.99
G1 X-13.6 Y6.54 Z2.7 F360.0 E24958.468
G1 X-13.6 Y7.14 Z2.7 F360.0 E24959.21
G1 X-7.14 Y13.6 Z2.7 F360.0 E24970.638
G1 X-7.73 Y13.6 Z2.7 F360.0 E24971.379
G1 X-13.6 Y7.73 Z2.7 F360.0 E24981.761
G1 X-13.6 Y8.32 Z2.7 F360.0 E24982.502
G1 X-8.32 Y13.6 Z2.7 F360.0 E24991.835
G1 X-8.91 Y13.6 Z2.7 F360.0 E24992.575
G1 X-13.6 Y8.91 Z2.7 F360.0 E25000.861
G1 X-13.6 Y9.51 Z2.7 F360.0 E25001.601
G1 X-9.51 Y13.6 Z2.7 F360.0 E25008.839
G1 X-10.1 Y13.6 Z2.7 F360.0 E25009.581
G1 X-13.6 Y10.1 Z2.7 F360.0 E25015.769
G1 X-13.6 Y10.69 Z2.7 F360.0 E25016.51
G1 X-10.69 Y13.6 Z2.7 F360.0 E25021.651
G1 X-11.28 Y13.6 Z2.7 F360.0 E25022.393
G1 X-13.6 Y11.28 Z2.7 F360.0 E25026.485
G1 X-13.6 Y11.88 Z2.7 F360.0 E25027.226
G1 X-11.88 Y13.6 Z2.7 F360.0 E25030.27
G1 X-12.47 Y13.6 Z2.7 F360.0 E25031.011
G1 X-13.6 Y12.47 Z2.7 F360.0 E25033.008
G1 X-13.6 Y13.06 Z2.7 F360.0 E25033.75
G1 X-13.06 Y13.6 Z2.7 F360.0 E25034.699
;M103
G1 X-13.11 Y13.95 Z2.7 F3600.0
;M101
G1 X-13.95 Y13.95 Z2.7 F360.0 E25035.749
G1 X-13.95 Y-13.95 Z2.7 F360.0 E25070.66
G1 X13.95 Y-13.95 Z2.7 F360.0 E25105.57
G1 X13.95 Y13.95 Z2.7 F360.0 E25140.481
G1 X-13.06 Y13.95 Z2.7 F360.0 E25174.275
G1 X-13.11 Y13.95 Z2.7 F360.0 E25174.34
;M103
G1 X-13.06 Y14.37 Z2.7 F3600.0
;M101
G1 X-14.37 Y14.37 Z2.7 F360.0 E25175.98
G1 X-14.37 Y-14.37 Z2.7 F360.0 E25211.939
G1 X14.37 Y-14.37 Z2.7 F360.0 E25247.898
G1 X14.37 Y14.37 Z2.7 F360.0 E25283.856
G1 X-13.06 Y14.37 Z2.7 F360.0 E25318.175
;M103
;M108 S5.629
G1 X-13.06 Y14.79 Z2.7 F3600.0
;M101
G1 X-14.79 Y14.79 Z2.7 F270.0 E25320.339
G1 X-14.79 Y-14.79 Z2.7 F270.0 E25357.343
G1 X14.79 Y-14.79 Z2.7 F270.0 E25394.347
G1 X14.79 Y14.79 Z2.7 F270.0 E25431.351
G1 X-13.06 Y14.79 Z2.7 F270.0 E25466.19
;M103
;M108 S7.506
G1 X13.6 Y13.06 Z3.0 F3600.0
;M101
G1 X13.06 Y13.6 Z3.0 F360.0 E25467.139
G1 X12.47 Y13.6 Z3.0 F360.0 E25467.88
G1 X13.6 Y12.47 Z3.0 F360.0 E25469.878
G1 X13.6 Y11.88 Z3.0 F360.0 E25470.618
G1 X11.88 Y13.6 Z3.0 F360.0 E25473.663
G1 X11.28 Y13.6 Z3.0 F360.0 E25474.404
G1 X13.6 Y11.28 Z3.0 F360.0 E25478.496
G1 X13.6 Y10.69 Z3.0 F360.0 E25479.238
G1 X10.69 Y13.6 Z3.0 F360.0 E25484.379
G1 X10.1 Y13.6 Z3.0 F360.0 E25485.12
G1 X13.6 Y10.1 Z3.0 F360.0 E25491.308
G1 X13.6 Y9.51 Z3.0 F360.0 E25492.05
G1 X9.51 Y13.6 Z3.0 F360.0 E25499.288
G1 X8.91 Y13.6 Z3.0 F360.0 E25500.028
G1 X13.6 Y8.91 Z3.0 F360.0 E25508.313
G1 X13.6 Y8.32 Z3.0 F360.0 E25509.054
G1 X8.32 Y13.6 Z3.0 F360.0 E25518.386
G1 X7.73 Y13.6 Z3.0 F360.0 E25519.128
G1 X13.6 Y7.73 Z3.0 F360.0 E25529.51
G1 X13.6 Y7.14 Z3.0 F360.0 E25530.25
G1 X7.14 Y13.6 Z3.0 F360.0 E25541.679
G1 X6.54 Y13.6 Z3.0 F360.0 E25542.421
G1 X13.6 Y6.54 Z3.0 F360.0 E25554.899
G1 X13.6 Y5.95 Z3.0 F360.0 E25555.64
G1 X5.95 Y13.6 Z3.0 F360.0 E25569.165
G1 X5.36 Y13.6 Z3.0 F360.0 E25569.906
G1 X13.6 Y5.36 Z3.0 F360.0 E25584.479
G1 X13.6 Y4.77 Z3.0 F360.0 E25585.22
G1 X4.77 Y13.6 Z3.0 F360.0 E25600.842
G1 X4.18 Y13.6 Z3.0 F360.0 E25601.583
G1 X13.6 Y4.18 Z3.0 F360.0 E25618.252
G1 X13.6 Y3.58 Z3.0 F360.0 E25618.993
G1 X3.58 Y13.6 Z3.0 F360.0 E25636.709
G1 X2.99 Y13.6 Z3.0 F360.0 E25637.451
G1 X13.6 Y2.99 Z3.0 F360.0 E25656.217
G1 X13.6 Y2.4 Z3.0 F360.0 E25656.957
G1 X2.4 Y13.6 Z3.0 F360.0 E25676.77
G1 X1.81 Y13.6 Z3.0 F360.0 E25677.512
G1 X13.6 Y1.81 Z3.0 F360.0 E25698.374
G1 X13.6 Y1.21 Z3.0 F360.0 E25699.115
G1 X1.21 Y13.6 Z3.0 F360.0 E25721.025
G1 X0.62 Y13.6 Z3.0 F360.0 E25721.765
G1 X13.6 Y0.62 Z3.0 F360.0 E25744.722
G1 X13.6 Y0.03 Z3.0 F360.0 E25745.464
G1 X0.03 Y13.6 Z3.0 F360.0 E25769.47
G1 X-0.56 Y13.6 Z3.0 F360.0 E25770.211
G1 X13.6 Y-0.56 Z3.0 F360.0 E25795.264
G1 X13.6 Y-1.16 Z3.0 F360.0 E25796.006
G1 X-1.16 Y13.6 Z3.0 F360.0 E25822.108
G1 X-1.75 Y13.6 Z3.0 F360.0 E25822.849
G1 X13.6 Y-1.75 Z3.0 F360.0 E25849.999
G1 X13.6 Y-2.34 Z3.0 F360.0 E25850.739
G1 X-2.34 Y13.6 Z3.0 F360.0 E25878.936
G1 X-2.93 Y13.6 Z3.0 F360.0 E25879.678
G1 X13.6 Y-2.93 Z3.0 F360.0 E25908.925
G1 X13.6 Y-3.53 Z3.0 F360.0 E25909.665
G1 X-3.53 Y13.6 Z3.0 F360.0 E25939.959
G1 X-4.12 Y13.6 Z3.0 F360.0 E25940.7
G1 X13.6 Y-4.12 Z3.0 F360.0 E25972.041
G1 X13.6 Y-4.71 Z3.0 F360.0 E25972.782
G1 X-4.71 Y13.6 Z3.0 F360.0 E26005.173
G1 X-5.3 Y13.6 Z3.0 F360.0 E26005.913
G1 X13.6 Y-5.3 Z3.0 F360.0 E26039.351
G1 X13.6 Y-5.9 Z3.0 F360.0 E26040.093
G1 X-5.9 Y13.6 Z3.0 F360.0 E26074.579
G1 X-6.49 Y13.6 Z3.0 F360.0 E26075.32
G1 X13.6 Y-6.49 Z3.0 F360.0 E26110.854
G1 X13.6 Y-7.08 Z3.0 F360.0 E26111.594
G1 X-7.08 Y13.6 Z3.0 F360.0 E26148.176
G1 X-7.67 Y13.6 Z3.0 F360.0 E26148.918
G1 X13.6 Y-7.67 Z3.0 F360.0 E26186.548
G1 X13.6 Y-8.27 Z3.0 F360.0 E26187.289
G1 X-8.27 Y13.6 Z3.0 F360.0 E26225.967
G1 X-8.86 Y13.6 Z3.0 F360.0 E26226.708
G1 X13.6 Y-8.86 Z3.0 F360.0 E26266.435
G1 X13.6 Y-9.45 Z3.0 F360.0 E26267.176
G1 X-9.45 Y13.6 Z3.0 F360.0 E26307.95
G1 X-10.04 Y13.6 Z3.0 F360.0 E26308.691
G1 X13.6 Y-10.04 Z3.0 F360.0 E26350.512
G1 X13.6 Y-10.64 Z3.0 F360.0 E26351.254
G1 X-10.64 Y13.6 Z3.0 F360.0 E26394.125
G1 X-11.23 Y13.6 Z3.0 F360.0 E26394.866
G1 X13.6 Y-11.23 Z3.0 F360.0 E26438.784
G1 X13.6 Y-11.82 Z3.0 F360.0 E26439.524
G1 X-11.82 Y13.6 Z3.0 F360.0 E26484.49
G1 X-12.41 Y13.6 Z3.0 F360.0 E26485.232
G1 X13.6 Y-12.41 Z3.0 F360.0 E26531.246
G1 X13.6 Y-13.0 Z3.0 F360.0 E26531.987
G1 X-13.0 Y13.6 Z3.0 F360.0 E26579.049
G1 X-13.6 Y13.6 Z3.0 F360.0 E26579.791
G1 X13.6 Y-13.6 Z3.0 F360.0 E26627.902
G1 X13.0 Y-13.6 Z3.0 F360.0 E26628.644
G1 X-13.6 Y13.0 Z3.0 F360.0 E26675.706
G1 X-13.6 Y12.41 Z3.0 F360.0 E26676.446
G1 X12.41 Y-13.6 Z3.0 F360.0 E26722.461
G1 X11.82 Y-13.6 Z3.0 F360.0 E26723.203
G1 X-13.6 Y11.82 Z3.0 F360.0 E26768.168
G1 X-13.6 Y11.23 Z3.0 F360.0 E26768.909
G1 X11.23 Y-13.6 Z3.0 F360.0 E26812.827
G1 X10.64 Y-13.6 Z3.0 F360.0 E26813.568
G1 X-13.6 Y10.64 Z3.0 F360.0 E26856.439
G1 X-13.6 Y10.04 Z3.0 F360.0 E26857.18
G1 X10.04 Y-13.6 Z3.0 F360.0 E26899.002
G1 X9.45 Y-13.6 Z3.0 F360.0 E26899.743
G1 X-13.6 Y9.45 Z3.0 F360.0 E26940.517
G1 X-13.6 Y8.86 Z3.0 F360.0 E26941.258
G1 X8.86 Y-13.6 Z3.0 F360.0 E26980.985
G1 X8.27 Y-13.6 Z3.0 F360.0 E26981.726
G1 X-13.6 Y8.27 Z3.0 F360.0 E27020.404
G1 X-13.6 Y7.67 Z3.0 F360.0 E27021.145
G1 X7.67 Y-13.6 Z3.0 F360.0 E27058.775
G1 X7.08 Y-13.6 Z3.0 F360.0 E27059.517
G1 X-13.6 Y7.08 Z3.0 F360.0 E27096.098
G1 X-13.6 Y6.49 Z3.0 F360.0 E27096.839
G1 X6.49 Y-13.6 Z3.0 F360.0 E27132.373
G1 X5.9 Y-13.6 Z3.0 F360.0 E27133.114
G1 X-13.6 Y5.9 Z3.0 F360.0 E27167.6
G1 X-13.6 Y5.3 Z3.0 F360.0 E27168.342
G1 X5.3 Y-13.6 Z3.0 F360.0 E27201.78
G1 X4.71 Y-13.6 Z3.0 F360.0 E27202.52
G1 X-13.6 Y4.71 Z3.0 F360.0 E27234.91
G1 X-13.6 Y4.12 Z3.0 F360.0 E27235.652
G1 X4.12 Y-13.6 Z3.0 F360.0 E27266.993
G1 X3.53 Y-13.6 Z3.0 F360.0 E27267.734
G1 X-13.6 Y3.53 Z3.0 F360.0 E27298.028
G1 X-13.6 Y2.93 Z3.0 F360.0 E27298.768
G1 X2.93 Y-13.6 Z3.0 F360.0 E27328.015
G1 X2.34 Y-13.6 Z3.0 F360.0 E27328.756
G1 X-13.6 Y2.34 Z3.0 F360.0 E27356.954
G1 X-13.6 Y1.75 Z3.0 F360.0 E27357.694
G1 X1.75 Y-13.6 Z3.0 F360.0 E27384.844
G1 X1.16 Y-13.6 Z3.0 F360.0 E27385.585
G1 X-13.6 Y1.16 Z3.0 F360.0 E27411.687
G1 X-13.6 Y0.56 Z3.0 F360.0 E27412.429
G1 X0.56 Y-13.6 Z3.0 F360.0 E27437.482
G1 X-0.03 Y-13.6 Z3.0 F360.0 E27438.223
G1 X-13.6 Y-0.03 Z3.0 F360.0 E27462.229
G1 X-13.6 Y-0.62 Z3.0 F360.0 E27462.971
G1 X-0.62 Y-13.6 Z3.0 F360.0 E27485.928
G1 X-1.21 Y-13.6 Z3.0 F360.0 E27486.668
G1 X-13.6 Y-1.21 Z3.0 F360.0 E27508.578
G1 X-13.6 Y-1.81 Z3.0 F360.0 E27509.318
G1 X-1.81 Y-13.6 Z3.0 F360.0 E27530.181
G1 X-2.4 Y-13.6 Z3.0 F360.0 E27530.922
G1 X-13.6 Y-2.4 Z3.0 F360.0 E27550.736
G1 X-13.6 Y-2.99 Z3.0 F360.0 E27551.476
G1 X-2.99 Y-13.6 Z3.0 F360.0 E27570.242
G1 X-3.58 Y-13.6 Z3.0 F360.0 E27570.984
G1 X-13.6 Y-3.58 Z3.0 F360.0 E27588.7
G1 X-13.6 Y-4.18 Z3.0 F360.0 E27589.441
G1 X-4.18 Y-13.6 Z3.0 F360.0 E27606.11
G1 X-4.77 Y-13.6 Z3.0 F360.0 E27606.851
G1 X-13.6 Y-4.77 Z3.0 F360.0 E27622.473
G1 X-13.6 Y-5.36 Z3.0 F360.0 E27623.214
G1 X-5.36 Y-13.6 Z3.0 F360.0 E27637.787
G1 X-5.95 Y-13.6 Z3.0 F360.0 E27638.528
G1 X-13.6 Y-5.95 Z3.0 F360.0 E27652.053
G1 X-13.6 Y-6.54 Z3.0 F360.0 E27652.794
G1 X-6.54 Y-13.6 Z3.0 F360.0 E27665.272
G1 X-7.14 Y-13.6 Z3.0 F360.0 E27666.014
G1 X-13.6 Y-7.14 Z3.0 F360.0 E27677.442
G1 X-13.6 Y-7.73 Z3.0 F360.0 E27678.183
G1 X-7.73 Y-13.6 Z3.0 F360.0 E27688.565
G1 X-8.32 Y-13.6 Z3.0 F360.0 E27689.306
G1 X-13.6 Y-8.32 Z3.0 F360.0 E27698.639
G1 X-13.6 Y-8.91 Z3.0 F360.0 E27699.379
G1 X-8.91 Y-13.6 Z3.0 F360.0 E27707.665
G1 X-9.51 Y-13.6 Z3.0 F360.0 E27708.405
G1 X-13.6 Y-9.51 Z3.0 F360.0 E27715.643
G1 X-13.6 Y-10.1 Z3.0 F360.0 E27716.385
G1 X-10.1 Y-13.6 Z3.0 F360.0 E27722.573
G1 X-10.69 Y-13.6 Z3.0 F360.0 E27723.314
G1 X-13.6 Y-10.69 Z3.0 F360.0 E27728.455
G1 X-13.6 Y-11.28 Z3.0 F360.0 E27729.197
G1 X-11.28 Y-13.6 Z3.0 F360.0 E27733.289
G1 X-11.88 Y-13.6 Z3.0 F360.0 E27734.03
G1 X-13.6 Y-11.88 Z3.0 F360.0 E27737.074
G1 X-13.6 Y-12.47 Z3.0 F360.0 E27737.815
G1 X-12.47 Y-13.6 Z3.0 F360.0 E27739.812
G1 X-13.06 Y-13.6 Z3.0 F360.0 E27740.554
G1 X-13.6 Y-13.06 Z3.0 F360.0 E27741.503
;M103
G1 X-13.95 Y-12.79 Z3.0 F3600.0
;M101
G1 X-13.95 Y-13.06 Z3.0 F360.0 E27741.838
G1 X-13.95 Y-13.95 Z3.0 F360.0 E27742.954
G1 X13.95 Y-13.95 Z3.0 F360.0 E27777.864
G1 X13.95 Y13.95 Z3.0 F360.0 E27812.775
G1 X-13.95 Y13.95 Z3.0 F360.0 E27847.685
G1 X-13.95 Y-12.79 Z3.0 F360.0 E27881.144
;M103
G1 X-14.37 Y-12.79 Z3.0 F3600.0
;M101
G1 X-14.37 Y-13.06 Z3.0 F360.0 E27881.479
G1 X-14.37 Y-14.37 Z3.0 F360.0 E27883.12
G1 X14.37 Y-14.37 Z3.0 F360.0 E27919.078
G1 X14.37 Y14.37 Z3.0 F360.0 E27955.037
G1 X-14.37 Y14.37 Z3.0 F360.0 E27990.996
G1 X-14.37 Y-12.79 Z3.0 F360.0 E28024.979
;M103
;M108 S5.629
G1 X-14.79 Y-12.79 Z3.0 F3600.0
;M101
G1 X-14.79 Y-13.06 Z3.0 F270.0 E28025.314
G1 X-14.79 Y-14.79 Z3.0 F270.0 E28027.478
G1 X14.79 Y-14.79 Z3.0 F270.0 E28064.482
G1 X14.79 Y14.79 Z3.0 F270.0 E28101.486
G1 X-14.79 Y14.79 Z3.0 F270.0 E28138.49
G1 X-14.79 Y-12.79 Z3.0 F270.0 E28172.994
;M103
;M108 S7.506
G1 X13.06 Y-13.6 Z3.3 F3600.0
;M101
G1 X13.6 Y-13.06 Z3.3 F360.0 E28173.943
G1 X13.6 Y-12.47 Z3.3 F360.0 E28174.684
G1 X12.47 Y-13.6 Z3.3 F360.0 E28176.682
G1 X11.88 Y-13.6 Z3.3 F360.0 E28177.422
G1 X13.6 Y-11.88 Z3.3 F360.0 E28180.467
G1 X13.6 Y-11.28 Z3.3 F360.0 E28181.208
G1 X11.28 Y-13.6 Z3.3 F360.0 E28185.3
G1 X10.69 Y-13.6 Z3.3 F360.0 E28186.042
G1 X13.6 Y-10.69 Z3.3 F360.0 E28191.183
G1 X13.6 Y-10.1 Z3.3 F360.0 E28191.924
G1 X10.1 Y-13.6 Z3.3 F360.0 E28198.112
G1 X9.51 Y-13.6 Z3.3 F360.0 E28198.854
G1 X13.6 Y-9.51 Z3.3 F360.0 E28206.092
G1 X13.6 Y-8.91 Z3.3 F360.0 E28206.832
G1 X8.91 Y-13.6 Z3.3 F360.0 E28215.117
G1 X8.32 Y-13.6 Z3.3 F360.0 E28215.858
G1 X13.6 Y-8.32 Z3.3 F360.0 E28225.19
G1 X13.6 Y-7.73 Z3.3 F360.0 E28225.932
G1 X7.73 Y-13.6 Z3.3 F360.0 E28236.314
G1 X7.14 Y-13.6 Z3.3 F360.0 E28237.054
G1 X13.6 Y-7.14 Z3.3 F360.0 E28248.483
G1 X13.6 Y-6.54 Z3.3 F360.0 E28249.225
G1 X6.54 Y-13.6 Z3.3 F360.0 E28261.703
G1 X5.95 Y-13.6 Z3.3 F360.0 E28262.444
G1 X13.6 Y-5.95 Z3.3 F360.0 E28275.969
G1 X13.6 Y-5.36 Z3.3 F360.0 E28276.71
G1 X5.36 Y-13.6 Z3.3 F360.0 E28291.283
G1 X4.77 Y-13.6 Z3.3 F360.0 E28292.024
G1 X13.6 Y-4.77 Z3.3 F360.0 E28307.646
G1 X13.6 Y-4.18 Z3.3 F360.0 E28308.387
G1 X4.18 Y-13.6 Z3.3 F360.0 E28325.056
G1 X3.58 Y-13.6 Z3.3 F360.0 E28325.797
G1 X13.6 Y-3.58 Z3.3 F360.0 E28343.513
G1 X13.6 Y-2.99 Z3.3 F360.0 E28344.255
G1 X2.99 Y-13.6 Z3.3 F360.0 E28363.021
G1 X2.4 Y-13.6 Z3.3 F360.0 E28363.761
G1 X13.6 Y-2.4 Z3.3 F360.0 E28383.574
G1 X13.6 Y-1.81 Z3.3 F360.0 E28384.316
G1 X1.81 Y-13.6 Z3.3 F360.0 E28405.178
G1 X1.21 Y-13.6 Z3.3 F360.0 E28405.919
G1 X13.6 Y-1.21 Z3.3 F360.0 E28427.829
G1 X13.6 Y-0.62 Z3.3 F360.0 E28428.569
G1 X0.62 Y-13.6 Z3.3 F360.0 E28451.526
G1 X0.03 Y-13.6 Z3.3 F360.0 E28452.268
G1 X13.6 Y-0.03 Z3.3 F360.0 E28476.274
G1 X13.6 Y0.56 Z3.3 F360.0 E28477.015
G1 X-0.56 Y-13.6 Z3.3 F360.0 E28502.068
G1 X-1.16 Y-13.6 Z3.3 F360.0 E28502.81
G1 X13.6 Y1.16 Z3.3 F360.0 E28528.912
G1 X13.6 Y1.75 Z3.3 F360.0 E28529.653
G1 X-1.75 Y-13.6 Z3.3 F360.0 E28556.803
G1 X-2.34 Y-13.6 Z3.3 F360.0 E28557.543
G1 X13.6 Y2.34 Z3.3 F360.0 E28585.741
G1 X13.6 Y2.93 Z3.3 F360.0 E28586.482
G1 X-2.93 Y-13.6 Z3.3 F360.0 E28615.729
G1 X-3.53 Y-13.6 Z3.3 F360.0 E28616.469
G1 X13.6 Y3.53 Z3.3 F360.0 E28646.763
G1 X13.6 Y4.12 Z3.3 F360.0 E28647.504
G1 X-4.12 Y-13.6 Z3.3 F360.0 E28678.845
G1 X-4.71 Y-13.6 Z3.3 F360.0 E28679.586
G1 X13.6 Y4.71 Z3.3 F360.0 E28711.977
G1 X13.6 Y5.3 Z3.3 F360.0 E28712.717
G1 X-5.3 Y-13.6 Z3.3 F360.0 E28746.155
G1 X-5.9 Y-13.6 Z3.3 F360.0 E28746.897
G1 X13.6 Y5.9 Z3.3 F360.0 E28781.383
G1 X13.6 Y6.49 Z3.3 F360.0 E28782.124
G1 X-6.49 Y-13.6 Z3.3 F360.0 E28817.658
G1 X-7.08 Y-13.6 Z3.3 F360.0 E28818.398
G1 X13.6 Y7.08 Z3.3 F360.0 E28854.98
G1 X13.6 Y7.67 Z3.3 F360.0 E28855.722
G1 X-7.67 Y-13.6 Z3.3 F360.0 E28893.352
G1 X-8.27 Y-13.6 Z3.3 F360.0 E28894.093
G1 X13.6 Y8.27 Z3.3 F360.0 E28932.771
G1 X13.6 Y8.86 Z3.3 F360.0 E28933.512
G1 X-8.86 Y-13.6 Z3.3 F360.0 E28973.239
G1 X-9.45 Y-13.6 Z3.3 F360.0 E28973.98
G1 X13.6 Y9.45 Z3.3 F360.0 E29014.754
G1 X13.6 Y10.04 Z3.3 F360.0 E29015.495
G1 X-10.04 Y-13.6 Z3.3 F360.0 E29057.317
G1 X-10.64 Y-13.6 Z3.3 F360.0 E29058.058
G1 X13.6 Y10.64 Z3.3 F360.0 E29100.929
G1 X13.6 Y11.23 Z3.3 F360.0 E29101.67
G1 X-11.23 Y-13.6 Z3.3 F360.0 E29145.588
G1 X-11.82 Y-13.6 Z3.3 F360.0 E29146.328
G1 X13.6 Y11.82 Z3.3 F360.0 E29191.294
G1 X13.6 Y12.41 Z3.3 F360.0 E29192.036
G1 X-12.41 Y-13.6 Z3.3 F360.0 E29238.05
G1 X-13.0 Y-13.6 Z3.3 F360.0 E29238.791
G1 X13.6 Y13.0 Z3.3 F360.0 E29285.853
G1 X13.6 Y13.6 Z3.3 F360.0 E29286.595
G1 X-13.6 Y-13.6 Z3.3 F360.0 E29334.706
G1 X-13.6 Y-13.0 Z3.3 F360.0 E29335.448
G1 X13.0 Y13.6 Z3.3 F360.0 E29382.51
G1 X12.41 Y13.6 Z3.3 F360.0 E29383.25
G1 X-13.6 Y-12.41 Z3.3 F360.0 E29429.265
G1 X-13.6 Y-11.82 Z3.3 F360.0 E29430.007
G1 X11.82 Y13.6 Z3.3 F360.0 E29474.972
G1 X11.23 Y13.6 Z3.3 F360.0 E29475.713
G1 X-13.6 Y-11.23 Z3.3 F360.0 E29519.631
G1 X-13.6 Y-10.64 Z3.3 F360.0 E29520.372
G1 X10.64 Y13.6 Z3.3 F360.0 E29563.243
G1 X10.04 Y13.6 Z3.3 F360.0 E29563.984
G1 X-13.6 Y-10.04 Z3.3 F360.0 E29605.806
G1 X-13.6 Y-9.45 Z3.3 F360.0 E29606.547
G1 X9.45 Y13.6 Z3.3 F360.0 E29647.321
G1 X8.86 Y13.6 Z3.3 F360.0 E29648.062
G1 X-13.6 Y-8.86 Z3.3 F360.0 E29687.789
G1 X-13.6 Y-8.27 Z3.3 F360.0 E29688.53
G1 X8.27 Y13.6 Z3.3 F360.0 E29727.208
G1 X7.67 Y13.6 Z3.3 F360.0 E29727.949
G1 X-13.6 Y-7.67 Z3.3 F360.0 E29765.579
G1 X-13.6 Y-7.08 Z3.3 F360.0 E29766.321
G1 X7.08 Y13.6 Z3.3 F360.0 E29802.902
G1 X6.49 Y13.6 Z3.3 F360.0 E29803.643
G1 X-13.6 Y-6.49 Z3.3 F360.0 E29839.177
G1 X-13.6 Y-5.9 Z3.3 F360.0 E29839.918
G1 X5.9 Y13.6 Z3.3 F360.0 E29874.404
G1 X5.3 Y13.6 Z3.3 F360.0 E29875.146
G1 X-13.6 Y-5.3 Z3.3 F360.0 E29908.584
G1 X-13.6 Y-4.71 Z3.3 F360.0 E29909.324
G1 X4.71 Y13.6 Z3.3 F360.0 E29941.714
G1 X4.12 Y13.6 Z3.3 F360.0 E29942.456
G1 X-13.6 Y-4.12 Z3.3 F360.0 E29973.797
G1 X-13.6 Y-3.53 Z3.3 F360.0 E29974.538
G1 X3.53 Y13.6 Z3.3 F360.0 E30004.832
G1 X2.93 Y13.6 Z3.3 F360.0 E30005.572
G1 X-13.6 Y-2.93 Z3.3 F360.0 E30034.819
G1 X-13.6 Y-2.34 Z3.3 F360.0 E30035.56
G1 X2.34 Y13.6 Z3.3 F360.0 E30063.758
G1 X1.75 Y13.6 Z3.3 F360.0 E30064.498
G1 X-13.6 Y-1.75 Z3.3 F360.0 E30091.648
G1 X-13.6 Y-1.16 Z3.3 F360.0 E30092.389
G1 X1.16 Y13.6 Z3.3 F360.0 E30118.491
G1 X0.56 Y13.6 Z3.3 F360.0 E30119.233
G1 X-13.6 Y-0.56 Z3.3 F360.0 E30144.286
G1 X-13.6 Y0.03 Z3.3 F360.0 E30145.027
G1 X-0.03 Y13.6 Z3.3 F360.0 E30169.033
G1 X-0.62 Y13.6 Z3.3 F360.0 E30169.775
G1 X-13.6 Y0.62 Z3.3 F360.0 E30192.732
G1 X-13.6 Y1.21 Z3.3 F360.0 E30193.472
G1 X-1.21 Y13.6 Z3.3 F360.0 E30215.382
G1 X-1.81 Y13.6 Z3.3 F360.0 E30216.122
G1 X-13.6 Y1.81 Z3.3 F360.0 E30236.985
G1 X-13.6 Y2.4 Z3.3 F360.0 E30237.726
G1 X-2.4 Y13.6 Z3.3 F360.0 E30257.54
G1 X-2.99 Y13.6 Z3.3 F360.0 E30258.28
G1 X-13.6 Y2.99 Z3.3 F360.0 E30277.046
G1 X-13.6 Y3.58 Z3.3 F360.0 E30277.788
G1 X-3.58 Y13.6 Z3.3 F360.0 E30295.504
G1 X-4.18 Y13.6 Z3.3 F360.0 E30296.245
G1 X-13.6 Y4.18 Z3.3 F360.0 E30312.914
G1 X-13.6 Y4.77 Z3.3 F360.0 E30313.655
G1 X-4.77 Y13.6 Z3.3 F360.0 E30329.277
G1 X-5.36 Y13.6 Z3.3 F360.0 E30330.018
G1 X-13.6 Y5.36 Z3.3 F360.0 E30344.591
G1 X-13.6 Y5.95 Z3.3 F360.0 E30345.332
G1 X-5.95 Y13.6 Z3.3 F360.0 E30358.857
G1 X-6.54 Y13.6 Z3.3 F360.0 E30359.598
G1 X-13.6 Y6.54 Z3.3 F360.0 E30372.076
G1 X-13.6 Y7.14 Z3.3 F360.0 E30372.818
G1 X-7.14 Y13.6 Z3.3 F360.0 E30384.246
G1 X-7.73 Y13.6 Z3.3 F360.0 E30384.987
G1 X-13.6 Y7.73 Z3.3 F360.0 E30395.369
G1 X-13.6 Y8.32 Z3.3 F360.0 E30396.11
G1 X-8.32 Y13.6 Z3.3 F360.0 E30405.443
G1 X-8.91 Y13.6 Z3.3 F360.0 E30406.183
G1 X-13.6 Y8.91 Z3.3 F360.0 E30414.469
G1 X-13.6 Y9.51 Z3.3 F360.0 E30415.209
G1 X-9.51 Y13.6 Z3.3 F360.0 E30422.447
G1 X-10.1 Y13.6 Z3.3 F360.0 E30423.189
G1 X-13.6 Y10.1 Z3.3 F360.0 E30429.377
G1 X-13.6 Y10.69 Z3.3 F360.0 E30430.118
G1 X-10.69 Y13.6 Z3.3 F360.0 E30435.259
G1 X-11.28 Y13.6 Z3.3 F360.0 E30436.001
G1 X-13.6 Y11.28 Z3.3 F360.0 E30440.093
G1 X-13.6 Y11.88 Z3.3 F360.0 E30440.834
G1 X-11.88 Y13.6 Z3.3 F360.0 E30443.878
G1 X-12.47 Y13.6 Z3.3 F360.0 E30444.619
G1 X-13.6 Y12.47 Z3.3 F360.0 E30446.616
G1 X-13.6 Y13.06 Z3.3 F360.0 E30447.358
G1 X-13.06 Y13.6 Z3.3 F360.0 E30448.307
;M103
G1 X-13.31 Y13.95 Z3.3 F3600.0
;M101
G1 X-13.95 Y13.95 Z3.3 F360.0 E30449.11
G1 X-13.95 Y-13.95 Z3.3 F360.0 E30484.02
G1 X13.95 Y-13.95 Z3.3 F360.0 E30518.931
G1 X13.95 Y13.95 Z3.3 F360.0 E30553.841
G1 X-13.06 Y13.95 Z3.3 F360.0 E30587.635
G1 X-13.31 Y13.95 Z3.3 F360.0 E30587.948
;M103
G1 X-13.31 Y14.37 Z3.3 F3600.0
;M101
G1 X-14.37 Y14.37 Z3.3 F360.0 E30589.276
G1 X-14.37 Y-14.37 Z3.3 F360.0 E30625.234
G1 X14.37 Y-14.37 Z3.3 F360.0 E30661.193
G1 X14.37 Y14.37 Z3.3 F360.0 E30697.152
G1 X-13.06 Y14.37 Z3.3 F360.0 E30731.47
G1 X-13.31 Y14.37 Z3.3 F360.0 E30731.783
;M103
;M108 S5.629
G1 X-13.31 Y14.79 Z3.3 F3600.0
;M101
G1 X-14.79 Y14.79 Z3.3 F270.0 E30733.634
G1 X-14.79 Y-14.79 Z3.3 F270.0 E30770.638
G1 X14.79 Y-14.79 Z3.3 F270.0 E30807.642
G1 X14.79 Y14.79 Z3.3 F270.0 E30844.646
G1 X-13.06 Y14.79 Z3.3 F270.0 E30879.486
G1 X-13.31 Y14.79 Z3.3 F270.0 E30879.798
;M103
;M108 S7.506
G1 X13.6 Y13.06 Z3.6 F3600.0
;M101
G1 X13.06 Y13.6 Z3.6 F360.0 E30880.747
G1 X12.47 Y13.6 Z3.6 F360.0 E30881.488
G1 X13.6 Y12.47 Z3.6 F360.0 E30883.486
G1 X13.6 Y11.88 Z3.6 F360.0 E30884.226
G1 X11.88 Y13.6 Z3.6 F360.0 E30887.271
G1 X11.28 Y13.6 Z3.6 F360.0 E30888.012
G1 X13.6 Y11.28 Z3.6 F360.0 E30892.104
G1 X13.6 Y10.69 Z3.6 F360.0 E30892.846
G1 X10.69 Y13.6 Z3.6 F360.0 E30897.987
G1 X10.1 Y13.6 Z3.6 F360.0 E30898.728
G1 X13.6 Y10.1 Z3.6 F360.0 E30904.916
G1 X13.6 Y9.51 Z3.6 F360.0 E30905.658
G1 X9.51 Y13.6 Z3.6 F360.0 E30912.896
G1 X8.91 Y13.6 Z3.6 F360.0 E30913.636
G1 X13.6 Y8.91 Z3.6 F360.0 E30921.921
G1 X13.6 Y8.32 Z3.6 F360.0 E30922.662
G1 X8.32 Y13.6 Z3.6 F360.0 E30931.994
G1 X7.73 Y13.6 Z3.6 F360.0 E30932.736
G1 X13.6 Y7.73 Z3.6 F360.0 E30943.118
G1 X13.6 Y7.14 Z3.6 F360.0 E30943.858
G1 X7.14 Y13.6 Z3.6 F360.0 E30955.287
G1 X6.54 Y13.6 Z3.6 F360.0 E30956.029
G1 X13.6 Y6.54 Z3.6 F360.0 E30968.507
G1 X13.6 Y5.95 Z3.6 F360.0 E30969.248
G1 X5.95 Y13.6 Z3.6 F360.0 E30982.773
G1 X5.36 Y13.6 Z3.6 F360.0 E30983.514
G1 X13.6 Y5.36 Z3.6 F360.0 E30998.087
G1 X13.6 Y4.77 Z3.6 F360.0 E30998.828
G1 X4.77 Y13.6 Z3.6 F360.0 E31014.45
G1 X4.18 Y13.6 Z3.6 F360.0 E31015.191
G1 X13.6 Y4.18 Z3.6 F360.0 E31031.86
G1 X13.6 Y3.58 Z3.6 F360.0 E31032.601
G1 X3.58 Y13.6 Z3.6 F360.0 E31050.317
G1 X2.99 Y13.6 Z3.6 F360.0 E31051.059
G1 X13.6 Y2.99 Z3.6 F360.0 E31069.825
G1 X13.6 Y2.4 Z3.6 F360.0 E31070.565
G1 X2.4 Y13.6 Z3.6 F360.0 E31090.378
G1 X1.81 Y13.6 Z3.6 F360.0 E31091.12
G1 X13.6 Y1.81 Z3.6 F360.0 E31111.982
G1 X13.6 Y1.21 Z3.6 F360.0 E31112.723
G1 X1.21 Y13.6 Z3.6 F360.0 E31134.633
G1 X0.62 Y13.6 Z3.6 F360.0 E31135.373
G1 X13.6 Y0.62 Z3.6 F360.0 E31158.33
G1 X13.6 Y0.03 Z3.6 F360.0 E31159.072
G1 X0.03 Y13.6 Z3.6 F360.0 E31183.078
G1 X-0.56 Y13.6 Z3.6 F360.0 E31183.819
G1 X13.6 Y-0.56 Z3.6 F360.0 E31208.872
G1 X13.6 Y-1.16 Z3.6 F360.0 E31209.614
G1 X-1.16 Y13.6 Z3.6 F360.0 E31235.716
G1 X-1.75 Y13.6 Z3.6 F360.0 E31236.457
G1 X13.6 Y-1.75 Z3.6 F360.0 E31263.607
G1 X13.6 Y-2.34 Z3.6 F360.0 E31264.347
G1 X-2.34 Y13.6 Z3.6 F360.0 E31292.545
G1 X-2.93 Y13.6 Z3.6 F360.0 E31293.286
G1 X13.6 Y-2.93 Z3.6 F360.0 E31322.533
G1 X13.6 Y-3.53 Z3.6 F360.0 E31323.273
G1 X-3.53 Y13.6 Z3.6 F360.0 E31353.567
G1 X-4.12 Y13.6 Z3.6 F360.0 E31354.308
G1 X13.6 Y-4.12 Z3.6 F360.0 E31385.649
G1 X13.6 Y-4.71 Z3.6 F360.0 E31386.39
G1 X-4.71 Y13.6 Z3.6 F360.0 E31418.781
G1 X-5.3 Y13.6 Z3.6 F360.0 E31419.521
G1 X13.6 Y-5.3 Z3.6 F360.0 E31452.959
G1 X13.6 Y-5.9 Z3.6 F360.0 E31453.701
G1 X-5.9 Y13.6 Z3.6 F360.0 E31488.187
G1 X-6.49 Y13.6 Z3.6 F360.0 E31488.928
G1 X13.6 Y-6.49 Z3.6 F360.0 E31524.462
G1 X13.6 Y-7.08 Z3.6 F360.0 E31525.202
G1 X-7.08 Y13.6 Z3.6 F360.0 E31561.784
G1 X-7.67 Y13.6 Z3.6 F360.0 E31562.526
G1 X13.6 Y-7.67 Z3.6 F360.0 E31600.156
G1 X13.6 Y-8.27 Z3.6 F360.0 E31600.897
G1 X-8.27 Y13.6 Z3.6 F360.0 E31639.575
G1 X-8.86 Y13.6 Z3.6 F360.0 E31640.316
G1 X13.6 Y-8.86 Z3.6 F360.0 E31680.043
G1 X13.6 Y-9.45 Z3.6 F360.0 E31680.784
G1 X-9.45 Y13.6 Z3.6 F360.0 E31721.558
G1 X-10.04 Y13.6 Z3.6 F360.0 E31722.299
G1 X13.6 Y-10.04 Z3.6 F360.0 E31764.121
G1 X13.6 Y-10.64 Z3.6 F360.0 E31764.862
G1 X-10.64 Y13.6 Z3.6 F360.0 E31807.733
G1 X-11.23 Y13.6 Z3.6 F360.0 E31808.474
G1 X13.6 Y-11.23 Z3.6 F360.0 E31852.392
G1 X13.6 Y-11.82 Z3.6 F360.0 E31853.133
G1 X-11.82 Y13.6 Z3.6 F360.0 E31898.098
G1 X-12.41 Y13.6 Z3.6 F360.0 E31898.84
G1 X13.6 Y-12.41 Z3.6 F360.0 E31944.854
G1 X13.6 Y-13.0 Z3.6 F360.0 E31945.595
G1 X-13.0 Y13.6 Z3.6 F360.0 E31992.657
G1 X-13.6 Y13.6 Z3.6 F360.0 E31993.399
G1 X13.6 Y-13.6 Z3.6 F360.0 E32041.51
G1 X13.0 Y-13.6 Z3.6 F360.0 E32042.252
G1 X-13.6 Y13.0 Z3.6 F360.0 E32089.314
G1 X-13.6 Y12.41 Z3.6 F360.0 E32090.054
G1 X12.41 Y-13.6 Z3.6 F360.0 E32136.069
G1 X11.82 Y-13.6 Z3.6 F360.0 E32136.811
G1 X-13.6 Y11.82 Z3.6 F360.0 E32181.776
G1 X-13.6 Y11.23 Z3.6 F360.0 E32182.517
G1 X11.23 Y-13.6 Z3.6 F360.0 E32226.435
G1 X10.64 Y-13.6 Z3.6 F360.0 E32227.176
G1 X-13.6 Y10.64 Z3.6 F360.0 E32270.047
G1 X-13.6 Y10.04 Z3.6 F360.0 E32270.788
G1 X10.04 Y-13.6 Z3.6 F360.0 E32312.61
G1 X9.45 Y-13.6 Z3.6 F360.0 E32313.351
G1 X-13.6 Y9.45 Z3.6 F360.0 E32354.125
G1 X-13.6 Y8.86 Z3.6 F360.0 E32354.866
G1 X8.86 Y-13.6 Z3.6 F360.0 E32394.593
G1 X8.27 Y-13.6 Z3.6 F360.0 E32395.334
G1 X-13.6 Y8.27 Z3.6 F360.0 E32434.012
G1 X-13.6 Y7.67 Z3.6 F360.0 E32434.753
G1 X7.67 Y-13.6 Z3.6 F360.0 E32472.383
G1 X7.08 Y-13.6 Z3.6 F360.0 E32473.125
G1 X-13.6 Y7.08 Z3.6 F360.0 E32509.707
G1 X-13.6 Y6.49 Z3.6 F360.0 E32510.447
G1 X6.49 Y-13.6 Z3.6 F360.0 E32545.981
G1 X5.9 Y-13.6 Z3.6 F360.0 E32546.722
G1 X-13.6 Y5.9 Z3.6 F360.0 E32581.208
G1 X-13.6 Y5.3 Z3.6 F360.0 E32581.95
G1 X5.3 Y-13.6 Z3.6 F360.0 E32615.388
G1 X4.71 Y-13.6 Z3.6 F360.0 E32616.128
G1 X-13.6 Y4.71 Z3.6 F360.0 E32648.518
G1 X-13.6 Y4.12 Z3.6 F360.0 E32649.26
G1 X4.12 Y-13.6 Z3.6 F360.0 E32680.601
G1 X3.53 Y-13.6 Z3.6 F360.0 E32681.342
G1 X-13.6 Y3.53 Z3.6 F360.0 E32711.636
G1 X-13.6 Y2.93 Z3.6 F360.0 E32712.376
G1 X2.93 Y-13.6 Z3.6 F360.0 E32741.623
G1 X2.34 Y-13.6 Z3.6 F360.0 E32742.364
G1 X-13.6 Y2.34 Z3.6 F360.0 E32770.562
G1 X-13.6 Y1.75 Z3.6 F360.0 E32771.302
G1 X1.75 Y-13.6 Z3.6 F360.0 E32798.452
G1 X1.16 Y-13.6 Z3.6 F360.0 E32799.193
G1 X-13.6 Y1.16 Z3.6 F360.0 E32825.295
G1 X-13.6 Y0.56 Z3.6 F360.0 E32826.037
G1 X0.56 Y-13.6 Z3.6 F360.0 E32851.09
G1 X-0.03 Y-13.6 Z3.6 F360.0 E32851.831
G1 X-13.6 Y-0.03 Z3.6 F360.0 E32875.837
G1 X-13.6 Y-0.62 Z3.6 F360.0 E32876.579
G1 X-0.62 Y-13.6 Z3.6 F360.0 E32899.536
G1 X-1.21 Y-13.6 Z3.6 F360.0 E32900.276
G1 X-13.6 Y-1.21 Z3.6 F360.0 E32922.186
G1 X-13.6 Y-1.81 Z3.6 F360.0 E32922.926
G1 X-1.81 Y-13.6 Z3.6 F360.0 E32943.789
G1 X-2.4 Y-13.6 Z3.6 F360.0 E32944.53
G1 X-13.6 Y-2.4 Z3.6 F360.0 E32964.344
G1 X-13.6 Y-2.99 Z3.6 F360.0 E32965.084
G1 X-2.99 Y-13.6 Z3.6 F360.0 E32983.85
G1 X-3.58 Y-13.6 Z3.6 F360.0 E32984.592
G1 X-13.6 Y-3.58 Z3.6 F360.0 E33002.308
G1 X-13.6 Y-4.18 Z3.6 F360.0 E33003.049
G1 X-4.18 Y-13.6 Z3.6 F360.0 E33019.718
G1 X-4.77 Y-13.6 Z3.6 F360.0 E33020.459
G1 X-13.6 Y-4.77 Z3.6 F360.0 E33036.081
G1 X-13.6 Y-5.36 Z3.6 F360.0 E33036.822
G1 X-5.36 Y-13.6 Z3.6 F360.0 E33051.395
G1 X-5.95 Y-13.6 Z3.6 F360.0 E33052.136
G1 X-13.6 Y-5.95 Z3.6 F360.0 E33065.661
G1 X-13.6 Y-6.54 Z3.6 F360.0 E33066.402
G1 X-6.54 Y-13.6 Z3.6 F360.0 E33078.88
G1 X-7.14 Y-13.6 Z3.6 F360.0 E33079.622
G1 X-13.6 Y-7.14 Z3.6 F360.0 E33091.05
G1 X-13.6 Y-7.73 Z3.6 F360.0 E33091.791
G1 X-7.73 Y-13.6 Z3.6 F360.0 E33102.173
G1 X-8.32 Y-13.6 Z3.6 F360.0 E33102.914
G1 X-13.6 Y-8.32 Z3.6 F360.0 E33112.247
G1 X-13.6 Y-8.91 Z3.6 F360.0 E33112.988
G1 X-8.91 Y-13.6 Z3.6 F360.0 E33121.273
G1 X-9.51 Y-13.6 Z3.6 F360.0 E33122.013
G1 X-13.6 Y-9.51 Z3.6 F360.0 E33129.251
G1 X-13.6 Y-10.1 Z3.6 F360.0 E33129.993
G1 X-10.1 Y-13.6 Z3.6 F360.0 E33136.181
G1 X-10.69 Y-13.6 Z3.6 F360.0 E33136.922
G1 X-13.6 Y-10.69 Z3.6 F360.0 E33142.063
G1 X-13.6 Y-11.28 Z3.6 F360.0 E33142.805
G1 X-11.28 Y-13.6 Z3.6 F360.0 E33146.897
G1 X-11.88 Y-13.6 Z3.6 F360.0 E33147.638
G1 X-13.6 Y-11.88 Z3.6 F360.0 E33150.682
G1 X-13.6 Y-12.47 Z3.6 F360.0 E33151.423
G1 X-12.47 Y-13.6 Z3.6 F360.0 E33153.42
G1 X-13.06 Y-13.6 Z3.6 F360.0 E33154.162
G1 X-13.6 Y-13.06 Z3.6 F360.0 E33155.111
;M103
G1 X-13.95 Y-12.99 Z3.6 F3600.0
;M101
G1 X-13.95 Y-13.06 Z3.6 F360.0 E33155.198
G1 X-13.95 Y-13.95 Z3.6 F360.0 E33156.314
G1 X13.95 Y-13.95 Z3.6 F360.0 E33191.224
G1 X13.95 Y13.95 Z3.6 F360.0 E33226.135
G1 X-13.95 Y13.95 Z3.6 F360.0 E33261.045
G1 X-13.95 Y-12.99 Z3.6 F360.0 E33294.752
;M103
G1 X-14.37 Y-13.06 Z3.6 F3600.0
;M101
G1 X-14.37 Y-14.37 Z3.6 F360.0 E33296.392
G1 X14.37 Y-14.37 Z3.6 F360.0 E33332.351
G1 X14.37 Y14.37 Z3.6 F360.0 E33368.31
G1 X-14.37 Y14.37 Z3.6 F360.0 E33404.269
G1 X-14.37 Y-13.06 Z3.6 F360.0 E33438.587
;M103
;M108 S5.629
G1 X-14.79 Y-13.06 Z3.6 F3600.0
;M101
G1 X-14.79 Y-14.79 Z3.6 F270.0 E33440.751
G1 X14.79 Y-14.79 Z3.6 F270.0 E33477.755
G1 X14.79 Y14.79 Z3.6 F270.0 E33514.759
G1 X-14.79 Y14.79 Z3.6 F270.0 E33551.763
G1 X-14.79 Y-13.06 Z3.6 F270.0 E33586.602
;M103
;M108 S7.506
G1 X13.06 Y-13.6 Z3.9 F3600.0
;M101
G1 X13.6 Y-13.06 Z3.9 F360.0 E33587.551
G1 X13.6 Y-12.47 Z3.9 F360.0 E33588.293
G1 X12.47 Y-13.6 Z3.9 F360.0 E33590.29
G1 X11.88 Y-13.6 Z3.9 F360.0 E33591.03
G1 X13.6 Y-11.88 Z3.9 F360.0 E33594.075
G1 X13.6 Y-11.28 Z3.9 F360.0 E33594.816
G1 X11.28 Y-13.6 Z3.9 F360.0 E33598.908
G1 X10.69 Y-13.6 Z3.9 F360.0 E33599.65
G1 X13.6 Y-10.69 Z3.9 F360.0 E33604.791
G1 X13.6 Y-10.1 Z3.9 F360.0 E33605.532
G1 X10.1 Y-13.6 Z3.9 F360.0 E33611.72
G1 X9.51 Y-13.6 Z3.9 F360.0 E33612.462
G1 X13.6 Y-9.51 Z3.9 F360.0 E33619.7
G1 X13.6 Y-8.91 Z3.9 F360.0 E33620.44
G1 X8.91 Y-13.6 Z3.9 F360.0 E33628.725
G1 X8.32 Y-13.6 Z3.9 F360.0 E33629.466
G1 X13.6 Y-8.32 Z3.9 F360.0 E33638.798
G1 X13.6 Y-7.73 Z3.9 F360.0 E33639.54
G1 X7.73 Y-13.6 Z3.9 F360.0 E33649.922
G1 X7.14 Y-13.6 Z3.9 F360.0 E33650.662
G1 X13.6 Y-7.14 Z3.9 F360.0 E33662.091
G1 X13.6 Y-6.54 Z3.9 F360.0 E33662.833
G1 X6.54 Y-13.6 Z3.9 F360.0 E33675.311
G1 X5.95 Y-13.6 Z3.9 F360.0 E33676.052
G1 X13.6 Y-5.95 Z3.9 F360.0 E33689.577
G1 X13.6 Y-5.36 Z3.9 F360.0 E33690.318
G1 X5.36 Y-13.6 Z3.9 F360.0 E33704.891
G1 X4.77 Y-13.6 Z3.9 F360.0 E33705.632
G1 X13.6 Y-4.77 Z3.9 F360.0 E33721.254
G1 X13.6 Y-4.18 Z3.9 F360.0 E33721.995
G1 X4.18 Y-13.6 Z3.9 F360.0 E33738.664
G1 X3.58 Y-13.6 Z3.9 F360.0 E33739.405
G1 X13.6 Y-3.58 Z3.9 F360.0 E33757.121
G1 X13.6 Y-2.99 Z3.9 F360.0 E33757.863
G1 X2.99 Y-13.6 Z3.9 F360.0 E33776.629
G1 X2.4 Y-13.6 Z3.9 F360.0 E33777.369
G1 X13.6 Y-2.4 Z3.9 F360.0 E33797.182
G1 X13.6 Y-1.81 Z3.9 F360.0 E33797.924
G1 X1.81 Y-13.6 Z3.9 F360.0 E33818.787
G1 X1.21 Y-13.6 Z3.9 F360.0 E33819.527
G1 X13.6 Y-1.21 Z3.9 F360.0 E33841.437
G1 X13.6 Y-0.62 Z3.9 F360.0 E33842.177
G1 X0.62 Y-13.6 Z3.9 F360.0 E33865.134
G1 X0.03 Y-13.6 Z3.9 F360.0 E33865.876
G1 X13.6 Y-0.03 Z3.9 F360.0 E33889.882
G1 X13.6 Y0.56 Z3.9 F360.0 E33890.623
G1 X-0.56 Y-13.6 Z3.9 F360.0 E33915.676
G1 X-1.16 Y-13.6 Z3.9 F360.0 E33916.418
G1 X13.6 Y1.16 Z3.9 F360.0 E33942.52
G1 X13.6 Y1.75 Z3.9 F360.0 E33943.261
G1 X-1.75 Y-13.6 Z3.9 F360.0 E33970.411
G1 X-2.34 Y-13.6 Z3.9 F360.0 E33971.151
G1 X13.6 Y2.34 Z3.9 F360.0 E33999.349
G1 X13.6 Y2.93 Z3.9 F360.0 E34000.09
G1 X-2.93 Y-13.6 Z3.9 F360.0 E34029.337
G1 X-3.53 Y-13.6 Z3.9 F360.0 E34030.077
G1 X13.6 Y3.53 Z3.9 F360.0 E34060.371
G1 X13.6 Y4.12 Z3.9 F360.0 E34061.112
G1 X-4.12 Y-13.6 Z3.9 F360.0 E34092.453
G1 X-4.71 Y-13.6 Z3.9 F360.0 E34093.194
G1 X13.6 Y4.71 Z3.9 F360.0 E34125.585
G1 X13.6 Y5.3 Z3.9 F360.0 E34126.325
G1 X-5.3 Y-13.6 Z3.9 F360.0 E34159.763
G1 X-5.9 Y-13.6 Z3.9 F360.0 E34160.505
G1 X13.6 Y5.9 Z3.9 F360.0 E34194.991
G1 X13.6 Y6.49 Z3.9 F360.0 E34195.732
G1 X-6.49 Y-13.6 Z3.9 F360.0 E34231.266
G1 X-7.08 Y-13.6 Z3.9 F360.0 E34232.006
G1 X13.6 Y7.08 Z3.9 F360.0 E34268.588
G1 X13.6 Y7.67 Z3.9 F360.0 E34269.33
G1 X-7.67 Y-13.6 Z3.9 F360.0 E34306.96
G1 X-8.27 Y-13.6 Z3.9 F360.0 E34307.701
G1 X13.6 Y8.27 Z3.9 F360.0 E34346.379
G1 X13.6 Y8.86 Z3.9 F360.0 E34347.12
G1 X-8.86 Y-13.6 Z3.9 F360.0 E34386.847
G1 X-9.45 Y-13.6 Z3.9 F360.0 E34387.588
G1 X13.6 Y9.45 Z3.9 F360.0 E34428.362
G1 X13.6 Y10.04 Z3.9 F360.0 E34429.103
G1 X-10.04 Y-13.6 Z3.9 F360.0 E34470.925
G1 X-10.64 Y-13.6 Z3.9 F360.0 E34471.666
G1 X13.6 Y10.64 Z3.9 F360.0 E34514.537
G1 X13.6 Y11.23 Z3.9 F360.0 E34515.278
G1 X-11.23 Y-13.6 Z3.9 F360.0 E34559.196
G1 X-11.82 Y-13.6 Z3.9 F360.0 E34559.937
G1 X13.6 Y11.82 Z3.9 F360.0 E34604.902
G1 X13.6 Y12.41 Z3.9 F360.0 E34605.644
G1 X-12.41 Y-13.6 Z3.9 F360.0 E34651.659
G1 X-13.0 Y-13.6 Z3.9 F360.0 E34652.399
G1 X13.6 Y13.0 Z3.9 F360.0 E34699.461
G1 X13.6 Y13.6 Z3.9 F360.0 E34700.203
G1 X-13.6 Y-13.6 Z3.9 F360.0 E34748.314
G1 X-13.6 Y-13.0 Z3.9 F360.0 E34749.056
G1 X13.0 Y13.6 Z3.9 F360.0 E34796.118
G1 X12.41 Y13.6 Z3.9 F360.0 E34796.858
G1 X-13.6 Y-12.41 Z3.9 F360.0 E34842.873
G1 X-13.6 Y-11.82 Z3.9 F360.0 E34843.615
G1 X11.82 Y13.6 Z3.9 F360.0 E34888.58
G1 X11.23 Y13.6 Z3.9 F360.0 E34889.321
G1 X-13.6 Y-11.23 Z3.9 F360.0 E34933.239
G1 X-13.6 Y-10.64 Z3.9 F360.0 E34933.98
G1 X10.64 Y13.6 Z3.9 F360.0 E34976.851
G1 X10.04 Y13.6 Z3.9 F360.0 E34977.592
G1 X-13.6 Y-10.04 Z3.9 F360.0 E35019.414
G1 X-13.6 Y-9.45 Z3.9 F360.0 E35020.155
G1 X9.45 Y13.6 Z3.9 F360.0 E35060.929
