G21 (This is GCode, generated with Skeinforge version 35 from ReplicatorG)
G21 (Ultimaker profile - Quality print - alterations/start-centered.gcode)
G21 (Metric: The unit is a millimeter)
M18 (Disable motors for now, to allow manual moving of the head)
G90 (Absolute Positioning)
G92 X0 Y0 Z0 E0 (set origin to current position)
;M1 (Check if the platform is empty before continuing)
;G1 X-220.0 Y-220.0 F2000 (ensure you're in the front left corner)
;G92 X-110 Y-110 Z220 E0 (make the center the origin)
;G1 X0.0 Y0.0 F3000 (go back to the center)
;G1 Z210.0 F100 (let the platform go up slightly, start slowly)
;G1 Z0.0 F400 (we don't have all day...)
;G92 X0 Y0 Z0 E0 (make the center the origin)
;G91 (Relative positioning)
;G1 Z35.0 F400 (lower platform for cleaning nozzle)
;G92 E0 (zero the extruded length)
;G1 E260 F1000 (extrude some to get the flow going)
;G1 E-20 F3000 (reverse a little)
;G92 E0 (zero the extruded length)
;M1 (Clean the nozzle and press YES to continue...)
;G1 Z-1.0 F100 (rise platform again)
;G1 Z-34.0 F400 (rise platform again)
;G90 
;G1 Z0.4
;G92 E0 (zero the extruded length)
G21 (end of start .gcode file)
G90
G21
;M103
M105
M106
M113 S1.0
;M108 S7.506
M104 S245.0
;M108 S7.881
G1 X-26.39 Y-26.49 Z0.3 F288.0
;M101
G1 X-26.39 Y26.49 Z0.3 F288.0 E86.973
G1 X26.39 Y26.49 Z0.3 F288.0 E173.615
G1 X26.39 Y-26.49 Z0.3 F288.0 E260.589
G1 X-26.39 Y-26.49 Z0.3 F288.0 E347.23
;M103
G1 X-5.46 Y-0.12 Z0.3 F2880.0
;M101
G1 X2.91 Y8.24 Z0.3 F288.0 E366.651
G1 X2.62 Y8.54 Z0.3 F288.0 E367.337
G1 X-5.39 Y0.53 Z0.3 F288.0 E385.935
G1 X-5.53 Y0.98 Z0.3 F288.0 E386.712
G1 X2.24 Y8.75 Z0.3 F288.0 E404.75
G1 X1.81 Y8.91 Z0.3 F288.0 E405.504
G1 X-5.76 Y1.35 Z0.3 F288.0 E423.06
G1 X-6.11 Y1.59 Z0.3 F288.0 E423.763
G1 X1.36 Y9.06 Z0.3 F288.0 E441.115
G1 X0.83 Y9.13 Z0.3 F288.0 E441.986
G1 X-6.48 Y1.82 Z0.3 F288.0 E458.963
G1 X-6.84 Y2.04 Z0.3 F288.0 E459.669
G1 X0.31 Y9.19 Z0.3 F288.0 E476.271
G1 X-0.22 Y9.26 Z0.3 F288.0 E477.14
G1 X-3.78 Y5.7 Z0.3 F288.0 E485.415
G1 X-3.56 Y6.51 Z0.3 F288.0 E486.79
G1 X-0.42 Y9.66 Z0.3 F288.0 E494.102
G1 X-0.57 Y10.09 Z0.3 F288.0 E494.862
G1 X-3.35 Y7.32 Z0.3 F288.0 E501.309
;M103
G1 X-2.15 Y9.11 Z0.3 F2880.0
;M101
G1 X-0.73 Y10.53 Z0.3 F288.0 E504.604
G1 X-0.88 Y10.96 Z0.3 F288.0 E505.365
G1 X-2.23 Y9.61 Z0.3 F288.0 E508.499
G1 X-2.32 Y10.12 Z0.3 F288.0 E509.342
G1 X-1.04 Y11.4 Z0.3 F288.0 E512.316
G1 X-1.2 Y11.84 Z0.3 F288.0 E513.076
G1 X-2.37 Y10.67 Z0.3 F288.0 E515.794
G1 X-2.33 Y11.3 Z0.3 F288.0 E516.832
G1 X-1.27 Y12.36 Z0.3 F288.0 E519.293
G1 X-1.21 Y13.01 Z0.3 F288.0 E520.363
G1 X-2.29 Y11.93 Z0.3 F288.0 E522.866
G1 X-2.09 Y12.72 Z0.3 F288.0 E524.213
G1 X-1.1 Y13.71 Z0.3 F288.0 E526.504
G1 X-1.56 Y13.85 Z0.3 F288.0 E527.287
G1 X-0.63 Y14.77 Z0.3 F288.0 E529.43
;M103
G1 X-0.56 Y12.18 Z0.3 F3600.0
G1 X0.29 Y9.97 Z0.3 F3600.0
G1 X3.09 Y7.83 Z0.3 F2880.0
;M101
G1 X-7.06 Y-2.32 Z0.3 F288.0 E552.989
G1 X-6.54 Y-2.39 Z0.3 F288.0 E553.846
G1 X3.27 Y7.42 Z0.3 F288.0 E576.626
G1 X3.45 Y7.01 Z0.3 F288.0 E577.365
G1 X-6.08 Y-2.52 Z0.3 F288.0 E599.491
G1 X-5.68 Y-2.72 Z0.3 F288.0 E600.22
G1 X3.63 Y6.59 Z0.3 F288.0 E621.835
G1 X3.81 Y6.18 Z0.3 F288.0 E622.574
G1 X-5.54 Y-3.17 Z0.3 F288.0 E644.279
G1 X-5.54 Y-3.76 Z0.3 F288.0 E645.257
G1 X3.97 Y5.75 Z0.3 F288.0 E667.341
;M103
G1 X6.69 Y1.95 Z0.3 F2880.0
;M101
G1 X8.2 Y3.46 Z0.3 F288.0 E670.863
G1 X8.26 Y2.93 Z0.3 F288.0 E671.742
G1 X8.85 Y3.51 Z0.3 F288.0 E673.096
;M103
G1 X6.11 Y0.55 Z0.3 F3600.0
G1 X6.16 Y0.1 Z0.3 F3600.0
G1 X6.37 Y-0.14 Z0.3 F3600.0
G1 X8.92 Y-1.15 Z0.3 F2880.0
;M101
G1 X8.01 Y-2.06 Z0.3 F288.0 E675.21
G1 X7.18 Y-2.3 Z0.3 F288.0 E676.632
G1 X8.33 Y-1.15 Z0.3 F288.0 E679.313
;M103
G1 X8.86 Y-1.81 Z0.3 F2880.0
;M101
G1 X9.52 Y-1.15 Z0.3 F288.0 E680.848
G1 X9.85 Y-1.4 Z0.3 F288.0 E681.541
G1 X10.22 Y-1.04 Z0.3 F288.0 E682.387
;M103
G1 X6.48 Y-2.4 Z0.3 F2880.0
;M101
G1 X7.75 Y-1.14 Z0.3 F288.0 E685.315
G1 X7.19 Y-1.11 Z0.3 F288.0 E686.232
G1 X0.05 Y-8.24 Z0.3 F288.0 E702.802
G1 X-0.32 Y-8.03 Z0.3 F288.0 E703.514
G1 X6.72 Y-0.98 Z0.3 F288.0 E719.875
G1 X6.26 Y-0.85 Z0.3 F288.0 E720.667
G1 X-0.7 Y-7.81 Z0.3 F288.0 E736.82
G1 X-1.08 Y-7.59 Z0.3 F288.0 E737.532
G1 X5.87 Y-0.65 Z0.3 F288.0 E753.653
G1 X5.59 Y-0.34 Z0.3 F288.0 E754.341
G1 X-1.45 Y-7.37 Z0.3 F288.0 E770.679
G1 X-1.83 Y-7.16 Z0.3 F288.0 E771.39
G1 X5.43 Y0.1 Z0.3 F288.0 E788.246
G1 X5.38 Y0.64 Z0.3 F288.0 E789.137
G1 X-2.22 Y-6.96 Z0.3 F288.0 E806.796
G1 X-2.62 Y-6.77 Z0.3 F288.0 E807.525
G1 X7.59 Y3.44 Z0.3 F288.0 E831.234
G1 X7.07 Y3.51 Z0.3 F288.0 E832.098
G1 X-3.03 Y-6.58 Z0.3 F288.0 E855.529
G1 X-3.48 Y-6.45 Z0.3 F288.0 E856.312
G1 X6.55 Y3.59 Z0.3 F288.0 E879.6
G1 X6.08 Y3.71 Z0.3 F288.0 E880.393
G1 X-4.0 Y-6.37 Z0.3 F288.0 E903.796
G1 X-4.51 Y-6.29 Z0.3 F288.0 E904.651
G1 X5.73 Y3.95 Z0.3 F288.0 E928.433
G1 X5.35 Y4.16 Z0.3 F288.0 E929.149
G1 X-5.09 Y-6.27 Z0.3 F288.0 E953.381
G1 X-5.67 Y-6.26 Z0.3 F288.0 E954.333
G1 X4.97 Y4.37 Z0.3 F288.0 E979.026
G1 X4.58 Y4.58 Z0.3 F288.0 E979.742
G1 X-6.25 Y-6.25 Z0.3 F288.0 E1004.896
G1 X-6.83 Y-6.24 Z0.3 F288.0 E1005.847
G1 X4.25 Y4.85 Z0.3 F288.0 E1031.579
G1 X4.11 Y5.3 Z0.3 F288.0 E1032.357
G1 X-7.41 Y-6.22 Z0.3 F288.0 E1059.109
G1 X-7.99 Y-6.21 Z0.3 F288.0 E1060.062
G1 X-6.54 Y-4.76 Z0.3 F288.0 E1063.435
G1 X-7.43 Y-5.06 Z0.3 F288.0 E1064.98
G1 X-8.68 Y-6.31 Z0.3 F288.0 E1067.889
G1 X-9.44 Y-6.48 Z0.3 F288.0 E1069.169
G1 X-8.34 Y-5.38 Z0.3 F288.0 E1071.724
;M103
G1 X-9.66 Y-6.11 Z0.3 F2880.0
;M101
G1 X-11.14 Y-7.58 Z0.3 F288.0 E1075.15
G1 X-11.26 Y-8.29 Z0.3 F288.0 E1076.329
G1 X-11.32 Y-8.36 Z0.3 F288.0 E1076.48
;M103
G1 X-6.35 Y-3.82 Z0.3 F3600.0
G1 X-6.2 Y-3.49 Z0.3 F3600.0
G1 X-6.28 Y-3.26 Z0.3 F3600.0
G1 X-10.57 Y-1.1 Z0.3 F2880.0
;M101
G1 X-10.48 Y-1.0 Z0.3 F288.0 E1076.701
G1 X-10.16 Y-1.27 Z0.3 F288.0 E1077.392
G1 X-9.96 Y-1.08 Z0.3 F288.0 E1077.843
G1 X-9.45 Y-1.16 Z0.3 F288.0 E1078.7
G1 X-9.74 Y-1.45 Z0.3 F288.0 E1079.386
G1 X-9.33 Y-1.63 Z0.3 F288.0 E1080.127
G1 X-8.85 Y-1.15 Z0.3 F288.0 E1081.237
G1 X-8.25 Y-1.15 Z0.3 F288.0 E1082.217
G1 X-8.9 Y-1.79 Z0.3 F288.0 E1083.724
G1 X-8.45 Y-1.93 Z0.3 F288.0 E1084.506
G1 X-7.66 Y-1.14 Z0.3 F288.0 E1086.34
G1 X-6.97 Y-1.05 Z0.3 F288.0 E1087.476
G1 X-7.99 Y-2.07 Z0.3 F288.0 E1089.844
G1 X-7.54 Y-2.2 Z0.3 F288.0 E1090.625
G1 X-6.16 Y-0.82 Z0.3 F288.0 E1093.829
;M103
G1 X-6.11 Y0.55 Z0.3 F3600.0
G1 X-7.21 Y2.27 Z0.3 F2880.0
;M101
G1 X-5.28 Y4.2 Z0.3 F288.0 E1098.312
;M103
G1 X-6.48 Y3.59 Z0.3 F2880.0
;M101
G1 X-7.57 Y2.5 Z0.3 F288.0 E1100.854
G1 X-7.94 Y2.73 Z0.3 F288.0 E1101.561
G1 X-7.16 Y3.5 Z0.3 F288.0 E1103.353
G1 X-7.82 Y3.43 Z0.3 F288.0 E1104.441
G1 X-8.3 Y2.96 Z0.3 F288.0 E1105.55
G1 X-8.66 Y3.18 Z0.3 F288.0 E1106.254
G1 X-8.37 Y3.48 Z0.3 F288.0 E1106.936
G1 X-8.92 Y3.52 Z0.3 F288.0 E1107.84
G1 X-9.03 Y3.41 Z0.3 F288.0 E1108.093
;M103
G1 X4.03 Y-7.82 Z0.3 F2880.0
;M101
G1 X2.13 Y-9.72 Z0.3 F288.0 E1112.5
G1 X1.83 Y-9.43 Z0.3 F288.0 E1113.189
G1 X6.51 Y-4.74 Z0.3 F288.0 E1124.067
G1 X6.14 Y-4.52 Z0.3 F288.0 E1124.777
G1 X1.48 Y-9.19 Z0.3 F288.0 E1135.609
G1 X1.13 Y-8.95 Z0.3 F288.0 E1136.309
G1 X5.77 Y-4.3 Z0.3 F288.0 E1147.093
G1 X5.56 Y-3.92 Z0.3 F288.0 E1147.809
G1 X0.77 Y-8.71 Z0.3 F288.0 E1158.92
G1 X0.42 Y-8.46 Z0.3 F288.0 E1159.62
G1 X5.54 Y-3.34 Z0.3 F288.0 E1171.51
;M103
G1 X11.27 Y-8.27 Z0.3 F2880.0
;M101
G1 X11.31 Y-8.24 Z0.3 F288.0 E1171.589
G1 X11.14 Y-7.81 Z0.3 F288.0 E1172.34
G1 X11.24 Y-7.72 Z0.3 F288.0 E1172.566
G1 X10.92 Y-7.45 Z0.3 F288.0 E1173.257
G1 X11.07 Y-7.29 Z0.3 F288.0 E1173.621
G1 X10.91 Y-6.87 Z0.3 F288.0 E1174.37
G1 X10.63 Y-7.14 Z0.3 F288.0 E1175.003
G1 X10.35 Y-6.83 Z0.3 F288.0 E1175.69
G1 X10.64 Y-6.54 Z0.3 F288.0 E1176.355
G1 X10.33 Y-6.26 Z0.3 F288.0 E1177.044
G1 X9.98 Y-6.61 Z0.3 F288.0 E1177.856
G1 X9.6 Y-6.4 Z0.3 F288.0 E1178.57
G1 X9.99 Y-6.0 Z0.3 F288.0 E1179.49
G1 X9.61 Y-5.79 Z0.3 F288.0 E1180.209
G1 X9.14 Y-6.26 Z0.3 F288.0 E1181.3
G1 X8.66 Y-6.15 Z0.3 F288.0 E1182.11
G1 X9.22 Y-5.59 Z0.3 F288.0 E1183.417
G1 X8.83 Y-5.38 Z0.3 F288.0 E1184.136
G1 X8.14 Y-6.08 Z0.3 F288.0 E1185.751
G1 X7.47 Y-6.15 Z0.3 F288.0 E1186.849
G1 X8.42 Y-5.21 Z0.3 F288.0 E1189.039
G1 X7.94 Y-5.09 Z0.3 F288.0 E1189.844
G1 X6.81 Y-6.22 Z0.3 F288.0 E1192.472
G1 X5.98 Y-6.46 Z0.3 F288.0 E1193.881
G1 X7.46 Y-4.98 Z0.3 F288.0 E1197.318
G1 X6.99 Y-4.86 Z0.3 F288.0 E1198.123
G1 X4.92 Y-6.93 Z0.3 F288.0 E1202.911
;M103
G1 X3.86 Y-8.58 Z0.3 F2880.0
;M101
G1 X2.36 Y-10.08 Z0.3 F288.0 E1206.413
G1 X2.58 Y-10.45 Z0.3 F288.0 E1207.122
G1 X3.97 Y-9.06 Z0.3 F288.0 E1210.357
G1 X4.08 Y-9.54 Z0.3 F288.0 E1211.17
G1 X2.8 Y-10.82 Z0.3 F288.0 E1214.139
G1 X3.03 Y-11.19 Z0.3 F288.0 E1214.848
G1 X4.19 Y-10.03 Z0.3 F288.0 E1217.547
G1 X4.23 Y-10.58 Z0.3 F288.0 E1218.462
G1 X3.04 Y-11.77 Z0.3 F288.0 E1221.22
G1 X2.98 Y-12.43 Z0.3 F288.0 E1222.299
G1 X4.26 Y-11.14 Z0.3 F288.0 E1225.285
G1 X4.25 Y-11.74 Z0.3 F288.0 E1226.273
G1 X2.81 Y-13.19 Z0.3 F288.0 E1229.638
;M103
G1 X4.04 Y-12.55 Z0.3 F2880.0
;M101
G1 X1.73 Y-14.86 Z0.3 F288.0 E1234.997
G1 X0.67 Y-15.32 Z0.3 F288.0 E1236.89
G1 X0.57 Y-15.42 Z0.3 F288.0 E1237.125
;M103
G1 X0.82 Y-15.7 Z0.3 F3600.0
;M101
G1 X2.05 Y-15.1 Z0.3 F288.0 E1239.38
G1 X3.14 Y-14.34 Z0.3 F288.0 E1241.558
G1 X4.25 Y-13.14 Z0.3 F288.0 E1244.232
G1 X4.65 Y-11.63 Z0.3 F288.0 E1246.806
G1 X4.54 Y-9.97 Z0.3 F288.0 E1249.544
G1 X4.19 Y-8.41 Z0.3 F288.0 E1252.155
G1 X4.53 Y-7.49 Z0.3 F288.0 E1253.773
G1 X6.51 Y-6.62 Z0.3 F288.0 E1257.327
G1 X8.26 Y-6.42 Z0.3 F288.0 E1260.219
G1 X9.4 Y-6.69 Z0.3 F288.0 E1262.136
G1 X10.1 Y-7.08 Z0.3 F288.0 E1263.456
G1 X10.78 Y-7.82 Z0.3 F288.0 E1265.1
G1 X11.07 Y-8.87 Z0.3 F288.0 E1266.892
G1 X11.08 Y-10.01 Z0.3 F288.0 E1268.764
G1 X11.38 Y-10.09 Z0.3 F288.0 E1269.274
G1 X11.7 Y-8.82 Z0.3 F288.0 E1271.418
G1 X11.64 Y-7.75 Z0.3 F288.0 E1273.191
G1 X11.16 Y-6.55 Z0.3 F288.0 E1275.309
G1 X10.33 Y-5.77 Z0.3 F288.0 E1277.171
G1 X8.7 Y-4.91 Z0.3 F288.0 E1280.193
G1 X6.67 Y-4.42 Z0.3 F288.0 E1283.621
G1 X5.92 Y-3.97 Z0.3 F288.0 E1285.068
G1 X5.89 Y-3.13 Z0.3 F288.0 E1286.456
G1 X6.34 Y-2.78 Z0.3 F288.0 E1287.386
G1 X7.32 Y-2.64 Z0.3 F288.0 E1289.002
G1 X9.15 Y-2.09 Z0.3 F288.0 E1292.15
G1 X10.54 Y-1.52 Z0.3 F288.0 E1294.622
G1 X11.8 Y-0.88 Z0.3 F288.0 E1296.941
G1 X12.7 Y-0.28 Z0.3 F288.0 E1298.713
G1 X12.58 Y0.03 Z0.3 F288.0 E1299.257
G1 X12.14 Y-0.2 Z0.3 F288.0 E1300.081
G1 X10.87 Y-0.58 Z0.3 F288.0 E1302.264
G1 X9.44 Y-0.8 Z0.3 F288.0 E1304.636
G1 X7.35 Y-0.78 Z0.3 F288.0 E1308.066
G1 X6.18 Y-0.46 Z0.3 F288.0 E1310.057
G1 X5.81 Y-0.05 Z0.3 F288.0 E1310.967
G1 X5.74 Y0.64 Z0.3 F288.0 E1312.101
G1 X6.03 Y1.12 Z0.3 F288.0 E1313.022
G1 X10.43 Y3.86 Z0.3 F288.0 E1321.534
G1 X11.81 Y5.28 Z0.3 F288.0 E1324.788
G1 X12.22 Y6.51 Z0.3 F288.0 E1326.907
G1 X12.08 Y8.26 Z0.3 F288.0 E1329.801
G1 X11.1 Y10.94 Z0.3 F288.0 E1334.485
G1 X10.85 Y10.97 Z0.3 F288.0 E1334.889
G1 X11.58 Y8.27 Z0.3 F288.0 E1339.487
G1 X11.68 Y6.34 Z0.3 F288.0 E1342.661
G1 X11.06 Y5.01 Z0.3 F288.0 E1345.068
G1 X9.87 Y4.18 Z0.3 F288.0 E1347.453
G1 X9.01 Y3.88 Z0.3 F288.0 E1348.934
G1 X7.72 Y3.78 Z0.3 F288.0 E1351.068
G1 X6.32 Y3.98 Z0.3 F288.0 E1353.386
G1 X6.15 Y4.13 Z0.3 F288.0 E1353.756
G1 X4.58 Y4.99 Z0.3 F288.0 E1356.7
G1 X4.23 Y6.11 Z0.3 F288.0 E1358.619
G1 X3.17 Y8.54 Z0.3 F288.0 E1362.979
G1 X2.66 Y8.97 Z0.3 F288.0 E1364.074
G1 X1.52 Y9.4 Z0.3 F288.0 E1366.062
G1 X-0.02 Y9.59 Z0.3 F288.0 E1368.61
G1 X-0.93 Y12.15 Z0.3 F288.0 E1373.059
G1 X-0.81 Y13.48 Z0.3 F288.0 E1375.256
G1 X-0.25 Y14.77 Z0.3 F288.0 E1377.57
G1 X0.38 Y15.64 Z0.3 F288.0 E1379.339
G1 X1.34 Y16.26 Z0.3 F288.0 E1381.212
G1 X2.65 Y17.35 Z0.3 F288.0 E1384.007
G1 X2.99 Y18.05 Z0.3 F288.0 E1385.29
G1 X2.76 Y18.18 Z0.3 F288.0 E1385.735
G1 X2.36 Y17.69 Z0.3 F288.0 E1386.768
G1 X1.24 Y16.71 Z0.3 F288.0 E1389.216
G1 X0.17 Y16.14 Z0.3 F288.0 E1391.209
G1 X-0.92 Y15.32 Z0.3 F288.0 E1393.45
G1 X-1.65 Y14.39 Z0.3 F288.0 E1395.393
G1 X-2.29 Y13.29 Z0.3 F288.0 E1397.482
G1 X-2.63 Y12.15 Z0.3 F288.0 E1399.435
G1 X-2.74 Y10.44 Z0.3 F288.0 E1402.242
G1 X-2.48 Y8.93 Z0.3 F288.0 E1404.754
G1 X-2.9 Y8.56 Z0.3 F288.0 E1405.675
G1 X-3.16 Y8.4 Z0.3 F288.0 E1406.182
G1 X-3.67 Y7.5 Z0.3 F288.0 E1407.886
G1 X-4.13 Y5.79 Z0.3 F288.0 E1410.794
G1 X-4.66 Y4.95 Z0.3 F288.0 E1412.427
G1 X-6.15 Y4.13 Z0.3 F288.0 E1415.221
G1 X-6.32 Y3.98 Z0.3 F288.0 E1415.591
G1 X-7.72 Y3.78 Z0.3 F288.0 E1417.909
G1 X-9.01 Y3.88 Z0.3 F288.0 E1420.043
G1 X-9.87 Y4.18 Z0.3 F288.0 E1421.524
G1 X-11.06 Y5.01 Z0.3 F288.0 E1423.909
G1 X-11.68 Y6.34 Z0.3 F288.0 E1426.316
G1 X-11.58 Y8.27 Z0.3 F288.0 E1429.49
G1 X-10.85 Y10.97 Z0.3 F288.0 E1434.088
G1 X-11.1 Y10.94 Z0.3 F288.0 E1434.492
G1 X-12.08 Y8.26 Z0.3 F288.0 E1439.176
G1 X-12.22 Y6.51 Z0.3 F288.0 E1442.07
G1 X-11.81 Y5.28 Z0.3 F288.0 E1444.189
G1 X-10.43 Y3.86 Z0.3 F288.0 E1447.444
G1 X-6.03 Y1.12 Z0.3 F288.0 E1455.955
G1 X-5.74 Y0.64 Z0.3 F288.0 E1456.876
G1 X-5.81 Y-0.05 Z0.3 F288.0 E1458.011
G1 X-6.18 Y-0.46 Z0.3 F288.0 E1458.921
G1 X-7.35 Y-0.78 Z0.3 F288.0 E1460.911
G1 X-9.44 Y-0.8 Z0.3 F288.0 E1464.341
G1 X-10.87 Y-0.58 Z0.3 F288.0 E1466.713
G1 X-12.14 Y-0.2 Z0.3 F288.0 E1468.896
G1 X-12.58 Y0.03 Z0.3 F288.0 E1469.72
G1 X-12.7 Y-0.28 Z0.3 F288.0 E1470.264
G1 X-11.8 Y-0.88 Z0.3 F288.0 E1472.036
G1 X-10.54 Y-1.52 Z0.3 F288.0 E1474.355
G1 X-9.15 Y-2.09 Z0.3 F288.0 E1476.827
G1 X-7.32 Y-2.64 Z0.3 F288.0 E1479.975
G1 X-6.37 Y-2.78 Z0.3 F288.0 E1481.54
G1 X-5.93 Y-2.99 Z0.3 F288.0 E1482.339
G1 X-5.83 Y-3.53 Z0.3 F288.0 E1483.245
G1 X-6.06 Y-4.08 Z0.3 F288.0 E1484.222
G1 X-6.63 Y-4.41 Z0.3 F288.0 E1485.31
G1 X-8.42 Y-5.01 Z0.3 F288.0 E1488.401
G1 X-10.16 Y-5.98 Z0.3 F288.0 E1491.67
G1 X-11.17 Y-6.73 Z0.3 F288.0 E1493.734
G1 X-11.65 Y-7.88 Z0.3 F288.0 E1495.786
G1 X-11.71 Y-8.92 Z0.3 F288.0 E1497.497
G1 X-11.46 Y-9.88 Z0.3 F288.0 E1499.121
G1 X-11.44 Y-10.55 Z0.3 F288.0 E1500.23
G1 X-11.09 Y-10.14 Z0.3 F288.0 E1501.118
G1 X-11.08 Y-8.99 Z0.3 F288.0 E1503.003
G1 X-10.79 Y-7.95 Z0.3 F288.0 E1504.774
G1 X-10.1 Y-7.2 Z0.3 F288.0 E1506.437
G1 X-9.36 Y-6.83 Z0.3 F288.0 E1507.811
G1 X-8.18 Y-6.56 Z0.3 F288.0 E1509.796
G1 X-4.59 Y-6.64 Z0.3 F288.0 E1515.686
G1 X-3.33 Y-6.83 Z0.3 F288.0 E1517.773
G1 X-2.03 Y-7.45 Z0.3 F288.0 E1520.137
G1 X0.16 Y-8.72 Z0.3 F288.0 E1524.297
G1 X1.78 Y-9.82 Z0.3 F288.0 E1527.52
G1 X2.72 Y-11.37 Z0.3 F288.0 E1530.484
G1 X2.59 Y-12.74 Z0.3 F288.0 E1532.753
G1 X2.23 Y-13.73 Z0.3 F288.0 E1534.483
G1 X1.35 Y-14.52 Z0.3 F288.0 E1536.42
G1 X-1.79 Y-16.34 Z0.3 F288.0 E1542.367
G1 X-2.66 Y-17.21 Z0.3 F288.0 E1544.401
G1 X-3.01 Y-18.0 Z0.3 F288.0 E1545.812
G1 X-2.76 Y-18.15 Z0.3 F288.0 E1546.294
G1 X-2.41 Y-17.68 Z0.3 F288.0 E1547.255
G1 X-1.43 Y-16.8 Z0.3 F288.0 E1549.419
G1 X0.73 Y-15.74 Z0.3 F288.0 E1553.367
G1 X0.82 Y-15.7 Z0.3 F288.0 E1553.529
;M103
G1 X2.26 Y-12.67 Z0.3 F3600.0
G1 X2.35 Y-11.45 Z0.3 F3600.0
G1 X1.52 Y-10.07 Z0.3 F3600.0
G1 X-0.02 Y-9.0 Z0.3 F3600.0
G1 X-2.19 Y-7.75 Z0.3 F3600.0
G1 X-3.43 Y-7.16 Z0.3 F3600.0
G1 X-4.62 Y-6.98 Z0.3 F3600.0
G1 X-8.14 Y-6.9 Z0.3 F3600.0
G1 X-9.24 Y-7.15 Z0.3 F3600.0
G1 X-9.89 Y-7.48 Z0.3 F3600.0
G1 X-10.47 Y-8.13 Z0.3 F3600.0
G1 X-10.74 Y-9.04 Z0.3 F3600.0
G1 X-10.76 Y-11.42 Z0.3 F3600.0
G1 X-10.48 Y-12.97 Z0.3 F3600.0
G1 X-10.48 Y-13.06 Z0.3 F3600.0
G1 X-11.07 Y-12.69 Z0.3 F3600.0
G1 X-10.99 Y-13.03 Z0.3 F3600.0
G1 X-10.86 Y-14.51 Z0.3 F3600.0
G1 X-11.06 Y-15.4 Z0.3 F3600.0
G1 X-11.44 Y-16.14 Z0.3 F3600.0
G1 X-11.96 Y-16.63 Z0.3 F3600.0
G1 X-12.72 Y-16.96 Z0.3 F3600.0
G1 X-13.82 Y-17.18 Z0.3 F3600.0
G1 X-14.71 Y-17.03 Z0.3 F3600.0
G1 X-15.45 Y-16.77 Z0.3 F3600.0
G1 X-16.01 Y-16.3 Z0.3 F3600.0
G1 X-16.48 Y-15.71 Z0.3 F3600.0
G1 X-16.72 Y-14.79 Z0.3 F3600.0
G1 X-16.71 Y-14.02 Z0.3 F3600.0
G1 X-16.54 Y-13.39 Z0.3 F3600.0
G1 X-15.92 Y-12.64 Z0.3 F3600.0
G1 X-15.03 Y-12.2 Z0.3 F3600.0
G1 X-13.93 Y-12.03 Z0.3 F3600.0
G1 X-12.98 Y-12.31 Z0.3 F3600.0
G1 X-12.79 Y-12.43 Z0.3 F3600.0
G1 X-12.72 Y-12.51 Z0.3 F3600.0
G1 X-12.65 Y-12.56 Z0.3 F3600.0
G1 X-12.63 Y-12.86 Z0.3 F3600.0
G1 X-12.44 Y-12.74 Z0.3 F3600.0
G1 X-12.76 Y-12.69 Z0.3 F3600.0
G1 X-12.98 Y-12.37 Z0.3 F2880.0
;M101
G1 X-13.0 Y-12.36 Z0.3 F288.0 E1553.557
G1 X-13.9 Y-11.89 Z0.3 F288.0 E1555.229
G1 X-15.14 Y-11.93 Z0.3 F288.0 E1557.26
G1 X-16.09 Y-12.38 Z0.3 F288.0 E1558.98
G1 X-16.8 Y-13.26 Z0.3 F288.0 E1560.847
G1 X-17.13 Y-14.1 Z0.3 F288.0 E1562.325
G1 X-17.13 Y-14.92 Z0.3 F288.0 E1563.675
G1 X-16.85 Y-15.94 Z0.3 F288.0 E1565.406
G1 X-16.3 Y-16.6 Z0.3 F288.0 E1566.819
G1 X-15.63 Y-17.15 Z0.3 F288.0 E1568.244
G1 X-14.74 Y-17.5 Z0.3 F288.0 E1569.812
G1 X-13.84 Y-17.64 Z0.3 F288.0 E1571.307
G1 X-12.67 Y-17.45 Z0.3 F288.0 E1573.252
G1 X-11.7 Y-16.99 Z0.3 F288.0 E1575.015
G1 X-11.02 Y-16.36 Z0.3 F288.0 E1576.528
G1 X-10.58 Y-15.52 Z0.3 F288.0 E1578.1
G1 X-10.33 Y-14.54 Z0.3 F288.0 E1579.756
G1 X-10.4 Y-12.96 Z0.3 F288.0 E1582.351
G1 X-10.68 Y-11.41 Z0.3 F288.0 E1584.941
G1 X-10.67 Y-9.05 Z0.3 F288.0 E1588.817
G1 X-10.41 Y-8.16 Z0.3 F288.0 E1590.332
G1 X-9.84 Y-7.54 Z0.3 F288.0 E1591.709
G1 X-9.21 Y-7.22 Z0.3 F288.0 E1592.873
G1 X-8.13 Y-6.98 Z0.3 F288.0 E1594.686
G1 X-4.62 Y-7.06 Z0.3 F288.0 E1600.452
G1 X-3.46 Y-7.23 Z0.3 F288.0 E1602.391
G1 X-2.23 Y-7.82 Z0.3 F288.0 E1604.626
G1 X-0.06 Y-9.07 Z0.3 F288.0 E1608.733
G1 X1.47 Y-10.12 Z0.3 F288.0 E1611.78
G1 X2.29 Y-11.47 Z0.3 F288.0 E1614.368
G1 X2.18 Y-12.65 Z0.3 F288.0 E1616.314
G1 X1.97 Y-13.27 Z0.3 F288.0 E1617.389
G1 X1.86 Y-13.5 Z0.3 F288.0 E1617.808
G1 X1.09 Y-14.19 Z0.3 F288.0 E1619.506
G1 X0.44 Y-14.62 Z0.3 F288.0 E1620.785
G1 X-2.04 Y-16.0 Z0.3 F288.0 E1625.448
G1 X-3.02 Y-16.97 Z0.3 F288.0 E1627.707
G1 X-3.54 Y-18.17 Z0.3 F288.0 E1629.85
G1 X-3.7 Y-19.42 Z0.3 F288.0 E1631.918
G1 X-3.43 Y-21.22 Z0.3 F288.0 E1634.917
G1 X-2.43 Y-22.51 Z0.3 F288.0 E1637.591
G1 X-1.36 Y-23.24 Z0.3 F288.0 E1639.722
G1 X-0.06 Y-23.49 Z0.3 F288.0 E1641.887
G1 X1.38 Y-23.1 Z0.3 F288.0 E1644.347
G1 X2.12 Y-22.56 Z0.3 F288.0 E1645.845
G1 X2.64 Y-21.86 Z0.3 F288.0 E1647.28
G1 X2.92 Y-20.97 Z0.3 F288.0 E1648.814
G1 X2.97 Y-19.82 Z0.3 F288.0 E1650.7
G1 X2.53 Y-18.92 Z0.3 F288.0 E1652.331
G1 X1.65 Y-18.2 Z0.3 F288.0 E1654.201
G1 X0.71 Y-18.09 Z0.3 F288.0 E1655.752
G1 X0.12 Y-18.19 Z0.3 F288.0 E1656.738
G1 X0.11 Y-18.24 Z0.3 F288.0 E1656.81
G1 X0.13 Y-18.27 Z0.3 F288.0 E1656.871
G1 X0.66 Y-18.25 Z0.3 F288.0 E1657.741
G1 X1.48 Y-18.51 Z0.3 F288.0 E1659.156
G1 X2.12 Y-19.24 Z0.3 F288.0 E1660.758
G1 X2.46 Y-20.05 Z0.3 F288.0 E1662.202
G1 X2.44 Y-20.96 Z0.3 F288.0 E1663.696
G1 X2.17 Y-21.53 Z0.3 F288.0 E1664.721
G1 X1.67 Y-22.15 Z0.3 F288.0 E1666.027
G1 X0.93 Y-22.58 Z0.3 F288.0 E1667.439
G1 X-0.09 Y-22.79 Z0.3 F288.0 E1669.144
G1 X-1.23 Y-22.58 Z0.3 F288.0 E1671.048
G1 X-2.25 Y-21.87 Z0.3 F288.0 E1673.082
G1 X-2.82 Y-20.67 Z0.3 F288.0 E1675.264
G1 X-2.85 Y-19.47 Z0.3 F288.0 E1677.242
G1 X-2.65 Y-18.7 Z0.3 F288.0 E1678.537
G1 X-2.1 Y-17.97 Z0.3 F288.0 E1680.058
G1 X-1.2 Y-17.15 Z0.3 F288.0 E1682.052
G1 X1.28 Y-16.0 Z0.3 F288.0 E1686.529
G1 X2.27 Y-15.45 Z0.3 F288.0 E1688.398
G1 X3.42 Y-14.66 Z0.3 F288.0 E1690.687
G1 X4.63 Y-13.35 Z0.3 F288.0 E1693.606
G1 X5.08 Y-11.67 Z0.3 F288.0 E1696.464
G1 X4.96 Y-9.9 Z0.3 F288.0 E1699.369
G1 X4.63 Y-8.44 Z0.3 F288.0 E1701.831
G1 X4.86 Y-7.8 Z0.3 F288.0 E1702.954
G1 X6.62 Y-7.02 Z0.3 F288.0 E1706.11
G1 X8.23 Y-6.85 Z0.3 F288.0 E1708.777
G1 X9.24 Y-7.09 Z0.3 F288.0 E1710.48
G1 X9.84 Y-7.42 Z0.3 F288.0 E1711.593
G1 X10.4 Y-8.03 Z0.3 F288.0 E1712.963
G1 X10.65 Y-8.93 Z0.3 F288.0 E1714.497
G1 X10.67 Y-11.39 Z0.3 F288.0 E1718.541
G1 X10.4 Y-12.96 Z0.3 F288.0 E1721.151
G1 X10.33 Y-14.54 Z0.3 F288.0 E1723.748
G1 X10.58 Y-15.52 Z0.3 F288.0 E1725.404
G1 X11.02 Y-16.36 Z0.3 F288.0 E1726.976
G1 X11.7 Y-16.99 Z0.3 F288.0 E1728.489
G1 X12.67 Y-17.45 Z0.3 F288.0 E1730.252
G1 X13.84 Y-17.64 Z0.3 F288.0 E1732.197
G1 X14.74 Y-17.5 Z0.3 F288.0 E1733.692
G1 X15.63 Y-17.15 Z0.3 F288.0 E1735.26
G1 X16.3 Y-16.6 Z0.3 F288.0 E1736.685
G1 X16.85 Y-15.94 Z0.3 F288.0 E1738.098
G1 X17.13 Y-14.92 Z0.3 F288.0 E1739.829
G1 X17.13 Y-14.1 Z0.3 F288.0 E1741.179
G1 X16.8 Y-13.26 Z0.3 F288.0 E1742.657
G1 X16.09 Y-12.38 Z0.3 F288.0 E1744.524
G1 X15.14 Y-11.93 Z0.3 F288.0 E1746.244
G1 X13.9 Y-11.89 Z0.3 F288.0 E1748.275
G1 X13.0 Y-12.36 Z0.3 F288.0 E1749.947
G1 X12.52 Y-12.75 Z0.3 F288.0 E1750.962
G1 X12.6 Y-12.83 Z0.3 F288.0 E1751.141
G1 X12.62 Y-12.79 Z0.3 F288.0 E1751.206
;M103
G1 X12.99 Y-12.4 Z0.3 F2880.0
;M101
G1 X13.02 Y-12.38 Z0.3 F288.0 E1751.253
G1 X13.94 Y-12.1 Z0.3 F288.0 E1752.835
G1 X15.01 Y-12.27 Z0.3 F288.0 E1754.614
G1 X15.88 Y-12.7 Z0.3 F288.0 E1756.202
G1 X16.47 Y-13.42 Z0.3 F288.0 E1757.749
G1 X16.63 Y-14.03 Z0.3 F288.0 E1758.781
G1 X16.64 Y-14.78 Z0.3 F288.0 E1760.012
G1 X16.41 Y-15.68 Z0.3 F288.0 E1761.531
G1 X15.95 Y-16.25 Z0.3 F288.0 E1762.729
G1 X15.41 Y-16.7 Z0.3 F288.0 E1763.893
G1 X14.69 Y-16.95 Z0.3 F288.0 E1765.144
G1 X13.82 Y-17.11 Z0.3 F288.0 E1766.595
G1 X12.74 Y-16.88 Z0.3 F288.0 E1768.406
G1 X12.0 Y-16.57 Z0.3 F288.0 E1769.73
G1 X11.5 Y-16.1 Z0.3 F288.0 E1770.853
G1 X11.13 Y-15.38 Z0.3 F288.0 E1772.186
G1 X10.94 Y-14.51 Z0.3 F288.0 E1773.643
G1 X11.07 Y-13.04 Z0.3 F288.0 E1776.058
G1 X12.12 Y-8.86 Z0.3 F288.0 E1783.136
G1 X12.05 Y-7.65 Z0.3 F288.0 E1785.126
G1 X11.52 Y-6.3 Z0.3 F288.0 E1787.511
G1 X10.57 Y-5.43 Z0.3 F288.0 E1789.619
G1 X8.85 Y-4.51 Z0.3 F288.0 E1792.819
G1 X6.83 Y-4.03 Z0.3 F288.0 E1796.23
G1 X6.33 Y-3.73 Z0.3 F288.0 E1797.193
G1 X6.32 Y-3.33 Z0.3 F288.0 E1797.847
G1 X6.51 Y-3.18 Z0.3 F288.0 E1798.247
G1 X7.41 Y-3.05 Z0.3 F288.0 E1799.737
G1 X9.29 Y-2.49 Z0.3 F288.0 E1802.969
G1 X10.72 Y-1.9 Z0.3 F288.0 E1805.504
G1 X12.02 Y-1.24 Z0.3 F288.0 E1807.89
G1 X13.22 Y-0.43 Z0.3 F288.0 E1810.276
G1 X14.31 Y0.6 Z0.3 F288.0 E1812.731
G1 X16.1 Y2.73 Z0.3 F288.0 E1817.307
G1 X17.19 Y3.56 Z0.3 F288.0 E1819.548
G1 X18.01 Y4.0 Z0.3 F288.0 E1821.09
G1 X18.92 Y4.31 Z0.3 F288.0 E1822.661
G1 X19.49 Y4.43 Z0.3 F288.0 E1823.623
G1 X20.44 Y4.38 Z0.3 F288.0 E1825.181
G1 X21.05 Y4.21 Z0.3 F288.0 E1826.225
G1 X21.66 Y3.86 Z0.3 F288.0 E1827.379
G1 X22.28 Y3.38 Z0.3 F288.0 E1828.662
G1 X22.8 Y2.34 Z0.3 F288.0 E1830.571
G1 X22.91 Y1.68 Z0.3 F288.0 E1831.664
G1 X22.86 Y1.02 Z0.3 F288.0 E1832.757
G1 X22.67 Y0.38 Z0.3 F288.0 E1833.849
G1 X22.27 Y-0.33 Z0.3 F288.0 E1835.178
G1 X21.71 Y-0.84 Z0.3 F288.0 E1836.428
G1 X21.18 Y-1.16 Z0.3 F288.0 E1837.444
G1 X20.25 Y-1.26 Z0.3 F288.0 E1838.982
G1 X19.35 Y-0.97 Z0.3 F288.0 E1840.541
G1 X18.46 Y-0.36 Z0.3 F288.0 E1842.309
G1 X17.99 Y0.54 Z0.3 F288.0 E1843.98
G1 X17.92 Y0.53 Z0.3 F288.0 E1844.1
G1 X17.91 Y0.44 Z0.3 F288.0 E1844.248
G1 X18.24 Y-0.51 Z0.3 F288.0 E1845.906
G1 X19.17 Y-1.34 Z0.3 F288.0 E1847.95
G1 X20.18 Y-1.68 Z0.3 F288.0 E1849.699
G1 X21.31 Y-1.55 Z0.3 F288.0 E1851.571
G1 X22.14 Y-1.17 Z0.3 F288.0 E1853.059
G1 X22.72 Y-0.59 Z0.3 F288.0 E1854.41
G1 X23.16 Y0.15 Z0.3 F288.0 E1855.826
G1 X23.36 Y1.01 Z0.3 F288.0 E1857.267
G1 X23.39 Y1.9 Z0.3 F288.0 E1858.729
G1 X23.19 Y2.75 Z0.3 F288.0 E1860.162
G1 X22.6 Y3.81 Z0.3 F288.0 E1862.157
G1 X21.97 Y4.33 Z0.3 F288.0 E1863.497
G1 X21.15 Y4.75 Z0.3 F288.0 E1865.009
G1 X20.4 Y4.93 Z0.3 F288.0 E1866.271
G1 X19.06 Y4.96 Z0.3 F288.0 E1868.487
G1 X18.35 Y4.78 Z0.3 F288.0 E1869.688
G1 X17.17 Y4.37 Z0.3 F288.0 E1871.731
G1 X16.33 Y3.88 Z0.3 F288.0 E1873.341
G1 X15.29 Y3.03 Z0.3 F288.0 E1875.538
G1 X12.79 Y0.58 Z0.3 F288.0 E1881.291
G1 X11.99 Y0.19 Z0.3 F288.0 E1882.746
G1 X10.77 Y-0.17 Z0.3 F288.0 E1884.828
G1 X9.41 Y-0.38 Z0.3 F288.0 E1887.097
G1 X7.41 Y-0.36 Z0.3 F288.0 E1890.382
G1 X6.41 Y-0.09 Z0.3 F288.0 E1892.083
G1 X6.21 Y0.13 Z0.3 F288.0 E1892.564
G1 X6.17 Y0.54 Z0.3 F288.0 E1893.242
G1 X6.34 Y0.82 Z0.3 F288.0 E1893.772
G1 X10.69 Y3.53 Z0.3 F288.0 E1902.201
G1 X12.18 Y5.06 Z0.3 F288.0 E1905.696
G1 X12.65 Y6.45 Z0.3 F288.0 E1908.113
G1 X12.5 Y8.35 Z0.3 F288.0 E1911.243
G1 X11.38 Y11.38 Z0.3 F288.0 E1916.544
G1 X11.3 Y12.86 Z0.3 F288.0 E1918.968
G1 X11.47 Y13.64 Z0.3 F288.0 E1920.283
G1 X11.87 Y14.37 Z0.3 F288.0 E1921.644
G1 X12.49 Y14.99 Z0.3 F288.0 E1923.089
G1 X13.34 Y15.4 Z0.3 F288.0 E1924.634
G1 X14.16 Y15.45 Z0.3 F288.0 E1925.991
G1 X15.16 Y15.23 Z0.3 F288.0 E1927.674
G1 X15.89 Y14.71 Z0.3 F288.0 E1929.136
G1 X16.34 Y14.16 Z0.3 F288.0 E1930.304
G1 X16.66 Y13.26 Z0.3 F288.0 E1931.88
G1 X16.64 Y12.37 Z0.3 F288.0 E1933.338
G1 X16.47 Y11.77 Z0.3 F288.0 E1934.368
G1 X15.88 Y11.04 Z0.3 F288.0 E1935.911
G1 X15.01 Y10.62 Z0.3 F288.0 E1937.5
G1 X13.94 Y10.44 Z0.3 F288.0 E1939.279
G1 X13.02 Y10.73 Z0.3 F288.0 E1940.856
G1 X12.79 Y10.88 Z0.3 F288.0 E1941.305
G1 X12.59 Y11.06 Z0.3 F288.0 E1941.753
G1 X12.54 Y10.96 Z0.3 F288.0 E1941.929
G1 X12.82 Y10.87 Z0.3 F288.0 E1942.409
;M103
G1 X12.98 Y10.71 Z0.3 F2880.0
;M101
G1 X13.0 Y10.7 Z0.3 F288.0 E1942.442
G1 X13.9 Y10.23 Z0.3 F288.0 E1944.112
G1 X15.14 Y10.28 Z0.3 F288.0 E1946.143
G1 X16.09 Y10.72 Z0.3 F288.0 E1947.862
G1 X16.8 Y11.6 Z0.3 F288.0 E1949.73
G1 X17.13 Y12.44 Z0.3 F288.0 E1951.209
G1 X17.13 Y13.41 Z0.3 F288.0 E1952.802
G1 X16.72 Y14.47 Z0.3 F288.0 E1954.673
G1 X16.18 Y15.15 Z0.3 F288.0 E1956.096
G1 X15.17 Y15.79 Z0.3 F288.0 E1958.055
G1 X14.07 Y15.98 Z0.3 F288.0 E1959.89
G1 X13.16 Y15.95 Z0.3 F288.0 E1961.38
G1 X12.11 Y15.44 Z0.3 F288.0 E1963.305
G1 X11.16 Y14.59 Z0.3 F288.0 E1965.391
G1 X10.68 Y13.76 Z0.3 F288.0 E1966.973
G1 X10.38 Y12.87 Z0.3 F288.0 E1968.512
G1 X10.41 Y11.3 Z0.3 F288.0 E1971.087
G1 X10.73 Y9.74 Z0.3 F288.0 E1973.707
G1 X11.16 Y8.2 Z0.3 F288.0 E1976.336
G1 X11.26 Y6.42 Z0.3 F288.0 E1979.261
G1 X10.73 Y5.29 Z0.3 F288.0 E1981.311
G1 X9.67 Y4.56 Z0.3 F288.0 E1983.417
G1 X8.93 Y4.3 Z0.3 F288.0 E1984.716
G1 X7.73 Y4.2 Z0.3 F288.0 E1986.685
G1 X6.5 Y4.37 Z0.3 F288.0 E1988.721
G1 X6.39 Y4.47 Z0.3 F288.0 E1988.958
G1 X4.93 Y5.28 Z0.3 F288.0 E1991.704
G1 X4.63 Y6.25 Z0.3 F288.0 E1993.374
G1 X4.06 Y7.67 Z0.3 F288.0 E1995.881
G1 X3.5 Y8.8 Z0.3 F288.0 E1997.955
G1 X2.88 Y9.33 Z0.3 F288.0 E1999.297
G1 X2.15 Y9.65 Z0.3 F288.0 E2000.614
G1 X1.61 Y9.81 Z0.3 F288.0 E2001.532
G1 X0.29 Y9.98 Z0.3 F288.0 E2003.712
G1 X-0.5 Y12.18 Z0.3 F288.0 E2007.559
G1 X-0.44 Y12.49 Z0.3 F288.0 E2008.078
G1 X-0.4 Y13.38 Z0.3 F288.0 E2009.534
G1 X0.12 Y14.56 Z0.3 F288.0 E2011.649
G1 X0.68 Y15.34 Z0.3 F288.0 E2013.216
G1 X1.59 Y15.92 Z0.3 F288.0 E2014.999
G1 X2.99 Y17.08 Z0.3 F288.0 E2017.986
G1 X3.54 Y18.22 Z0.3 F288.0 E2020.062
G1 X3.7 Y19.43 Z0.3 F288.0 E2022.073
G1 X3.43 Y21.22 Z0.3 F288.0 E2025.04
G1 X2.43 Y22.51 Z0.3 F288.0 E2027.713
G1 X1.36 Y23.24 Z0.3 F288.0 E2029.845
G1 X0.06 Y23.49 Z0.3 F288.0 E2032.01
G1 X-1.38 Y23.1 Z0.3 F288.0 E2034.469
G1 X-2.12 Y22.56 Z0.3 F288.0 E2035.968
G1 X-2.64 Y21.86 Z0.3 F288.0 E2037.402
G1 X-2.92 Y20.97 Z0.3 F288.0 E2038.937
G1 X-2.97 Y19.82 Z0.3 F288.0 E2040.823
G1 X-2.53 Y18.92 Z0.3 F288.0 E2042.454
G1 X-1.65 Y18.2 Z0.3 F288.0 E2044.323
G1 X-0.71 Y18.09 Z0.3 F288.0 E2045.88
G1 X-0.21 Y18.17 Z0.3 F288.0 E2046.71
G1 X-0.14 Y18.27 Z0.3 F288.0 E2046.903
G1 X-0.66 Y18.25 Z0.3 F288.0 E2047.761
G1 X-1.48 Y18.51 Z0.3 F288.0 E2049.175
G1 X-2.12 Y19.24 Z0.3 F288.0 E2050.777
G1 X-2.46 Y20.05 Z0.3 F288.0 E2052.221
G1 X-2.44 Y20.96 Z0.3 F288.0 E2053.716
G1 X-2.17 Y21.53 Z0.3 F288.0 E2054.741
G1 X-1.67 Y22.15 Z0.3 F288.0 E2056.047
G1 X-0.93 Y22.58 Z0.3 F288.0 E2057.459
G1 X0.09 Y22.79 Z0.3 F288.0 E2059.164
G1 X1.23 Y22.58 Z0.3 F288.0 E2061.068
G1 X2.25 Y21.87 Z0.3 F288.0 E2063.103
G1 X2.82 Y20.67 Z0.3 F288.0 E2065.283
G1 X2.85 Y19.48 Z0.3 F288.0 E2067.247
G1 X2.65 Y18.72 Z0.3 F288.0 E2068.526
G1 X2.06 Y17.98 Z0.3 F288.0 E2070.083
G1 X1.0 Y17.06 Z0.3 F288.0 E2072.392
G1 X-0.05 Y16.49 Z0.3 F288.0 E2074.359
G1 X-1.22 Y15.62 Z0.3 F288.0 E2076.742
G1 X-2.0 Y14.63 Z0.3 F288.0 E2078.824
G1 X-2.68 Y13.45 Z0.3 F288.0 E2081.044
G1 X-3.05 Y12.22 Z0.3 F288.0 E2083.156
G1 X-3.16 Y10.42 Z0.3 F288.0 E2086.122
G1 X-2.93 Y9.09 Z0.3 F288.0 E2088.333
G1 X-3.14 Y8.9 Z0.3 F288.0 E2088.801
G1 X-3.47 Y8.71 Z0.3 F288.0 E2089.427
G1 X-4.06 Y7.66 Z0.3 F288.0 E2091.405
G1 X-4.51 Y5.96 Z0.3 F288.0 E2094.293
G1 X-4.96 Y5.26 Z0.3 F288.0 E2095.646
G1 X-6.39 Y4.47 Z0.3 F288.0 E2098.342
G1 X-6.5 Y4.37 Z0.3 F288.0 E2098.579
G1 X-7.73 Y4.2 Z0.3 F288.0 E2100.615
G1 X-8.93 Y4.3 Z0.3 F288.0 E2102.585
G1 X-9.67 Y4.56 Z0.3 F288.0 E2103.884
G1 X-10.73 Y5.29 Z0.3 F288.0 E2105.99
G1 X-11.26 Y6.42 Z0.3 F288.0 E2108.04
G1 X-11.16 Y8.2 Z0.3 F288.0 E2110.965
G1 X-10.73 Y9.74 Z0.3 F288.0 E2113.593
G1 X-10.41 Y11.3 Z0.3 F288.0 E2116.213
G1 X-10.38 Y12.87 Z0.3 F288.0 E2118.788
G1 X-10.68 Y13.76 Z0.3 F288.0 E2120.327
G1 X-11.16 Y14.59 Z0.3 F288.0 E2121.91
G1 X-12.11 Y15.44 Z0.3 F288.0 E2123.996
G1 X-13.16 Y15.95 Z0.3 F288.0 E2125.92
G1 X-14.07 Y15.98 Z0.3 F288.0 E2127.41
G1 X-15.17 Y15.79 Z0.3 F288.0 E2129.246
G1 X-16.18 Y15.15 Z0.3 F288.0 E2131.205
G1 X-16.72 Y14.47 Z0.3 F288.0 E2132.627
G1 X-17.13 Y13.41 Z0.3 F288.0 E2134.499
G1 X-17.13 Y12.44 Z0.3 F288.0 E2136.091
G1 X-16.8 Y11.6 Z0.3 F288.0 E2137.57
G1 X-16.09 Y10.72 Z0.3 F288.0 E2139.438
G1 X-15.14 Y10.28 Z0.3 F288.0 E2141.158
G1 X-13.9 Y10.23 Z0.3 F288.0 E2143.188
G1 X-13.0 Y10.7 Z0.3 F288.0 E2144.858
G1 X-12.82 Y10.87 Z0.3 F288.0 E2145.26
G1 X-12.54 Y10.96 Z0.3 F288.0 E2145.739
G1 X-12.59 Y11.06 Z0.3 F288.0 E2145.915
G1 X-12.61 Y11.03 Z0.3 F288.0 E2145.977
;M103
G1 X-13.0 Y10.74 Z0.3 F2880.0
;M101
G1 X-13.02 Y10.73 Z0.3 F288.0 E2146.01
G1 X-13.94 Y10.44 Z0.3 F288.0 E2147.587
G1 X-15.01 Y10.62 Z0.3 F288.0 E2149.366
G1 X-15.88 Y11.04 Z0.3 F288.0 E2150.954
G1 X-16.47 Y11.77 Z0.3 F288.0 E2152.498
G1 X-16.64 Y12.37 Z0.3 F288.0 E2153.528
G1 X-16.66 Y13.26 Z0.3 F288.0 E2154.986
G1 X-16.34 Y14.16 Z0.3 F288.0 E2156.561
G1 X-15.89 Y14.71 Z0.3 F288.0 E2157.73
G1 X-15.16 Y15.23 Z0.3 F288.0 E2159.192
G1 X-14.16 Y15.45 Z0.3 F288.0 E2160.875
G1 X-13.34 Y15.4 Z0.3 F288.0 E2162.232
G1 X-12.49 Y14.99 Z0.3 F288.0 E2163.777
G1 X-11.87 Y14.37 Z0.3 F288.0 E2165.222
G1 X-11.47 Y13.64 Z0.3 F288.0 E2166.583
G1 X-11.3 Y12.86 Z0.3 F288.0 E2167.898
G1 X-11.38 Y11.38 Z0.3 F288.0 E2170.322
G1 X-12.5 Y8.35 Z0.3 F288.0 E2175.623
G1 X-12.65 Y6.45 Z0.3 F288.0 E2178.753
G1 X-12.18 Y5.06 Z0.3 F288.0 E2181.17
G1 X-10.69 Y3.53 Z0.3 F288.0 E2184.664
G1 X-6.34 Y0.82 Z0.3 F288.0 E2193.094
G1 X-6.17 Y0.54 Z0.3 F288.0 E2193.624
G1 X-6.21 Y0.13 Z0.3 F288.0 E2194.301
G1 X-6.41 Y-0.09 Z0.3 F288.0 E2194.783
G1 X-7.41 Y-0.36 Z0.3 F288.0 E2196.483
G1 X-9.41 Y-0.38 Z0.3 F288.0 E2199.769
G1 X-10.77 Y-0.17 Z0.3 F288.0 E2202.038
G1 X-11.99 Y0.19 Z0.3 F288.0 E2204.12
G1 X-12.79 Y0.58 Z0.3 F288.0 E2205.575
G1 X-15.29 Y3.03 Z0.3 F288.0 E2211.328
G1 X-16.33 Y3.88 Z0.3 F288.0 E2213.525
G1 X-17.17 Y4.37 Z0.3 F288.0 E2215.135
G1 X-18.35 Y4.78 Z0.3 F288.0 E2217.177
G1 X-19.06 Y4.96 Z0.3 F288.0 E2218.379
G1 X-20.4 Y4.93 Z0.3 F288.0 E2220.595
G1 X-21.15 Y4.75 Z0.3 F288.0 E2221.857
G1 X-21.97 Y4.33 Z0.3 F288.0 E2223.369
G1 X-22.6 Y3.81 Z0.3 F288.0 E2224.709
G1 X-23.19 Y2.75 Z0.3 F288.0 E2226.704
G1 X-23.39 Y1.9 Z0.3 F288.0 E2228.137
G1 X-23.36 Y1.01 Z0.3 F288.0 E2229.599
G1 X-23.16 Y0.15 Z0.3 F288.0 E2231.039
G1 X-22.72 Y-0.59 Z0.3 F288.0 E2232.456
G1 X-22.14 Y-1.17 Z0.3 F288.0 E2233.807
G1 X-21.31 Y-1.55 Z0.3 F288.0 E2235.295
G1 X-20.18 Y-1.68 Z0.3 F288.0 E2237.167
G1 X-19.17 Y-1.34 Z0.3 F288.0 E2238.915
G1 X-18.24 Y-0.51 Z0.3 F288.0 E2240.96
G1 X-17.91 Y0.44 Z0.3 F288.0 E2242.618
G1 X-17.92 Y0.53 Z0.3 F288.0 E2242.766
G1 X-17.99 Y0.54 Z0.3 F288.0 E2242.886
G1 X-18.46 Y-0.36 Z0.3 F288.0 E2244.557
G1 X-19.35 Y-0.97 Z0.3 F288.0 E2246.324
G1 X-20.25 Y-1.26 Z0.3 F288.0 E2247.884
G1 X-21.18 Y-1.16 Z0.3 F288.0 E2249.422
G1 X-21.71 Y-0.84 Z0.3 F288.0 E2250.438
G1 X-22.27 Y-0.33 Z0.3 F288.0 E2251.688
G1 X-22.67 Y0.38 Z0.3 F288.0 E2253.017
G1 X-22.86 Y1.02 Z0.3 F288.0 E2254.108
G1 X-22.91 Y1.68 Z0.3 F288.0 E2255.202
G1 X-22.8 Y2.34 Z0.3 F288.0 E2256.295
G1 X-22.28 Y3.38 Z0.3 F288.0 E2258.204
G1 X-21.66 Y3.86 Z0.3 F288.0 E2259.487
G1 X-21.05 Y4.21 Z0.3 F288.0 E2260.641
G1 X-20.44 Y4.38 Z0.3 F288.0 E2261.685
G1 X-19.49 Y4.43 Z0.3 F288.0 E2263.243
G1 X-18.92 Y4.31 Z0.3 F288.0 E2264.205
G1 X-18.01 Y4.0 Z0.3 F288.0 E2265.776
G1 X-17.19 Y3.56 Z0.3 F288.0 E2267.318
G1 X-16.1 Y2.73 Z0.3 F288.0 E2269.559
G1 X-14.31 Y0.6 Z0.3 F288.0 E2274.135
G1 X-13.22 Y-0.43 Z0.3 F288.0 E2276.59
G1 X-12.02 Y-1.24 Z0.3 F288.0 E2278.975
G1 X-10.72 Y-1.9 Z0.3 F288.0 E2281.362
G1 X-9.29 Y-2.49 Z0.3 F288.0 E2283.897
G1 X-7.41 Y-3.05 Z0.3 F288.0 E2287.129
G1 X-6.5 Y-3.18 Z0.3 F288.0 E2288.639
G1 X-6.3 Y-3.28 Z0.3 F288.0 E2288.99
G1 X-6.26 Y-3.48 Z0.3 F288.0 E2289.338
G1 X-6.4 Y-3.81 Z0.3 F288.0 E2289.917
G1 X-6.5 Y-3.84 Z0.3 F288.0 E2290.095
G1 X-6.81 Y-4.03 Z0.3 F288.0 E2290.678
G1 X-8.59 Y-4.63 Z0.3 F288.0 E2293.761
G1 X-10.39 Y-5.62 Z0.3 F288.0 E2297.139
G1 X-11.51 Y-6.46 Z0.3 F288.0 E2299.44
G1 X-12.06 Y-7.79 Z0.3 F288.0 E2301.796
G1 X-12.13 Y-8.96 Z0.3 F288.0 E2303.733
G1 X-11.07 Y-13.04 Z0.3 F288.0 E2310.656
G1 X-10.94 Y-14.51 Z0.3 F288.0 E2313.072
G1 X-11.13 Y-15.38 Z0.3 F288.0 E2314.53
G1 X-11.5 Y-16.1 Z0.3 F288.0 E2315.862
G1 X-12.0 Y-16.57 Z0.3 F288.0 E2316.985
G1 X-12.74 Y-16.88 Z0.3 F288.0 E2318.309
G1 X-13.82 Y-17.11 Z0.3 F288.0 E2320.12
G1 X-14.69 Y-16.95 Z0.3 F288.0 E2321.571
G1 X-15.41 Y-16.7 Z0.3 F288.0 E2322.822
G1 X-15.95 Y-16.25 Z0.3 F288.0 E2323.986
G1 X-16.41 Y-15.68 Z0.3 F288.0 E2325.184
G1 X-16.64 Y-14.78 Z0.3 F288.0 E2326.703
G1 X-16.63 Y-14.03 Z0.3 F288.0 E2327.934
G1 X-16.47 Y-13.42 Z0.3 F288.0 E2328.966
G1 X-15.88 Y-12.7 Z0.3 F288.0 E2330.513
G1 X-15.01 Y-12.27 Z0.3 F288.0 E2332.102
G1 X-13.94 Y-12.1 Z0.3 F288.0 E2333.88
G1 X-13.02 Y-12.38 Z0.3 F288.0 E2335.462
G1 X-12.84 Y-12.49 Z0.3 F288.0 E2335.809
G1 X-12.77 Y-12.57 Z0.3 F288.0 E2335.974
G1 X-12.68 Y-12.63 Z0.3 F288.0 E2336.159
G1 X-12.6 Y-12.83 Z0.3 F288.0 E2336.504
G1 X-12.52 Y-12.75 Z0.3 F288.0 E2336.683
G1 X-12.53 Y-12.75 Z0.3 F288.0 E2336.689
;M103
;M108 S7.506
G1 X-12.63 Y-12.86 Z0.6 F3600.0
G1 X-12.65 Y-12.56 Z0.6 F3600.0
G1 X-12.72 Y-12.51 Z0.6 F3600.0
G1 X-12.79 Y-12.43 Z0.6 F3600.0
G1 X-12.98 Y-12.31 Z0.6 F3600.0
G1 X-13.93 Y-12.03 Z0.6 F3600.0
G1 X-15.03 Y-12.2 Z0.6 F3600.0
G1 X-15.92 Y-12.64 Z0.6 F3600.0
G1 X-16.54 Y-13.39 Z0.6 F3600.0
G1 X-16.71 Y-14.02 Z0.6 F3600.0
G1 X-16.72 Y-14.79 Z0.6 F3600.0
G1 X-16.48 Y-15.71 Z0.6 F3600.0
G1 X-16.01 Y-16.3 Z0.6 F3600.0
G1 X-15.45 Y-16.77 Z0.6 F3600.0
G1 X-14.71 Y-17.03 Z0.6 F3600.0
G1 X-13.82 Y-17.18 Z0.6 F3600.0
G1 X-12.72 Y-16.96 Z0.6 F3600.0
G1 X-11.96 Y-16.63 Z0.6 F3600.0
G1 X-11.44 Y-16.14 Z0.6 F3600.0
G1 X-11.06 Y-15.4 Z0.6 F3600.0
G1 X-10.86 Y-14.51 Z0.6 F3600.0
G1 X-10.99 Y-13.03 Z0.6 F3600.0
G1 X-11.22 Y-12.11 Z0.6 F3600.0
G1 X-10.73 Y-11.64 Z0.6 F3600.0
G1 X-10.76 Y-11.42 Z0.6 F3600.0
G1 X-10.74 Y-9.04 Z0.6 F3600.0
G1 X-10.47 Y-8.13 Z0.6 F3600.0
G1 X-9.89 Y-7.48 Z0.6 F3600.0
G1 X-9.24 Y-7.15 Z0.6 F3600.0
G1 X-8.14 Y-6.9 Z0.6 F3600.0
G1 X-1.61 Y-6.68 Z0.6 F3600.0
;M101
G1 X-4.8 Y-3.5 Z0.6 F360.0 E2342.316
G1 X-4.9 Y-3.99 Z0.6 F360.0 E2342.938
G1 X-2.73 Y-6.16 Z0.6 F360.0 E2346.78
G1 X-3.53 Y-5.95 Z0.6 F360.0 E2347.82
G1 X-5.02 Y-4.46 Z0.6 F360.0 E2350.444
G1 X-5.38 Y-4.69 Z0.6 F360.0 E2350.982
G1 X-4.23 Y-5.84 Z0.6 F360.0 E2353.024
G1 X-4.86 Y-5.8 Z0.6 F360.0 E2353.817
G1 X-5.76 Y-4.91 Z0.6 F360.0 E2355.402
G1 X-6.16 Y-5.1 Z0.6 F360.0 E2355.96
G1 X-5.46 Y-5.79 Z0.6 F360.0 E2357.191
G1 X-6.07 Y-5.78 Z0.6 F360.0 E2357.948
G1 X-6.59 Y-5.26 Z0.6 F360.0 E2358.861
G1 X-7.03 Y-5.41 Z0.6 F360.0 E2359.445
G1 X-6.67 Y-5.77 Z0.6 F360.0 E2360.071
G1 X-7.28 Y-5.76 Z0.6 F360.0 E2360.828
G1 X-7.47 Y-5.56 Z0.6 F360.0 E2361.168
G1 X-7.88 Y-5.74 Z0.6 F360.0 E2361.73
G1 X-7.89 Y-5.74 Z0.6 F360.0 E2361.743
;M103
G1 X-6.03 Y-3.73 Z0.6 F3600.0
G1 X-5.96 Y-3.46 Z0.6 F3600.0
G1 X-7.22 Y-1.67 Z0.6 F3600.0
;M101
G1 X-7.24 Y-1.64 Z0.6 F360.0 E2361.787
G1 X-6.79 Y-1.51 Z0.6 F360.0 E2362.381
G1 X-6.46 Y-1.83 Z0.6 F360.0 E2362.959
;M103
G1 X-4.67 Y0.53 Z0.6 F3600.0
;M101
G1 X3.54 Y-7.69 Z0.6 F360.0 E2377.486
G1 X3.38 Y-8.11 Z0.6 F360.0 E2378.059
G1 X-4.79 Y0.05 Z0.6 F360.0 E2392.498
G1 X-4.9 Y-0.43 Z0.6 F360.0 E2393.111
G1 X3.36 Y-8.7 Z0.6 F360.0 E2407.733
G1 X3.53 Y-9.45 Z0.6 F360.0 E2408.698
G1 X-5.16 Y-0.77 Z0.6 F360.0 E2424.059
G1 X-5.45 Y-1.07 Z0.6 F360.0 E2424.582
G1 X3.69 Y-10.2 Z0.6 F360.0 E2440.746
G1 X3.74 Y-10.85 Z0.6 F360.0 E2441.557
G1 X2.82 Y-9.92 Z0.6 F360.0 E2443.189
;M103
G1 X3.6 Y-11.3 Z0.6 F3600.0
;M101
G1 X3.79 Y-11.49 Z0.6 F360.0 E2443.535
G1 X3.54 Y-11.83 Z0.6 F360.0 E2444.065
G1 X3.69 Y-11.98 Z0.6 F360.0 E2444.328
G1 X3.48 Y-12.36 Z0.6 F360.0 E2444.876
G1 X3.55 Y-12.44 Z0.6 F360.0 E2445.005
;M103
G1 X1.66 Y-8.77 Z0.6 F3600.0
;M101
G1 X-5.8 Y-1.31 Z0.6 F360.0 E2458.215
G1 X-6.3 Y-1.4 Z0.6 F360.0 E2458.851
G1 X-0.23 Y-7.47 Z0.6 F360.0 E2469.603
;M103
G1 X6.38 Y-5.19 Z0.6 F3600.0
;M101
G1 X6.93 Y-5.74 Z0.6 F360.0 E2470.575
G1 X7.16 Y-5.38 Z0.6 F360.0 E2471.111
G1 X7.46 Y-5.69 Z0.6 F360.0 E2471.651
G1 X7.92 Y-5.55 Z0.6 F360.0 E2472.247
G1 X8.0 Y-5.63 Z0.6 F360.0 E2472.389
;M103
G1 X6.35 Y-3.9 Z0.6 F3600.0
G1 X6.43 Y-3.32 Z0.6 F3600.0
G1 X6.01 Y-3.61 Z0.6 F3600.0
G1 X6.1 Y-1.36 Z0.6 F3600.0
;M101
G1 X6.54 Y-1.8 Z0.6 F360.0 E2473.176
G1 X6.86 Y-1.53 Z0.6 F360.0 E2473.701
G1 X7.04 Y-1.7 Z0.6 F360.0 E2474.015
;M103
G1 X5.95 Y0.04 Z0.6 F3600.0
G1 X5.9 Y0.46 Z0.6 F3600.0
G1 X6.86 Y2.62 Z0.6 F3600.0
;M101
G1 X6.31 Y3.17 Z0.6 F360.0 E2474.979
G1 X6.93 Y3.15 Z0.6 F360.0 E2475.75
G1 X7.22 Y2.85 Z0.6 F360.0 E2476.276
;M103
G1 X4.96 Y3.93 Z0.6 F3600.0
;M101
G1 X6.49 Y2.4 Z0.6 F360.0 E2478.986
G1 X6.12 Y2.17 Z0.6 F360.0 E2479.524
G1 X-1.8 Y10.1 Z0.6 F360.0 E2493.542
G1 X-1.86 Y10.75 Z0.6 F360.0 E2494.357
G1 X-0.89 Y9.78 Z0.6 F360.0 E2496.069
;M103
G1 X-1.67 Y9.37 Z0.6 F3600.0
;M101
G1 X5.75 Y1.95 Z0.6 F360.0 E2509.193
G1 X5.38 Y1.72 Z0.6 F360.0 E2509.733
G1 X-1.72 Y8.83 Z0.6 F360.0 E2522.301
G1 X-2.04 Y8.55 Z0.6 F360.0 E2522.826
G1 X5.14 Y1.38 Z0.6 F360.0 E2535.517
G1 X4.85 Y1.08 Z0.6 F360.0 E2536.042
G1 X-2.35 Y8.28 Z0.6 F360.0 E2548.784
G1 X-2.67 Y8.0 Z0.6 F360.0 E2549.309
G1 X4.63 Y0.7 Z0.6 F360.0 E2562.223
G1 X4.82 Y-0.08 Z0.6 F360.0 E2563.226
G1 X-2.89 Y7.63 Z0.6 F360.0 E2576.863
G1 X-3.1 Y7.24 Z0.6 F360.0 E2577.412
G1 X6.1 Y-1.95 Z0.6 F360.0 E2593.681
G1 X5.68 Y-2.12 Z0.6 F360.0 E2594.25
G1 X-3.22 Y6.77 Z0.6 F360.0 E2609.987
G1 X-3.34 Y6.3 Z0.6 F360.0 E2610.597
G1 X5.34 Y-2.37 Z0.6 F360.0 E2625.942
G1 X5.01 Y-2.64 Z0.6 F360.0 E2626.469
G1 X-3.46 Y5.83 Z0.6 F360.0 E2641.454
G1 X-3.58 Y5.36 Z0.6 F360.0 E2642.063
G1 X4.9 Y-3.13 Z0.6 F360.0 E2657.073
G1 X4.8 Y-3.61 Z0.6 F360.0 E2657.694
G1 X-3.81 Y4.99 Z0.6 F360.0 E2672.912
G1 X-4.04 Y4.63 Z0.6 F360.0 E2673.448
G1 X6.39 Y-5.8 Z0.6 F360.0 E2691.893
G1 X5.94 Y-5.94 Z0.6 F360.0 E2692.483
G1 X-4.3 Y4.3 Z0.6 F360.0 E2710.59
G1 X-4.68 Y4.09 Z0.6 F360.0 E2711.135
G1 X5.52 Y-6.12 Z0.6 F360.0 E2729.182
G1 X5.11 Y-6.29 Z0.6 F360.0 E2729.746
G1 X-5.06 Y3.87 Z0.6 F360.0 E2747.732
G1 X-5.44 Y3.66 Z0.6 F360.0 E2748.277
G1 X4.69 Y-6.47 Z0.6 F360.0 E2766.203
G1 X4.28 Y-6.65 Z0.6 F360.0 E2766.767
G1 X-5.78 Y3.41 Z0.6 F360.0 E2784.556
G1 X-6.13 Y3.17 Z0.6 F360.0 E2785.09
G1 X3.86 Y-6.83 Z0.6 F360.0 E2802.776
G1 X3.66 Y-7.22 Z0.6 F360.0 E2803.326
G1 X-6.71 Y3.16 Z0.6 F360.0 E2821.683
G1 X-7.24 Y3.09 Z0.6 F360.0 E2822.347
G1 X-6.64 Y2.49 Z0.6 F360.0 E2823.419
;M103
G1 X-1.26 Y10.74 Z0.6 F3600.0
;M101
G1 X-1.82 Y11.3 Z0.6 F360.0 E2824.406
G1 X-1.63 Y11.7 Z0.6 F360.0 E2824.964
G1 X-1.72 Y11.79 Z0.6 F360.0 E2825.118
;M103
G1 X2.81 Y7.85 Z0.6 F3600.0
;M101
G1 X2.05 Y8.61 Z0.6 F360.0 E2826.456
G1 X1.18 Y8.89 Z0.6 F360.0 E2827.606
G1 X3.21 Y6.86 Z0.6 F360.0 E2831.2
G1 X3.63 Y5.85 Z0.6 F360.0 E2832.569
;M103
G1 X2.86 Y6.62 Z0.6 F3600.0
;M101
G1 X0.51 Y8.97 Z0.6 F360.0 E2836.724
G1 X-0.17 Y9.05 Z0.6 F360.0 E2837.571
G1 X3.87 Y5.02 Z0.6 F360.0 E2844.706
;M103
G1 X4.27 Y4.9 Z0.6 F3600.0
;M101
G1 X4.21 Y5.12 Z0.6 F360.0 E2844.983
G1 X3.95 Y6.02 Z0.6 F360.0 E2846.154
G1 X3.48 Y7.13 Z0.6 F360.0 E2847.668
G1 X3.41 Y7.45 Z0.6 F360.0 E2848.079
G1 X2.93 Y8.4 Z0.6 F360.0 E2849.411
G1 X2.49 Y8.8 Z0.6 F360.0 E2850.15
G1 X1.88 Y9.08 Z0.6 F360.0 E2850.997
G1 X1.39 Y9.22 Z0.6 F360.0 E2851.632
G1 X-0.37 Y9.43 Z0.6 F360.0 E2853.853
G1 X-0.86 Y10.81 Z0.6 F360.0 E2855.68
G1 X-1.24 Y11.64 Z0.6 F360.0 E2856.827
G1 X-1.44 Y12.25 Z0.6 F360.0 E2857.63
G1 X-1.27 Y13.27 Z0.6 F360.0 E2858.922
G1 X-1.68 Y13.34 Z0.6 F360.0 E2859.453
G1 X-1.82 Y13.1 Z0.6 F360.0 E2859.797
G1 X-2.12 Y12.03 Z0.6 F360.0 E2861.192
G1 X-2.24 Y10.47 Z0.6 F360.0 E2863.149
G1 X-1.97 Y9.08 Z0.6 F360.0 E2864.925
G1 X-2.82 Y8.32 Z0.6 F360.0 E2866.348
G1 X-2.96 Y8.24 Z0.6 F360.0 E2866.553
G1 X-3.42 Y7.42 Z0.6 F360.0 E2867.727
G1 X-3.92 Y5.48 Z0.6 F360.0 E2870.231
G1 X-4.48 Y4.6 Z0.6 F360.0 E2871.533
G1 X-5.78 Y3.88 Z0.6 F360.0 E2873.386
G1 X-6.18 Y3.53 Z0.6 F360.0 E2874.059
G1 X-6.88 Y3.51 Z0.6 F360.0 E2874.939
G1 X-7.7 Y3.38 Z0.6 F360.0 E2875.978
G1 X-8.04 Y3.4 Z0.6 F360.0 E2876.407
G1 X-8.27 Y3.07 Z0.6 F360.0 E2876.91
G1 X-5.58 Y1.43 Z0.6 F360.0 E2880.851
G1 X-5.4 Y1.12 Z0.6 F360.0 E2881.297
G1 X-4.99 Y0.72 Z0.6 F360.0 E2882.015
G1 X-5.25 Y-0.35 Z0.6 F360.0 E2883.392
G1 X-5.84 Y-0.95 Z0.6 F360.0 E2884.44
G1 X-6.72 Y-1.11 Z0.6 F360.0 E2885.567
G1 X-7.29 Y-1.29 Z0.6 F360.0 E2886.313
G1 X-8.39 Y-1.29 Z0.6 F360.0 E2887.684
G1 X-9.01 Y-1.19 Z0.6 F360.0 E2888.475
G1 X-8.83 Y-1.6 Z0.6 F360.0 E2889.032
G1 X-7.24 Y-2.06 Z0.6 F360.0 E2891.102
G1 X-6.64 Y-2.15 Z0.6 F360.0 E2891.853
G1 X-5.86 Y-2.41 Z0.6 F360.0 E2892.894
G1 X-5.47 Y-2.73 Z0.6 F360.0 E2893.525
G1 X-5.12 Y-3.33 Z0.6 F360.0 E2894.386
G1 X-5.32 Y-4.23 Z0.6 F360.0 E2895.543
G1 X-5.85 Y-4.56 Z0.6 F360.0 E2896.319
G1 X-6.15 Y-4.67 Z0.6 F360.0 E2896.727
G1 X-6.4 Y-4.82 Z0.6 F360.0 E2897.087
G1 X-8.25 Y-5.45 Z0.6 F360.0 E2899.542
G1 X-9.09 Y-5.91 Z0.6 F360.0 E2900.737
G1 X-9.67 Y-6.09 Z0.6 F360.0 E2901.492
G1 X-9.26 Y-6.32 Z0.6 F360.0 E2902.078
G1 X-8.24 Y-6.09 Z0.6 F360.0 E2903.387
G1 X-4.47 Y-6.17 Z0.6 F360.0 E2908.093
G1 X-3.12 Y-6.37 Z0.6 F360.0 E2909.801
G1 X-1.8 Y-6.98 Z0.6 F360.0 E2911.63
G1 X0.52 Y-8.31 Z0.6 F360.0 E2914.97
G1 X1.42 Y-9.04 Z0.6 F360.0 E2916.415
G1 X2.13 Y-9.5 Z0.6 F360.0 E2917.482
G1 X3.24 Y-11.27 Z0.6 F360.0 E2920.087
G1 X3.05 Y-12.86 Z0.6 F360.0 E2922.094
G1 X2.91 Y-13.29 Z0.6 F360.0 E2922.665
G1 X2.74 Y-13.64 Z0.6 F360.0 E2923.155
G1 X2.97 Y-13.77 Z0.6 F360.0 E2923.486
G1 X3.8 Y-12.9 Z0.6 F360.0 E2924.997
G1 X4.16 Y-11.62 Z0.6 F360.0 E2926.656
G1 X4.04 Y-10.13 Z0.6 F360.0 E2928.524
G1 X3.66 Y-8.37 Z0.6 F360.0 E2930.783
G1 X3.87 Y-7.84 Z0.6 F360.0 E2931.499
G1 X4.05 Y-7.13 Z0.6 F360.0 E2932.409
G1 X6.33 Y-6.16 Z0.6 F360.0 E2935.506
G1 X8.3 Y-5.96 Z0.6 F360.0 E2937.983
G1 X9.58 Y-6.25 Z0.6 F360.0 E2939.63
G1 X10.02 Y-6.5 Z0.6 F360.0 E2940.259
G1 X10.18 Y-6.27 Z0.6 F360.0 E2940.607
G1 X10.07 Y-6.17 Z0.6 F360.0 E2940.781
G1 X8.56 Y-5.36 Z0.6 F360.0 E2942.937
G1 X6.46 Y-4.85 Z0.6 F360.0 E2945.634
G1 X6.02 Y-4.58 Z0.6 F360.0 E2946.274
G1 X5.71 Y-4.47 Z0.6 F360.0 E2946.685
G1 X5.1 Y-3.88 Z0.6 F360.0 E2947.754
G1 X5.34 Y-2.81 Z0.6 F360.0 E2949.119
G1 X5.91 Y-2.39 Z0.6 F360.0 E2950.012
G1 X6.64 Y-2.15 Z0.6 F360.0 E2950.977
G1 X7.24 Y-2.06 Z0.6 F360.0 E2951.728
G1 X8.83 Y-1.6 Z0.6 F360.0 E2953.798
G1 X9.01 Y-1.19 Z0.6 F360.0 E2954.355
G1 X8.39 Y-1.29 Z0.6 F360.0 E2955.146
G1 X7.29 Y-1.29 Z0.6 F360.0 E2956.517
G1 X6.72 Y-1.11 Z0.6 F360.0 E2957.263
G1 X5.84 Y-0.95 Z0.6 F360.0 E2958.39
G1 X5.25 Y-0.35 Z0.6 F360.0 E2959.438
G1 X4.99 Y0.72 Z0.6 F360.0 E2960.815
G1 X5.4 Y1.12 Z0.6 F360.0 E2961.533
G1 X5.58 Y1.43 Z0.6 F360.0 E2961.979
G1 X8.27 Y3.07 Z0.6 F360.0 E2965.92
G1 X8.04 Y3.4 Z0.6 F360.0 E2966.423
G1 X7.7 Y3.38 Z0.6 F360.0 E2966.852
G1 X6.88 Y3.51 Z0.6 F360.0 E2967.891
G1 X6.18 Y3.53 Z0.6 F360.0 E2968.771
G1 X5.78 Y3.88 Z0.6 F360.0 E2969.444
G1 X4.34 Y4.68 Z0.6 F360.0 E2971.504
G1 X4.27 Y4.9 Z0.6 F360.0 E2971.793
;M103
G1 X4.69 Y4.96 Z0.6 F3600.0
;M101
G1 X4.61 Y5.23 Z0.6 F360.0 E2972.143
G1 X4.35 Y6.16 Z0.6 F360.0 E2973.345
G1 X3.88 Y7.26 Z0.6 F360.0 E2974.844
G1 X3.81 Y7.59 Z0.6 F360.0 E2975.273
G1 X3.27 Y8.66 Z0.6 F360.0 E2976.766
G1 X2.73 Y9.15 Z0.6 F360.0 E2977.685
G1 X2.03 Y9.47 Z0.6 F360.0 E2978.65
G1 X1.48 Y9.64 Z0.6 F360.0 E2979.366
G1 X-0.06 Y9.82 Z0.6 F360.0 E2981.306
G1 X-0.47 Y10.97 Z0.6 F360.0 E2982.832
G1 X-0.85 Y11.8 Z0.6 F360.0 E2983.971
G1 X-1.01 Y12.28 Z0.6 F360.0 E2984.614
G1 X-0.85 Y13.22 Z0.6 F360.0 E2985.798
G1 X-0.83 Y13.62 Z0.6 F360.0 E2986.304
G1 X-0.27 Y14.84 Z0.6 F360.0 E2987.976
G1 X0.4 Y15.73 Z0.6 F360.0 E2989.372
G1 X1.01 Y16.2 Z0.6 F360.0 E2990.335
G1 X0.88 Y16.5 Z0.6 F360.0 E2990.744
G1 X0.23 Y16.12 Z0.6 F360.0 E2991.689
G1 X-0.84 Y15.25 Z0.6 F360.0 E2993.415
G1 X-1.59 Y14.34 Z0.6 F360.0 E2994.888
G1 X-2.21 Y13.27 Z0.6 F360.0 E2996.44
G1 X-2.54 Y12.1 Z0.6 F360.0 E2997.953
G1 X-2.66 Y10.45 Z0.6 F360.0 E3000.031
G1 X-2.43 Y9.23 Z0.6 F360.0 E3001.579
G1 X-3.07 Y8.66 Z0.6 F360.0 E3002.653
G1 X-3.27 Y8.54 Z0.6 F360.0 E3002.95
G1 X-3.81 Y7.57 Z0.6 F360.0 E3004.334
G1 X-4.31 Y5.65 Z0.6 F360.0 E3006.823
G1 X-4.78 Y4.92 Z0.6 F360.0 E3007.908
G1 X-6.02 Y4.23 Z0.6 F360.0 E3009.685
G1 X-6.34 Y3.94 Z0.6 F360.0 E3010.224
G1 X-6.92 Y3.93 Z0.6 F360.0 E3010.947
G1 X-7.72 Y3.8 Z0.6 F360.0 E3011.965
G1 X-8.8 Y3.87 Z0.6 F360.0 E3013.32
G1 X-9.39 Y3.97 Z0.6 F360.0 E3014.06
G1 X-9.9 Y4.15 Z0.6 F360.0 E3014.745
G1 X-10.69 Y4.69 Z0.6 F360.0 E3015.94
G1 X-10.88 Y4.38 Z0.6 F360.0 E3016.395
G1 X-10.43 Y3.91 Z0.6 F360.0 E3017.209
G1 X-5.89 Y1.12 Z0.6 F360.0 E3023.873
G1 X-5.73 Y0.86 Z0.6 F360.0 E3024.256
G1 X-5.45 Y0.59 Z0.6 F360.0 E3024.744
G1 X-5.63 Y-0.14 Z0.6 F360.0 E3025.681
G1 X-6.04 Y-0.56 Z0.6 F360.0 E3026.417
G1 X-6.82 Y-0.71 Z0.6 F360.0 E3027.41
G1 X-7.36 Y-0.87 Z0.6 F360.0 E3028.106
G1 X-9.42 Y-0.87 Z0.6 F360.0 E3030.692
G1 X-10.86 Y-0.65 Z0.6 F360.0 E3032.506
G1 X-11.76 Y-0.37 Z0.6 F360.0 E3033.697
G1 X-12.04 Y-0.67 Z0.6 F360.0 E3034.216
G1 X-10.55 Y-1.38 Z0.6 F360.0 E3036.289
G1 X-9.18 Y-1.93 Z0.6 F360.0 E3038.13
G1 X-7.33 Y-2.47 Z0.6 F360.0 E3040.545
G1 X-6.74 Y-2.56 Z0.6 F360.0 E3041.284
G1 X-6.06 Y-2.78 Z0.6 F360.0 E3042.183
G1 X-5.79 Y-3.01 Z0.6 F360.0 E3042.621
G1 X-5.57 Y-3.4 Z0.6 F360.0 E3043.185
G1 X-5.69 Y-3.97 Z0.6 F360.0 E3043.92
G1 X-6.03 Y-4.18 Z0.6 F360.0 E3044.419
G1 X-6.34 Y-4.29 Z0.6 F360.0 E3044.828
G1 X-6.58 Y-4.44 Z0.6 F360.0 E3045.183
G1 X-8.42 Y-5.07 Z0.6 F360.0 E3047.621
G1 X-10.16 Y-6.03 Z0.6 F360.0 E3050.105
G1 X-11.14 Y-6.76 Z0.6 F360.0 E3051.638
G1 X-11.59 Y-7.88 Z0.6 F360.0 E3053.15
G1 X-11.64 Y-8.93 Z0.6 F360.0 E3054.459
G1 X-11.5 Y-9.61 Z0.6 F360.0 E3055.327
G1 X-11.13 Y-9.68 Z0.6 F360.0 E3055.803
G1 X-11.16 Y-8.98 Z0.6 F360.0 E3056.674
G1 X-10.85 Y-7.94 Z0.6 F360.0 E3058.034
G1 X-10.15 Y-7.17 Z0.6 F360.0 E3059.337
G1 X-9.39 Y-6.78 Z0.6 F360.0 E3060.409
G1 X-8.19 Y-6.51 Z0.6 F360.0 E3061.938
G1 X-4.51 Y-6.59 Z0.6 F360.0 E3066.548
G1 X-3.25 Y-6.77 Z0.6 F360.0 E3068.146
G1 X-1.99 Y-7.36 Z0.6 F360.0 E3069.877
G1 X0.28 Y-8.66 Z0.6 F360.0 E3073.153
G1 X1.17 Y-9.38 Z0.6 F360.0 E3074.583
G1 X1.82 Y-9.8 Z0.6 F360.0 E3075.561
G1 X2.81 Y-11.36 Z0.6 F360.0 E3077.868
G1 X2.64 Y-12.77 Z0.6 F360.0 E3079.636
G1 X2.52 Y-13.13 Z0.6 F360.0 E3080.119
G1 X2.19 Y-13.82 Z0.6 F360.0 E3081.072
G1 X1.34 Y-14.58 Z0.6 F360.0 E3082.489
G1 X0.67 Y-15.03 Z0.6 F360.0 E3083.511
G1 X-1.77 Y-16.4 Z0.6 F360.0 E3087.009
G1 X-2.77 Y-17.42 Z0.6 F360.0 E3088.792
G1 X-2.25 Y-17.49 Z0.6 F360.0 E3089.454
G1 X-1.49 Y-16.79 Z0.6 F360.0 E3090.742
G1 X1.07 Y-15.59 Z0.6 F360.0 E3094.283
G1 X1.99 Y-15.06 Z0.6 F360.0 E3095.611
G1 X3.05 Y-14.3 Z0.6 F360.0 E3097.242
G1 X4.18 Y-13.11 Z0.6 F360.0 E3099.288
G1 X4.58 Y-11.66 Z0.6 F360.0 E3101.172
G1 X4.45 Y-10.07 Z0.6 F360.0 E3103.169
G1 X4.09 Y-8.4 Z0.6 F360.0 E3105.302
G1 X4.27 Y-7.97 Z0.6 F360.0 E3105.892
G1 X4.41 Y-7.44 Z0.6 F360.0 E3106.577
G1 X6.43 Y-6.57 Z0.6 F360.0 E3109.337
G1 X8.27 Y-6.38 Z0.6 F360.0 E3111.649
G1 X9.43 Y-6.64 Z0.6 F360.0 E3113.131
G1 X10.15 Y-7.05 Z0.6 F360.0 E3114.165
G1 X10.84 Y-7.81 Z0.6 F360.0 E3115.451
G1 X11.15 Y-8.87 Z0.6 F360.0 E3116.828
G1 X11.14 Y-9.56 Z0.6 F360.0 E3117.697
G1 X11.51 Y-9.53 Z0.6 F360.0 E3118.167
G1 X11.63 Y-8.84 Z0.6 F360.0 E3119.046
G1 X11.58 Y-7.75 Z0.6 F360.0 E3120.407
G1 X11.14 Y-6.58 Z0.6 F360.0 E3121.969
G1 X10.32 Y-5.83 Z0.6 F360.0 E3123.356
G1 X8.71 Y-4.96 Z0.6 F360.0 E3125.644
G1 X6.62 Y-4.45 Z0.6 F360.0 E3128.331
G1 X6.2 Y-4.2 Z0.6 F360.0 E3128.942
G1 X5.94 Y-4.11 Z0.6 F360.0 E3129.291
G1 X5.56 Y-3.74 Z0.6 F360.0 E3129.954
G1 X5.71 Y-3.06 Z0.6 F360.0 E3130.828
G1 X6.11 Y-2.77 Z0.6 F360.0 E3131.442
G1 X6.74 Y-2.56 Z0.6 F360.0 E3132.278
G1 X7.33 Y-2.47 Z0.6 F360.0 E3133.019
G1 X9.18 Y-1.93 Z0.6 F360.0 E3135.434
G1 X10.55 Y-1.38 Z0.6 F360.0 E3137.275
G1 X12.04 Y-0.67 Z0.6 F360.0 E3139.348
G1 X11.76 Y-0.37 Z0.6 F360.0 E3139.867
G1 X10.86 Y-0.65 Z0.6 F360.0 E3141.058
G1 X9.42 Y-0.87 Z0.6 F360.0 E3142.871
G1 X7.36 Y-0.87 Z0.6 F360.0 E3145.457
G1 X6.82 Y-0.71 Z0.6 F360.0 E3146.153
G1 X6.04 Y-0.56 Z0.6 F360.0 E3147.147
G1 X5.63 Y-0.14 Z0.6 F360.0 E3147.883
G1 X5.45 Y0.59 Z0.6 F360.0 E3148.82
G1 X5.73 Y0.86 Z0.6 F360.0 E3149.308
G1 X5.89 Y1.12 Z0.6 F360.0 E3149.691
G1 X10.43 Y3.91 Z0.6 F360.0 E3156.355
G1 X10.88 Y4.38 Z0.6 F360.0 E3157.169
G1 X10.69 Y4.69 Z0.6 F360.0 E3157.623
G1 X9.9 Y4.15 Z0.6 F360.0 E3158.819
G1 X9.39 Y3.97 Z0.6 F360.0 E3159.504
G1 X8.8 Y3.87 Z0.6 F360.0 E3160.244
G1 X7.72 Y3.8 Z0.6 F360.0 E3161.599
G1 X6.92 Y3.93 Z0.6 F360.0 E3162.617
G1 X6.34 Y3.94 Z0.6 F360.0 E3163.34
G1 X6.02 Y4.23 Z0.6 F360.0 E3163.879
G1 X4.69 Y4.96 Z0.6 F360.0 E3165.778
;M103
G1 X6.95 Y4.27 Z0.6 F3600.0
G1 X7.74 Y4.14 Z0.6 F3600.0
G1 X8.77 Y4.21 Z0.6 F3600.0
G1 X9.3 Y4.3 Z0.6 F3600.0
G1 X11.28 Y5.3 Z0.6 F3600.0
;M101
G1 X11.46 Y4.85 Z0.6 F360.0 E3166.379
G1 X11.76 Y5.3 Z0.6 F360.0 E3167.054
G1 X12.14 Y6.5 Z0.6 F360.0 E3168.633
G1 X12.05 Y7.89 Z0.6 F360.0 E3170.373
G1 X11.7 Y7.84 Z0.6 F360.0 E3170.819
G1 X11.78 Y6.33 Z0.6 F360.0 E3172.708
G1 X11.28 Y5.3 Z0.6 F360.0 E3174.136
;M103
G1 X9.3 Y4.3 Z0.6 F3600.0
G1 X8.77 Y4.21 Z0.6 F3600.0
G1 X7.74 Y4.14 Z0.6 F3600.0
G1 X6.95 Y4.27 Z0.6 F3600.0
G1 X6.48 Y4.31 Z0.6 F3600.0
G1 X6.21 Y4.51 Z0.6 F3600.0
G1 X5.01 Y5.22 Z0.6 F3600.0
G1 X4.67 Y6.27 Z0.6 F3600.0
G1 X4.21 Y7.37 Z0.6 F3600.0
G1 X4.13 Y7.71 Z0.6 F3600.0
G1 X3.55 Y8.88 Z0.6 F3600.0
G1 X2.92 Y9.44 Z0.6 F3600.0
G1 X2.14 Y9.79 Z0.6 F3600.0
G1 X1.54 Y9.97 Z0.6 F3600.0
G1 X0.24 Y10.2 Z0.6 F3600.0
G1 X-0.16 Y11.1 Z0.6 F3600.0
G1 X-0.54 Y11.92 Z0.6 F3600.0
G1 X-0.65 Y12.31 Z0.6 F3600.0
G1 X-0.52 Y13.18 Z0.6 F3600.0
G1 X-0.49 Y13.54 Z0.6 F3600.0
G1 X0.02 Y14.66 Z0.6 F3600.0
G1 X2.25 Y17.1 Z0.6 F3600.0
;M101
G1 X2.65 Y17.47 Z0.6 F360.0 E3174.818
G1 X2.78 Y17.72 Z0.6 F360.0 E3175.172
G1 X2.65 Y18.25 Z0.6 F360.0 E3175.856
G1 X2.4 Y17.68 Z0.6 F360.0 E3176.637
G1 X2.12 Y17.43 Z0.6 F360.0 E3177.118
G1 X2.25 Y17.1 Z0.6 F360.0 E3177.565
;M103
G1 X-2.87 Y12.16 Z0.6 F3600.0
G1 X-3.0 Y10.43 Z0.6 F3600.0
G1 X-2.87 Y9.38 Z0.6 F3600.0
G1 X-3.27 Y8.93 Z0.6 F3600.0
G1 X-3.54 Y8.8 Z0.6 F3600.0
G1 X-4.13 Y7.7 Z0.6 F3600.0
G1 X-4.63 Y5.79 Z0.6 F3600.0
G1 X-5.02 Y5.18 Z0.6 F3600.0
G1 X-6.21 Y4.51 Z0.6 F3600.0
G1 X-6.48 Y4.31 Z0.6 F3600.0
G1 X-6.95 Y4.27 Z0.6 F3600.0
G1 X-7.74 Y4.14 Z0.6 F3600.0
G1 X-8.77 Y4.21 Z0.6 F3600.0
G1 X-9.3 Y4.3 Z0.6 F3600.0
G1 X-9.75 Y4.45 Z0.6 F3600.0
G1 X-10.85 Y5.22 Z0.6 F3600.0
G1 X-11.42 Y6.4 Z0.6 F3600.0
G1 X-11.7 Y7.84 Z0.6 F3600.0
;M101
G1 X-12.05 Y7.89 Z0.6 F360.0 E3178.011
G1 X-12.14 Y6.5 Z0.6 F360.0 E3179.751
G1 X-11.76 Y5.3 Z0.6 F360.0 E3181.33
G1 X-11.46 Y4.85 Z0.6 F360.0 E3182.005
G1 X-11.28 Y5.3 Z0.6 F360.0 E3182.606
G1 X-11.78 Y6.33 Z0.6 F360.0 E3184.034
G1 X-11.7 Y7.84 Z0.6 F360.0 E3185.923
;M103
G1 X-11.42 Y6.4 Z0.6 F3600.0
G1 X-10.85 Y5.22 Z0.6 F3600.0
G1 X-9.75 Y4.45 Z0.6 F3600.0
G1 X-9.3 Y4.3 Z0.6 F3600.0
G1 X-8.77 Y4.21 Z0.6 F3600.0
G1 X-7.74 Y4.14 Z0.6 F3600.0
G1 X-7.33 Y4.2 Z0.6 F3600.0
G1 X7.55 Y-6.79 Z0.6 F3600.0
G1 X8.25 Y-6.73 Z0.6 F3600.0
G1 X9.3 Y-6.96 Z0.6 F3600.0
G1 X9.93 Y-7.32 Z0.6 F3600.0
G1 X10.53 Y-7.98 Z0.6 F3600.0
G1 X10.81 Y-8.91 Z0.6 F3600.0
G1 X10.82 Y-9.36 Z0.6 F3600.0
G1 X11.65 Y-10.38 Z0.6 F3600.0
G1 X10.93 Y-13.02 Z0.6 F3600.0
G1 X10.79 Y-14.52 Z0.6 F3600.0
G1 X10.99 Y-15.42 Z0.6 F3600.0
G1 X11.39 Y-16.18 Z0.6 F3600.0
G1 X11.92 Y-16.68 Z0.6 F3600.0
G1 X12.7 Y-17.02 Z0.6 F3600.0
G1 X13.81 Y-17.25 Z0.6 F3600.0
G1 X14.7 Y-17.1 Z0.6 F3600.0
G1 X15.45 Y-16.84 Z0.6 F3600.0
G1 X16.03 Y-16.38 Z0.6 F3600.0
G1 X16.5 Y-15.78 Z0.6 F3600.0
G1 X16.77 Y-14.84 Z0.6 F3600.0
G1 X16.78 Y-14.02 Z0.6 F3600.0
G1 X16.58 Y-13.37 Z0.6 F3600.0
G1 X15.95 Y-12.61 Z0.6 F3600.0
G1 X15.08 Y-12.12 Z0.6 F3600.0
G1 X13.97 Y-11.92 Z0.6 F3600.0
G1 X13.74 Y-11.95 Z0.6 F3600.0
G1 X13.64 Y-12.14 Z0.6 F3600.0
G1 X13.59 Y-12.1 Z0.6 F3600.0
G1 X13.83 Y-12.07 Z0.6 F3600.0
G1 X13.81 Y-12.09 Z0.6 F3600.0
G1 X13.93 Y-12.0 Z0.6 F3600.0
;M101
G1 X13.97 Y-12.0 Z0.6 F360.0 E3185.972
G1 X15.05 Y-12.19 Z0.6 F360.0 E3187.353
G1 X15.9 Y-12.66 Z0.6 F360.0 E3188.571
G1 X16.52 Y-13.41 Z0.6 F360.0 E3189.775
G1 X16.71 Y-14.03 Z0.6 F360.0 E3190.594
G1 X16.69 Y-14.82 Z0.6 F360.0 E3191.584
G1 X16.44 Y-15.75 Z0.6 F360.0 E3192.784
G1 X15.97 Y-16.32 Z0.6 F360.0 E3193.708
G1 X15.42 Y-16.78 Z0.6 F360.0 E3194.605
G1 X14.68 Y-17.02 Z0.6 F360.0 E3195.572
G1 X13.81 Y-17.17 Z0.6 F360.0 E3196.68
G1 X12.72 Y-16.95 Z0.6 F360.0 E3198.072
G1 X11.96 Y-16.62 Z0.6 F360.0 E3199.111
G1 X11.45 Y-16.13 Z0.6 F360.0 E3199.998
G1 X11.07 Y-15.39 Z0.6 F360.0 E3201.034
G1 X10.87 Y-14.51 Z0.6 F360.0 E3202.163
G1 X11.01 Y-13.03 Z0.6 F360.0 E3204.021
G1 X11.86 Y-9.93 Z0.6 F360.0 E3208.046
G1 X12.05 Y-8.86 Z0.6 F360.0 E3209.405
G1 X11.99 Y-7.66 Z0.6 F360.0 E3210.907
G1 X11.49 Y-6.34 Z0.6 F360.0 E3212.675
G1 X10.57 Y-5.49 Z0.6 F360.0 E3214.252
G1 X8.86 Y-4.57 Z0.6 F360.0 E3216.675
G1 X6.78 Y-4.06 Z0.6 F360.0 E3219.35
G1 X6.38 Y-3.82 Z0.6 F360.0 E3219.933
G1 X6.17 Y-3.75 Z0.6 F360.0 E3220.217
G1 X6.02 Y-3.61 Z0.6 F360.0 E3220.473
G1 X6.09 Y-3.3 Z0.6 F360.0 E3220.859
G1 X6.3 Y-3.15 Z0.6 F360.0 E3221.194
G1 X6.84 Y-2.96 Z0.6 F360.0 E3221.902
G1 X7.42 Y-2.88 Z0.6 F360.0 E3222.631
G1 X9.32 Y-2.32 Z0.6 F360.0 E3225.11
G1 X10.71 Y-1.76 Z0.6 F360.0 E3226.992
G1 X12.01 Y-1.15 Z0.6 F360.0 E3228.791
G1 X13.19 Y-0.39 Z0.6 F360.0 E3230.544
G1 X14.25 Y0.59 Z0.6 F360.0 E3232.343
G1 X16.06 Y2.74 Z0.6 F360.0 E3235.855
G1 X17.16 Y3.56 Z0.6 F360.0 E3237.578
G1 X17.98 Y4.01 Z0.6 F360.0 E3238.756
G1 X18.9 Y4.33 Z0.6 F360.0 E3239.967
G1 X19.48 Y4.45 Z0.6 F360.0 E3240.711
G1 X20.45 Y4.41 Z0.6 F360.0 E3241.924
G1 X21.07 Y4.23 Z0.6 F360.0 E3242.731
G1 X21.68 Y3.88 Z0.6 F360.0 E3243.618
G1 X22.29 Y3.4 Z0.6 F360.0 E3244.587
G1 X22.81 Y2.37 Z0.6 F360.0 E3246.019
G1 X22.93 Y1.72 Z0.6 F360.0 E3246.853
G1 X22.88 Y1.04 Z0.6 F360.0 E3247.701
G1 X22.69 Y0.38 Z0.6 F360.0 E3248.562
G1 X22.29 Y-0.33 Z0.6 F360.0 E3249.578
G1 X21.74 Y-0.86 Z0.6 F360.0 E3250.54
G1 X21.18 Y-1.16 Z0.6 F360.0 E3251.328
G1 X20.25 Y-1.24 Z0.6 F360.0 E3252.501
G1 X19.33 Y-0.99 Z0.6 F360.0 E3253.689
G1 X18.46 Y-0.41 Z0.6 F360.0 E3255.002
G1 X18.02 Y0.42 Z0.6 F360.0 E3256.178
G1 X17.96 Y0.62 Z0.6 F360.0 E3256.44
G1 X17.91 Y0.62 Z0.6 F360.0 E3256.492
G1 X17.92 Y0.39 Z0.6 F360.0 E3256.771
G1 X18.27 Y-0.53 Z0.6 F360.0 E3258.014
G1 X19.16 Y-1.35 Z0.6 F360.0 E3259.523
G1 X20.18 Y-1.64 Z0.6 F360.0 E3260.85
G1 X21.32 Y-1.54 Z0.6 F360.0 E3262.274
G1 X22.12 Y-1.18 Z0.6 F360.0 E3263.374
G1 X22.7 Y-0.58 Z0.6 F360.0 E3264.416
G1 X23.14 Y0.18 Z0.6 F360.0 E3265.518
G1 X23.35 Y1.04 Z0.6 F360.0 E3266.621
G1 X23.38 Y1.92 Z0.6 F360.0 E3267.72
G1 X23.18 Y2.75 Z0.6 F360.0 E3268.787
G1 X22.59 Y3.81 Z0.6 F360.0 E3270.306
G1 X21.96 Y4.32 Z0.6 F360.0 E3271.319
G1 X21.15 Y4.73 Z0.6 F360.0 E3272.46
G1 X20.41 Y4.91 Z0.6 F360.0 E3273.413
G1 X19.07 Y4.93 Z0.6 F360.0 E3275.083
G1 X18.35 Y4.75 Z0.6 F360.0 E3276.02
G1 X17.13 Y4.35 Z0.6 F360.0 E3277.626
G1 X16.26 Y3.86 Z0.6 F360.0 E3278.867
G1 X15.22 Y3.02 Z0.6 F360.0 E3280.539
G1 X12.74 Y0.52 Z0.6 F360.0 E3284.949
G1 X11.92 Y0.12 Z0.6 F360.0 E3286.09
G1 X10.76 Y-0.24 Z0.6 F360.0 E3287.608
G1 X9.39 Y-0.45 Z0.6 F360.0 E3289.341
G1 X7.42 Y-0.45 Z0.6 F360.0 E3291.809
G1 X6.92 Y-0.3 Z0.6 F360.0 E3292.457
G1 X6.25 Y-0.17 Z0.6 F360.0 E3293.316
G1 X6.01 Y0.07 Z0.6 F360.0 E3293.741
G1 X5.92 Y0.46 Z0.6 F360.0 E3294.239
G1 X6.06 Y0.6 Z0.6 F360.0 E3294.497
G1 X6.19 Y0.82 Z0.6 F360.0 E3294.817
G1 X10.69 Y3.59 Z0.6 F360.0 E3301.421
G1 X12.13 Y5.08 Z0.6 F360.0 E3304.014
G1 X12.57 Y6.45 Z0.6 F360.0 E3305.818
G1 X12.42 Y8.34 Z0.6 F360.0 E3308.183
G1 X11.29 Y11.37 Z0.6 F360.0 E3312.233
G1 X11.21 Y12.86 Z0.6 F360.0 E3314.094
G1 X11.39 Y13.65 Z0.6 F360.0 E3315.115
G1 X11.8 Y14.4 Z0.6 F360.0 E3316.172
G1 X12.44 Y15.04 Z0.6 F360.0 E3317.314
G1 X13.31 Y15.46 Z0.6 F360.0 E3318.521
G1 X14.15 Y15.52 Z0.6 F360.0 E3319.57
G1 X15.16 Y15.3 Z0.6 F360.0 E3320.861
G1 X15.9 Y14.79 Z0.6 F360.0 E3321.992
G1 X16.36 Y14.23 Z0.6 F360.0 E3322.899
G1 X16.71 Y13.31 Z0.6 F360.0 E3324.137
G1 X16.71 Y12.37 Z0.6 F360.0 E3325.305
G1 X16.52 Y11.75 Z0.6 F360.0 E3326.123
G1 X15.9 Y11.01 Z0.6 F360.0 E3327.326
G1 X15.05 Y10.54 Z0.6 F360.0 E3328.543
G1 X13.97 Y10.34 Z0.6 F360.0 E3329.925
G1 X13.55 Y10.47 Z0.6 F360.0 E3330.465
G1 X13.58 Y10.44 Z0.6 F360.0 E3330.516
G1 X13.94 Y10.28 Z0.6 F360.0 E3331.008
G1 X15.12 Y10.33 Z0.6 F360.0 E3332.48
G1 X16.03 Y10.79 Z0.6 F360.0 E3333.766
G1 X16.76 Y11.64 Z0.6 F360.0 E3335.164
G1 X17.09 Y12.44 Z0.6 F360.0 E3336.245
G1 X17.07 Y13.43 Z0.6 F360.0 E3337.48
G1 X16.64 Y14.48 Z0.6 F360.0 E3338.901
G1 X16.12 Y15.14 Z0.6 F360.0 E3339.953
G1 X15.14 Y15.74 Z0.6 F360.0 E3341.388
G1 X14.04 Y15.93 Z0.6 F360.0 E3342.782
G1 X13.15 Y15.89 Z0.6 F360.0 E3343.894
G1 X12.14 Y15.38 Z0.6 F360.0 E3345.317
G1 X11.23 Y14.56 Z0.6 F360.0 E3346.854
G1 X10.76 Y13.74 Z0.6 F360.0 E3348.035
G1 X10.47 Y12.87 Z0.6 F360.0 E3349.187
G1 X10.48 Y11.31 Z0.6 F360.0 E3351.13
G1 X10.82 Y9.76 Z0.6 F360.0 E3353.119
G1 X11.26 Y8.21 Z0.6 F360.0 E3355.134
G1 X11.35 Y6.41 Z0.6 F360.0 E3357.383
G1 X10.8 Y5.27 Z0.6 F360.0 E3358.972
G1 X9.71 Y4.52 Z0.6 F360.0 E3360.623
G1 X9.28 Y4.37 Z0.6 F360.0 E3361.192
G1 X8.76 Y4.29 Z0.6 F360.0 E3361.861
G1 X7.74 Y4.22 Z0.6 F360.0 E3363.132
G1 X6.96 Y4.35 Z0.6 F360.0 E3364.127
G1 X6.5 Y4.36 Z0.6 F360.0 E3364.695
G1 X6.26 Y4.57 Z0.6 F360.0 E3365.099
G1 X5.05 Y5.25 Z0.6 F360.0 E3366.839
G1 X4.74 Y6.3 Z0.6 F360.0 E3368.204
G1 X4.28 Y7.39 Z0.6 F360.0 E3369.69
G1 X4.2 Y7.74 Z0.6 F360.0 E3370.136
G1 X3.61 Y8.92 Z0.6 F360.0 E3371.789
G1 X2.96 Y9.51 Z0.6 F360.0 E3372.888
G1 X2.17 Y9.87 Z0.6 F360.0 E3373.969
G1 X1.56 Y10.05 Z0.6 F360.0 E3374.768
G1 X0.24 Y10.2 Z0.6 F360.0 E3376.427
G1 X-0.08 Y11.13 Z0.6 F360.0 E3377.652
G1 X-0.46 Y11.95 Z0.6 F360.0 E3378.784
G1 X-0.58 Y12.32 Z0.6 F360.0 E3379.266
G1 X-0.43 Y13.17 Z0.6 F360.0 E3380.351
G1 X-0.41 Y13.52 Z0.6 F360.0 E3380.789
G1 X0.09 Y14.62 Z0.6 F360.0 E3382.304
G1 X0.7 Y15.43 Z0.6 F360.0 E3383.573
G1 X2.99 Y17.2 Z0.6 F360.0 E3387.185
G1 X3.52 Y18.28 Z0.6 F360.0 E3388.698
G1 X3.67 Y19.43 Z0.6 F360.0 E3390.15
G1 X3.41 Y21.19 Z0.6 F360.0 E3392.374
G1 X2.43 Y22.48 Z0.6 F360.0 E3394.402
G1 X1.38 Y23.22 Z0.6 F360.0 E3396.009
G1 X0.07 Y23.45 Z0.6 F360.0 E3397.67
G1 X-1.34 Y23.1 Z0.6 F360.0 E3399.496
G1 X-2.11 Y22.55 Z0.6 F360.0 E3400.675
G1 X-2.64 Y21.84 Z0.6 F360.0 E3401.789
G1 X-2.9 Y20.98 Z0.6 F360.0 E3402.906
G1 X-2.91 Y19.85 Z0.6 F360.0 E3404.319
G1 X-2.46 Y18.98 Z0.6 F360.0 E3405.549
G1 X-1.64 Y18.29 Z0.6 F360.0 E3406.893
G1 X-0.77 Y18.15 Z0.6 F360.0 E3407.992
G1 X-0.57 Y18.17 Z0.6 F360.0 E3408.237
G1 X-0.57 Y18.18 Z0.6 F360.0 E3408.253
G1 X-0.74 Y18.17 Z0.6 F360.0 E3408.461
G1 X-1.58 Y18.43 Z0.6 F360.0 E3409.557
G1 X-2.22 Y19.18 Z0.6 F360.0 E3410.795
G1 X-2.49 Y20.04 Z0.6 F360.0 E3411.923
G1 X-2.45 Y20.97 Z0.6 F360.0 E3413.08
G1 X-2.2 Y21.56 Z0.6 F360.0 E3413.885
G1 X-1.68 Y22.16 Z0.6 F360.0 E3414.88
G1 X-0.95 Y22.6 Z0.6 F360.0 E3415.949
G1 X0.1 Y22.81 Z0.6 F360.0 E3417.28
G1 X1.25 Y22.6 Z0.6 F360.0 E3418.744
G1 X2.24 Y21.91 Z0.6 F360.0 E3420.263
G1 X2.83 Y20.72 Z0.6 F360.0 E3421.919
G1 X2.87 Y19.48 Z0.6 F360.0 E3423.465
G1 X2.68 Y18.72 Z0.6 F360.0 E3424.447
G1 X2.1 Y17.97 Z0.6 F360.0 E3425.638
G1 X1.06 Y17.05 Z0.6 F360.0 E3427.376
G1 X-0.0 Y16.47 Z0.6 F360.0 E3428.888
G1 X-1.14 Y15.55 Z0.6 F360.0 E3430.712
G1 X-1.94 Y14.58 Z0.6 F360.0 E3432.283
G1 X-2.6 Y13.43 Z0.6 F360.0 E3433.943
G1 X-2.95 Y12.18 Z0.6 F360.0 E3435.575
G1 X-3.08 Y10.42 Z0.6 F360.0 E3437.775
G1 X-2.89 Y9.39 Z0.6 F360.0 E3439.095
G1 X-3.32 Y9.0 Z0.6 F360.0 E3439.819
G1 X-3.58 Y8.84 Z0.6 F360.0 E3440.207
G1 X-4.2 Y7.73 Z0.6 F360.0 E3441.803
G1 X-4.7 Y5.82 Z0.6 F360.0 E3444.274
G1 X-5.07 Y5.23 Z0.6 F360.0 E3445.143
G1 X-6.26 Y4.57 Z0.6 F360.0 E3446.845
G1 X-6.5 Y4.36 Z0.6 F360.0 E3447.249
G1 X-6.96 Y4.35 Z0.6 F360.0 E3447.817
G1 X-7.74 Y4.22 Z0.6 F360.0 E3448.812
G1 X-8.76 Y4.29 Z0.6 F360.0 E3450.083
G1 X-9.28 Y4.37 Z0.6 F360.0 E3450.752
G1 X-9.71 Y4.52 Z0.6 F360.0 E3451.321
G1 X-10.8 Y5.27 Z0.6 F360.0 E3452.972
G1 X-11.35 Y6.41 Z0.6 F360.0 E3454.561
G1 X-11.26 Y8.21 Z0.6 F360.0 E3456.809
G1 X-10.82 Y9.76 Z0.6 F360.0 E3458.825
G1 X-10.48 Y11.31 Z0.6 F360.0 E3460.813
G1 X-10.47 Y12.87 Z0.6 F360.0 E3462.756
G1 X-10.76 Y13.74 Z0.6 F360.0 E3463.909
G1 X-11.23 Y14.56 Z0.6 F360.0 E3465.09
G1 X-12.14 Y15.38 Z0.6 F360.0 E3466.627
G1 X-13.15 Y15.89 Z0.6 F360.0 E3468.05
G1 X-14.04 Y15.93 Z0.6 F360.0 E3469.162
G1 X-15.14 Y15.74 Z0.6 F360.0 E3470.556
G1 X-16.12 Y15.14 Z0.6 F360.0 E3471.991
G1 X-16.64 Y14.48 Z0.6 F360.0 E3473.043
G1 X-17.07 Y13.43 Z0.6 F360.0 E3474.464
G1 X-17.09 Y12.44 Z0.6 F360.0 E3475.699
G1 X-16.76 Y11.64 Z0.6 F360.0 E3476.78
G1 X-16.03 Y10.79 Z0.6 F360.0 E3478.178
G1 X-15.12 Y10.33 Z0.6 F360.0 E3479.464
G1 X-13.94 Y10.28 Z0.6 F360.0 E3480.936
G1 X-13.58 Y10.44 Z0.6 F360.0 E3481.428
G1 X-13.55 Y10.47 Z0.6 F360.0 E3481.479
G1 X-13.97 Y10.34 Z0.6 F360.0 E3482.019
G1 X-15.05 Y10.54 Z0.6 F360.0 E3483.401
G1 X-15.9 Y11.01 Z0.6 F360.0 E3484.618
G1 X-16.52 Y11.75 Z0.6 F360.0 E3485.821
G1 X-16.71 Y12.37 Z0.6 F360.0 E3486.639
G1 X-16.71 Y13.31 Z0.6 F360.0 E3487.807
G1 X-16.36 Y14.23 Z0.6 F360.0 E3489.045
G1 X-15.9 Y14.79 Z0.6 F360.0 E3489.952
G1 X-15.16 Y15.3 Z0.6 F360.0 E3491.083
G1 X-14.15 Y15.52 Z0.6 F360.0 E3492.374
G1 X-13.31 Y15.46 Z0.6 F360.0 E3493.423
G1 X-12.44 Y15.04 Z0.6 F360.0 E3494.63
G1 X-11.8 Y14.4 Z0.6 F360.0 E3495.772
G1 X-11.39 Y13.65 Z0.6 F360.0 E3496.829
G1 X-11.21 Y12.86 Z0.6 F360.0 E3497.849
G1 X-11.29 Y11.37 Z0.6 F360.0 E3499.711
G1 X-12.42 Y8.34 Z0.6 F360.0 E3503.761
G1 X-12.57 Y6.45 Z0.6 F360.0 E3506.126
G1 X-12.13 Y5.08 Z0.6 F360.0 E3507.93
G1 X-10.69 Y3.59 Z0.6 F360.0 E3510.523
G1 X-6.19 Y0.82 Z0.6 F360.0 E3517.127
G1 X-6.06 Y0.6 Z0.6 F360.0 E3517.447
G1 X-5.92 Y0.46 Z0.6 F360.0 E3517.705
G1 X-6.01 Y0.07 Z0.6 F360.0 E3518.203
G1 X-6.25 Y-0.17 Z0.6 F360.0 E3518.628
G1 X-6.92 Y-0.3 Z0.6 F360.0 E3519.487
G1 X-7.42 Y-0.45 Z0.6 F360.0 E3520.135
G1 X-9.39 Y-0.45 Z0.6 F360.0 E3522.603
G1 X-10.76 Y-0.24 Z0.6 F360.0 E3524.336
G1 X-11.92 Y0.12 Z0.6 F360.0 E3525.853
G1 X-12.74 Y0.52 Z0.6 F360.0 E3526.995
G1 X-15.22 Y3.02 Z0.6 F360.0 E3531.405
G1 X-16.26 Y3.86 Z0.6 F360.0 E3533.077
G1 X-17.13 Y4.35 Z0.6 F360.0 E3534.317
G1 X-18.35 Y4.75 Z0.6 F360.0 E3535.924
G1 X-19.07 Y4.93 Z0.6 F360.0 E3536.861
G1 X-20.41 Y4.91 Z0.6 F360.0 E3538.531
G1 X-21.15 Y4.73 Z0.6 F360.0 E3539.484
G1 X-21.96 Y4.32 Z0.6 F360.0 E3540.625
G1 X-22.59 Y3.81 Z0.6 F360.0 E3541.638
G1 X-23.18 Y2.75 Z0.6 F360.0 E3543.157
G1 X-23.38 Y1.92 Z0.6 F360.0 E3544.224
G1 X-23.35 Y1.04 Z0.6 F360.0 E3545.323
G1 X-23.14 Y0.18 Z0.6 F360.0 E3546.426
G1 X-22.7 Y-0.58 Z0.6 F360.0 E3547.528
G1 X-22.12 Y-1.18 Z0.6 F360.0 E3548.57
G1 X-21.32 Y-1.54 Z0.6 F360.0 E3549.67
G1 X-20.18 Y-1.64 Z0.6 F360.0 E3551.094
G1 X-19.16 Y-1.35 Z0.6 F360.0 E3552.421
G1 X-18.27 Y-0.53 Z0.6 F360.0 E3553.93
G1 X-17.92 Y0.39 Z0.6 F360.0 E3555.172
G1 X-17.91 Y0.62 Z0.6 F360.0 E3555.451
G1 X-17.96 Y0.62 Z0.6 F360.0 E3555.504
G1 X-18.02 Y0.42 Z0.6 F360.0 E3555.766
G1 X-18.46 Y-0.41 Z0.6 F360.0 E3556.942
G1 X-19.33 Y-0.99 Z0.6 F360.0 E3558.255
G1 X-20.25 Y-1.24 Z0.6 F360.0 E3559.443
G1 X-21.18 Y-1.16 Z0.6 F360.0 E3560.616
G1 X-21.74 Y-0.86 Z0.6 F360.0 E3561.404
G1 X-22.29 Y-0.33 Z0.6 F360.0 E3562.366
G1 X-22.69 Y0.38 Z0.6 F360.0 E3563.382
G1 X-22.88 Y1.04 Z0.6 F360.0 E3564.243
G1 X-22.93 Y1.72 Z0.6 F360.0 E3565.091
G1 X-22.81 Y2.37 Z0.6 F360.0 E3565.925
G1 X-22.29 Y3.4 Z0.6 F360.0 E3567.357
G1 X-21.68 Y3.88 Z0.6 F360.0 E3568.326
G1 X-21.07 Y4.23 Z0.6 F360.0 E3569.213
G1 X-20.45 Y4.41 Z0.6 F360.0 E3570.02
G1 X-19.48 Y4.45 Z0.6 F360.0 E3571.233
G1 X-18.9 Y4.33 Z0.6 F360.0 E3571.977
G1 X-17.98 Y4.01 Z0.6 F360.0 E3573.188
G1 X-17.16 Y3.56 Z0.6 F360.0 E3574.366
G1 X-16.06 Y2.74 Z0.6 F360.0 E3576.089
G1 X-14.25 Y0.59 Z0.6 F360.0 E3579.601
G1 X-13.19 Y-0.39 Z0.6 F360.0 E3581.4
G1 X-12.01 Y-1.15 Z0.6 F360.0 E3583.153
G1 X-10.71 Y-1.76 Z0.6 F360.0 E3584.952
G1 X-9.32 Y-2.32 Z0.6 F360.0 E3586.834
G1 X-7.42 Y-2.88 Z0.6 F360.0 E3589.312
G1 X-6.84 Y-2.96 Z0.6 F360.0 E3590.042
G1 X-6.27 Y-3.16 Z0.6 F360.0 E3590.797
G1 X-6.12 Y-3.28 Z0.6 F360.0 E3591.042
G1 X-6.01 Y-3.47 Z0.6 F360.0 E3591.308
G1 X-6.06 Y-3.71 Z0.6 F360.0 E3591.618
G1 X-6.21 Y-3.8 Z0.6 F360.0 E3591.84
G1 X-6.52 Y-3.91 Z0.6 F360.0 E3592.25
G1 X-6.76 Y-4.06 Z0.6 F360.0 E3592.601
G1 X-8.59 Y-4.68 Z0.6 F360.0 E3595.024
G1 X-10.39 Y-5.67 Z0.6 F360.0 E3597.591
G1 X-11.49 Y-6.5 Z0.6 F360.0 E3599.307
G1 X-12.0 Y-7.79 Z0.6 F360.0 E3601.053
G1 X-12.06 Y-8.96 Z0.6 F360.0 E3602.518
G1 X-11.85 Y-10.0 Z0.6 F360.0 E3603.841
G1 X-11.01 Y-13.03 Z0.6 F360.0 E3607.78
G1 X-10.87 Y-14.51 Z0.6 F360.0 E3609.638
G1 X-11.07 Y-15.39 Z0.6 F360.0 E3610.767
G1 X-11.45 Y-16.13 Z0.6 F360.0 E3611.803
G1 X-11.96 Y-16.62 Z0.6 F360.0 E3612.69
G1 X-12.72 Y-16.95 Z0.6 F360.0 E3613.729
G1 X-13.81 Y-17.17 Z0.6 F360.0 E3615.121
G1 X-14.68 Y-17.02 Z0.6 F360.0 E3616.229
G1 X-15.42 Y-16.78 Z0.6 F360.0 E3617.196
G1 X-15.97 Y-16.32 Z0.6 F360.0 E3618.093
G1 X-16.44 Y-15.75 Z0.6 F360.0 E3619.017
G1 X-16.69 Y-14.82 Z0.6 F360.0 E3620.217
G1 X-16.71 Y-14.03 Z0.6 F360.0 E3621.207
G1 X-16.52 Y-13.41 Z0.6 F360.0 E3622.026
G1 X-15.9 Y-12.66 Z0.6 F360.0 E3623.231
G1 X-15.05 Y-12.19 Z0.6 F360.0 E3624.448
G1 X-13.97 Y-12.0 Z0.6 F360.0 E3625.829
G1 X-13.55 Y-12.13 Z0.6 F360.0 E3626.369
G1 X-13.58 Y-12.1 Z0.6 F360.0 E3626.421
G1 X-13.94 Y-11.94 Z0.6 F360.0 E3626.912
G1 X-15.12 Y-11.99 Z0.6 F360.0 E3628.384
G1 X-16.03 Y-12.45 Z0.6 F360.0 E3629.67
G1 X-16.76 Y-13.3 Z0.6 F360.0 E3631.069
G1 X-17.09 Y-14.1 Z0.6 F360.0 E3632.146
G1 X-17.06 Y-14.93 Z0.6 F360.0 E3633.193
G1 X-16.77 Y-15.95 Z0.6 F360.0 E3634.519
G1 X-16.24 Y-16.6 Z0.6 F360.0 E3635.566
G1 X-15.58 Y-17.12 Z0.6 F360.0 E3636.618
G1 X-14.71 Y-17.45 Z0.6 F360.0 E3637.778
G1 X-13.83 Y-17.58 Z0.6 F360.0 E3638.898
G1 X-12.68 Y-17.39 Z0.6 F360.0 E3640.356
G1 X-11.73 Y-16.93 Z0.6 F360.0 E3641.664
G1 X-11.07 Y-16.33 Z0.6 F360.0 E3642.785
G1 X-10.64 Y-15.5 Z0.6 F360.0 E3643.961
G1 X-10.4 Y-14.53 Z0.6 F360.0 E3645.202
G1 X-10.46 Y-12.97 Z0.6 F360.0 E3647.16
G1 X-10.76 Y-11.42 Z0.6 F360.0 E3649.134
G1 X-10.74 Y-9.04 Z0.6 F360.0 E3652.108
G1 X-10.48 Y-8.15 Z0.6 F360.0 E3653.273
G1 X-9.89 Y-7.51 Z0.6 F360.0 E3654.359
G1 X-9.24 Y-7.17 Z0.6 F360.0 E3655.272
G1 X-8.15 Y-6.93 Z0.6 F360.0 E3656.669
G1 X-4.55 Y-7.0 Z0.6 F360.0 E3661.183
G1 X-3.37 Y-7.18 Z0.6 F360.0 E3662.671
G1 X-2.19 Y-7.73 Z0.6 F360.0 E3664.303
G1 X0.04 Y-9.0 Z0.6 F360.0 E3667.515
G1 X0.92 Y-9.71 Z0.6 F360.0 E3668.93
G1 X1.52 Y-10.1 Z0.6 F360.0 E3669.82
G1 X2.37 Y-11.46 Z0.6 F360.0 E3671.826
G1 X2.23 Y-12.68 Z0.6 F360.0 E3673.359
G1 X2.13 Y-12.98 Z0.6 F360.0 E3673.752
G1 X1.84 Y-13.56 Z0.6 F360.0 E3674.567
G1 X1.09 Y-14.25 Z0.6 F360.0 E3675.846
G1 X0.45 Y-14.68 Z0.6 F360.0 E3676.81
G1 X-2.03 Y-16.07 Z0.6 F360.0 E3680.363
G1 X-3.01 Y-17.08 Z0.6 F360.0 E3682.119
G1 X-3.52 Y-18.22 Z0.6 F360.0 E3683.691
G1 X-3.67 Y-19.41 Z0.6 F360.0 E3685.186
G1 X-3.41 Y-21.19 Z0.6 F360.0 E3687.437
G1 X-2.43 Y-22.48 Z0.6 F360.0 E3689.464
G1 X-1.38 Y-23.22 Z0.6 F360.0 E3691.071
G1 X-0.07 Y-23.45 Z0.6 F360.0 E3692.732
G1 X1.34 Y-23.1 Z0.6 F360.0 E3694.558
G1 X2.11 Y-22.55 Z0.6 F360.0 E3695.736
G1 X2.65 Y-21.82 Z0.6 F360.0 E3696.869
G1 X2.9 Y-20.98 Z0.6 F360.0 E3697.966
G1 X2.9 Y-19.86 Z0.6 F360.0 E3699.374
G1 X2.45 Y-18.97 Z0.6 F360.0 E3700.615
G1 X1.65 Y-18.27 Z0.6 F360.0 E3701.944
G1 X0.77 Y-18.14 Z0.6 F360.0 E3703.053
G1 X0.61 Y-18.17 Z0.6 F360.0 E3703.259
G1 X0.62 Y-18.17 Z0.6 F360.0 E3703.269
;M103
G1 X0.75 Y-18.16 Z0.6 F3600.0
;M101
G1 X1.6 Y-18.43 Z0.6 F360.0 E3704.383
G1 X2.19 Y-19.16 Z0.6 F360.0 E3705.554
G1 X2.5 Y-20.04 Z0.6 F360.0 E3706.72
G1 X2.46 Y-20.97 Z0.6 F360.0 E3707.883
G1 X2.2 Y-21.56 Z0.6 F360.0 E3708.689
G1 X1.68 Y-22.16 Z0.6 F360.0 E3709.683
G1 X0.95 Y-22.6 Z0.6 F360.0 E3710.753
G1 X-0.1 Y-22.81 Z0.6 F360.0 E3712.084
G1 X-1.25 Y-22.6 Z0.6 F360.0 E3713.548
G1 X-2.24 Y-21.91 Z0.6 F360.0 E3715.067
G1 X-2.83 Y-20.72 Z0.6 F360.0 E3716.722
G1 X-2.87 Y-19.47 Z0.6 F360.0 E3718.278
G1 X-2.69 Y-18.7 Z0.6 F360.0 E3719.274
G1 X-2.13 Y-17.95 Z0.6 F360.0 E3720.435
G1 X-1.25 Y-17.14 Z0.6 F360.0 E3721.932
G1 X1.26 Y-15.96 Z0.6 F360.0 E3725.414
G1 X2.22 Y-15.41 Z0.6 F360.0 E3726.79
G1 X3.33 Y-14.61 Z0.6 F360.0 E3728.497
G1 X4.55 Y-13.33 Z0.6 F360.0 E3730.722
G1 X5.01 Y-11.7 Z0.6 F360.0 E3732.832
G1 X4.87 Y-10.01 Z0.6 F360.0 E3734.956
G1 X4.53 Y-8.44 Z0.6 F360.0 E3736.963
G1 X4.67 Y-8.1 Z0.6 F360.0 E3737.426
G1 X4.76 Y-7.74 Z0.6 F360.0 E3737.886
G1 X6.54 Y-6.98 Z0.6 F360.0 E3740.309
G1 X8.25 Y-6.81 Z0.6 F360.0 E3742.457
G1 X9.28 Y-7.04 Z0.6 F360.0 E3743.774
G1 X9.88 Y-7.38 Z0.6 F360.0 E3744.647
G1 X10.47 Y-8.02 Z0.6 F360.0 E3745.729
G1 X10.73 Y-8.93 Z0.6 F360.0 E3746.91
G1 X10.75 Y-11.41 Z0.6 F360.0 E3750.012
G1 X10.46 Y-12.97 Z0.6 F360.0 E3752.0
G1 X10.4 Y-14.53 Z0.6 F360.0 E3753.959
G1 X10.64 Y-15.5 Z0.6 F360.0 E3755.201
G1 X11.07 Y-16.33 Z0.6 F360.0 E3756.377
G1 X11.73 Y-16.93 Z0.6 F360.0 E3757.498
G1 X12.68 Y-17.39 Z0.6 F360.0 E3758.806
G1 X13.83 Y-17.58 Z0.6 F360.0 E3760.264
G1 X14.71 Y-17.45 Z0.6 F360.0 E3761.383
G1 X15.58 Y-17.12 Z0.6 F360.0 E3762.543
G1 X16.24 Y-16.6 Z0.6 F360.0 E3763.596
G1 X16.77 Y-15.95 Z0.6 F360.0 E3764.643
G1 X17.06 Y-14.93 Z0.6 F360.0 E3765.969
G1 X17.09 Y-14.1 Z0.6 F360.0 E3767.015
G1 X16.76 Y-13.3 Z0.6 F360.0 E3768.093
G1 X16.03 Y-12.45 Z0.6 F360.0 E3769.492
G1 X15.12 Y-11.99 Z0.6 F360.0 E3770.778
G1 X13.94 Y-11.94 Z0.6 F360.0 E3772.25
G1 X13.58 Y-12.1 Z0.6 F360.0 E3772.741
G1 X13.6 Y-12.11 Z0.6 F360.0 E3772.777
G1 X13.61 Y-12.11 Z0.6 F360.0 E3772.792
;M103
G1 X13.74 Y-11.95 Z0.9 F3600.0
G1 X13.97 Y-11.92 Z0.9 F3600.0
G1 X15.08 Y-12.12 Z0.9 F3600.0
G1 X15.95 Y-12.61 Z0.9 F3600.0
G1 X16.58 Y-13.37 Z0.9 F3600.0
G1 X16.78 Y-14.02 Z0.9 F3600.0
G1 X16.77 Y-14.84 Z0.9 F3600.0
G1 X16.5 Y-15.78 Z0.9 F3600.0
G1 X16.03 Y-16.38 Z0.9 F3600.0
G1 X15.45 Y-16.84 Z0.9 F3600.0
G1 X14.7 Y-17.1 Z0.9 F3600.0
G1 X13.81 Y-17.25 Z0.9 F3600.0
G1 X12.7 Y-17.02 Z0.9 F3600.0
G1 X11.92 Y-16.68 Z0.9 F3600.0
G1 X11.39 Y-16.18 Z0.9 F3600.0
G1 X10.99 Y-15.42 Z0.9 F3600.0
G1 X10.79 Y-14.52 Z0.9 F3600.0
G1 X10.72 Y-7.05 Z0.9 F3600.0
;M101
G1 X10.84 Y-6.94 Z0.9 F360.0 E3772.993
G1 X10.57 Y-6.61 Z0.9 F360.0 E3773.519
G1 X10.43 Y-6.75 Z0.9 F360.0 E3773.776
G1 X10.06 Y-6.53 Z0.9 F360.0 E3774.315
G1 X10.26 Y-6.32 Z0.9 F360.0 E3774.676
G1 X9.92 Y-6.08 Z0.9 F360.0 E3775.208
G1 X9.69 Y-6.31 Z0.9 F360.0 E3775.62
G1 X9.54 Y-5.87 Z0.9 F360.0 E3776.205
G1 X9.23 Y-6.18 Z0.9 F360.0 E3776.753
G1 X8.74 Y-6.07 Z0.9 F360.0 E3777.379
G1 X9.15 Y-5.66 Z0.9 F360.0 E3778.115
G1 X8.77 Y-5.45 Z0.9 F360.0 E3778.659
G1 X8.23 Y-5.99 Z0.9 F360.0 E3779.617
G1 X7.58 Y-6.05 Z0.9 F360.0 E3780.439
G1 X8.34 Y-5.29 Z0.9 F360.0 E3781.793
G1 X7.86 Y-5.17 Z0.9 F360.0 E3782.406
G1 X6.92 Y-6.11 Z0.9 F360.0 E3784.076
G1 X6.26 Y-6.18 Z0.9 F360.0 E3784.905
G1 X7.39 Y-5.05 Z0.9 F360.0 E3786.898
G1 X6.91 Y-4.93 Z0.9 F360.0 E3787.51
G1 X5.25 Y-6.6 Z0.9 F360.0 E3790.46
G1 X4.23 Y-7.03 Z0.9 F360.0 E3791.838
;M103
G1 X5.01 Y-6.25 Z0.9 F3600.0
;M101
G1 X6.44 Y-4.82 Z0.9 F360.0 E3794.367
G1 X6.06 Y-4.6 Z0.9 F360.0 E3794.91
G1 X1.58 Y-9.09 Z0.9 F360.0 E3802.843
G1 X1.25 Y-8.82 Z0.9 F360.0 E3803.371
G1 X5.63 Y-4.44 Z0.9 F360.0 E3811.132
G1 X5.3 Y-4.18 Z0.9 F360.0 E3811.66
G1 X0.92 Y-8.56 Z0.9 F360.0 E3819.411
G1 X0.59 Y-8.3 Z0.9 F360.0 E3819.939
G1 X5.05 Y-3.83 Z0.9 F360.0 E3827.836
G1 X5.06 Y-3.24 Z0.9 F360.0 E3828.583
G1 X0.21 Y-8.08 Z0.9 F360.0 E3837.154
G1 X-0.17 Y-7.87 Z0.9 F360.0 E3837.698
G1 X6.56 Y-1.15 Z0.9 F360.0 E3849.591
G1 X6.07 Y-1.04 Z0.9 F360.0 E3850.218
G1 X-0.54 Y-7.65 Z0.9 F360.0 E3861.911
G1 X-0.92 Y-7.44 Z0.9 F360.0 E3862.454
G1 X5.63 Y-0.88 Z0.9 F360.0 E3874.053
G1 X5.32 Y-0.61 Z0.9 F360.0 E3874.577
G1 X-1.3 Y-7.22 Z0.9 F360.0 E3886.286
G1 X-1.68 Y-7.01 Z0.9 F360.0 E3886.83
G1 X5.0 Y-0.33 Z0.9 F360.0 E3898.649
G1 X4.88 Y0.14 Z0.9 F360.0 E3899.257
G1 X-2.08 Y-6.82 Z0.9 F360.0 E3911.565
G1 X-2.48 Y-6.63 Z0.9 F360.0 E3912.125
G1 X7.62 Y3.48 Z0.9 F360.0 E3930.008
G1 X7.11 Y3.56 Z0.9 F360.0 E3930.659
G1 X-2.89 Y-6.45 Z0.9 F360.0 E3948.353
G1 X-3.36 Y-6.33 Z0.9 F360.0 E3948.962
G1 X6.53 Y3.57 Z0.9 F360.0 E3966.465
G1 X6.07 Y3.7 Z0.9 F360.0 E3967.067
G1 X-3.88 Y-6.25 Z0.9 F360.0 E3984.667
G1 X-4.4 Y-6.18 Z0.9 F360.0 E3985.32
G1 X5.75 Y3.97 Z0.9 F360.0 E4003.277
G1 X5.39 Y4.2 Z0.9 F360.0 E4003.816
G1 X-4.98 Y-6.17 Z0.9 F360.0 E4022.155
G1 X-5.56 Y-6.15 Z0.9 F360.0 E4022.882
G1 X5.0 Y4.41 Z0.9 F360.0 E4041.573
G1 X4.62 Y4.62 Z0.9 F360.0 E4042.118
G1 X-6.14 Y-6.14 Z0.9 F360.0 E4061.163
G1 X-6.72 Y-6.13 Z0.9 F360.0 E4061.89
G1 X4.42 Y5.01 Z0.9 F360.0 E4081.601
G1 X4.29 Y5.47 Z0.9 F360.0 E4082.202
G1 X-4.93 Y-3.74 Z0.9 F360.0 E4098.504
G1 X-5.04 Y-3.26 Z0.9 F360.0 E4099.118
G1 X4.16 Y5.94 Z0.9 F360.0 E4115.396
G1 X4.0 Y6.37 Z0.9 F360.0 E4115.975
G1 X-5.18 Y-2.81 Z0.9 F360.0 E4132.214
G1 X-5.52 Y-2.56 Z0.9 F360.0 E4132.743
G1 X3.83 Y6.79 Z0.9 F360.0 E4149.275
G1 X3.69 Y7.24 Z0.9 F360.0 E4149.865
G1 X-5.92 Y-2.36 Z0.9 F360.0 E4166.852
G1 X-6.38 Y-2.23 Z0.9 F360.0 E4167.451
G1 X3.54 Y7.69 Z0.9 F360.0 E4184.996
G1 X3.34 Y8.08 Z0.9 F360.0 E4185.547
G1 X-4.83 Y-0.09 Z0.9 F360.0 E4200.001
G1 X-4.93 Y0.4 Z0.9 F360.0 E4200.627
G1 X3.14 Y8.47 Z0.9 F360.0 E4214.907
G1 X2.86 Y8.78 Z0.9 F360.0 E4215.431
G1 X-5.04 Y0.88 Z0.9 F360.0 E4229.406
G1 X-5.35 Y1.17 Z0.9 F360.0 E4229.93
G1 X2.54 Y9.06 Z0.9 F360.0 E4243.895
G1 X2.14 Y9.25 Z0.9 F360.0 E4244.45
G1 X-5.63 Y1.48 Z0.9 F360.0 E4258.201
G1 X-6.0 Y1.7 Z0.9 F360.0 E4258.74
G1 X1.72 Y9.42 Z0.9 F360.0 E4272.387
G1 X1.24 Y9.54 Z0.9 F360.0 E4272.996
G1 X-6.37 Y1.93 Z0.9 F360.0 E4286.458
G1 X-6.73 Y2.15 Z0.9 F360.0 E4286.998
G1 X0.71 Y9.59 Z0.9 F360.0 E4300.163
G1 X0.17 Y9.65 Z0.9 F360.0 E4300.836
G1 X-4.24 Y5.24 Z0.9 F360.0 E4308.638
G1 X-3.98 Y6.1 Z0.9 F360.0 E4309.754
G1 X-0.36 Y9.71 Z0.9 F360.0 E4316.148
G1 X-0.52 Y10.14 Z0.9 F360.0 E4316.724
G1 X-3.78 Y6.88 Z0.9 F360.0 E4322.485
G1 X-3.47 Y7.78 Z0.9 F360.0 E4323.673
G1 X-0.68 Y10.58 Z0.9 F360.0 E4328.616
G1 X-0.85 Y11.0 Z0.9 F360.0 E4329.186
G1 X-2.04 Y9.81 Z0.9 F360.0 E4331.292
G1 X-2.15 Y10.29 Z0.9 F360.0 E4331.904
G1 X-1.04 Y11.4 Z0.9 F360.0 E4333.876
G1 X-1.23 Y11.8 Z0.9 F360.0 E4334.432
G1 X-2.17 Y10.86 Z0.9 F360.0 E4336.099
G1 X-2.12 Y11.51 Z0.9 F360.0 E4336.913
G1 X-1.43 Y12.2 Z0.9 F360.0 E4338.143
G1 X-2.01 Y12.2 Z0.9 F360.0 E4338.879
G1 X-1.42 Y12.8 Z0.9 F360.0 E4339.931
G1 X-1.76 Y13.05 Z0.9 F360.0 E4340.462
G1 X-1.3 Y13.52 Z0.9 F360.0 E4341.291
;M103
G1 X-5.14 Y4.34 Z0.9 F3600.0
;M101
G1 X-7.1 Y2.38 Z0.9 F360.0 E4344.753
G1 X-7.47 Y2.6 Z0.9 F360.0 E4345.291
G1 X-6.5 Y3.57 Z0.9 F360.0 E4346.999
G1 X-7.11 Y3.56 Z0.9 F360.0 E4347.757
G1 X-7.84 Y2.83 Z0.9 F360.0 E4349.043
G1 X-8.2 Y3.05 Z0.9 F360.0 E4349.582
G1 X-7.79 Y3.47 Z0.9 F360.0 E4350.314
G1 X-8.34 Y3.51 Z0.9 F360.0 E4351.01
G1 X-8.57 Y3.28 Z0.9 F360.0 E4351.41
G1 X-8.89 Y3.55 Z0.9 F360.0 E4351.935
G1 X-8.94 Y3.5 Z0.9 F360.0 E4352.017
;M103
G1 X-5.69 Y0.5 Z0.9 F3600.0
G1 X-5.66 Y0.12 Z0.9 F3600.0
G1 X-6.07 Y-0.32 Z0.9 F3600.0
G1 X-8.99 Y-1.29 Z0.9 F3600.0
;M101
G1 X-9.15 Y-1.45 Z0.9 F360.0 E4352.291
G1 X-8.69 Y-1.58 Z0.9 F360.0 E4352.891
G1 X-8.41 Y-1.3 Z0.9 F360.0 E4353.385
G1 X-8.23 Y-1.71 Z0.9 F360.0 E4353.946
G1 X-7.82 Y-1.31 Z0.9 F360.0 E4354.661
G1 X-7.76 Y-1.84 Z0.9 F360.0 E4355.333
G1 X-7.2 Y-1.28 Z0.9 F360.0 E4356.324
G1 X-7.3 Y-1.97 Z0.9 F360.0 E4357.197
G1 X-6.46 Y-1.12 Z0.9 F360.0 E4358.694
G1 X-5.53 Y-0.79 Z0.9 F360.0 E4359.933
;M103
G1 X-6.23 Y-1.49 Z0.9 F3600.0
;M101
G1 X-6.84 Y-2.1 Z0.9 F360.0 E4361.021
;M103
G1 X-5.79 Y-3.26 Z0.9 F3600.0
G1 X-5.69 Y-4.5 Z0.9 F3600.0
;M101
G1 X-7.3 Y-6.12 Z0.9 F360.0 E4363.884
G1 X-7.89 Y-6.11 Z0.9 F360.0 E4364.613
G1 X-6.67 Y-4.9 Z0.9 F360.0 E4366.756
G1 X-7.57 Y-5.2 Z0.9 F360.0 E4367.944
G1 X-8.54 Y-6.17 Z0.9 F360.0 E4369.645
G1 X-8.56 Y-5.6 Z0.9 F360.0 E4370.354
G1 X-9.3 Y-6.34 Z0.9 F360.0 E4371.66
G1 X-9.89 Y-6.34 Z0.9 F360.0 E4372.398
G1 X-10.91 Y-7.35 Z0.9 F360.0 E4374.196
;M103
G1 X-8.18 Y-6.8 Z0.9 F3600.0
G1 X-4.46 Y-6.87 Z0.9 F3600.0
G1 X-3.26 Y-7.05 Z0.9 F3600.0
G1 X1.9 Y-9.35 Z0.9 F3600.0
;M101
G1 X3.97 Y-7.29 Z0.9 F360.0 E4377.844
G1 X3.71 Y-8.13 Z0.9 F360.0 E4378.947
G1 X2.22 Y-9.63 Z0.9 F360.0 E4381.592
G1 X2.45 Y-9.99 Z0.9 F360.0 E4382.129
G1 X3.7 Y-8.74 Z0.9 F360.0 E4384.346
G1 X3.8 Y-9.23 Z0.9 F360.0 E4384.973
G1 X2.68 Y-10.35 Z0.9 F360.0 E4386.96
G1 X2.91 Y-10.71 Z0.9 F360.0 E4387.497
G1 X3.91 Y-9.72 Z0.9 F360.0 E4389.255
G1 X4.0 Y-10.22 Z0.9 F360.0 E4389.893
G1 X3.14 Y-11.08 Z0.9 F360.0 E4391.402
G1 X3.24 Y-11.57 Z0.9 F360.0 E4392.033
G1 X4.05 Y-10.76 Z0.9 F360.0 E4393.466
G1 X4.11 Y-11.3 Z0.9 F360.0 E4394.14
G1 X3.16 Y-12.25 Z0.9 F360.0 E4395.824
G1 X3.07 Y-12.92 Z0.9 F360.0 E4396.678
G1 X4.07 Y-11.93 Z0.9 F360.0 E4398.439
G1 X3.82 Y-12.77 Z0.9 F360.0 E4399.529
G1 X2.63 Y-13.96 Z0.9 F360.0 E4401.637
;M103
G1 X5.94 Y-2.36 Z0.9 F3600.0
;M101
G1 X7.05 Y-1.25 Z0.9 F360.0 E4403.599
G1 X7.58 Y-1.31 Z0.9 F360.0 E4404.269
G1 X6.76 Y-2.12 Z0.9 F360.0 E4405.71
G1 X7.59 Y-1.89 Z0.9 F360.0 E4406.785
G1 X8.18 Y-1.3 Z0.9 F360.0 E4407.825
G1 X8.42 Y-1.66 Z0.9 F360.0 E4408.359
G1 X8.78 Y-1.29 Z0.9 F360.0 E4408.997
G1 X9.24 Y-1.42 Z0.9 F360.0 E4409.601
G1 X9.31 Y-1.35 Z0.9 F360.0 E4409.727
;M103
G1 X6.07 Y-0.32 Z0.9 F3600.0
G1 X5.66 Y0.12 Z0.9 F3600.0
G1 X5.69 Y0.5 Z0.9 F3600.0
G1 X7.15 Y2.41 Z0.9 F3600.0
;M101
G1 X8.24 Y3.5 Z0.9 F360.0 E4411.658
G1 X8.68 Y3.34 Z0.9 F360.0 E4412.24
G1 X8.87 Y3.54 Z0.9 F360.0 E4412.59
;M103
G1 X8.54 Y3.88 Z0.9 F3600.0
;M101
G1 X7.74 Y3.82 Z0.9 F360.0 E4413.596
G1 X7.18 Y3.91 Z0.9 F360.0 E4414.297
G1 X6.34 Y3.93 Z0.9 F360.0 E4415.346
G1 X5.89 Y4.33 Z0.9 F360.0 E4416.11
G1 X4.81 Y4.93 Z0.9 F360.0 E4417.645
G1 X4.45 Y6.22 Z0.9 F360.0 E4419.319
G1 X4.08 Y7.1 Z0.9 F360.0 E4420.516
G1 X3.95 Y7.66 Z0.9 F360.0 E4421.244
G1 X3.38 Y8.78 Z0.9 F360.0 E4422.806
G1 X2.78 Y9.34 Z0.9 F360.0 E4423.835
G1 X2.05 Y9.69 Z0.9 F360.0 E4424.846
G1 X1.43 Y9.88 Z0.9 F360.0 E4425.664
G1 X-0.11 Y10.04 Z0.9 F360.0 E4427.599
G1 X-0.44 Y10.98 Z0.9 F360.0 E4428.843
G1 X-1.13 Y12.4 Z0.9 F360.0 E4430.819
G1 X-0.89 Y13.77 Z0.9 F360.0 E4432.557
G1 X-0.36 Y14.91 Z0.9 F360.0 E4434.136
G1 X-0.2 Y15.11 Z0.9 F360.0 E4434.446
G1 X-0.41 Y15.36 Z0.9 F360.0 E4434.848
G1 X-1.45 Y14.22 Z0.9 F360.0 E4436.782
G1 X-2.09 Y13.2 Z0.9 F360.0 E4438.282
G1 X-2.43 Y12.05 Z0.9 F360.0 E4439.79
G1 X-2.57 Y10.46 Z0.9 F360.0 E4441.779
G1 X-2.31 Y9.41 Z0.9 F360.0 E4443.131
G1 X-2.73 Y9.22 Z0.9 F360.0 E4443.718
G1 X-3.38 Y8.67 Z0.9 F360.0 E4444.779
G1 X-3.96 Y7.65 Z0.9 F360.0 E4446.25
G1 X-4.49 Y5.51 Z0.9 F360.0 E4449.008
G1 X-4.89 Y4.88 Z0.9 F360.0 E4449.937
G1 X-5.89 Y4.33 Z0.9 F360.0 E4451.36
G1 X-6.34 Y3.93 Z0.9 F360.0 E4452.123
G1 X-7.18 Y3.91 Z0.9 F360.0 E4453.173
G1 X-7.74 Y3.82 Z0.9 F360.0 E4453.874
G1 X-8.83 Y3.9 Z0.9 F360.0 E4455.25
G1 X-9.91 Y4.09 Z0.9 F360.0 E4456.619
G1 X-10.36 Y4.38 Z0.9 F360.0 E4457.291
G1 X-10.88 Y4.28 Z0.9 F360.0 E4457.952
G1 X-5.75 Y1.13 Z0.9 F360.0 E4465.484
G1 X-5.63 Y0.93 Z0.9 F360.0 E4465.772
G1 X-5.36 Y0.69 Z0.9 F360.0 E4466.227
G1 X-5.21 Y-0.03 Z0.9 F360.0 E4467.148
G1 X-5.91 Y-0.65 Z0.9 F360.0 E4468.31
G1 X-7.39 Y-0.95 Z0.9 F360.0 E4470.204
G1 X-9.41 Y-0.93 Z0.9 F360.0 E4472.728
G1 X-10.43 Y-0.79 Z0.9 F360.0 E4474.022
G1 X-10.53 Y-1.21 Z0.9 F360.0 E4474.564
G1 X-9.2 Y-1.77 Z0.9 F360.0 E4476.369
G1 X-5.85 Y-2.75 Z0.9 F360.0 E4480.741
G1 X-5.46 Y-3.04 Z0.9 F360.0 E4481.349
G1 X-5.28 Y-3.77 Z0.9 F360.0 E4482.286
G1 X-5.81 Y-4.17 Z0.9 F360.0 E4483.117
G1 X-6.35 Y-4.36 Z0.9 F360.0 E4483.835
G1 X-6.53 Y-4.47 Z0.9 F360.0 E4484.096
G1 X-8.43 Y-5.12 Z0.9 F360.0 E4486.606
G1 X-10.16 Y-6.08 Z0.9 F360.0 E4489.085
G1 X-11.11 Y-6.79 Z0.9 F360.0 E4490.564
G1 X-11.49 Y-7.88 Z0.9 F360.0 E4492.01
G1 X-11.52 Y-8.57 Z0.9 F360.0 E4492.875
G1 X-11.16 Y-8.6 Z0.9 F360.0 E4493.325
G1 X-10.95 Y-7.91 Z0.9 F360.0 E4494.224
G1 X-10.19 Y-7.14 Z0.9 F360.0 E4495.582
G1 X-9.42 Y-6.73 Z0.9 F360.0 E4496.667
G1 X-8.21 Y-6.46 Z0.9 F360.0 E4498.213
G1 X-4.43 Y-6.53 Z0.9 F360.0 E4502.946
G1 X-3.16 Y-6.72 Z0.9 F360.0 E4504.551
G1 X-1.94 Y-7.27 Z0.9 F360.0 E4506.223
G1 X0.38 Y-8.59 Z0.9 F360.0 E4509.57
G1 X1.92 Y-9.82 Z0.9 F360.0 E4512.028
G1 X2.91 Y-11.37 Z0.9 F360.0 E4514.333
G1 X2.72 Y-12.84 Z0.9 F360.0 E4516.186
G1 X2.22 Y-13.89 Z0.9 F360.0 E4517.639
G1 X1.41 Y-14.66 Z0.9 F360.0 E4519.042
G1 X0.75 Y-15.15 Z0.9 F360.0 E4520.076
G1 X0.16 Y-15.47 Z0.9 F360.0 E4520.902
G1 X0.38 Y-15.76 Z0.9 F360.0 E4521.357
G1 X2.14 Y-14.81 Z0.9 F360.0 E4523.851
G1 X2.94 Y-14.24 Z0.9 F360.0 E4525.082
G1 X4.11 Y-13.07 Z0.9 F360.0 E4527.149
G1 X4.51 Y-11.69 Z0.9 F360.0 E4528.943
G1 X4.33 Y-10.03 Z0.9 F360.0 E4531.028
G1 X4.0 Y-8.42 Z0.9 F360.0 E4533.087
G1 X4.31 Y-7.38 Z0.9 F360.0 E4534.449
G1 X6.36 Y-6.52 Z0.9 F360.0 E4537.226
G1 X8.29 Y-6.34 Z0.9 F360.0 E4539.647
G1 X9.46 Y-6.59 Z0.9 F360.0 E4541.15
G1 X10.19 Y-7.02 Z0.9 F360.0 E4542.2
G1 X10.94 Y-7.78 Z0.9 F360.0 E4543.54
G1 X11.15 Y-8.48 Z0.9 F360.0 E4544.461
G1 X11.51 Y-8.46 Z0.9 F360.0 E4544.908
G1 X11.48 Y-7.75 Z0.9 F360.0 E4545.805
G1 X11.1 Y-6.61 Z0.9 F360.0 E4547.301
G1 X10.31 Y-5.89 Z0.9 F360.0 E4548.644
G1 X8.72 Y-5.01 Z0.9 F360.0 E4550.919
G1 X6.57 Y-4.49 Z0.9 F360.0 E4553.68
G1 X6.26 Y-4.3 Z0.9 F360.0 E4554.142
G1 X5.84 Y-4.14 Z0.9 F360.0 E4554.699
G1 X5.41 Y-3.81 Z0.9 F360.0 E4555.376
G1 X5.41 Y-3.07 Z0.9 F360.0 E4556.304
G1 X5.85 Y-2.75 Z0.9 F360.0 E4556.985
G1 X9.2 Y-1.77 Z0.9 F360.0 E4561.355
G1 X10.53 Y-1.21 Z0.9 F360.0 E4563.16
G1 X10.43 Y-0.79 Z0.9 F360.0 E4563.701
G1 X9.41 Y-0.93 Z0.9 F360.0 E4564.995
G1 X7.39 Y-0.95 Z0.9 F360.0 E4567.52
G1 X5.91 Y-0.65 Z0.9 F360.0 E4569.413
G1 X5.21 Y-0.03 Z0.9 F360.0 E4570.576
G1 X5.36 Y0.69 Z0.9 F360.0 E4571.497
G1 X5.63 Y0.93 Z0.9 F360.0 E4571.952
G1 X5.75 Y1.13 Z0.9 F360.0 E4572.24
G1 X10.88 Y4.28 Z0.9 F360.0 E4579.771
G1 X10.36 Y4.38 Z0.9 F360.0 E4580.433
G1 X9.91 Y4.09 Z0.9 F360.0 E4581.105
G1 X8.83 Y3.9 Z0.9 F360.0 E4582.473
G1 X8.54 Y3.88 Z0.9 F360.0 E4582.845
;M103
G1 X5.69 Y0.5 Z0.9 F3600.0
G1 X5.66 Y0.12 Z0.9 F3600.0
G1 X6.07 Y-0.32 Z0.9 F3600.0
G1 X7.42 Y-0.62 Z0.9 F3600.0
G1 X9.38 Y-0.6 Z0.9 F3600.0
G1 X10.23 Y-0.48 Z0.9 F3600.0
G1 X10.72 Y-1.49 Z0.9 F3600.0
G1 X9.32 Y-2.08 Z0.9 F3600.0
G1 X7.41 Y-2.63 Z0.9 F3600.0
G1 X7.15 Y-2.67 Z0.9 F3600.0
G1 X6.01 Y-3.06 Z0.9 F3600.0
G1 X5.81 Y-3.27 Z0.9 F3600.0
G1 X5.8 Y-3.62 Z0.9 F3600.0
G1 X6.0 Y-3.84 Z0.9 F3600.0
G1 X6.4 Y-3.99 Z0.9 F3600.0
G1 X6.7 Y-4.17 Z0.9 F3600.0
G1 X8.84 Y-4.69 Z0.9 F3600.0
G1 X10.51 Y-5.61 Z0.9 F3600.0
G1 X11.41 Y-6.41 Z0.9 F3600.0
G1 X11.82 Y-7.68 Z0.9 F3600.0
G1 X11.86 Y-8.85 Z0.9 F3600.0
G1 X11.51 Y-10.54 Z0.9 F3600.0
G1 X10.82 Y-13.0 Z0.9 F3600.0
G1 X10.68 Y-14.52 Z0.9 F3600.0
G1 X10.88 Y-15.45 Z0.9 F3600.0
G1 X11.28 Y-16.23 Z0.9 F3600.0
G1 X11.85 Y-16.77 Z0.9 F3600.0
G1 X12.66 Y-17.15 Z0.9 F3600.0
G1 X13.8 Y-17.38 Z0.9 F3600.0
G1 X14.7 Y-17.24 Z0.9 F3600.0
G1 X15.48 Y-16.99 Z0.9 F3600.0
G1 X16.09 Y-16.52 Z0.9 F3600.0
G1 X16.56 Y-15.82 Z0.9 F3600.0
;M101
G1 X16.56 Y-15.83 Z0.9 F360.0 E4582.862
G1 X16.03 Y-16.46 Z0.9 F360.0 E4583.883
G1 X15.44 Y-16.92 Z0.9 F360.0 E4584.825
G1 X14.68 Y-17.16 Z0.9 F360.0 E4585.826
G1 X13.8 Y-17.3 Z0.9 F360.0 E4586.943
G1 X12.69 Y-17.07 Z0.9 F360.0 E4588.36
G1 X11.89 Y-16.71 Z0.9 F360.0 E4589.456
G1 X11.35 Y-16.19 Z0.9 F360.0 E4590.397
G1 X10.95 Y-15.42 Z0.9 F360.0 E4591.471
G1 X10.75 Y-14.52 Z0.9 F360.0 E4592.633
G1 X10.9 Y-13.02 Z0.9 F360.0 E4594.52
G1 X11.59 Y-10.56 Z0.9 F360.0 E4597.714
G1 X11.94 Y-8.86 Z0.9 F360.0 E4599.886
G1 X11.9 Y-7.67 Z0.9 F360.0 E4601.372
G1 X11.47 Y-6.38 Z0.9 F360.0 E4603.078
G1 X10.56 Y-5.54 Z0.9 F360.0 E4604.62
G1 X8.87 Y-4.62 Z0.9 F360.0 E4607.029
G1 X6.73 Y-4.09 Z0.9 F360.0 E4609.78
G1 X6.44 Y-3.92 Z0.9 F360.0 E4610.213
G1 X6.04 Y-3.77 Z0.9 F360.0 E4610.739
G1 X5.83 Y-3.61 Z0.9 F360.0 E4611.074
G1 X5.83 Y-3.29 Z0.9 F360.0 E4611.48
G1 X6.05 Y-3.13 Z0.9 F360.0 E4611.815
G1 X7.17 Y-2.75 Z0.9 F360.0 E4613.295
G1 X7.43 Y-2.71 Z0.9 F360.0 E4613.621
G1 X9.34 Y-2.16 Z0.9 F360.0 E4616.116
G1 X12.0 Y-1.04 Z0.9 F360.0 E4619.72
G1 X13.13 Y-0.32 Z0.9 F360.0 E4621.401
G1 X14.14 Y0.62 Z0.9 F360.0 E4623.123
G1 X15.97 Y2.77 Z0.9 F360.0 E4626.656
G1 X17.09 Y3.59 Z0.9 F360.0 E4628.394
G1 X17.93 Y4.05 Z0.9 F360.0 E4629.589
G1 X18.86 Y4.37 Z0.9 F360.0 E4630.828
G1 X19.46 Y4.49 Z0.9 F360.0 E4631.587
G1 X20.46 Y4.45 Z0.9 F360.0 E4632.836
G1 X21.09 Y4.27 Z0.9 F360.0 E4633.66
G1 X21.71 Y3.91 Z0.9 F360.0 E4634.557
G1 X22.32 Y3.43 Z0.9 F360.0 E4635.522
G1 X22.84 Y2.43 Z0.9 F360.0 E4636.936
G1 X22.98 Y1.77 Z0.9 F360.0 E4637.775
G1 X22.95 Y1.07 Z0.9 F360.0 E4638.652
G1 X22.79 Y0.36 Z0.9 F360.0 E4639.567
G1 X22.41 Y-0.39 Z0.9 F360.0 E4640.616
G1 X21.87 Y-0.99 Z0.9 F360.0 E4641.634
G1 X21.25 Y-1.32 Z0.9 F360.0 E4642.508
G1 X21.03 Y-1.3 Z0.9 F360.0 E4642.779
G1 X21.1 Y-1.35 Z0.9 F360.0 E4642.877
G1 X21.29 Y-1.35 Z0.9 F360.0 E4643.121
G1 X22.02 Y-1.06 Z0.9 F360.0 E4644.105
G1 X22.61 Y-0.5 Z0.9 F360.0 E4645.118
G1 X23.06 Y0.24 Z0.9 F360.0 E4646.206
G1 X23.29 Y1.08 Z0.9 F360.0 E4647.295
G1 X23.33 Y1.93 Z0.9 F360.0 E4648.363
G1 X23.15 Y2.74 Z0.9 F360.0 E4649.395
G1 X22.57 Y3.8 Z0.9 F360.0 E4650.904
G1 X21.95 Y4.3 Z0.9 F360.0 E4651.906
G1 X21.14 Y4.71 Z0.9 F360.0 E4653.033
G1 X20.41 Y4.88 Z0.9 F360.0 E4653.973
G1 X19.1 Y4.89 Z0.9 F360.0 E4655.614
G1 X18.36 Y4.71 Z0.9 F360.0 E4656.559
G1 X17.15 Y4.3 Z0.9 F360.0 E4658.169
G1 X16.29 Y3.82 Z0.9 F360.0 E4659.4
G1 X15.26 Y2.99 Z0.9 F360.0 E4661.049
G1 X13.52 Y1.11 Z0.9 F360.0 E4664.252
G1 X12.73 Y0.43 Z0.9 F360.0 E4665.562
G1 X11.86 Y0.03 Z0.9 F360.0 E4666.757
G1 X10.75 Y-0.32 Z0.9 F360.0 E4668.216
G1 X9.37 Y-0.51 Z0.9 F360.0 E4669.95
G1 X7.43 Y-0.54 Z0.9 F360.0 E4672.383
G1 X6.09 Y-0.26 Z0.9 F360.0 E4674.095
G1 X5.97 Y-0.13 Z0.9 F360.0 E4674.32
G1 X5.82 Y-0.02 Z0.9 F360.0 E4674.554
G1 X5.67 Y0.13 Z0.9 F360.0 E4674.809
G1 X5.74 Y0.47 Z0.9 F360.0 E4675.244
G1 X5.95 Y0.67 Z0.9 F360.0 E4675.606
G1 X6.05 Y0.83 Z0.9 F360.0 E4675.841
G1 X10.69 Y3.64 Z0.9 F360.0 E4682.627
G1 X12.04 Y5.1 Z0.9 F360.0 E4685.123
G1 X12.42 Y6.45 Z0.9 F360.0 E4686.871
G1 X12.27 Y8.31 Z0.9 F360.0 E4689.213
G1 X11.66 Y9.82 Z0.9 F360.0 E4691.241
G1 X11.15 Y11.36 Z0.9 F360.0 E4693.275
G1 X11.06 Y12.87 Z0.9 F360.0 E4695.163
G1 X11.25 Y13.69 Z0.9 F360.0 E4696.217
G1 X11.67 Y14.45 Z0.9 F360.0 E4697.308
G1 X12.36 Y15.14 Z0.9 F360.0 E4698.528
G1 X13.27 Y15.58 Z0.9 F360.0 E4699.789
G1 X14.12 Y15.64 Z0.9 F360.0 E4700.863
G1 X15.15 Y15.45 Z0.9 F360.0 E4702.167
G1 X15.96 Y14.95 Z0.9 F360.0 E4703.358
G1 X16.47 Y14.33 Z0.9 F360.0 E4704.358
G1 X16.87 Y13.35 Z0.9 F360.0 E4705.694
G1 X16.93 Y13.01 Z0.9 F360.0 E4706.123
G1 X16.88 Y12.97 Z0.9 F360.0 E4706.204
G1 X16.93 Y12.45 Z0.9 F360.0 E4706.856
G1 X16.9 Y12.37 Z0.9 F360.0 E4706.96
G1 X16.8 Y12.24 Z0.9 F360.0 E4707.169
G1 X16.86 Y12.28 Z0.9 F360.0 E4707.264
;M103
G1 X16.56 Y14.32 Z0.9 F3600.0
;M101
G1 X16.52 Y14.42 Z0.9 F360.0 E4707.402
G1 X16.01 Y15.08 Z0.9 F360.0 E4708.444
G1 X15.1 Y15.63 Z0.9 F360.0 E4709.773
G1 X14.05 Y15.81 Z0.9 F360.0 E4711.106
G1 X13.19 Y15.77 Z0.9 F360.0 E4712.175
G1 X12.21 Y15.29 Z0.9 F360.0 E4713.543
G1 X11.34 Y14.5 Z0.9 F360.0 E4715.011
G1 X10.89 Y13.71 Z0.9 F360.0 E4716.153
G1 X10.62 Y12.86 Z0.9 F360.0 E4717.267
G1 X10.64 Y11.33 Z0.9 F360.0 E4719.182
G1 X10.99 Y9.78 Z0.9 F360.0 E4721.164
G1 X11.42 Y8.23 Z0.9 F360.0 E4723.185
G1 X11.5 Y6.4 Z0.9 F360.0 E4725.469
G1 X10.91 Y5.24 Z0.9 F360.0 E4727.108
G1 X9.75 Y4.49 Z0.9 F360.0 E4728.826
G1 X8.78 Y4.31 Z0.9 F360.0 E4730.062
G1 X7.75 Y4.24 Z0.9 F360.0 E4731.349
G1 X7.22 Y4.33 Z0.9 F360.0 E4732.026
G1 X6.51 Y4.34 Z0.9 F360.0 E4732.92
G1 X6.13 Y4.68 Z0.9 F360.0 E4733.55
G1 X5.16 Y5.21 Z0.9 F360.0 E4734.935
G1 X4.97 Y5.81 Z0.9 F360.0 E4735.72
G1 X4.86 Y6.34 Z0.9 F360.0 E4736.398
G1 X4.48 Y7.23 Z0.9 F360.0 E4737.602
G1 X4.35 Y7.81 Z0.9 F360.0 E4738.35
G1 X3.72 Y9.04 Z0.9 F360.0 E4740.083
G1 X3.34 Y9.35 Z0.9 F360.0 E4740.691
G1 X3.04 Y9.68 Z0.9 F360.0 E4741.253
G1 X2.2 Y10.08 Z0.9 F360.0 E4742.406
G1 X1.51 Y10.29 Z0.9 F360.0 E4743.312
G1 X0.2 Y10.43 Z0.9 F360.0 E4744.966
G1 X-0.06 Y11.14 Z0.9 F360.0 E4745.91
G1 X-0.69 Y12.46 Z0.9 F360.0 E4747.738
G1 X-0.49 Y13.64 Z0.9 F360.0 E4749.245
G1 X0.0 Y14.69 Z0.9 F360.0 E4750.696
G1 X0.66 Y15.54 Z0.9 F360.0 E4752.031
G1 X2.63 Y17.05 Z0.9 F360.0 E4755.137
G1 X2.91 Y17.33 Z0.9 F360.0 E4755.637
G1 X3.44 Y18.36 Z0.9 F360.0 E4757.081
G1 X3.57 Y19.43 Z0.9 F360.0 E4758.424
G1 X3.31 Y21.1 Z0.9 F360.0 E4760.547
G1 X2.38 Y22.37 Z0.9 F360.0 E4762.515
G1 X1.36 Y23.06 Z0.9 F360.0 E4764.056
G1 X0.09 Y23.25 Z0.9 F360.0 E4765.659
G1 X-1.2 Y22.93 Z0.9 F360.0 E4767.33
G1 X-1.93 Y22.4 Z0.9 F360.0 E4768.452
G1 X-2.2 Y22.03 Z0.9 F360.0 E4769.02
G1 X-2.19 Y21.98 Z0.9 F360.0 E4769.08
G1 X-2.44 Y21.7 Z0.9 F360.0 E4769.556
G1 X-2.48 Y21.54 Z0.9 F360.0 E4769.767
G1 X-2.47 Y21.55 Z0.9 F360.0 E4769.777
;M103
G1 X-1.89 Y22.31 Z0.9 F3600.0
;M101
G1 X-1.85 Y22.36 Z0.9 F360.0 E4769.852
G1 X-1.04 Y22.81 Z0.9 F360.0 E4771.017
G1 X0.11 Y23.0 Z0.9 F360.0 E4772.469
G1 X1.32 Y22.75 Z0.9 F360.0 E4774.02
G1 X2.33 Y22.02 Z0.9 F360.0 E4775.571
G1 X2.94 Y20.8 Z0.9 F360.0 E4777.282
G1 X2.99 Y19.47 Z0.9 F360.0 E4778.943
G1 X2.8 Y18.71 Z0.9 F360.0 E4779.923
G1 X2.68 Y18.4 Z0.9 F360.0 E4780.341
G1 X2.27 Y17.87 Z0.9 F360.0 E4781.174
G1 X1.22 Y16.95 Z0.9 F360.0 E4782.928
G1 X0.1 Y16.3 Z0.9 F360.0 E4784.547
G1 X-0.79 Y15.59 Z0.9 F360.0 E4785.969
G1 X-1.79 Y14.47 Z0.9 F360.0 E4787.845
G1 X-2.47 Y13.38 Z0.9 F360.0 E4789.46
G1 X-2.85 Y12.13 Z0.9 F360.0 E4791.094
G1 X-2.99 Y10.43 Z0.9 F360.0 E4793.222
G1 X-2.8 Y9.65 Z0.9 F360.0 E4794.229
G1 X-2.97 Y9.57 Z0.9 F360.0 E4794.465
G1 X-3.49 Y9.1 Z0.9 F360.0 E4795.346
G1 X-3.7 Y8.98 Z0.9 F360.0 E4795.644
G1 X-4.35 Y7.8 Z0.9 F360.0 E4797.327
G1 X-4.88 Y5.68 Z0.9 F360.0 E4800.069
G1 X-5.19 Y5.2 Z0.9 F360.0 E4800.779
G1 X-6.13 Y4.68 Z0.9 F360.0 E4802.127
G1 X-6.51 Y4.34 Z0.9 F360.0 E4802.756
G1 X-7.22 Y4.33 Z0.9 F360.0 E4803.65
G1 X-7.75 Y4.24 Z0.9 F360.0 E4804.327
G1 X-8.78 Y4.31 Z0.9 F360.0 E4805.614
G1 X-9.75 Y4.49 Z0.9 F360.0 E4806.85
G1 X-10.91 Y5.24 Z0.9 F360.0 E4808.568
G1 X-11.5 Y6.4 Z0.9 F360.0 E4810.207
G1 X-11.42 Y8.23 Z0.9 F360.0 E4812.491
G1 X-10.99 Y9.78 Z0.9 F360.0 E4814.512
G1 X-10.64 Y11.33 Z0.9 F360.0 E4816.494
G1 X-10.62 Y12.86 Z0.9 F360.0 E4818.41
G1 X-10.89 Y13.71 Z0.9 F360.0 E4819.523
G1 X-11.34 Y14.5 Z0.9 F360.0 E4820.665
G1 X-12.21 Y15.29 Z0.9 F360.0 E4822.133
G1 X-13.19 Y15.77 Z0.9 F360.0 E4823.501
G1 X-14.05 Y15.81 Z0.9 F360.0 E4824.57
G1 X-15.1 Y15.63 Z0.9 F360.0 E4825.903
G1 X-16.01 Y15.08 Z0.9 F360.0 E4827.232
G1 X-16.52 Y14.42 Z0.9 F360.0 E4828.274
G1 X-16.93 Y13.39 Z0.9 F360.0 E4829.665
G1 X-16.87 Y13.35 Z0.9 F360.0 E4829.757
G1 X-16.93 Y13.01 Z0.9 F360.0 E4830.186
G1 X-16.93 Y12.83 Z0.9 F360.0 E4830.413
G1 X-16.89 Y12.75 Z0.9 F360.0 E4830.522
G1 X-16.93 Y12.45 Z0.9 F360.0 E4830.908
G1 X-16.86 Y12.28 Z0.9 F360.0 E4831.134
G1 X-16.8 Y12.24 Z0.9 F360.0 E4831.228
G1 X-16.8 Y12.24 Z0.9 F360.0 E4831.235
;M103
G1 X-16.88 Y12.97 Z0.9 F3600.0
;M101
G1 X-16.47 Y14.33 Z0.9 F360.0 E4833.025
G1 X-15.96 Y14.95 Z0.9 F360.0 E4834.025
G1 X-15.15 Y15.45 Z0.9 F360.0 E4835.217
G1 X-14.12 Y15.64 Z0.9 F360.0 E4836.521
G1 X-13.27 Y15.58 Z0.9 F360.0 E4837.594
G1 X-12.36 Y15.14 Z0.9 F360.0 E4838.856
G1 X-11.67 Y14.45 Z0.9 F360.0 E4840.076
G1 X-11.25 Y13.69 Z0.9 F360.0 E4841.166
G1 X-11.06 Y12.87 Z0.9 F360.0 E4842.22
G1 X-11.15 Y11.36 Z0.9 F360.0 E4844.109
G1 X-11.66 Y9.82 Z0.9 F360.0 E4846.142
G1 X-12.27 Y8.31 Z0.9 F360.0 E4848.17
G1 X-12.42 Y6.45 Z0.9 F360.0 E4850.512
G1 X-12.04 Y5.1 Z0.9 F360.0 E4852.26
G1 X-10.69 Y3.64 Z0.9 F360.0 E4854.757
G1 X-6.05 Y0.83 Z0.9 F360.0 E4861.542
G1 X-5.95 Y0.67 Z0.9 F360.0 E4861.778
G1 X-5.74 Y0.47 Z0.9 F360.0 E4862.139
G1 X-5.67 Y0.13 Z0.9 F360.0 E4862.574
G1 X-5.82 Y-0.02 Z0.9 F360.0 E4862.83
G1 X-5.97 Y-0.13 Z0.9 F360.0 E4863.063
G1 X-6.09 Y-0.26 Z0.9 F360.0 E4863.288
G1 X-7.43 Y-0.54 Z0.9 F360.0 E4865.0
G1 X-9.37 Y-0.51 Z0.9 F360.0 E4867.433
G1 X-10.75 Y-0.32 Z0.9 F360.0 E4869.167
G1 X-11.86 Y0.03 Z0.9 F360.0 E4870.626
G1 X-12.73 Y0.43 Z0.9 F360.0 E4871.821
G1 X-13.52 Y1.11 Z0.9 F360.0 E4873.131
G1 X-15.26 Y2.99 Z0.9 F360.0 E4876.334
G1 X-16.29 Y3.82 Z0.9 F360.0 E4877.984
G1 X-17.15 Y4.3 Z0.9 F360.0 E4879.214
G1 X-18.36 Y4.71 Z0.9 F360.0 E4880.824
G1 X-19.1 Y4.89 Z0.9 F360.0 E4881.769
G1 X-20.41 Y4.88 Z0.9 F360.0 E4883.411
G1 X-21.14 Y4.71 Z0.9 F360.0 E4884.35
G1 X-21.95 Y4.3 Z0.9 F360.0 E4885.477
G1 X-22.57 Y3.8 Z0.9 F360.0 E4886.479
G1 X-23.15 Y2.74 Z0.9 F360.0 E4887.988
G1 X-23.33 Y1.93 Z0.9 F360.0 E4889.02
G1 X-23.29 Y1.08 Z0.9 F360.0 E4890.088
G1 X-23.06 Y0.24 Z0.9 F360.0 E4891.177
G1 X-22.61 Y-0.5 Z0.9 F360.0 E4892.265
G1 X-22.02 Y-1.06 Z0.9 F360.0 E4893.279
G1 X-21.29 Y-1.35 Z0.9 F360.0 E4894.262
G1 X-21.1 Y-1.35 Z0.9 F360.0 E4894.506
G1 X-21.03 Y-1.3 Z0.9 F360.0 E4894.604
G1 X-21.25 Y-1.32 Z0.9 F360.0 E4894.875
G1 X-21.87 Y-0.99 Z0.9 F360.0 E4895.749
G1 X-22.41 Y-0.39 Z0.9 F360.0 E4896.767
G1 X-22.79 Y0.36 Z0.9 F360.0 E4897.817
G1 X-22.95 Y1.07 Z0.9 F360.0 E4898.731
G1 X-22.98 Y1.77 Z0.9 F360.0 E4899.608
G1 X-22.84 Y2.43 Z0.9 F360.0 E4900.447
G1 X-22.32 Y3.43 Z0.9 F360.0 E4901.861
G1 X-21.71 Y3.91 Z0.9 F360.0 E4902.826
G1 X-21.09 Y4.27 Z0.9 F360.0 E4903.723
G1 X-20.46 Y4.45 Z0.9 F360.0 E4904.548
G1 X-19.46 Y4.49 Z0.9 F360.0 E4905.796
G1 X-18.86 Y4.37 Z0.9 F360.0 E4906.556
G1 X-17.93 Y4.05 Z0.9 F360.0 E4907.794
G1 X-17.09 Y3.59 Z0.9 F360.0 E4908.989
G1 X-15.97 Y2.77 Z0.9 F360.0 E4910.727
G1 X-14.14 Y0.62 Z0.9 F360.0 E4914.26
G1 X-13.13 Y-0.32 Z0.9 F360.0 E4915.982
G1 X-12.0 Y-1.04 Z0.9 F360.0 E4917.663
G1 X-9.34 Y-2.16 Z0.9 F360.0 E4921.267
G1 X-7.43 Y-2.71 Z0.9 F360.0 E4923.762
G1 X-7.17 Y-2.75 Z0.9 F360.0 E4924.088
G1 X-6.05 Y-3.13 Z0.9 F360.0 E4925.568
G1 X-5.83 Y-3.29 Z0.9 F360.0 E4925.904
G1 X-5.76 Y-3.58 Z0.9 F360.0 E4926.288
G1 X-5.9 Y-3.72 Z0.9 F360.0 E4926.539
G1 X-6.02 Y-3.8 Z0.9 F360.0 E4926.715
G1 X-6.54 Y-3.98 Z0.9 F360.0 E4927.398
G1 X-6.71 Y-4.09 Z0.9 F360.0 E4927.656
G1 X-8.6 Y-4.74 Z0.9 F360.0 E4930.152
G1 X-10.39 Y-5.73 Z0.9 F360.0 E4932.713
G1 X-11.46 Y-6.53 Z0.9 F360.0 E4934.388
G1 X-11.91 Y-7.8 Z0.9 F360.0 E4936.072
G1 X-11.95 Y-8.96 Z0.9 F360.0 E4937.525
G1 X-11.71 Y-10.11 Z0.9 F360.0 E4938.997
G1 X-10.9 Y-13.02 Z0.9 F360.0 E4942.766
G1 X-10.75 Y-14.52 Z0.9 F360.0 E4944.653
G1 X-10.95 Y-15.42 Z0.9 F360.0 E4945.815
G1 X-11.35 Y-16.19 Z0.9 F360.0 E4946.89
G1 X-11.89 Y-16.71 Z0.9 F360.0 E4947.83
G1 X-12.69 Y-17.07 Z0.9 F360.0 E4948.926
G1 X-13.8 Y-17.3 Z0.9 F360.0 E4950.343
G1 X-14.68 Y-17.16 Z0.9 F360.0 E4951.461
G1 X-15.44 Y-16.92 Z0.9 F360.0 E4952.462
G1 X-16.03 Y-16.46 Z0.9 F360.0 E4953.403
G1 X-16.56 Y-15.83 Z0.9 F360.0 E4954.425
G1 X-16.93 Y-14.52 Z0.9 F360.0 E4956.134
G1 X-16.88 Y-14.48 Z0.9 F360.0 E4956.214
G1 X-16.93 Y-14.1 Z0.9 F360.0 E4956.69
G1 X-16.8 Y-13.89 Z0.9 F360.0 E4957.0
G1 X-16.86 Y-13.94 Z0.9 F360.0 E4957.095
;M103
G1 X-16.66 Y-15.81 Z0.9 F3600.0
;M101
G1 X-16.64 Y-15.89 Z0.9 F360.0 E4957.206
G1 X-16.11 Y-16.54 Z0.9 F360.0 E4958.251
G1 X-15.49 Y-17.04 Z0.9 F360.0 E4959.245
G1 X-14.67 Y-17.33 Z0.9 F360.0 E4960.335
G1 X-13.81 Y-17.47 Z0.9 F360.0 E4961.422
G1 X-12.7 Y-17.27 Z0.9 F360.0 E4962.838
G1 X-11.79 Y-16.84 Z0.9 F360.0 E4964.088
G1 X-11.17 Y-16.26 Z0.9 F360.0 E4965.152
G1 X-10.75 Y-15.46 Z0.9 F360.0 E4966.286
G1 X-10.51 Y-14.52 Z0.9 F360.0 E4967.493
G1 X-10.57 Y-12.99 Z0.9 F360.0 E4969.42
G1 X-10.88 Y-11.44 Z0.9 F360.0 E4971.388
G1 X-10.85 Y-9.04 Z0.9 F360.0 E4974.401
G1 X-10.58 Y-8.13 Z0.9 F360.0 E4975.586
G1 X-9.93 Y-7.48 Z0.9 F360.0 E4976.735
G1 X-9.27 Y-7.13 Z0.9 F360.0 E4977.669
G1 X-8.17 Y-6.88 Z0.9 F360.0 E4979.082
G1 X-4.47 Y-6.95 Z0.9 F360.0 E4983.719
G1 X-3.28 Y-7.12 Z0.9 F360.0 E4985.215
G1 X-2.13 Y-7.64 Z0.9 F360.0 E4986.79
G1 X0.15 Y-8.94 Z0.9 F360.0 E4990.071
G1 X1.6 Y-10.1 Z0.9 F360.0 E4992.401
G1 X2.47 Y-11.47 Z0.9 F360.0 E4994.429
G1 X2.32 Y-12.72 Z0.9 F360.0 E4996.009
G1 X1.88 Y-13.64 Z0.9 F360.0 E4997.281
G1 X1.14 Y-14.34 Z0.9 F360.0 E4998.555
G1 X0.52 Y-14.8 Z0.9 F360.0 E4999.527
G1 X-1.94 Y-16.24 Z0.9 F360.0 E5003.089
G1 X-2.91 Y-17.26 Z0.9 F360.0 E5004.854
G1 X-3.41 Y-18.33 Z0.9 F360.0 E5006.323
G1 X-3.55 Y-19.41 Z0.9 F360.0 E5007.684
G1 X-3.29 Y-21.08 Z0.9 F360.0 E5009.802
G1 X-2.36 Y-22.33 Z0.9 F360.0 E5011.75
G1 X-1.36 Y-23.01 Z0.9 F360.0 E5013.269
G1 X-0.1 Y-23.17 Z0.9 F360.0 E5014.847
G1 X1.05 Y-22.84 Z0.9 F360.0 E5016.347
G1 X1.14 Y-22.85 Z0.9 F360.0 E5016.457
G1 X1.26 Y-22.76 Z0.9 F360.0 E5016.644
G1 X1.24 Y-22.74 Z0.9 F360.0 E5016.68
G1 X1.22 Y-22.75 Z0.9 F360.0 E5016.707
;M103
G1 X-0.08 Y-23.01 Z0.9 F3600.0
;M101
G1 X-0.11 Y-23.02 Z0.9 F360.0 E5016.75
G1 X-1.33 Y-22.77 Z0.9 F360.0 E5018.312
G1 X-2.34 Y-22.03 Z0.9 F360.0 E5019.868
G1 X-2.95 Y-20.81 Z0.9 F360.0 E5021.586
G1 X-3.0 Y-19.46 Z0.9 F360.0 E5023.271
G1 X-2.81 Y-18.66 Z0.9 F360.0 E5024.294
G1 X-2.27 Y-17.87 Z0.9 F360.0 E5025.49
G1 X-1.38 Y-17.06 Z0.9 F360.0 E5026.998
G1 X1.19 Y-15.84 Z0.9 F360.0 E5030.558
G1 X2.37 Y-15.16 Z0.9 F360.0 E5032.255
G1 X3.21 Y-14.56 Z0.9 F360.0 E5033.557
G1 X4.48 Y-13.29 Z0.9 F360.0 E5035.801
G1 X4.93 Y-11.73 Z0.9 F360.0 E5037.832
G1 X4.75 Y-9.97 Z0.9 F360.0 E5040.045
G1 X4.43 Y-8.44 Z0.9 F360.0 E5041.998
G1 X4.66 Y-7.69 Z0.9 F360.0 E5042.98
G1 X6.46 Y-6.94 Z0.9 F360.0 E5045.429
G1 X8.26 Y-6.76 Z0.9 F360.0 E5047.688
G1 X9.31 Y-6.99 Z0.9 F360.0 E5049.027
G1 X9.93 Y-7.35 Z0.9 F360.0 E5049.923
G1 X10.57 Y-8.0 Z0.9 F360.0 E5051.064
G1 X10.84 Y-8.92 Z0.9 F360.0 E5052.267
G1 X10.87 Y-11.43 Z0.9 F360.0 E5055.408
G1 X10.57 Y-12.98 Z0.9 F360.0 E5057.39
G1 X10.51 Y-14.52 Z0.9 F360.0 E5059.318
G1 X10.75 Y-15.46 Z0.9 F360.0 E5060.525
G1 X11.17 Y-16.26 Z0.9 F360.0 E5061.659
G1 X11.79 Y-16.84 Z0.9 F360.0 E5062.723
G1 X12.7 Y-17.27 Z0.9 F360.0 E5063.973
G1 X13.81 Y-17.47 Z0.9 F360.0 E5065.389
G1 X14.67 Y-17.33 Z0.9 F360.0 E5066.476
G1 X15.49 Y-17.04 Z0.9 F360.0 E5067.566
G1 X16.11 Y-16.54 Z0.9 F360.0 E5068.56
G1 X16.64 Y-15.89 Z0.9 F360.0 E5069.605
G1 X16.92 Y-14.9 Z0.9 F360.0 E5070.9
G1 X16.93 Y-14.48 Z0.9 F360.0 E5071.42
G1 X16.88 Y-14.41 Z0.9 F360.0 E5071.529
G1 X16.93 Y-14.1 Z0.9 F360.0 E5071.92
G1 X16.86 Y-13.94 Z0.9 F360.0 E5072.146
G1 X16.8 Y-13.89 Z0.9 F360.0 E5072.241
G1 X16.88 Y-14.48 Z0.9 F360.0 E5072.977
G1 X16.91 Y-14.51 Z0.9 F360.0 E5073.036
;M103
G1 X16.63 Y-15.87 Z1.2 F3600.0
G1 X16.09 Y-16.52 Z1.2 F3600.0
G1 X15.48 Y-16.99 Z1.2 F3600.0
G1 X14.7 Y-17.24 Z1.2 F3600.0
G1 X13.8 Y-17.38 Z1.2 F3600.0
G1 X12.66 Y-17.15 Z1.2 F3600.0
G1 X11.85 Y-16.77 Z1.2 F3600.0
G1 X11.28 Y-16.23 Z1.2 F3600.0
G1 X10.88 Y-15.45 Z1.2 F3600.0
G1 X10.68 Y-14.52 Z1.2 F3600.0
G1 X10.82 Y-13.0 Z1.2 F3600.0
G1 X11.51 Y-10.54 Z1.2 F3600.0
G1 X11.66 Y-9.81 Z1.2 F3600.0
G1 X10.79 Y-8.44 Z1.2 F3600.0
G1 X10.63 Y-7.96 Z1.2 F3600.0
G1 X9.97 Y-7.29 Z1.2 F3600.0
G1 X7.38 Y-5.6 Z1.2 F3600.0
;M101
G1 X7.28 Y-5.5 Z1.2 F360.0 E5073.216
G1 X6.84 Y-5.65 Z1.2 F360.0 E5073.801
G1 X6.49 Y-5.31 Z1.2 F360.0 E5074.411
G1 X6.29 Y-5.7 Z1.2 F360.0 E5074.962
G1 X4.99 Y-6.17 Z1.2 F360.0 E5076.7
G1 X5.52 Y-4.93 Z1.2 F360.0 E5078.393
G1 X5.14 Y-4.76 Z1.2 F360.0 E5078.917
G1 X-4.15 Y4.74 Z1.2 F360.0 E5095.541
G1 X-4.38 Y4.38 Z1.2 F360.0 E5096.077
G1 X-6.11 Y3.15 Z1.2 F360.0 E5098.733
G1 X-5.55 Y2.0 Z1.2 F360.0 E5100.331
G1 X4.14 Y-6.51 Z1.2 F360.0 E5116.474
G1 X4.57 Y-6.34 Z1.2 F360.0 E5117.043
;M103
G1 X3.13 Y-8.46 Z1.2 F3600.0
;M101
G1 X3.48 Y-7.03 Z1.2 F360.0 E5118.879
G1 X3.72 Y-6.69 Z1.2 F360.0 E5119.411
G1 X3.08 Y-6.93 Z1.2 F360.0 E5120.275
G1 X-3.72 Y0.17 Z1.2 F360.0 E5132.567
G1 X-5.22 Y-1.3 Z1.2 F360.0 E5135.187
G1 X2.8 Y-9.31 Z1.2 F360.0 E5149.365
G1 X3.2 Y-9.12 Z1.2 F360.0 E5149.919
G1 X3.27 Y-9.78 Z1.2 F360.0 E5150.752
;M103
G1 X0.57 Y-7.68 Z1.2 F3600.0
;M101
G1 X-2.02 Y-6.28 Z1.2 F360.0 E5154.423
G1 X-3.0 Y-5.89 Z1.2 F360.0 E5155.746
G1 X-3.57 Y-5.39 Z1.2 F360.0 E5156.7
G1 X-3.97 Y-3.34 Z1.2 F360.0 E5159.304
G1 X-4.35 Y-2.76 Z1.2 F360.0 E5160.18
G1 X-4.42 Y-3.88 Z1.2 F360.0 E5161.582
G1 X-4.57 Y-4.32 Z1.2 F360.0 E5162.167
G1 X-4.9 Y-4.58 Z1.2 F360.0 E5162.696
G1 X-4.37 Y-5.7 Z1.2 F360.0 E5164.246
G1 X-4.97 Y-5.69 Z1.2 F360.0 E5165.001
G1 X-5.66 Y-5.0 Z1.2 F360.0 E5166.218
G1 X-6.1 Y-5.16 Z1.2 F360.0 E5166.797
G1 X-5.58 Y-5.68 Z1.2 F360.0 E5167.719
G1 X-6.18 Y-5.67 Z1.2 F360.0 E5168.475
G1 X-6.53 Y-5.31 Z1.2 F360.0 E5169.101
G1 X-6.78 Y-5.66 Z1.2 F360.0 E5169.631
G1 X-6.97 Y-5.47 Z1.2 F360.0 E5169.962
;M103
G1 X-5.56 Y-3.63 Z1.2 F3600.0
G1 X-5.61 Y-1.5 Z1.2 F3600.0
;M101
G1 X-5.89 Y-1.81 Z1.2 F360.0 E5170.487
G1 X-6.11 Y-1.59 Z1.2 F360.0 E5170.883
;M103
G1 X-5.91 Y-0.4 Z1.2 F3600.0
G1 X-5.38 Y0.24 Z1.2 F3600.0
G1 X-5.79 Y0.78 Z1.2 F3600.0
G1 X-6.67 Y3.12 Z1.2 F3600.0
;M101
G1 X-6.93 Y2.78 Z1.2 F360.0 E5171.414
G1 X-7.24 Y3.09 Z1.2 F360.0 E5171.967
;M103
G1 X-0.68 Y9.56 Z1.2 F3600.0
;M101
G1 X-1.08 Y9.37 Z1.2 F360.0 E5172.526
G1 X-1.21 Y10.09 Z1.2 F360.0 E5173.435
;M103
G1 X2.89 Y8.37 Z1.2 F3600.0
;M101
G1 X2.35 Y8.9 Z1.2 F360.0 E5174.379
G1 X1.35 Y9.31 Z1.2 F360.0 E5175.737
G1 X0.01 Y9.47 Z1.2 F360.0 E5177.431
G1 X3.41 Y7.25 Z1.2 F360.0 E5182.523
G1 X4.17 Y4.72 Z1.2 F360.0 E5185.831
G1 X4.82 Y4.06 Z1.2 F360.0 E5186.983
;M103
G1 X6.97 Y3.11 Z1.2 F3600.0
;M101
G1 X7.16 Y2.91 Z1.2 F360.0 E5187.325
G1 X6.78 Y2.7 Z1.2 F360.0 E5187.869
G1 X6.34 Y3.14 Z1.2 F360.0 E5188.647
G1 X6.4 Y2.48 Z1.2 F360.0 E5189.47
G1 X5.27 Y1.84 Z1.2 F360.0 E5191.101
G1 X4.95 Y1.56 Z1.2 F360.0 E5191.627
G1 X-1.49 Y9.19 Z1.2 F360.0 E5204.111
