G21 (This is GCode, generated with Skeinforge version 35 from ReplicatorG)
G21 (Ultimaker profile - Quality print - alterations/start-centered.gcode)
G21 (Metric: The unit is a millimeter)
M18 (Disable motors for now, to allow manual moving of the head)
G90 (Absolute Positioning)
G92 X0 Y0 Z0 E0 (set origin to current position)
;M1 (Check if the platform is empty before continuing)
;G1 X-220.0 Y-220.0 F2000 (ensure you're in the front left corner)
;G92 X-110 Y-110 Z220 E0 (make the center the origin)
;G1 X0.0 Y0.0 F3000 (go back to the center)
;G1 Z210.0 F100 (let the platform go up slightly, start slowly)
;G1 Z0.0 F400 (we don't have all day...)
;G92 X0 Y0 Z0 E0 (make the center the origin)
;G91 (Relative positioning)
;G1 Z35.0 F400 (lower platform for cleaning nozzle)
;G92 E0 (zero the extruded length)
;G1 E260 F1000 (extrude some to get the flow going)
;G1 E-20 F3000 (reverse a little)
;G92 E0 (zero the extruded length)
;M1 (Clean the nozzle and press YES to continue...)
;G1 Z-1.0 F100 (rise platform again)
;G1 Z-34.0 F400 (rise platform again)
;G90 
;G1 Z0.4
;G92 E0 (zero the extruded length)
G21 (end of start .gcode file)
G90
G21
;M103
M105
M106
M113 S1.0
;M108 S7.506
M104 S245.0
;M108 S7.881
G1 X-15.33 Y-23.49 Z0.3 F243.0
;M101
G1 X-15.33 Y23.49 Z0.3 F243.0 E91.408
G1 X15.46 Y23.49 Z0.3 F243.0 E151.325
G1 X15.46 Y-23.49 Z0.3 F243.0 E242.733
G1 X-15.33 Y-23.49 Z0.3 F243.0 E302.65
;M103
G1 X-3.25 Y13.34 Z0.3 F2880.0
;M101
G1 X-10.53 Y6.06 Z0.3 F288.0 E319.549
G1 X-10.01 Y5.99 Z0.3 F288.0 E320.415
G1 X-3.18 Y12.81 Z0.3 F288.0 E336.258
G1 X-3.17 Y12.23 Z0.3 F288.0 E337.211
G1 X-9.39 Y6.01 Z0.3 F288.0 E351.658
G1 X-8.84 Y5.97 Z0.3 F288.0 E352.564
G1 X-3.16 Y11.65 Z0.3 F288.0 E365.765
G1 X-3.15 Y11.07 Z0.3 F288.0 E366.718
G1 X-8.29 Y5.92 Z0.3 F288.0 E378.674
G1 X-7.74 Y5.88 Z0.3 F288.0 E379.579
G1 X-3.13 Y10.49 Z0.3 F288.0 E390.289
G1 X-3.12 Y9.91 Z0.3 F288.0 E391.242
G1 X-7.38 Y5.66 Z0.3 F288.0 E401.125
G1 X-7.13 Y5.31 Z0.3 F288.0 E401.823
G1 X-3.1 Y9.34 Z0.3 F288.0 E411.17
G1 X-3.14 Y8.7 Z0.3 F288.0 E412.213
G1 X-6.96 Y4.88 Z0.3 F288.0 E421.083
G1 X-6.83 Y4.43 Z0.3 F288.0 E421.861
G1 X-3.19 Y8.07 Z0.3 F288.0 E430.309
G1 X-3.23 Y7.43 Z0.3 F288.0 E431.356
G1 X-6.71 Y3.96 Z0.3 F288.0 E439.425
G1 X-6.61 Y3.46 Z0.3 F288.0 E440.259
G1 X-3.23 Y6.84 Z0.3 F288.0 E448.119
G1 X-3.22 Y6.26 Z0.3 F288.0 E449.086
G1 X-6.52 Y2.96 Z0.3 F288.0 E456.735
G1 X-6.42 Y2.46 Z0.3 F288.0 E457.569
G1 X-3.22 Y5.67 Z0.3 F288.0 E465.009
G1 X-3.22 Y5.08 Z0.3 F288.0 E465.976
G1 X-6.33 Y1.96 Z0.3 F288.0 E473.205
G1 X-6.24 Y1.47 Z0.3 F288.0 E474.039
G1 X-3.21 Y4.49 Z0.3 F288.0 E481.058
G1 X-3.21 Y3.9 Z0.3 F288.0 E482.025
G1 X-6.14 Y0.97 Z0.3 F288.0 E488.834
G1 X-6.05 Y0.47 Z0.3 F288.0 E489.666
G1 X-3.21 Y3.31 Z0.3 F288.0 E496.265
G1 X-3.2 Y2.72 Z0.3 F288.0 E497.233
G1 X-5.96 Y-0.03 Z0.3 F288.0 E503.623
G1 X-5.86 Y-0.53 Z0.3 F288.0 E504.455
G1 X-3.2 Y2.13 Z0.3 F288.0 E510.633
G1 X-3.2 Y1.54 Z0.3 F288.0 E511.601
G1 X-5.77 Y-1.03 Z0.3 F288.0 E517.57
G1 X-5.67 Y-1.53 Z0.3 F288.0 E518.402
G1 X-3.19 Y0.95 Z0.3 F288.0 E524.161
G1 X-3.19 Y0.37 Z0.3 F288.0 E525.128
G1 X-5.58 Y-2.03 Z0.3 F288.0 E530.676
G1 X-5.48 Y-2.51 Z0.3 F288.0 E531.497
G1 X-3.19 Y-0.22 Z0.3 F288.0 E536.814
G1 X-3.18 Y-0.81 Z0.3 F288.0 E537.781
G1 X-5.34 Y-2.97 Z0.3 F288.0 E542.79
G1 X-5.2 Y-3.43 Z0.3 F288.0 E543.571
G1 X-3.18 Y-1.4 Z0.3 F288.0 E548.269
G1 X-3.18 Y-1.99 Z0.3 F288.0 E549.236
G1 X-5.07 Y-3.88 Z0.3 F288.0 E553.627
G1 X-4.93 Y-4.34 Z0.3 F288.0 E554.409
G1 X-3.17 Y-2.58 Z0.3 F288.0 E558.491
G1 X-3.17 Y-3.17 Z0.3 F288.0 E559.458
G1 X-4.8 Y-4.8 Z0.3 F288.0 E563.231
G1 X-4.66 Y-5.25 Z0.3 F288.0 E564.013
G1 X-3.17 Y-3.76 Z0.3 F288.0 E567.477
G1 X-3.16 Y-4.35 Z0.3 F288.0 E568.444
G1 X-4.52 Y-5.71 Z0.3 F288.0 E571.6
G1 X-4.39 Y-6.16 Z0.3 F288.0 E572.381
G1 X-3.16 Y-4.94 Z0.3 F288.0 E575.228
G1 X-3.16 Y-5.53 Z0.3 F288.0 E576.195
G1 X-4.25 Y-6.62 Z0.3 F288.0 E578.734
G1 X-4.11 Y-7.08 Z0.3 F288.0 E579.515
G1 X-3.15 Y-6.12 Z0.3 F288.0 E581.745
G1 X-3.15 Y-6.7 Z0.3 F288.0 E582.712
G1 X-3.98 Y-7.53 Z0.3 F288.0 E584.632
G1 X-3.84 Y-7.99 Z0.3 F288.0 E585.413
G1 X-3.15 Y-7.29 Z0.3 F288.0 E587.026
G1 X-3.14 Y-7.88 Z0.3 F288.0 E587.993
G1 X-3.7 Y-8.44 Z0.3 F288.0 E589.295
G1 X-3.57 Y-8.9 Z0.3 F288.0 E590.078
G1 X-3.14 Y-8.47 Z0.3 F288.0 E591.073
G1 X-3.14 Y-9.06 Z0.3 F288.0 E592.04
G1 X-3.43 Y-9.36 Z0.3 F288.0 E592.728
G1 X-3.11 Y-9.62 Z0.3 F288.0 E593.42
G1 X-3.3 Y-9.81 Z0.3 F288.0 E593.858
G1 X-3.03 Y-10.14 Z0.3 F288.0 E594.549
G1 X-3.16 Y-10.27 Z0.3 F288.0 E594.851
G1 X-2.95 Y-10.65 Z0.3 F288.0 E595.569
G1 X-3.02 Y-10.72 Z0.3 F288.0 E595.734
;M103
G1 X-2.39 Y-13.05 Z0.3 F2880.0
;M101
G1 X-2.43 Y-13.1 Z0.3 F288.0 E595.832
G1 X-2.24 Y-13.49 Z0.3 F288.0 E596.557
G1 X-2.34 Y-13.6 Z0.3 F288.0 E596.801
G1 X-2.08 Y-13.93 Z0.3 F288.0 E597.493
G1 X-2.35 Y-14.2 Z0.3 F288.0 E598.114
G1 X-1.82 Y-14.26 Z0.3 F288.0 E598.996
G1 X-2.58 Y-15.02 Z0.3 F288.0 E600.779
G1 X-1.81 Y-14.85 Z0.3 F288.0 E602.074
G1 X-1.51 Y-14.54 Z0.3 F288.0 E602.781
;M103
G1 X-7.12 Y10.06 Z0.3 F2880.0
;M101
G1 X-3.32 Y13.86 Z0.3 F288.0 E611.601
G1 X-3.42 Y14.36 Z0.3 F288.0 E612.431
G1 X-6.89 Y10.88 Z0.3 F288.0 E620.505
G1 X-6.83 Y11.54 Z0.3 F288.0 E621.595
G1 X-3.57 Y14.8 Z0.3 F288.0 E629.162
G1 X-3.72 Y15.24 Z0.3 F288.0 E629.928
G1 X-6.76 Y12.2 Z0.3 F288.0 E636.985
G1 X-6.69 Y12.86 Z0.3 F288.0 E638.076
G1 X-3.87 Y15.68 Z0.3 F288.0 E644.624
G1 X-4.02 Y16.12 Z0.3 F288.0 E645.39
G1 X-6.62 Y13.52 Z0.3 F288.0 E651.429
G1 X-6.5 Y14.24 Z0.3 F288.0 E652.622
G1 X-4.17 Y16.56 Z0.3 F288.0 E658.023
G1 X-4.32 Y17.0 Z0.3 F288.0 E658.788
G1 X-6.3 Y15.02 Z0.3 F288.0 E663.386
G1 X-6.11 Y15.81 Z0.3 F288.0 E664.717
G1 X-4.48 Y17.43 Z0.3 F288.0 E668.49
G1 X-4.68 Y17.83 Z0.3 F288.0 E669.218
G1 X-5.92 Y16.6 Z0.3 F288.0 E672.088
G1 X-5.72 Y17.38 Z0.3 F288.0 E673.419
G1 X-4.87 Y18.23 Z0.3 F288.0 E675.383
G1 X-5.07 Y18.63 Z0.3 F288.0 E676.109
G1 X-5.53 Y18.17 Z0.3 F288.0 E677.168
G1 X-5.32 Y18.97 Z0.3 F288.0 E678.529
;M103
G1 X-5.52 Y19.28 Z0.3 F3600.0
;M101
G1 X-5.63 Y19.25 Z0.3 F288.0 E678.714
G1 X-6.94 Y13.95 Z0.3 F288.0 E687.667
G1 X-7.26 Y10.83 Z0.3 F288.0 E692.828
G1 X-7.48 Y10.1 Z0.3 F288.0 E694.074
G1 X-7.63 Y9.85 Z0.3 F288.0 E694.555
G1 X-9.92 Y7.6 Z0.3 F288.0 E699.834
G1 X-10.62 Y6.73 Z0.3 F288.0 E701.656
G1 X-11.27 Y5.74 Z0.3 F288.0 E703.604
G1 X-11.17 Y5.37 Z0.3 F288.0 E704.23
G1 X-10.77 Y5.55 Z0.3 F288.0 E704.953
G1 X-9.62 Y5.67 Z0.3 F288.0 E706.843
G1 X-7.72 Y5.52 Z0.3 F288.0 E709.979
G1 X-7.4 Y5.07 Z0.3 F288.0 E710.884
G1 X-7.09 Y4.09 Z0.3 F288.0 E712.576
G1 X-5.85 Y-2.5 Z0.3 F288.0 E723.581
G1 X-2.97 Y-12.13 Z0.3 F288.0 E740.087
G1 X-2.65 Y-13.9 Z0.3 F288.0 E743.039
G1 X-2.8 Y-14.58 Z0.3 F288.0 E744.187
G1 X-3.02 Y-14.98 Z0.3 F288.0 E744.928
G1 X-5.65 Y-16.45 Z0.3 F288.0 E749.886
G1 X-6.13 Y-16.82 Z0.3 F288.0 E750.871
G1 X-5.99 Y-17.01 Z0.3 F288.0 E751.263
G1 X-2.15 Y-15.21 Z0.3 F288.0 E758.236
G1 X-1.13 Y-15.16 Z0.3 F288.0 E759.916
G1 X-0.04 Y-15.67 Z0.3 F288.0 E761.879
G1 X0.17 Y-15.93 Z0.3 F288.0 E762.432
G1 X0.27 Y-15.54 Z0.3 F288.0 E763.099
G1 X0.05 Y-15.33 Z0.3 F288.0 E763.595
G1 X-0.73 Y-14.85 Z0.3 F288.0 E765.104
G1 X-1.73 Y-13.85 Z0.3 F288.0 E767.428
G1 X-2.39 Y-11.98 Z0.3 F288.0 E770.682
G1 X-2.78 Y-9.41 Z0.3 F288.0 E774.951
G1 X-2.88 Y7.71 Z0.3 F288.0 E803.053
G1 X-2.85 Y7.75 Z0.3 F288.0 E803.139
G1 X-2.73 Y9.59 Z0.3 F288.0 E806.168
G1 X-2.76 Y9.63 Z0.3 F288.0 E806.251
G1 X-2.83 Y12.86 Z0.3 F288.0 E811.547
G1 X-3.02 Y14.3 Z0.3 F288.0 E813.927
G1 X-4.12 Y17.49 Z0.3 F288.0 E819.471
G1 X-5.07 Y19.43 Z0.3 F288.0 E823.015
G1 X-5.43 Y19.31 Z0.3 F288.0 E823.637
G1 X-5.52 Y19.28 Z0.3 F288.0 E823.799
;M103
;M108 S5.629
;M108 S5.91
G1 X-5.98 Y19.57 Z0.3 F3600.0
;M101
G1 X-7.35 Y14.03 Z0.3 F243.0 E832.134
G1 X-7.67 Y10.91 Z0.3 F243.0 E836.705
G1 X-7.87 Y10.27 Z0.3 F243.0 E837.68
G1 X-7.96 Y10.11 Z0.3 F243.0 E837.954
G1 X-10.23 Y7.88 Z0.3 F243.0 E842.602
G1 X-10.96 Y6.98 Z0.3 F243.0 E844.286
G1 X-11.73 Y5.8 Z0.3 F243.0 E846.345
G1 X-12.22 Y4.87 Z0.3 F243.0 E847.874
G1 X-12.33 Y4.52 Z0.3 F243.0 E848.416
G1 X-12.26 Y4.51 Z0.3 F243.0 E848.51
G1 X-10.67 Y5.14 Z0.3 F243.0 E851.017
G1 X-9.62 Y5.25 Z0.3 F243.0 E852.559
G1 X-8.36 Y5.16 Z0.3 F243.0 E854.396
G1 X-8.17 Y5.09 Z0.3 F243.0 E854.691
G1 X-7.95 Y5.12 Z0.3 F243.0 E855.021
G1 X-7.78 Y4.88 Z0.3 F243.0 E855.446
G1 X-7.5 Y3.99 Z0.3 F243.0 E856.814
G1 X-6.26 Y-2.6 Z0.3 F243.0 E866.592
G1 X-3.38 Y-12.23 Z0.3 F243.0 E881.262
G1 X-3.08 Y-13.89 Z0.3 F243.0 E883.729
G1 X-3.2 Y-14.43 Z0.3 F243.0 E884.538
G1 X-3.32 Y-14.67 Z0.3 F243.0 E884.927
G1 X-4.87 Y-15.48 Z0.3 F243.0 E887.475
G1 X-5.89 Y-16.11 Z0.3 F243.0 E889.221
G1 X-6.7 Y-16.72 Z0.3 F243.0 E890.706
G1 X-7.35 Y-17.36 Z0.3 F243.0 E892.036
G1 X-7.89 Y-18.0 Z0.3 F243.0 E893.264
G1 X-8.23 Y-18.82 Z0.3 F243.0 E894.558
G1 X-8.36 Y-19.94 Z0.3 F243.0 E896.197
G1 X-8.35 Y-19.97 Z0.3 F243.0 E896.247
G1 X-8.22 Y-19.98 Z0.3 F243.0 E896.437
G1 X-7.7 Y-19.03 Z0.3 F243.0 E898.019
G1 X-6.99 Y-18.21 Z0.3 F243.0 E899.595
G1 X-6.13 Y-17.57 Z0.3 F243.0 E901.167
G1 X-5.08 Y-16.99 Z0.3 F243.0 E902.905
G1 X-2.05 Y-15.63 Z0.3 F243.0 E907.759
G1 X-1.21 Y-15.59 Z0.3 F243.0 E908.986
G1 X-0.26 Y-16.03 Z0.3 F243.0 E910.513
G1 X0.58 Y-16.65 Z0.3 F243.0 E912.039
G1 X1.04 Y-17.08 Z0.3 F243.0 E912.959
G1 X1.09 Y-17.01 Z0.3 F243.0 E913.094
G1 X1.14 Y-16.78 Z0.3 F243.0 E913.428
G1 X1.04 Y-16.0 Z0.3 F243.0 E914.583
G1 X0.79 Y-15.44 Z0.3 F243.0 E915.471
G1 X0.3 Y-15.0 Z0.3 F243.0 E916.429
G1 X-0.47 Y-14.52 Z0.3 F243.0 E917.755
G1 X-1.37 Y-13.62 Z0.3 F243.0 E919.61
G1 X-1.99 Y-11.88 Z0.3 F243.0 E922.307
G1 X-2.36 Y-9.37 Z0.3 F243.0 E926.012
G1 X-2.52 Y-5.9 Z0.3 F243.0 E931.086
G1 X-2.56 Y2.46 Z0.3 F243.0 E943.277
G1 X-2.53 Y2.59 Z0.3 F243.0 E943.479
G1 X-2.46 Y7.6 Z0.3 F243.0 E950.778
G1 X-2.44 Y7.63 Z0.3 F243.0 E950.838
G1 X-2.3 Y9.71 Z0.3 F243.0 E953.871
G1 X-2.34 Y9.76 Z0.3 F243.0 E953.965
G1 X-2.33 Y11.27 Z0.3 F243.0 E956.164
G1 X-2.41 Y12.9 Z0.3 F243.0 E958.549
G1 X-2.61 Y14.39 Z0.3 F243.0 E960.738
G1 X-2.94 Y15.48 Z0.3 F243.0 E962.403
G1 X-3.29 Y16.32 Z0.3 F243.0 E963.737
G1 X-3.72 Y17.64 Z0.3 F243.0 E965.767
G1 X-4.3 Y18.92 Z0.3 F243.0 E967.81
G1 X-4.87 Y19.93 Z0.3 F243.0 E969.504
G1 X-5.36 Y20.49 Z0.3 F243.0 E970.582
G1 X-5.67 Y20.3 Z0.3 F243.0 E971.12
G1 X-5.98 Y19.57 Z0.3 F243.0 E972.276
;M103
;M108 S7.506
;M108 S7.881
G1 X8.99 Y14.91 Z0.3 F2880.0
;M101
G1 X8.84 Y14.76 Z0.3 F288.0 E972.622
;M103
G1 X8.88 Y13.03 Z0.3 F2880.0
;M101
G1 X8.95 Y13.1 Z0.3 F288.0 E972.777
G1 X9.01 Y13.75 Z0.3 F288.0 E973.861
G1 X9.27 Y14.01 Z0.3 F288.0 E974.462
G1 X8.96 Y14.29 Z0.3 F288.0 E975.151
G1 X9.52 Y14.85 Z0.3 F288.0 E976.447
G1 X9.61 Y14.35 Z0.3 F288.0 E977.281
G1 X10.09 Y14.83 Z0.3 F288.0 E978.396
;M103
G1 X9.26 Y11.9 Z0.3 F3600.0
G1 X8.88 Y9.38 Z0.3 F3600.0
G1 X7.09 Y-15.42 Z0.3 F2880.0
;M101
G1 X5.51 Y-17.0 Z0.3 F288.0 E982.063
G1 X5.39 Y-16.53 Z0.3 F288.0 E982.867
G1 X8.0 Y-13.92 Z0.3 F288.0 E988.917
G1 X8.09 Y-13.24 Z0.3 F288.0 E990.05
G1 X5.27 Y-16.05 Z0.3 F288.0 E996.584
G1 X5.16 Y-15.58 Z0.3 F288.0 E997.387
G1 X8.15 Y-12.59 Z0.3 F288.0 E1004.332
G1 X8.16 Y-11.98 Z0.3 F288.0 E1005.327
G1 X5.04 Y-15.1 Z0.3 F288.0 E1012.576
G1 X4.92 Y-14.63 Z0.3 F288.0 E1013.38
G1 X8.17 Y-11.37 Z0.3 F288.0 E1020.932
G1 X8.19 Y-10.77 Z0.3 F288.0 E1021.927
G1 X4.81 Y-14.15 Z0.3 F288.0 E1029.782
G1 X4.72 Y-13.65 Z0.3 F288.0 E1030.622
G1 X8.2 Y-10.16 Z0.3 F288.0 E1038.712
G1 X8.22 Y-9.56 Z0.3 F288.0 E1039.707
G1 X4.66 Y-13.11 Z0.3 F288.0 E1047.958
G1 X4.61 Y-12.57 Z0.3 F288.0 E1048.845
G1 X8.2 Y-8.98 Z0.3 F288.0 E1057.19
G1 X8.16 Y-8.42 Z0.3 F288.0 E1058.105
G1 X4.55 Y-12.04 Z0.3 F288.0 E1066.493
G1 X4.5 Y-11.5 Z0.3 F288.0 E1067.381
G1 X8.13 Y-7.87 Z0.3 F288.0 E1075.81
G1 X8.09 Y-7.31 Z0.3 F288.0 E1076.73
G1 X4.44 Y-10.96 Z0.3 F288.0 E1085.21
G1 X4.33 Y-10.48 Z0.3 F288.0 E1086.025
G1 X8.09 Y-6.72 Z0.3 F288.0 E1094.748
G1 X8.09 Y-6.13 Z0.3 F288.0 E1095.716
G1 X4.2 Y-10.02 Z0.3 F288.0 E1104.756
G1 X3.99 Y-9.64 Z0.3 F288.0 E1105.473
G1 X8.09 Y-5.54 Z0.3 F288.0 E1114.987
G1 X8.08 Y-4.95 Z0.3 F288.0 E1115.955
G1 X3.69 Y-9.34 Z0.3 F288.0 E1126.151
G1 X3.39 Y-9.05 Z0.3 F288.0 E1126.838
G1 X8.08 Y-4.36 Z0.3 F288.0 E1137.724
G1 X8.08 Y-3.77 Z0.3 F288.0 E1138.691
G1 X3.09 Y-8.75 Z0.3 F288.0 E1150.262
G1 X2.79 Y-8.46 Z0.3 F288.0 E1150.95
G1 X8.07 Y-3.18 Z0.3 F288.0 E1163.21
G1 X8.07 Y-2.59 Z0.3 F288.0 E1164.178
G1 X2.5 Y-8.17 Z0.3 F288.0 E1177.127
G1 X2.2 Y-7.87 Z0.3 F288.0 E1177.813
G1 X8.07 Y-2.0 Z0.3 F288.0 E1191.449
G1 X8.07 Y-1.41 Z0.3 F288.0 E1192.416
G1 X4.26 Y-5.22 Z0.3 F288.0 E1201.261
G1 X4.52 Y-4.36 Z0.3 F288.0 E1202.734
G1 X8.06 Y-0.82 Z0.3 F288.0 E1210.959
G1 X8.06 Y-0.23 Z0.3 F288.0 E1211.928
G1 X4.69 Y-3.61 Z0.3 F288.0 E1219.762
G1 X4.82 Y-2.88 Z0.3 F288.0 E1220.98
G1 X8.06 Y0.36 Z0.3 F288.0 E1228.492
G1 X8.06 Y0.95 Z0.3 F288.0 E1229.459
G1 X4.96 Y-2.15 Z0.3 F288.0 E1236.643
G1 X5.1 Y-1.42 Z0.3 F288.0 E1237.862
G1 X8.05 Y1.54 Z0.3 F288.0 E1244.721
G1 X8.05 Y2.13 Z0.3 F288.0 E1245.69
G1 X5.24 Y-0.69 Z0.3 F288.0 E1252.226
G1 X5.37 Y0.04 Z0.3 F288.0 E1253.446
G1 X8.05 Y2.72 Z0.3 F288.0 E1259.655
G1 X8.05 Y3.31 Z0.3 F288.0 E1260.624
G1 X5.51 Y0.77 Z0.3 F288.0 E1266.508
G1 X5.65 Y1.5 Z0.3 F288.0 E1267.727
G1 X8.04 Y3.9 Z0.3 F288.0 E1273.287
G1 X8.04 Y4.49 Z0.3 F288.0 E1274.256
G1 X5.79 Y2.23 Z0.3 F288.0 E1279.491
G1 X6.01 Y3.05 Z0.3 F288.0 E1280.88
G1 X8.04 Y5.08 Z0.3 F288.0 E1285.588
G1 X8.04 Y5.67 Z0.3 F288.0 E1286.557
G1 X6.26 Y3.89 Z0.3 F288.0 E1290.674
G1 X6.51 Y4.74 Z0.3 F288.0 E1292.122
G1 X8.05 Y6.27 Z0.3 F288.0 E1295.688
G1 X8.08 Y6.89 Z0.3 F288.0 E1296.707
G1 X6.77 Y5.58 Z0.3 F288.0 E1299.753
G1 X7.02 Y6.43 Z0.3 F288.0 E1301.201
G1 X8.11 Y7.51 Z0.3 F288.0 E1303.724
G1 X8.13 Y8.13 Z0.3 F288.0 E1304.744
G1 X7.27 Y7.27 Z0.3 F288.0 E1306.748
G1 X7.52 Y8.12 Z0.3 F288.0 E1308.196
G1 X8.16 Y8.75 Z0.3 F288.0 E1309.678
G1 X7.78 Y8.96 Z0.3 F288.0 E1310.397
G1 X8.19 Y9.37 Z0.3 F288.0 E1311.357
G1 X8.03 Y9.81 Z0.3 F288.0 E1312.114
G1 X8.29 Y10.06 Z0.3 F288.0 E1312.708
G1 X8.28 Y10.65 Z0.3 F288.0 E1313.676
G1 X8.39 Y10.76 Z0.3 F288.0 E1313.926
;M103
G1 X3.62 Y-4.92 Z0.3 F3600.0
G1 X1.9 Y-7.58 Z0.3 F2880.0
;M101
G1 X3.6 Y-5.88 Z0.3 F288.0 E1317.877
G1 X2.96 Y-5.93 Z0.3 F288.0 E1318.936
G1 X1.61 Y-7.28 Z0.3 F288.0 E1322.065
G1 X1.35 Y-6.94 Z0.3 F288.0 E1322.758
G1 X2.31 Y-5.98 Z0.3 F288.0 E1324.991
G1 X1.68 Y-6.03 Z0.3 F288.0 E1326.041
G1 X1.1 Y-6.61 Z0.3 F288.0 E1327.388
G1 X0.84 Y-6.27 Z0.3 F288.0 E1328.083
G1 X1.14 Y-5.97 Z0.3 F288.0 E1328.776
;M103
G1 X3.67 Y-10.67 Z0.3 F3600.0
G1 X6.45 Y-17.25 Z0.3 F2880.0
;M101
G1 X5.74 Y-17.95 Z0.3 F288.0 E1330.408
G1 X5.63 Y-17.48 Z0.3 F288.0 E1331.211
G1 X7.45 Y-15.65 Z0.3 F288.0 E1335.451
G1 X7.77 Y-14.74 Z0.3 F288.0 E1337.04
;M103
G1 X5.98 Y-18.9 Z0.3 F2880.0
;M101
G1 X6.3 Y-18.58 Z0.3 F288.0 E1337.786
G1 X5.86 Y-18.43 Z0.3 F288.0 E1338.55
G1 X6.81 Y-17.48 Z0.3 F288.0 E1340.753
G1 X7.13 Y-16.57 Z0.3 F288.0 E1342.343
;M103
G1 X7.5 Y-16.59 Z0.3 F3600.0
;M101
G1 X8.31 Y-14.3 Z0.3 F288.0 E1346.335
G1 X8.5 Y-12.86 Z0.3 F288.0 E1348.715
G1 X8.57 Y-9.63 Z0.3 F288.0 E1354.011
G1 X8.6 Y-9.59 Z0.3 F288.0 E1354.094
G1 X8.48 Y-7.75 Z0.3 F288.0 E1357.124
G1 X8.45 Y-7.71 Z0.3 F288.0 E1357.21
G1 X8.39 Y5.91 Z0.3 F288.0 E1379.557
G1 X8.55 Y9.41 Z0.3 F288.0 E1385.316
G1 X8.93 Y11.98 Z0.3 F288.0 E1389.586
G1 X9.59 Y13.85 Z0.3 F288.0 E1392.839
G1 X10.59 Y14.85 Z0.3 F288.0 E1395.165
G1 X11.38 Y15.33 Z0.3 F288.0 E1396.672
G1 X11.6 Y15.54 Z0.3 F288.0 E1397.169
G1 X11.5 Y15.93 Z0.3 F288.0 E1397.837
G1 X11.29 Y15.67 Z0.3 F288.0 E1398.389
G1 X10.2 Y15.16 Z0.3 F288.0 E1400.354
G1 X9.18 Y15.21 Z0.3 F288.0 E1402.037
G1 X5.33 Y17.01 Z0.3 F288.0 E1409.007
G1 X5.2 Y16.82 Z0.3 F288.0 E1409.398
G1 X5.68 Y16.45 Z0.3 F288.0 E1410.383
G1 X8.31 Y14.98 Z0.3 F288.0 E1415.341
G1 X8.53 Y14.58 Z0.3 F288.0 E1416.082
G1 X8.68 Y13.9 Z0.3 F288.0 E1417.231
G1 X8.35 Y12.13 Z0.3 F288.0 E1420.182
G1 X5.47 Y2.5 Z0.3 F288.0 E1436.688
G1 X4.23 Y-4.09 Z0.3 F288.0 E1447.693
G1 X3.93 Y-5.07 Z0.3 F288.0 E1449.383
G1 X3.61 Y-5.52 Z0.3 F288.0 E1450.288
G1 X1.71 Y-5.67 Z0.3 F288.0 E1453.427
G1 X0.56 Y-5.55 Z0.3 F288.0 E1455.317
G1 X0.16 Y-5.37 Z0.3 F288.0 E1456.04
G1 X0.06 Y-5.74 Z0.3 F288.0 E1456.664
G1 X0.71 Y-6.73 Z0.3 F288.0 E1458.612
G1 X1.4 Y-7.6 Z0.3 F288.0 E1460.434
G1 X3.7 Y-9.85 Z0.3 F288.0 E1465.716
G1 X3.85 Y-10.1 Z0.3 F288.0 E1466.197
G1 X4.07 Y-10.83 Z0.3 F288.0 E1467.439
G1 X4.39 Y-13.96 Z0.3 F288.0 E1472.613
G1 X5.7 Y-19.25 Z0.3 F288.0 E1481.551
G1 X6.25 Y-19.43 Z0.3 F288.0 E1482.514
G1 X6.99 Y-18.04 Z0.3 F288.0 E1485.095
G1 X7.47 Y-16.68 Z0.3 F288.0 E1487.452
G1 X7.5 Y-16.59 Z0.3 F288.0 E1487.614
;M103
;M108 S5.629
;M108 S5.91
G1 X7.88 Y-16.84 Z0.3 F3600.0
;M101
G1 X8.37 Y-15.53 Z0.3 F243.0 E1489.652
G1 X8.72 Y-14.39 Z0.3 F243.0 E1491.396
G1 X8.91 Y-12.9 Z0.3 F243.0 E1493.585
G1 X9.0 Y-11.27 Z0.3 F243.0 E1495.97
G1 X8.99 Y-9.76 Z0.3 F243.0 E1498.169
G1 X9.02 Y-9.71 Z0.3 F243.0 E1498.263
G1 X8.89 Y-7.63 Z0.3 F243.0 E1501.296
G1 X8.87 Y-7.6 Z0.3 F243.0 E1501.356
G1 X8.8 Y-2.6 Z0.3 F243.0 E1508.653
G1 X8.76 Y-2.46 Z0.3 F243.0 E1508.856
G1 X8.81 Y5.9 Z0.3 F243.0 E1521.048
G1 X8.97 Y9.37 Z0.3 F243.0 E1526.123
G1 X9.34 Y11.88 Z0.3 F243.0 E1529.828
G1 X9.96 Y13.62 Z0.3 F243.0 E1532.524
G1 X10.86 Y14.52 Z0.3 F243.0 E1534.38
G1 X11.63 Y15.0 Z0.3 F243.0 E1535.705
G1 X12.11 Y15.44 Z0.3 F243.0 E1536.664
G1 X12.36 Y16.0 Z0.3 F243.0 E1537.552
G1 X12.46 Y16.78 Z0.3 F243.0 E1538.707
G1 X12.41 Y17.0 Z0.3 F243.0 E1539.04
G1 X12.36 Y17.08 Z0.3 F243.0 E1539.176
G1 X11.91 Y16.65 Z0.3 F243.0 E1540.096
G1 X11.07 Y16.03 Z0.3 F243.0 E1541.621
G1 X10.12 Y15.59 Z0.3 F243.0 E1543.15
G1 X9.28 Y15.63 Z0.3 F243.0 E1544.38
G1 X6.24 Y16.99 Z0.3 F243.0 E1549.231
G1 X5.2 Y17.57 Z0.3 F243.0 E1550.969
G1 X4.34 Y18.21 Z0.3 F243.0 E1552.539
G1 X3.63 Y19.03 Z0.3 F243.0 E1554.117
G1 X3.11 Y19.98 Z0.3 F243.0 E1555.698
G1 X2.97 Y19.97 Z0.3 F243.0 E1555.889
G1 X2.96 Y19.94 Z0.3 F243.0 E1555.938
G1 X3.09 Y18.82 Z0.3 F243.0 E1557.578
G1 X3.44 Y18.0 Z0.3 F243.0 E1558.871
G1 X3.97 Y17.36 Z0.3 F243.0 E1560.1
G1 X4.63 Y16.72 Z0.3 F243.0 E1561.429
G1 X5.44 Y16.11 Z0.3 F243.0 E1562.915
G1 X6.46 Y15.48 Z0.3 F243.0 E1564.66
G1 X8.0 Y14.67 Z0.3 F243.0 E1567.209
G1 X8.13 Y14.43 Z0.3 F243.0 E1567.597
G1 X8.25 Y13.89 Z0.3 F243.0 E1568.406
G1 X7.94 Y12.23 Z0.3 F243.0 E1570.874
G1 X5.07 Y2.6 Z0.3 F243.0 E1585.543
G1 X3.83 Y-3.99 Z0.3 F243.0 E1595.321
G1 X3.55 Y-4.88 Z0.3 F243.0 E1596.69
G1 X3.38 Y-5.12 Z0.3 F243.0 E1597.114
G1 X3.16 Y-5.09 Z0.3 F243.0 E1597.445
G1 X2.97 Y-5.16 Z0.3 F243.0 E1597.739
G1 X1.71 Y-5.25 Z0.3 F243.0 E1599.577
G1 X0.66 Y-5.14 Z0.3 F243.0 E1601.119
G1 X-0.94 Y-4.51 Z0.3 F243.0 E1603.626
G1 X-1.0 Y-4.52 Z0.3 F243.0 E1603.72
G1 X-0.89 Y-4.87 Z0.3 F243.0 E1604.262
G1 X-0.4 Y-5.8 Z0.3 F243.0 E1605.79
G1 X0.37 Y-6.98 Z0.3 F243.0 E1607.849
G1 X1.09 Y-7.88 Z0.3 F243.0 E1609.534
G1 X3.37 Y-10.11 Z0.3 F243.0 E1614.181
G1 X3.46 Y-10.27 Z0.3 F243.0 E1614.456
G1 X3.66 Y-10.91 Z0.3 F243.0 E1615.43
G1 X3.98 Y-14.03 Z0.3 F243.0 E1620.001
G1 X4.35 Y-15.81 Z0.3 F243.0 E1622.665
G1 X5.35 Y-19.57 Z0.3 F243.0 E1628.339
G1 X5.65 Y-20.3 Z0.3 F243.0 E1629.495
G1 X5.97 Y-20.49 Z0.3 F243.0 E1630.034
G1 X6.46 Y-19.93 Z0.3 F243.0 E1631.112
G1 X7.37 Y-18.21 Z0.3 F243.0 E1633.959
G1 X7.88 Y-16.84 Z0.3 F243.0 E1636.094
;M103
;M108 S7.506
G1 X4.7 Y-10.04 Z0.6 F3600.0
;M101
G1 X7.64 Y-12.97 Z0.6 F360.0 E1641.286
G1 X7.57 Y-13.49 Z0.6 F360.0 E1641.945
G1 X4.9 Y-10.83 Z0.6 F360.0 E1646.661
G1 X4.97 Y-11.49 Z0.6 F360.0 E1647.494
G1 X7.5 Y-14.02 Z0.6 F360.0 E1651.965
G1 X7.36 Y-14.47 Z0.6 F360.0 E1652.56
G1 X5.04 Y-12.15 Z0.6 F360.0 E1656.667
G1 X5.11 Y-12.81 Z0.6 F360.0 E1657.5
G1 X7.21 Y-14.91 Z0.6 F360.0 E1661.219
G1 X7.06 Y-15.36 Z0.6 F360.0 E1661.802
G1 X5.18 Y-13.47 Z0.6 F360.0 E1665.132
G1 X5.31 Y-14.19 Z0.6 F360.0 E1666.044
G1 X6.91 Y-15.8 Z0.6 F360.0 E1668.884
G1 X6.76 Y-16.24 Z0.6 F360.0 E1669.467
G1 X5.5 Y-14.98 Z0.6 F360.0 E1671.699
G1 X5.69 Y-15.76 Z0.6 F360.0 E1672.71
G1 X6.61 Y-16.68 Z0.6 F360.0 E1674.334
G1 X6.46 Y-17.12 Z0.6 F360.0 E1674.917
G1 X5.88 Y-16.55 Z0.6 F360.0 E1675.933
G1 X6.08 Y-17.33 Z0.6 F360.0 E1676.944
G1 X6.31 Y-17.56 Z0.6 F360.0 E1677.353
;M103
G1 X7.67 Y6.55 Z0.6 F3600.0
;M101
G1 X7.6 Y6.62 Z0.6 F360.0 E1677.471
G1 X7.46 Y6.16 Z0.6 F360.0 E1678.066
G1 X7.66 Y5.97 Z0.6 F360.0 E1678.408
G1 X7.33 Y5.71 Z0.6 F360.0 E1678.936
G1 X7.65 Y5.39 Z0.6 F360.0 E1679.5
G1 X7.19 Y5.25 Z0.6 F360.0 E1680.095
G1 X7.63 Y4.81 Z0.6 F360.0 E1680.883
G1 X7.62 Y4.22 Z0.6 F360.0 E1681.611
G1 X7.05 Y4.8 Z0.6 F360.0 E1682.621
G1 X6.92 Y4.34 Z0.6 F360.0 E1683.215
G1 X7.61 Y3.64 Z0.6 F360.0 E1684.449
G1 X7.6 Y3.06 Z0.6 F360.0 E1685.178
G1 X6.78 Y3.88 Z0.6 F360.0 E1686.635
G1 X6.64 Y3.43 Z0.6 F360.0 E1687.231
G1 X7.59 Y2.48 Z0.6 F360.0 E1688.911
G1 X7.58 Y1.9 Z0.6 F360.0 E1689.639
G1 X6.51 Y2.97 Z0.6 F360.0 E1691.543
G1 X6.37 Y2.52 Z0.6 F360.0 E1692.138
G1 X7.57 Y1.32 Z0.6 F360.0 E1694.265
G1 X7.56 Y0.73 Z0.6 F360.0 E1694.993
G1 X6.25 Y2.04 Z0.6 F360.0 E1697.303
G1 X6.16 Y1.54 Z0.6 F360.0 E1697.937
G1 X7.55 Y0.15 Z0.6 F360.0 E1700.396
G1 X7.54 Y-0.43 Z0.6 F360.0 E1701.123
G1 X6.07 Y1.04 Z0.6 F360.0 E1703.73
G1 X5.97 Y0.55 Z0.6 F360.0 E1704.364
G1 X7.53 Y-1.01 Z0.6 F360.0 E1707.119
G1 X7.52 Y-1.59 Z0.6 F360.0 E1707.847
G1 X5.88 Y0.05 Z0.6 F360.0 E1710.751
G1 X5.78 Y-0.45 Z0.6 F360.0 E1711.384
G1 X7.51 Y-2.18 Z0.6 F360.0 E1714.437
G1 X7.56 Y-2.82 Z0.6 F360.0 E1715.242
G1 X5.69 Y-0.95 Z0.6 F360.0 E1718.551
G1 X5.59 Y-1.45 Z0.6 F360.0 E1719.185
G1 X7.61 Y-3.46 Z0.6 F360.0 E1722.745
G1 X7.61 Y-4.06 Z0.6 F360.0 E1723.496
G1 X5.5 Y-1.94 Z0.6 F360.0 E1727.238
G1 X5.4 Y-2.44 Z0.6 F360.0 E1727.873
G1 X7.62 Y-4.66 Z0.6 F360.0 E1731.798
G1 X7.63 Y-5.26 Z0.6 F360.0 E1732.55
G1 X5.31 Y-2.94 Z0.6 F360.0 E1736.657
G1 X5.22 Y-3.44 Z0.6 F360.0 E1737.292
G1 X7.64 Y-5.86 Z0.6 F360.0 E1741.582
G1 X7.65 Y-6.46 Z0.6 F360.0 E1742.334
G1 X5.12 Y-3.94 Z0.6 F360.0 E1746.806
G1 X5.02 Y-4.43 Z0.6 F360.0 E1747.436
G1 X7.66 Y-7.07 Z0.6 F360.0 E1752.101
G1 X7.67 Y-7.67 Z0.6 F360.0 E1752.853
G1 X4.88 Y-4.88 Z0.6 F360.0 E1757.78
G1 X4.74 Y-5.33 Z0.6 F360.0 E1758.372
G1 X7.77 Y-8.36 Z0.6 F360.0 E1763.72
G1 X7.81 Y-8.99 Z0.6 F360.0 E1764.512
G1 X4.52 Y-5.7 Z0.6 F360.0 E1770.331
G1 X4.27 Y-6.04 Z0.6 F360.0 E1770.862
G1 X7.74 Y-9.52 Z0.6 F360.0 E1777.007
G1 X7.73 Y-10.1 Z0.6 F360.0 E1777.731
G1 X3.95 Y-6.32 Z0.6 F360.0 E1784.417
G1 X3.55 Y-6.51 Z0.6 F360.0 E1784.97
G1 X7.71 Y-10.67 Z0.6 F360.0 E1792.335
G1 X7.7 Y-11.25 Z0.6 F360.0 E1793.059
G1 X3.11 Y-6.66 Z0.6 F360.0 E1801.179
G1 X2.66 Y-6.81 Z0.6 F360.0 E1801.766
G1 X7.69 Y-11.83 Z0.6 F360.0 E1810.653
G1 X7.67 Y-12.41 Z0.6 F360.0 E1811.377
G1 X2.26 Y-7.0 Z0.6 F360.0 E1820.954
;M103
G1 X2.16 Y-6.65 Z0.6 F3600.0
;M101
G1 X1.96 Y-6.74 Z0.6 F360.0 E1821.23
G1 X1.73 Y-7.01 Z0.6 F360.0 E1821.677
G1 X3.96 Y-9.35 Z0.6 F360.0 E1825.718
G1 X4.3 Y-9.93 Z0.6 F360.0 E1826.554
G1 X4.53 Y-10.69 Z0.6 F360.0 E1827.55
G1 X4.87 Y-13.89 Z0.6 F360.0 E1831.579
G1 X5.9 Y-18.09 Z0.6 F360.0 E1836.983
G1 X5.95 Y-18.75 Z0.6 F360.0 E1837.808
G1 X6.29 Y-18.43 Z0.6 F360.0 E1838.391
G1 X6.56 Y-17.93 Z0.6 F360.0 E1839.108
G1 X7.84 Y-14.19 Z0.6 F360.0 E1844.048
G1 X8.02 Y-12.82 Z0.6 F360.0 E1845.776
G1 X8.09 Y-9.59 Z0.6 F360.0 E1849.812
G1 X8.19 Y-9.45 Z0.6 F360.0 E1850.033
G1 X8.09 Y-7.84 Z0.6 F360.0 E1852.052
G1 X8.02 Y-7.72 Z0.6 F360.0 E1852.223
G1 X7.95 Y-2.95 Z0.6 F360.0 E1858.189
G1 X7.86 Y-2.54 Z0.6 F360.0 E1858.718
G1 X8.04 Y8.38 Z0.6 F360.0 E1872.372
G1 X8.15 Y9.03 Z0.6 F360.0 E1873.199
G1 X7.9 Y8.85 Z0.6 F360.0 E1873.591
G1 X5.96 Y2.38 Z0.6 F360.0 E1882.036
G1 X4.69 Y-4.29 Z0.6 F360.0 E1890.53
G1 X4.39 Y-5.27 Z0.6 F360.0 E1891.816
G1 X3.9 Y-5.94 Z0.6 F360.0 E1892.859
G1 X3.19 Y-6.29 Z0.6 F360.0 E1893.841
G1 X2.81 Y-6.35 Z0.6 F360.0 E1894.33
G1 X2.16 Y-6.65 Z0.6 F360.0 E1895.218
;M103
G1 X1.99 Y-6.27 Z0.6 F3600.0
;M101
G1 X1.7 Y-6.4 Z0.6 F360.0 E1895.607
G1 X1.39 Y-6.45 Z0.6 F360.0 E1896.002
G1 X1.17 Y-7.03 Z0.6 F360.0 E1896.774
G1 X3.62 Y-9.61 Z0.6 F360.0 E1901.227
G1 X3.91 Y-10.1 Z0.6 F360.0 E1901.941
G1 X4.12 Y-10.77 Z0.6 F360.0 E1902.824
G1 X4.45 Y-13.96 Z0.6 F360.0 E1906.839
G1 X5.74 Y-19.21 Z0.6 F360.0 E1913.599
G1 X6.26 Y-19.39 Z0.6 F360.0 E1914.283
G1 X6.95 Y-18.09 Z0.6 F360.0 E1916.114
G1 X8.25 Y-14.29 Z0.6 F360.0 E1921.148
G1 X8.44 Y-12.85 Z0.6 F360.0 E1922.956
G1 X8.51 Y-9.73 Z0.6 F360.0 E1926.869
G1 X8.62 Y-9.56 Z0.6 F360.0 E1927.115
G1 X8.5 Y-7.72 Z0.6 F360.0 E1929.425
G1 X8.44 Y-7.61 Z0.6 F360.0 E1929.583
G1 X8.37 Y-2.9 Z0.6 F360.0 E1935.478
G1 X8.28 Y-2.49 Z0.6 F360.0 E1935.999
G1 X8.47 Y9.43 Z0.6 F360.0 E1950.909
G1 X8.84 Y12.0 Z0.6 F360.0 E1954.158
G1 X9.5 Y13.99 Z0.6 F360.0 E1956.787
G1 X9.72 Y14.23 Z0.6 F360.0 E1957.188
G1 X9.7 Y14.67 Z0.6 F360.0 E1957.737
G1 X9.14 Y14.7 Z0.6 F360.0 E1958.445
G1 X8.82 Y14.88 Z0.6 F360.0 E1958.902
G1 X8.74 Y14.28 Z0.6 F360.0 E1959.662
G1 X8.8 Y14.03 Z0.6 F360.0 E1959.977
G1 X8.44 Y12.11 Z0.6 F360.0 E1962.422
G1 X5.55 Y2.48 Z0.6 F360.0 E1974.995
G1 X4.29 Y-4.19 Z0.6 F360.0 E1983.488
G1 X4.01 Y-5.08 Z0.6 F360.0 E1984.657
G1 X3.62 Y-5.61 Z0.6 F360.0 E1985.483
G1 X3.07 Y-5.89 Z0.6 F360.0 E1986.255
G1 X2.68 Y-5.94 Z0.6 F360.0 E1986.74
G1 X1.99 Y-6.27 Z0.6 F360.0 E1987.702
;M103
G1 X3.3 Y-5.35 Z0.6 F3600.0
G1 X3.7 Y-4.92 Z0.6 F3600.0
G1 X3.96 Y-4.11 Z0.6 F3600.0
G1 X5.22 Y2.56 Z0.6 F3600.0
G1 X8.11 Y12.19 Z0.6 F3600.0
G1 X8.44 Y14.03 Z0.6 F3600.0
G1 X8.39 Y14.31 Z0.6 F3600.0
G1 X8.06 Y14.86 Z0.6 F3600.0
G1 X6.5 Y15.71 Z0.6 F3600.0
G1 X5.49 Y16.32 Z0.6 F3600.0
G1 X3.14 Y19.0 Z0.6 F3600.0
;M101
G1 X3.16 Y18.9 Z0.6 F360.0 E1987.825
G1 X3.43 Y18.15 Z0.6 F360.0 E1988.827
G1 X3.97 Y17.5 Z0.6 F360.0 E1989.879
G1 X4.63 Y16.87 Z0.6 F360.0 E1991.02
G1 X5.44 Y16.25 Z0.6 F360.0 E1992.293
G1 X6.46 Y15.63 Z0.6 F360.0 E1993.784
G1 X8.02 Y14.82 Z0.6 F360.0 E1995.988
G1 X8.31 Y14.28 Z0.6 F360.0 E1996.753
G1 X8.37 Y14.02 Z0.6 F360.0 E1997.08
G1 X8.03 Y12.21 Z0.6 F360.0 E1999.391
G1 X5.14 Y2.58 Z0.6 F360.0 E2011.964
G1 X3.88 Y-4.09 Z0.6 F360.0 E2020.454
G1 X3.63 Y-4.89 Z0.6 F360.0 E2021.506
G1 X3.3 Y-5.34 Z0.6 F360.0 E2022.206
G1 X3.13 Y-5.32 Z0.6 F360.0 E2022.42
G1 X2.98 Y-5.48 Z0.6 F360.0 E2022.693
G1 X2.56 Y-5.54 Z0.6 F360.0 E2023.221
G1 X1.58 Y-6.0 Z0.6 F360.0 E2024.577
G1 X1.09 Y-6.08 Z0.6 F360.0 E2025.196
G1 X0.56 Y-6.12 Z0.6 F360.0 E2025.856
G1 X0.34 Y-6.32 Z0.6 F360.0 E2026.236
G1 X0.23 Y-6.52 Z0.6 F360.0 E2026.521
G1 X1.15 Y-7.68 Z0.6 F360.0 E2028.362
G1 X2.52 Y-9.06 Z0.6 F360.0 E2030.797
G1 X2.69 Y-9.3 Z0.6 F360.0 E2031.17
G1 X3.29 Y-9.87 Z0.6 F360.0 E2032.205
G1 X3.53 Y-10.27 Z0.6 F360.0 E2032.783
G1 X3.71 Y-10.86 Z0.6 F360.0 E2033.553
G1 X4.04 Y-14.03 Z0.6 F360.0 E2037.544
G1 X4.41 Y-15.81 Z0.6 F360.0 E2039.817
G1 X5.39 Y-19.54 Z0.6 F360.0 E2044.643
G1 X5.72 Y-20.27 Z0.6 F360.0 E2045.643
G1 X5.99 Y-20.41 Z0.6 F360.0 E2046.024
G1 X6.46 Y-19.9 Z0.6 F360.0 E2046.899
G1 X7.33 Y-18.26 Z0.6 F360.0 E2049.215
G1 X8.66 Y-14.38 Z0.6 F360.0 E2054.343
G1 X8.85 Y-12.89 Z0.6 F360.0 E2056.223
G1 X8.94 Y-11.25 Z0.6 F360.0 E2058.28
G1 X8.93 Y-9.85 Z0.6 F360.0 E2060.031
G1 X9.04 Y-9.68 Z0.6 F360.0 E2060.291
G1 X8.91 Y-7.6 Z0.6 F360.0 E2062.892
G1 X8.86 Y-7.5 Z0.6 F360.0 E2063.037
G1 X8.79 Y-2.84 Z0.6 F360.0 E2068.861
G1 X8.7 Y-2.44 Z0.6 F360.0 E2069.378
G1 X8.73 Y5.91 Z0.6 F360.0 E2079.827
G1 X8.89 Y9.39 Z0.6 F360.0 E2084.181
G1 X9.25 Y11.9 Z0.6 F360.0 E2087.359
G1 X9.87 Y13.77 Z0.6 F360.0 E2089.825
G1 X10.15 Y14.07 Z0.6 F360.0 E2090.33
G1 X10.85 Y14.67 Z0.6 F360.0 E2091.491
G1 X11.63 Y15.16 Z0.6 F360.0 E2092.638
G1 X12.12 Y15.62 Z0.6 F360.0 E2093.476
G1 X12.17 Y16.14 Z0.6 F360.0 E2094.129
G1 X12.11 Y16.19 Z0.6 F360.0 E2094.227
G1 X11.07 Y15.47 Z0.6 F360.0 E2095.806
G1 X10.11 Y15.06 Z0.6 F360.0 E2097.113
G1 X9.23 Y15.11 Z0.6 F360.0 E2098.218
G1 X7.9 Y15.62 Z0.6 F360.0 E2099.994
G1 X6.25 Y16.43 Z0.6 F360.0 E2102.298
G1 X5.2 Y17.02 Z0.6 F360.0 E2103.804
G1 X4.34 Y17.67 Z0.6 F360.0 E2105.149
G1 X3.63 Y18.5 Z0.6 F360.0 E2106.516
G1 X3.24 Y19.25 Z0.6 F360.0 E2107.569
G1 X3.11 Y19.28 Z0.6 F360.0 E2107.742
G1 X3.06 Y19.66 Z0.6 F360.0 E2108.219
G1 X2.99 Y19.65 Z0.6 F360.0 E2108.3
G1 X3.0 Y19.64 Z0.6 F360.0 E2108.314
;M103
G1 X-6.29 Y5.7 Z0.6 F3600.0
;M101
G1 X-3.73 Y3.13 Z0.6 F360.0 E2112.859
G1 X-3.72 Y3.72 Z0.6 F360.0 E2113.589
G1 X-8.08 Y8.08 Z0.6 F360.0 E2121.313
G1 X-7.79 Y8.39 Z0.6 F360.0 E2121.837
G1 X-3.71 Y4.3 Z0.6 F360.0 E2129.066
G1 X-3.7 Y4.88 Z0.6 F360.0 E2129.797
G1 X-7.51 Y8.69 Z0.6 F360.0 E2136.529
G1 X-7.22 Y8.99 Z0.6 F360.0 E2137.053
G1 X-3.69 Y5.47 Z0.6 F360.0 E2143.29
G1 X-3.68 Y6.05 Z0.6 F360.0 E2144.02
G1 X-6.96 Y9.33 Z0.6 F360.0 E2149.825
G1 X-6.75 Y9.71 Z0.6 F360.0 E2150.366
G1 X-3.67 Y6.64 Z0.6 F360.0 E2155.798
G1 X-3.67 Y7.22 Z0.6 F360.0 E2156.529
G1 X-6.59 Y10.14 Z0.6 F360.0 E2161.701
G1 X-6.45 Y10.6 Z0.6 F360.0 E2162.294
G1 X-3.66 Y7.8 Z0.6 F360.0 E2167.235
G1 X-3.56 Y8.3 Z0.6 F360.0 E2167.87
G1 X-6.39 Y11.13 Z0.6 F360.0 E2172.872
G1 X-6.34 Y11.67 Z0.6 F360.0 E2173.546
G1 X-3.53 Y8.86 Z0.6 F360.0 E2178.51
G1 X-3.59 Y9.51 Z0.6 F360.0 E2179.328
G1 X-6.28 Y12.2 Z0.6 F360.0 E2184.091
G1 X-6.22 Y12.74 Z0.6 F360.0 E2184.765
G1 X-3.6 Y10.12 Z0.6 F360.0 E2189.403
G1 X-3.62 Y10.72 Z0.6 F360.0 E2190.161
G1 X-6.17 Y13.28 Z0.6 F360.0 E2194.675
G1 X-6.11 Y13.81 Z0.6 F360.0 E2195.349
G1 X-3.63 Y11.33 Z0.6 F360.0 E2199.739
G1 X-3.64 Y11.94 Z0.6 F360.0 E2200.497
G1 X-6.0 Y14.29 Z0.6 F360.0 E2204.659
G1 X-5.88 Y14.77 Z0.6 F360.0 E2205.271
G1 X-3.66 Y12.54 Z0.6 F360.0 E2209.2
G1 X-3.72 Y13.2 Z0.6 F360.0 E2210.019
G1 X-5.76 Y15.24 Z0.6 F360.0 E2213.638
G1 X-5.65 Y15.72 Z0.6 F360.0 E2214.25
G1 X-3.81 Y13.88 Z0.6 F360.0 E2217.502
G1 X-4.04 Y14.71 Z0.6 F360.0 E2218.577
G1 X-5.53 Y16.19 Z0.6 F360.0 E2221.208
G1 X-5.41 Y16.67 Z0.6 F360.0 E2221.821
G1 X-4.35 Y15.6 Z0.6 F360.0 E2223.703
G1 X-4.66 Y16.5 Z0.6 F360.0 E2224.892
G1 X-5.3 Y17.14 Z0.6 F360.0 E2226.023
G1 X-4.96 Y17.4 Z0.6 F360.0 E2226.55
G1 X-5.18 Y17.62 Z0.6 F360.0 E2226.932
;M103
G1 X-3.66 Y-6.41 Z0.6 F3600.0
;M101
G1 X-3.84 Y-6.23 Z0.6 F360.0 E2227.253
G1 X-3.67 Y-5.81 Z0.6 F360.0 E2227.822
G1 X-4.1 Y-5.38 Z0.6 F360.0 E2228.572
G1 X-3.68 Y-5.2 Z0.6 F360.0 E2229.135
G1 X-4.35 Y-4.53 Z0.6 F360.0 E2230.317
G1 X-3.7 Y-4.6 Z0.6 F360.0 E2231.143
G1 X-4.61 Y-3.69 Z0.6 F360.0 E2232.753
G1 X-4.86 Y-2.84 Z0.6 F360.0 E2233.86
G1 X-3.71 Y-4.0 Z0.6 F360.0 E2235.901
G1 X-3.72 Y-3.39 Z0.6 F360.0 E2236.656
G1 X-5.07 Y-2.04 Z0.6 F360.0 E2239.055
G1 X-5.21 Y-1.31 Z0.6 F360.0 E2239.985
G1 X-3.73 Y-2.79 Z0.6 F360.0 E2242.609
G1 X-3.74 Y-2.19 Z0.6 F360.0 E2243.364
G1 X-5.35 Y-0.57 Z0.6 F360.0 E2246.214
G1 X-5.49 Y0.16 Z0.6 F360.0 E2247.144
G1 X-3.75 Y-1.58 Z0.6 F360.0 E2250.22
G1 X-3.76 Y-0.98 Z0.6 F360.0 E2250.976
G1 X-5.63 Y0.89 Z0.6 F360.0 E2254.277
G1 X-5.77 Y1.62 Z0.6 F360.0 E2255.208
G1 X-3.77 Y-0.38 Z0.6 F360.0 E2258.736
G1 X-3.78 Y0.23 Z0.6 F360.0 E2259.49
G1 X-5.9 Y2.35 Z0.6 F360.0 E2263.243
G1 X-6.04 Y3.08 Z0.6 F360.0 E2264.174
G1 X-3.79 Y0.83 Z0.6 F360.0 E2268.154
G1 X-3.8 Y1.44 Z0.6 F360.0 E2268.909
G1 X-6.18 Y3.81 Z0.6 F360.0 E2273.114
G1 X-6.35 Y4.57 Z0.6 F360.0 E2274.088
G1 X-3.82 Y2.04 Z0.6 F360.0 E2278.571
G1 X-3.81 Y2.63 Z0.6 F360.0 E2279.309
G1 X-6.61 Y5.43 Z0.6 F360.0 E2284.26
G1 X-8.37 Y7.78 Z0.6 F360.0 E2287.938
G1 X-8.66 Y7.48 Z0.6 F360.0 E2288.462
G1 X-7.62 Y6.43 Z0.6 F360.0 E2290.308
G1 X-8.52 Y6.74 Z0.6 F360.0 E2291.494
G1 X-8.95 Y7.17 Z0.6 F360.0 E2292.262
;M103
G1 X-9.06 Y7.58 Z0.6 F3600.0
;M101
G1 X-9.21 Y7.42 Z0.6 F360.0 E2292.539
G1 X-9.6 Y7.01 Z0.6 F360.0 E2293.241
G1 X-9.36 Y6.74 Z0.6 F360.0 E2293.687
G1 X-8.52 Y6.35 Z0.6 F360.0 E2294.85
G1 X-8.13 Y6.29 Z0.6 F360.0 E2295.342
G1 X-7.43 Y5.94 Z0.6 F360.0 E2296.322
G1 X-6.94 Y5.27 Z0.6 F360.0 E2297.365
G1 X-6.63 Y4.29 Z0.6 F360.0 E2298.653
G1 X-5.37 Y-2.38 Z0.6 F360.0 E2307.146
G1 X-3.43 Y-8.85 Z0.6 F360.0 E2315.591
G1 X-3.17 Y-9.03 Z0.6 F360.0 E2315.983
G1 X-3.29 Y-8.38 Z0.6 F360.0 E2316.81
G1 X-3.47 Y2.54 Z0.6 F360.0 E2330.464
G1 X-3.37 Y2.95 Z0.6 F360.0 E2330.993
G1 X-3.3 Y7.72 Z0.6 F360.0 E2336.965
G1 X-3.24 Y7.84 Z0.6 F360.0 E2337.136
G1 X-3.14 Y9.45 Z0.6 F360.0 E2339.147
G1 X-3.23 Y9.59 Z0.6 F360.0 E2339.368
G1 X-3.31 Y12.82 Z0.6 F360.0 E2343.407
G1 X-3.49 Y14.19 Z0.6 F360.0 E2345.135
G1 X-4.76 Y17.93 Z0.6 F360.0 E2350.074
G1 X-5.03 Y18.43 Z0.6 F360.0 E2350.792
G1 X-5.38 Y18.75 Z0.6 F360.0 E2351.376
G1 X-5.43 Y18.09 Z0.6 F360.0 E2352.201
G1 X-6.46 Y13.89 Z0.6 F360.0 E2357.605
G1 X-6.8 Y10.69 Z0.6 F360.0 E2361.634
G1 X-7.03 Y9.93 Z0.6 F360.0 E2362.629
G1 X-7.37 Y9.35 Z0.6 F360.0 E2363.466
G1 X-9.06 Y7.58 Z0.6 F360.0 E2366.528
;M103
G1 X-9.36 Y7.87 Z0.6 F3600.0
;M101
G1 X-9.51 Y7.71 Z0.6 F360.0 E2366.805
G1 X-10.16 Y7.03 Z0.6 F360.0 E2367.98
G1 X-9.93 Y6.45 Z0.6 F360.0 E2368.751
G1 X-9.62 Y6.4 Z0.6 F360.0 E2369.146
G1 X-8.64 Y5.94 Z0.6 F360.0 E2370.498
G1 X-8.26 Y5.89 Z0.6 F360.0 E2370.984
G1 X-7.71 Y5.61 Z0.6 F360.0 E2371.755
G1 X-7.32 Y5.08 Z0.6 F360.0 E2372.582
G1 X-7.04 Y4.19 Z0.6 F360.0 E2373.752
G1 X-5.78 Y-2.48 Z0.6 F360.0 E2382.243
G1 X-2.89 Y-12.11 Z0.6 F360.0 E2394.817
G1 X-2.53 Y-14.03 Z0.6 F360.0 E2397.263
G1 X-2.58 Y-14.28 Z0.6 F360.0 E2397.578
G1 X-2.5 Y-14.88 Z0.6 F360.0 E2398.337
G1 X-2.19 Y-14.7 Z0.6 F360.0 E2398.793
G1 X-1.62 Y-14.67 Z0.6 F360.0 E2399.501
G1 X-1.61 Y-14.23 Z0.6 F360.0 E2400.051
G1 X-1.83 Y-13.99 Z0.6 F360.0 E2400.451
G1 X-2.48 Y-12.0 Z0.6 F360.0 E2403.081
G1 X-2.86 Y-9.43 Z0.6 F360.0 E2406.329
G1 X-3.05 Y2.49 Z0.6 F360.0 E2421.239
G1 X-2.95 Y2.9 Z0.6 F360.0 E2421.76
G1 X-2.89 Y7.61 Z0.6 F360.0 E2427.659
G1 X-2.82 Y7.72 Z0.6 F360.0 E2427.818
G1 X-2.71 Y9.56 Z0.6 F360.0 E2430.123
G1 X-2.82 Y9.72 Z0.6 F360.0 E2430.368
G1 X-2.89 Y12.85 Z0.6 F360.0 E2434.284
G1 X-3.08 Y14.29 Z0.6 F360.0 E2436.092
G1 X-4.38 Y18.09 Z0.6 F360.0 E2441.125
G1 X-5.07 Y19.39 Z0.6 F360.0 E2442.957
G1 X-5.59 Y19.21 Z0.6 F360.0 E2443.641
G1 X-6.87 Y13.96 Z0.6 F360.0 E2450.401
G1 X-7.21 Y10.77 Z0.6 F360.0 E2454.416
G1 X-7.41 Y10.1 Z0.6 F360.0 E2455.299
G1 X-7.7 Y9.61 Z0.6 F360.0 E2456.013
G1 X-9.36 Y7.87 Z0.6 F360.0 E2459.016
;M103
G1 X-7.63 Y4.92 Z0.6 F3600.0
G1 X-7.37 Y4.11 Z0.6 F3600.0
G1 X-6.1 Y-2.56 Z0.6 F3600.0
G1 X-3.21 Y-12.19 Z0.6 F3600.0
G1 X-2.88 Y-14.03 Z0.6 F3600.0
G1 X-2.94 Y-14.31 Z0.6 F3600.0
G1 X-3.26 Y-14.86 Z0.6 F3600.0
G1 X-4.83 Y-15.71 Z0.6 F3600.0
G1 X-5.84 Y-16.32 Z0.6 F3600.0
G1 X-6.64 Y-16.93 Z0.6 F3600.0
G1 X-7.29 Y-17.56 Z0.6 F3600.0
G1 X-8.09 Y-19.25 Z0.6 F3600.0
;M101
G1 X-7.69 Y-18.5 Z0.6 F360.0 E2460.067
G1 X-6.98 Y-17.67 Z0.6 F360.0 E2461.434
G1 X-6.13 Y-17.02 Z0.6 F360.0 E2462.779
G1 X-5.08 Y-16.43 Z0.6 F360.0 E2464.285
G1 X-3.43 Y-15.62 Z0.6 F360.0 E2466.59
G1 X-2.1 Y-15.11 Z0.6 F360.0 E2468.365
G1 X-1.22 Y-15.06 Z0.6 F360.0 E2469.47
G1 X-0.26 Y-15.47 Z0.6 F360.0 E2470.777
G1 X0.78 Y-16.19 Z0.6 F360.0 E2472.356
G1 X0.84 Y-16.14 Z0.6 F360.0 E2472.454
G1 X0.79 Y-15.62 Z0.6 F360.0 E2473.107
G1 X0.3 Y-15.16 Z0.6 F360.0 E2473.946
G1 X-0.47 Y-14.67 Z0.6 F360.0 E2475.092
G1 X-1.18 Y-14.07 Z0.6 F360.0 E2476.254
G1 X-1.46 Y-13.77 Z0.6 F360.0 E2476.759
G1 X-2.07 Y-11.9 Z0.6 F360.0 E2479.225
G1 X-2.44 Y-9.39 Z0.6 F360.0 E2482.403
G1 X-2.6 Y-5.91 Z0.6 F360.0 E2486.756
G1 X-2.63 Y2.44 Z0.6 F360.0 E2497.206
G1 X-2.54 Y2.84 Z0.6 F360.0 E2497.723
G1 X-2.47 Y7.5 Z0.6 F360.0 E2503.548
G1 X-2.41 Y7.6 Z0.6 F360.0 E2503.694
G1 X-2.28 Y9.68 Z0.6 F360.0 E2506.292
G1 X-2.4 Y9.85 Z0.6 F360.0 E2506.554
G1 X-2.38 Y11.25 Z0.6 F360.0 E2508.305
G1 X-2.47 Y12.89 Z0.6 F360.0 E2510.362
G1 X-2.67 Y14.38 Z0.6 F360.0 E2512.242
G1 X-3.99 Y18.26 Z0.6 F360.0 E2517.37
G1 X-4.86 Y19.9 Z0.6 F360.0 E2519.687
G1 X-5.34 Y20.41 Z0.6 F360.0 E2520.561
G1 X-5.55 Y20.28 Z0.6 F360.0 E2520.871
G1 X-5.61 Y20.27 Z0.6 F360.0 E2520.944
G1 X-5.93 Y19.54 Z0.6 F360.0 E2521.945
G1 X-6.92 Y15.81 Z0.6 F360.0 E2526.77
G1 X-7.29 Y14.03 Z0.6 F360.0 E2529.043
G1 X-7.62 Y10.86 Z0.6 F360.0 E2533.034
G1 X-7.8 Y10.27 Z0.6 F360.0 E2533.804
G1 X-8.03 Y9.87 Z0.6 F360.0 E2534.382
G1 X-8.63 Y9.3 Z0.6 F360.0 E2535.418
G1 X-8.81 Y9.06 Z0.6 F360.0 E2535.791
G1 X-10.18 Y7.68 Z0.6 F360.0 E2538.225
G1 X-11.09 Y6.52 Z0.6 F360.0 E2540.066
G1 X-10.99 Y6.32 Z0.6 F360.0 E2540.352
G1 X-10.76 Y6.12 Z0.6 F360.0 E2540.731
G1 X-10.24 Y6.08 Z0.6 F360.0 E2541.391
G1 X-9.75 Y6.0 Z0.6 F360.0 E2542.01
G1 X-8.77 Y5.54 Z0.6 F360.0 E2543.366
G1 X-8.35 Y5.48 Z0.6 F360.0 E2543.895
G1 X-8.2 Y5.32 Z0.6 F360.0 E2544.167
G1 X-8.03 Y5.34 Z0.6 F360.0 E2544.384
G1 X-7.7 Y4.89 Z0.6 F360.0 E2545.083
G1 X-7.45 Y4.09 Z0.6 F360.0 E2546.134
G1 X-6.18 Y-2.58 Z0.6 F360.0 E2554.625
G1 X-3.29 Y-12.21 Z0.6 F360.0 E2567.198
G1 X-2.96 Y-14.03 Z0.6 F360.0 E2569.51
G1 X-3.01 Y-14.28 Z0.6 F360.0 E2569.837
G1 X-3.31 Y-14.82 Z0.6 F360.0 E2570.6
G1 X-4.87 Y-15.63 Z0.6 F360.0 E2572.806
G1 X-5.89 Y-16.25 Z0.6 F360.0 E2574.296
G1 X-6.7 Y-16.87 Z0.6 F360.0 E2575.569
G1 X-7.35 Y-17.5 Z0.6 F360.0 E2576.71
G1 X-7.89 Y-18.15 Z0.6 F360.0 E2577.763
G1 X-8.17 Y-18.9 Z0.6 F360.0 E2578.764
G1 X-8.27 Y-19.58 Z0.6 F360.0 E2579.628
G1 X-8.33 Y-19.65 Z0.6 F360.0 E2579.749
G1 X-8.27 Y-19.66 Z0.6 F360.0 E2579.83
;M103
G1 X-7.72 Y-18.07 Z0.9 F3600.0
G1 X-7.29 Y-17.56 Z0.9 F3600.0
G1 X-6.64 Y-16.93 Z0.9 F3600.0
G1 X-5.84 Y-16.32 Z0.9 F3600.0
G1 X-4.83 Y-15.71 Z0.9 F3600.0
G1 X-3.26 Y-14.86 Z0.9 F3600.0
G1 X-2.94 Y-14.31 Z0.9 F3600.0
G1 X-3.09 Y8.76 Z0.9 F3600.0
;M101
G1 X-6.84 Y5.01 Z0.9 F360.0 E2586.466
G1 X-6.7 Y4.55 Z0.9 F360.0 E2587.059
G1 X-3.13 Y8.13 Z0.9 F360.0 E2593.378
G1 X-3.25 Y7.41 Z0.9 F360.0 E2594.287
G1 X-6.59 Y4.08 Z0.9 F360.0 E2600.188
G1 X-6.49 Y3.58 Z0.9 F360.0 E2600.821
G1 X-3.26 Y6.81 Z0.9 F360.0 E2606.537
G1 X-3.27 Y6.21 Z0.9 F360.0 E2607.289
G1 X-6.4 Y3.08 Z0.9 F360.0 E2612.823
G1 X-6.3 Y2.58 Z0.9 F360.0 E2613.456
G1 X-3.28 Y5.61 Z0.9 F360.0 E2618.806
G1 X-3.29 Y5.01 Z0.9 F360.0 E2619.559
G1 X-6.21 Y2.09 Z0.9 F360.0 E2624.724
G1 X-6.11 Y1.59 Z0.9 F360.0 E2625.358
G1 X-3.3 Y4.4 Z0.9 F360.0 E2630.34
G1 X-3.31 Y3.8 Z0.9 F360.0 E2631.092
G1 X-6.02 Y1.09 Z0.9 F360.0 E2635.89
G1 X-5.92 Y0.59 Z0.9 F360.0 E2636.525
G1 X-3.32 Y3.2 Z0.9 F360.0 E2641.14
G1 X-3.47 Y2.45 Z0.9 F360.0 E2642.098
G1 X-5.83 Y0.1 Z0.9 F360.0 E2646.266
G1 X-5.73 Y-0.4 Z0.9 F360.0 E2646.899
G1 X-3.46 Y1.87 Z0.9 F360.0 E2650.914
G1 X-3.45 Y1.29 Z0.9 F360.0 E2651.644
G1 X-5.64 Y-0.9 Z0.9 F360.0 E2655.508
G1 X-5.54 Y-1.4 Z0.9 F360.0 E2656.141
G1 X-3.45 Y0.7 Z0.9 F360.0 E2659.853
G1 X-3.44 Y0.12 Z0.9 F360.0 E2660.583
G1 X-5.45 Y-1.89 Z0.9 F360.0 E2664.143
G1 X-5.35 Y-2.39 Z0.9 F360.0 E2664.775
G1 X-3.43 Y-0.47 Z0.9 F360.0 E2668.18
G1 X-3.42 Y-1.05 Z0.9 F360.0 E2668.91
G1 X-5.22 Y-2.85 Z0.9 F360.0 E2672.089
G1 X-5.08 Y-3.3 Z0.9 F360.0 E2672.684
G1 X-3.41 Y-1.63 Z0.9 F360.0 E2675.635
G1 X-3.4 Y-2.22 Z0.9 F360.0 E2676.365
G1 X-4.94 Y-3.76 Z0.9 F360.0 E2679.09
G1 X-4.8 Y-4.21 Z0.9 F360.0 E2679.685
G1 X-3.39 Y-2.8 Z0.9 F360.0 E2682.184
G1 X-3.38 Y-3.38 Z0.9 F360.0 E2682.914
G1 X-4.67 Y-4.67 Z0.9 F360.0 E2685.186
G1 X-4.53 Y-5.12 Z0.9 F360.0 E2685.781
G1 X-3.37 Y-3.97 Z0.9 F360.0 E2687.825
G1 X-3.36 Y-4.55 Z0.9 F360.0 E2688.555
G1 X-4.39 Y-5.58 Z0.9 F360.0 E2690.373
G1 X-4.25 Y-6.03 Z0.9 F360.0 E2690.968
G1 X-3.35 Y-5.13 Z0.9 F360.0 E2692.559
G1 X-3.35 Y-5.72 Z0.9 F360.0 E2693.288
G1 X-4.12 Y-6.49 Z0.9 F360.0 E2694.653
G1 X-3.98 Y-6.94 Z0.9 F360.0 E2695.248
G1 X-3.34 Y-6.3 Z0.9 F360.0 E2696.386
G1 X-3.33 Y-6.88 Z0.9 F360.0 E2697.116
G1 X-3.84 Y-7.4 Z0.9 F360.0 E2698.027
G1 X-3.71 Y-7.85 Z0.9 F360.0 E2698.622
G1 X-3.32 Y-7.47 Z0.9 F360.0 E2699.307
G1 X-3.31 Y-8.05 Z0.9 F360.0 E2700.036
G1 X-3.57 Y-8.31 Z0.9 F360.0 E2700.495
G1 X-3.3 Y-8.63 Z0.9 F360.0 E2701.021
G1 X-3.43 Y-8.76 Z0.9 F360.0 E2701.252
G1 X-3.29 Y-9.22 Z0.9 F360.0 E2701.844
G1 X-3.33 Y-9.26 Z0.9 F360.0 E2701.917
;M103
G1 X-3.05 Y9.39 Z0.9 F3600.0
;M101
G1 X-7.03 Y5.41 Z0.9 F360.0 E2708.958
G1 X-7.28 Y5.75 Z0.9 F360.0 E2709.488
G1 X-3.23 Y9.8 Z0.9 F360.0 E2716.652
G1 X-3.25 Y10.38 Z0.9 F360.0 E2717.376
G1 X-7.5 Y6.12 Z0.9 F360.0 E2724.904
G1 X-7.65 Y6.57 Z0.9 F360.0 E2725.491
G1 X-3.26 Y10.96 Z0.9 F360.0 E2733.253
G1 X-3.28 Y11.53 Z0.9 F360.0 E2733.976
G1 X-7.87 Y6.94 Z0.9 F360.0 E2742.108
G1 X-8.2 Y7.2 Z0.9 F360.0 E2742.636
G1 X-3.29 Y12.11 Z0.9 F360.0 E2751.326
G1 X-3.31 Y12.69 Z0.9 F360.0 E2752.049
G1 X-8.55 Y7.44 Z0.9 F360.0 E2761.33
;M103
G1 X-8.09 Y8.49 Z0.9 F3600.0
;M101
G1 X-3.36 Y13.23 Z0.9 F360.0 E2769.704
G1 X-3.43 Y13.75 Z0.9 F360.0 E2770.364
G1 X-6.93 Y10.25 Z0.9 F360.0 E2776.551
G1 X-6.77 Y11.0 Z0.9 F360.0 E2777.51
G1 X-3.51 Y14.26 Z0.9 F360.0 E2783.278
G1 X-3.66 Y14.71 Z0.9 F360.0 E2783.863
G1 X-6.7 Y11.66 Z0.9 F360.0 E2789.247
G1 X-6.63 Y12.33 Z0.9 F360.0 E2790.081
G1 X-3.8 Y15.15 Z0.9 F360.0 E2795.08
G1 X-3.95 Y15.6 Z0.9 F360.0 E2795.667
G1 X-6.56 Y12.99 Z0.9 F360.0 E2800.281
G1 X-6.49 Y13.65 Z0.9 F360.0 E2801.113
G1 X-4.1 Y16.04 Z0.9 F360.0 E2805.344
G1 X-4.25 Y16.49 Z0.9 F360.0 E2805.93
G1 X-6.35 Y14.39 Z0.9 F360.0 E2809.642
G1 X-6.15 Y15.17 Z0.9 F360.0 E2810.652
G1 X-4.39 Y16.93 Z0.9 F360.0 E2813.763
G1 X-4.54 Y17.38 Z0.9 F360.0 E2814.349
G1 X-5.96 Y15.96 Z0.9 F360.0 E2816.858
G1 X-5.77 Y16.74 Z0.9 F360.0 E2817.868
G1 X-4.69 Y17.82 Z0.9 F360.0 E2819.776
G1 X-4.87 Y18.23 Z0.9 F360.0 E2820.337
G1 X-5.58 Y17.53 Z0.9 F360.0 E2821.583
G1 X-5.38 Y18.31 Z0.9 F360.0 E2822.592
G1 X-5.08 Y18.62 Z0.9 F360.0 E2823.134
;M103
G1 X-4.9 Y19.05 Z0.9 F3600.0
;M101
G1 X-5.07 Y19.35 Z0.9 F360.0 E2823.569
G1 X-5.54 Y19.18 Z0.9 F360.0 E2824.198
G1 X-6.81 Y13.97 Z0.9 F360.0 E2830.916
G1 X-7.16 Y10.72 Z0.9 F360.0 E2835.003
G1 X-7.35 Y10.09 Z0.9 F360.0 E2835.826
G1 X-7.78 Y9.37 Z0.9 F360.0 E2836.88
G1 X-8.17 Y8.99 Z0.9 F360.0 E2837.558
G1 X-8.46 Y8.59 Z0.9 F360.0 E2838.177
G1 X-8.99 Y8.07 Z0.9 F360.0 E2839.104
G1 X-8.87 Y7.15 Z0.9 F360.0 E2840.255
G1 X-8.44 Y6.93 Z0.9 F360.0 E2840.87
G1 X-8.04 Y6.61 Z0.9 F360.0 E2841.505
G1 X-7.78 Y5.82 Z0.9 F360.0 E2842.545
G1 X-7.24 Y5.09 Z0.9 F360.0 E2843.688
G1 X-6.99 Y4.28 Z0.9 F360.0 E2844.74
G1 X-5.7 Y-2.47 Z0.9 F360.0 E2853.338
G1 X-2.92 Y-11.68 Z0.9 F360.0 E2865.379
G1 X-2.63 Y-11.61 Z0.9 F360.0 E2865.758
G1 X-2.93 Y-9.44 Z0.9 F360.0 E2868.493
G1 X-3.12 Y2.47 Z0.9 F360.0 E2883.399
G1 X-2.96 Y3.14 Z0.9 F360.0 E2884.264
G1 X-2.9 Y7.51 Z0.9 F360.0 E2889.729
G1 X-2.8 Y7.69 Z0.9 F360.0 E2889.984
G1 X-2.69 Y9.53 Z0.9 F360.0 E2892.288
G1 X-2.88 Y9.81 Z0.9 F360.0 E2892.716
G1 X-2.95 Y12.85 Z0.9 F360.0 E2896.509
G1 X-3.14 Y14.28 Z0.9 F360.0 E2898.322
G1 X-4.42 Y18.14 Z0.9 F360.0 E2903.402
G1 X-4.76 Y18.78 Z0.9 F360.0 E2904.32
G1 X-4.9 Y19.05 Z0.9 F360.0 E2904.692
;M103
;M108 S5.629
G1 X-4.53 Y19.24 Z0.9 F3600.0
;M101
G1 X-4.87 Y19.87 Z0.9 F270.0 E2905.577
G1 X-5.23 Y20.22 Z0.9 F270.0 E2906.208
G1 X-5.5 Y20.25 Z0.9 F270.0 E2906.546
G1 X-5.57 Y20.23 Z0.9 F270.0 E2906.643
G1 X-5.89 Y19.51 Z0.9 F270.0 E2907.63
G1 X-6.86 Y15.8 Z0.9 F270.0 E2912.418
G1 X-7.23 Y14.03 Z0.9 F270.0 E2914.679
G1 X-7.57 Y10.8 Z0.9 F270.0 E2918.742
G1 X-7.74 Y10.26 Z0.9 F270.0 E2919.452
G1 X-8.11 Y9.63 Z0.9 F270.0 E2920.369
G1 X-8.49 Y9.27 Z0.9 F270.0 E2921.024
G1 X-8.78 Y8.87 Z0.9 F270.0 E2921.648
G1 X-9.43 Y8.22 Z0.9 F270.0 E2922.789
G1 X-9.26 Y6.88 Z0.9 F270.0 E2924.475
G1 X-8.66 Y6.58 Z0.9 F270.0 E2925.314
G1 X-8.4 Y6.37 Z0.9 F270.0 E2925.74
G1 X-8.13 Y5.55 Z0.9 F270.0 E2926.82
G1 X-8.05 Y5.5 Z0.9 F270.0 E2926.931
G1 X-7.62 Y4.9 Z0.9 F270.0 E2927.859
G1 X-7.4 Y4.18 Z0.9 F270.0 E2928.793
G1 X-6.11 Y-2.57 Z0.9 F270.0 E2937.389
G1 X-3.21 Y-12.19 Z0.9 F270.0 E2949.956
G1 X-3.09 Y-12.84 Z0.9 F270.0 E2950.788
G1 X-2.83 Y-13.45 Z0.9 F270.0 E2951.619
G1 X-2.29 Y-13.73 Z0.9 F270.0 E2952.375
G1 X-1.88 Y-13.27 Z0.9 F270.0 E2953.146
G1 X-1.95 Y-12.59 Z0.9 F270.0 E2954.002
G1 X-2.16 Y-11.92 Z0.9 F270.0 E2954.882
G1 X-2.51 Y-9.4 Z0.9 F270.0 E2958.062
G1 X-2.68 Y-5.93 Z0.9 F270.0 E2962.418
G1 X-2.7 Y2.42 Z0.9 F270.0 E2972.862
G1 X-2.54 Y3.09 Z0.9 F270.0 E2973.722
G1 X-2.48 Y7.4 Z0.9 F270.0 E2979.116
G1 X-2.39 Y7.57 Z0.9 F270.0 E2979.358
G1 X-2.26 Y9.65 Z0.9 F270.0 E2981.953
G1 X-2.46 Y9.94 Z0.9 F270.0 E2982.398
G1 X-2.45 Y11.23 Z0.9 F270.0 E2984.015
G1 X-2.54 Y12.88 Z0.9 F270.0 E2986.083
G1 X-2.73 Y14.38 Z0.9 F270.0 E2987.966
G1 X-4.03 Y18.3 Z0.9 F270.0 E2993.138
G1 X-4.39 Y18.98 Z0.9 F270.0 E2994.102
G1 X-4.53 Y19.24 Z0.9 F270.0 E2994.473
;M103
;M108 S7.506
G1 X3.76 Y-6.31 Z0.9 F3600.0
;M101
G1 X7.86 Y-2.21 Z0.9 F360.0 E3001.715
G1 X7.87 Y-1.61 Z0.9 F360.0 E3002.468
G1 X4.49 Y-4.99 Z0.9 F360.0 E3008.439
G1 X4.72 Y-4.17 Z0.9 F360.0 E3009.505
G1 X7.88 Y-1.01 Z0.9 F360.0 E3015.087
G1 X7.89 Y-0.41 Z0.9 F360.0 E3015.84
G1 X4.86 Y-3.43 Z0.9 F360.0 E3021.191
G1 X5.0 Y-2.7 Z0.9 F360.0 E3022.125
G1 X7.9 Y0.19 Z0.9 F360.0 E3027.245
G1 X7.9 Y0.8 Z0.9 F360.0 E3027.997
G1 X5.14 Y-1.97 Z0.9 F360.0 E3032.885
G1 X5.28 Y-1.24 Z0.9 F360.0 E3033.817
G1 X7.91 Y1.4 Z0.9 F360.0 E3038.475
G1 X7.92 Y2.0 Z0.9 F360.0 E3039.228
G1 X5.42 Y-0.5 Z0.9 F360.0 E3043.656
G1 X5.56 Y0.23 Z0.9 F360.0 E3044.589
G1 X7.93 Y2.6 Z0.9 F360.0 E3048.785
G1 X7.94 Y3.2 Z0.9 F360.0 E3049.538
G1 X5.7 Y0.96 Z0.9 F360.0 E3053.503
G1 X5.84 Y1.69 Z0.9 F360.0 E3054.435
G1 X7.95 Y3.8 Z0.9 F360.0 E3058.169
G1 X7.96 Y4.41 Z0.9 F360.0 E3058.921
G1 X5.99 Y2.43 Z0.9 F360.0 E3062.412
G1 X6.24 Y3.28 Z0.9 F360.0 E3063.519
G1 X7.97 Y5.01 Z0.9 F360.0 E3066.575
G1 X7.98 Y5.61 Z0.9 F360.0 E3067.328
G1 X6.5 Y4.13 Z0.9 F360.0 E3069.946
G1 X6.75 Y4.98 Z0.9 F360.0 E3071.055
G1 X7.99 Y6.21 Z0.9 F360.0 E3073.237
G1 X8.0 Y6.81 Z0.9 F360.0 E3073.99
G1 X7.01 Y5.83 Z0.9 F360.0 E3075.736
G1 X7.27 Y6.67 Z0.9 F360.0 E3076.844
G1 X8.01 Y7.41 Z0.9 F360.0 E3078.154
G1 X7.52 Y7.52 Z0.9 F360.0 E3078.775
G1 X8.02 Y8.02 Z0.9 F360.0 E3079.649
G1 X7.78 Y8.37 Z0.9 F360.0 E3080.183
G1 X8.03 Y8.62 Z0.9 F360.0 E3080.621
G1 X8.0 Y9.18 Z0.9 F360.0 E3081.331
G1 X8.03 Y9.22 Z0.9 F360.0 E3081.393
;M103
G1 X6.07 Y-18.82 Z0.9 F3600.0
;M101
G1 X6.23 Y-18.65 Z0.9 F360.0 E3081.684
G1 X5.95 Y-18.34 Z0.9 F360.0 E3082.208
G1 X6.72 Y-17.57 Z0.9 F360.0 E3083.573
G1 X7.01 Y-16.68 Z0.9 F360.0 E3084.743
G1 X5.83 Y-17.86 Z0.9 F360.0 E3086.835
G1 X5.72 Y-17.39 Z0.9 F360.0 E3087.448
G1 X7.31 Y-15.8 Z0.9 F360.0 E3090.266
G1 X7.6 Y-14.91 Z0.9 F360.0 E3091.436
G1 X5.6 Y-16.91 Z0.9 F360.0 E3094.981
G1 X5.48 Y-16.44 Z0.9 F360.0 E3095.594
G1 X7.86 Y-14.06 Z0.9 F360.0 E3099.792
G1 X7.94 Y-13.38 Z0.9 F360.0 E3100.653
G1 X5.37 Y-15.96 Z0.9 F360.0 E3105.215
G1 X5.25 Y-15.48 Z0.9 F360.0 E3105.828
G1 X8.02 Y-12.71 Z0.9 F360.0 E3110.731
G1 X8.04 Y-12.11 Z0.9 F360.0 E3111.492
G1 X5.13 Y-15.01 Z0.9 F360.0 E3116.628
G1 X5.02 Y-14.53 Z0.9 F360.0 E3117.241
G1 X8.05 Y-11.5 Z0.9 F360.0 E3122.61
G1 X8.07 Y-10.89 Z0.9 F360.0 E3123.371
G1 X4.9 Y-14.06 Z0.9 F360.0 E3128.972
G1 X4.82 Y-13.54 Z0.9 F360.0 E3129.626
G1 X8.08 Y-10.28 Z0.9 F360.0 E3135.387
G1 X8.15 Y-9.62 Z0.9 F360.0 E3136.217
G1 X4.77 Y-13.0 Z0.9 F360.0 E3142.199
G1 X4.71 Y-12.47 Z0.9 F360.0 E3142.873
G1 X8.25 Y-8.93 Z0.9 F360.0 E3149.127
G1 X8.21 Y-8.37 Z0.9 F360.0 E3149.828
G1 X4.66 Y-11.93 Z0.9 F360.0 E3156.121
G1 X4.6 Y-11.4 Z0.9 F360.0 E3156.796
G1 X8.18 Y-7.82 Z0.9 F360.0 E3163.129
G1 X8.07 Y-7.33 Z0.9 F360.0 E3163.751
G1 X4.54 Y-10.86 Z0.9 F360.0 E3169.994
G1 X4.43 Y-10.37 Z0.9 F360.0 E3170.617
G1 X8.06 Y-6.75 Z0.9 F360.0 E3177.034
G1 X8.05 Y-6.16 Z0.9 F360.0 E3177.765
G1 X4.29 Y-9.93 Z0.9 F360.0 E3184.421
G1 X4.07 Y-9.55 Z0.9 F360.0 E3184.962
G1 X8.05 Y-5.58 Z0.9 F360.0 E3191.992
G1 X8.04 Y-5.0 Z0.9 F360.0 E3192.723
G1 X3.85 Y-9.18 Z0.9 F360.0 E3200.126
G1 X3.56 Y-8.88 Z0.9 F360.0 E3200.65
G1 X8.03 Y-4.41 Z0.9 F360.0 E3208.561
G1 X8.02 Y-3.83 Z0.9 F360.0 E3209.291
G1 X3.28 Y-8.56 Z0.9 F360.0 E3217.672
G1 X3.02 Y-8.24 Z0.9 F360.0 E3218.198
G1 X8.01 Y-3.24 Z0.9 F360.0 E3227.039
G1 X7.91 Y-2.75 Z0.9 F360.0 E3227.665
G1 X2.72 Y-7.94 Z0.9 F360.0 E3236.847
;M103
G1 X2.55 Y-8.28 Z0.9 F3600.0
;M101
G1 X2.86 Y-8.59 Z0.9 F360.0 E3237.402
G1 X3.15 Y-8.99 Z0.9 F360.0 E3238.02
G1 X3.55 Y-9.37 Z0.9 F360.0 E3238.701
G1 X3.98 Y-10.09 Z0.9 F360.0 E3239.754
G1 X4.17 Y-10.72 Z0.9 F360.0 E3240.577
G1 X4.51 Y-13.97 Z0.9 F360.0 E3244.664
G1 X5.79 Y-19.18 Z0.9 F360.0 E3251.382
G1 X6.26 Y-19.35 Z0.9 F360.0 E3252.01
G1 X6.91 Y-18.14 Z0.9 F360.0 E3253.734
G1 X8.19 Y-14.28 Z0.9 F360.0 E3258.815
G1 X8.37 Y-12.85 Z0.9 F360.0 E3260.628
G1 X8.45 Y-9.81 Z0.9 F360.0 E3264.421
G1 X8.64 Y-9.53 Z0.9 F360.0 E3264.849
G1 X8.53 Y-7.69 Z0.9 F360.0 E3267.151
G1 X8.43 Y-7.51 Z0.9 F360.0 E3267.406
G1 X8.37 Y-3.14 Z0.9 F360.0 E3272.873
G1 X8.21 Y-2.47 Z0.9 F360.0 E3273.738
G1 X8.39 Y9.44 Z0.9 F360.0 E3288.644
G1 X8.7 Y11.61 Z0.9 F360.0 E3291.379
G1 X8.4 Y11.68 Z0.9 F360.0 E3291.759
G1 X5.63 Y2.47 Z0.9 F360.0 E3303.799
G1 X4.34 Y-4.28 Z0.9 F360.0 E3312.397
G1 X4.09 Y-5.09 Z0.9 F360.0 E3313.448
G1 X3.55 Y-5.83 Z0.9 F360.0 E3314.593
G1 X3.29 Y-6.61 Z0.9 F360.0 E3315.632
G1 X2.89 Y-6.93 Z0.9 F360.0 E3316.267
G1 X2.45 Y-7.15 Z0.9 F360.0 E3316.882
G1 X2.34 Y-8.07 Z0.9 F360.0 E3318.033
G1 X2.55 Y-8.28 Z0.9 F360.0 E3318.405
;M103
;M108 S5.629
G1 X2.25 Y-8.57 Z0.9 F3600.0
;M101
G1 X2.54 Y-8.87 Z0.9 F270.0 E3318.921
G1 X2.84 Y-9.27 Z0.9 F270.0 E3319.546
G1 X3.22 Y-9.63 Z0.9 F270.0 E3320.201
G1 X3.59 Y-10.26 Z0.9 F270.0 E3321.118
G1 X3.76 Y-10.8 Z0.9 F270.0 E3321.828
G1 X4.1 Y-14.03 Z0.9 F270.0 E3325.891
G1 X4.47 Y-15.8 Z0.9 F270.0 E3328.152
G1 X5.44 Y-19.51 Z0.9 F270.0 E3332.94
G1 X5.76 Y-20.23 Z0.9 F270.0 E3333.928
G1 X5.83 Y-20.25 Z0.9 F270.0 E3334.024
G1 X6.1 Y-20.22 Z0.9 F270.0 E3334.362
G1 X6.46 Y-19.87 Z0.9 F270.0 E3334.991
G1 X7.29 Y-18.3 Z0.9 F270.0 E3337.213
G1 X8.6 Y-14.38 Z0.9 F270.0 E3342.386
G1 X8.79 Y-12.88 Z0.9 F270.0 E3344.268
G1 X8.88 Y-11.23 Z0.9 F270.0 E3346.336
G1 X8.87 Y-9.94 Z0.9 F270.0 E3347.954
G1 X9.07 Y-9.65 Z0.9 F270.0 E3348.398
G1 X8.94 Y-7.58 Z0.9 F270.0 E3350.992
G1 X8.85 Y-7.41 Z0.9 F270.0 E3351.235
G1 X8.79 Y-3.09 Z0.9 F270.0 E3356.63
G1 X8.63 Y-2.42 Z0.9 F270.0 E3357.49
G1 X8.64 Y5.93 Z0.9 F270.0 E3367.934
G1 X8.81 Y9.4 Z0.9 F270.0 E3372.289
G1 X9.16 Y11.92 Z0.9 F270.0 E3375.47
G1 X9.38 Y12.59 Z0.9 F270.0 E3376.35
G1 X9.45 Y13.27 Z0.9 F270.0 E3377.206
G1 X9.03 Y13.73 Z0.9 F270.0 E3377.977
G1 X8.5 Y13.45 Z0.9 F270.0 E3378.734
G1 X8.24 Y12.84 Z0.9 F270.0 E3379.565
G1 X8.12 Y12.19 Z0.9 F270.0 E3380.397
G1 X5.22 Y2.57 Z0.9 F270.0 E3392.963
G1 X3.93 Y-4.18 Z0.9 F270.0 E3401.56
G1 X3.71 Y-4.9 Z0.9 F270.0 E3402.494
G1 X3.28 Y-5.5 Z0.9 F270.0 E3403.422
G1 X3.2 Y-5.55 Z0.9 F270.0 E3403.533
G1 X2.93 Y-6.37 Z0.9 F270.0 E3404.613
G1 X2.66 Y-6.58 Z0.9 F270.0 E3405.039
G1 X2.06 Y-6.88 Z0.9 F270.0 E3405.877
G1 X1.9 Y-8.22 Z0.9 F270.0 E3407.562
G1 X2.25 Y-8.57 Z0.9 F270.0 E3408.188
;M103
;M108 S7.506
G1 X4.36 Y-9.1 Z1.2 F3600.0
;M101
G1 X7.48 Y-12.81 Z1.2 F360.0 E3414.257
G1 X7.63 Y-11.18 Z1.2 F360.0 E3416.306
G1 X7.62 Y-9.98 Z1.2 F360.0 E3417.802
G1 X7.86 Y-9.04 Z1.2 F360.0 E3419.019
G1 X4.08 Y-8.23 Z1.2 F360.0 E3423.848
G1 X4.1 Y-7.66 Z1.2 F360.0 E3424.567
G1 X4.47 Y-6.25 Z1.2 F360.0 E3426.386
G1 X7.82 Y-8.41 Z1.2 F360.0 E3431.373
G1 X7.68 Y-7.68 Z1.2 F360.0 E3432.307
G1 X7.64 Y-7.05 Z1.2 F360.0 E3433.1
G1 X4.62 Y-5.8 Z1.2 F360.0 E3437.187
G1 X4.86 Y-5.45 Z1.2 F360.0 E3437.72
G1 X5.24 Y-4.05 Z1.2 F360.0 E3439.533
G1 X7.63 Y-6.45 Z1.2 F360.0 E3443.765
G1 X7.57 Y-3.43 Z1.2 F360.0 E3447.542
G1 X5.33 Y-3.56 Z1.2 F360.0 E3450.349
G1 X5.72 Y-1.57 Z1.2 F360.0 E3452.881
G1 X7.39 Y-2.65 Z1.2 F360.0 E3455.376
G1 X7.37 Y-0.86 Z1.2 F360.0 E3457.623
G1 X5.81 Y-1.07 Z1.2 F360.0 E3459.595
G1 X6.0 Y-0.08 Z1.2 F360.0 E3460.861
G1 X7.38 Y-0.27 Z1.2 F360.0 E3462.593
G1 X7.38 Y0.91 Z1.2 F360.0 E3464.069
G1 X6.1 Y0.42 Z1.2 F360.0 E3465.787
G1 X6.29 Y1.41 Z1.2 F360.0 E3467.053
G1 X7.38 Y1.5 Z1.2 F360.0 E3468.423
G1 X7.38 Y2.1 Z1.2 F360.0 E3469.162
G1 X6.79 Y1.82 Z1.2 F360.0 E3469.978
G1 X6.49 Y2.39 Z1.2 F360.0 E3470.79
G1 X6.77 Y3.3 Z1.2 F360.0 E3471.979
G1 X7.17 Y3.18 Z1.2 F360.0 E3472.503
G1 X7.39 Y3.28 Z1.2 F360.0 E3472.801
G1 X6.91 Y3.76 Z1.2 F360.0 E3473.654
G1 X7.04 Y4.21 Z1.2 F360.0 E3474.249
G1 X7.39 Y3.87 Z1.2 F360.0 E3474.863
G1 X7.39 Y4.46 Z1.2 F360.0 E3475.601
G1 X7.18 Y4.67 Z1.2 F360.0 E3475.975
;M103
G1 X4.89 Y-10.23 Z1.2 F3600.0
;M101
G1 X5.31 Y-13.61 Z1.2 F360.0 E3480.234
G1 X7.43 Y-13.36 Z1.2 F360.0 E3482.904
G1 X7.38 Y-13.9 Z1.2 F360.0 E3483.588
G1 X6.7 Y-16.17 Z1.2 F360.0 E3486.56
G1 X5.46 Y-14.34 Z1.2 F360.0 E3489.327
G1 X6.01 Y-16.67 Z1.2 F360.0 E3492.323
G1 X6.55 Y-16.62 Z1.2 F360.0 E3493.004
G1 X6.41 Y-17.07 Z1.2 F360.0 E3493.592
G1 X6.19 Y-17.45 Z1.2 F360.0 E3494.136
G1 X6.27 Y-17.53 Z1.2 F360.0 E3494.281
;M103
G1 X6.59 Y-17.66 Z1.2 F3600.0
;M101
G1 X6.6 Y-17.63 Z1.2 F360.0 E3494.31
G1 X7.72 Y-14.19 Z1.2 F360.0 E3498.843
G1 X7.98 Y-11.2 Z1.2 F360.0 E3502.599
G1 X7.97 Y-9.78 Z1.2 F360.0 E3504.372
G1 X8.23 Y-9.38 Z1.2 F360.0 E3504.968
G1 X8.14 Y-7.78 Z1.2 F360.0 E3506.977
G1 X8.0 Y-7.53 Z1.2 F360.0 E3507.337
G1 X7.94 Y-3.45 Z1.2 F360.0 E3512.445
G1 X7.72 Y-2.5 Z1.2 F360.0 E3513.654
G1 X7.76 Y6.63 Z1.2 F360.0 E3525.078
G1 X7.41 Y6.66 Z1.2 F360.0 E3525.51
G1 X6.11 Y2.35 Z1.2 F360.0 E3531.14
G1 X4.79 Y-4.48 Z1.2 F360.0 E3539.848
G1 X4.55 Y-5.28 Z1.2 F360.0 E3540.888
G1 X4.17 Y-5.83 Z1.2 F360.0 E3541.726
G1 X4.1 Y-6.34 Z1.2 F360.0 E3542.376
G1 X3.75 Y-7.35 Z1.2 F360.0 E3543.709
G1 X3.72 Y-8.32 Z1.2 F360.0 E3544.922
G1 X3.87 Y-8.97 Z1.2 F360.0 E3545.754
G1 X4.43 Y-9.92 Z1.2 F360.0 E3547.131
G1 X4.63 Y-10.58 Z1.2 F360.0 E3548.0
G1 X4.99 Y-13.91 Z1.2 F360.0 E3552.184
G1 X5.93 Y-17.87 Z1.2 F360.0 E3557.277
G1 X6.41 Y-18.2 Z1.2 F360.0 E3558.009
G1 X6.59 Y-17.66 Z1.2 F360.0 E3558.718
;M103
G1 X7.0 Y-17.77 Z1.2 F3600.0
;M101
G1 X8.13 Y-14.28 Z1.2 F360.0 E3563.299
G1 X8.31 Y-12.84 Z1.2 F360.0 E3565.115
G1 X8.4 Y-11.21 Z1.2 F360.0 E3567.161
G1 X8.39 Y-9.9 Z1.2 F360.0 E3568.79
G1 X8.66 Y-9.5 Z1.2 F360.0 E3569.398
G1 X8.55 Y-7.66 Z1.2 F360.0 E3571.7
G1 X8.42 Y-7.42 Z1.2 F360.0 E3572.049
G1 X8.36 Y-3.39 Z1.2 F360.0 E3577.086
G1 X8.14 Y-2.46 Z1.2 F360.0 E3578.29
G1 X8.14 Y5.96 Z1.2 F360.0 E3588.812
G1 X8.37 Y10.13 Z1.2 F360.0 E3594.046
G1 X7.97 Y9.94 Z1.2 F360.0 E3594.606
G1 X5.7 Y2.45 Z1.2 F360.0 E3604.392
G1 X4.39 Y-4.38 Z1.2 F360.0 E3613.098
G1 X4.17 Y-5.09 Z1.2 F360.0 E3614.027
G1 X3.76 Y-5.67 Z1.2 F360.0 E3614.914
G1 X3.69 Y-6.25 Z1.2 F360.0 E3615.639
G1 X3.33 Y-7.29 Z1.2 F360.0 E3617.01
G1 X3.34 Y-7.8 Z1.2 F360.0 E3617.651
G1 X3.26 Y-8.9 Z1.2 F360.0 E3619.038
G1 X3.47 Y-9.13 Z1.2 F360.0 E3619.425
G1 X4.04 Y-10.09 Z1.2 F360.0 E3620.823
G1 X4.22 Y-10.67 Z1.2 F360.0 E3621.58
G1 X4.57 Y-13.97 Z1.2 F360.0 E3625.74
G1 X4.93 Y-15.7 Z1.2 F360.0 E3627.952
G1 X5.83 Y-19.16 Z1.2 F360.0 E3632.418
G1 X6.26 Y-19.32 Z1.2 F360.0 E3632.991
G1 X6.87 Y-18.18 Z1.2 F360.0 E3634.608
G1 X7.0 Y-17.77 Z1.2 F360.0 E3635.152
;M103
;M108 S5.629
G1 X7.4 Y-17.89 Z1.2 F3600.0
;M101
G1 X8.54 Y-14.37 Z1.2 F270.0 E3639.779
G1 X8.73 Y-12.88 Z1.2 F270.0 E3641.664
G1 X8.82 Y-11.22 Z1.2 F270.0 E3643.746
G1 X8.81 Y-10.03 Z1.2 F270.0 E3645.228
G1 X9.09 Y-9.62 Z1.2 F270.0 E3645.852
G1 X8.97 Y-7.55 Z1.2 F270.0 E3648.447
G1 X8.84 Y-7.31 Z1.2 F270.0 E3648.784
G1 X8.78 Y-3.34 Z1.2 F270.0 E3653.748
G1 X8.56 Y-2.41 Z1.2 F270.0 E3654.949
G1 X8.56 Y5.94 Z1.2 F270.0 E3665.394
G1 X8.77 Y9.67 Z1.2 F270.0 E3670.066
G1 X8.57 Y11.49 Z1.2 F270.0 E3672.352
G1 X8.45 Y11.52 Z1.2 F270.0 E3672.507
G1 X7.63 Y10.28 Z1.2 F270.0 E3674.366
G1 X5.29 Y2.55 Z1.2 F270.0 E3684.462
G1 X3.98 Y-4.28 Z1.2 F270.0 E3693.166
G1 X3.79 Y-4.91 Z1.2 F270.0 E3693.985
G1 X3.36 Y-5.52 Z1.2 F270.0 E3694.918
G1 X3.28 Y-6.15 Z1.2 F270.0 E3695.717
G1 X2.91 Y-7.22 Z1.2 F270.0 E3697.128
G1 X2.93 Y-7.79 Z1.2 F270.0 E3697.837
G1 X2.83 Y-9.03 Z1.2 F270.0 E3699.392
G1 X2.98 Y-9.24 Z1.2 F270.0 E3699.718
G1 X3.14 Y-9.39 Z1.2 F270.0 E3699.995
G1 X3.66 Y-10.26 Z1.2 F270.0 E3701.257
G1 X3.81 Y-10.75 Z1.2 F270.0 E3701.902
G1 X4.16 Y-14.04 Z1.2 F270.0 E3706.037
G1 X4.52 Y-15.8 Z1.2 F270.0 E3708.287
G1 X5.48 Y-19.47 Z1.2 F270.0 E3713.039
G1 X5.79 Y-20.19 Z1.2 F270.0 E3714.012
G1 X5.92 Y-20.22 Z1.2 F270.0 E3714.177
G1 X6.13 Y-20.14 Z1.2 F270.0 E3714.456
G1 X6.46 Y-19.84 Z1.2 F270.0 E3715.009
G1 X7.26 Y-18.34 Z1.2 F270.0 E3717.132
G1 X7.4 Y-17.89 Z1.2 F270.0 E3717.723
;M103
;M108 S7.506
G1 X-6.38 Y5.19 Z1.2 F3600.0
;M101
G1 X-5.58 Y1.44 Z1.2 F360.0 E3722.524
G1 X-3.96 Y2.18 Z1.2 F360.0 E3724.761
G1 X-3.95 Y0.4 Z1.2 F360.0 E3726.993
G1 X-5.44 Y0.7 Z1.2 F360.0 E3728.897
G1 X-5.16 Y-0.76 Z1.2 F360.0 E3730.766
G1 X-3.95 Y-0.2 Z1.2 F360.0 E3732.44
G1 X-3.95 Y-1.39 Z1.2 F360.0 E3733.927
G1 X-5.02 Y-1.5 Z1.2 F360.0 E3735.279
G1 X-4.88 Y-2.23 Z1.2 F360.0 E3736.213
G1 X-3.94 Y-1.98 Z1.2 F360.0 E3737.425
G1 X-3.94 Y-3.17 Z1.2 F360.0 E3738.912
G1 X-4.63 Y-3.07 Z1.2 F360.0 E3739.782
G1 X-4.37 Y-3.92 Z1.2 F360.0 E3740.892
G1 X-3.94 Y-3.77 Z1.2 F360.0 E3741.47
G1 X-3.93 Y-4.36 Z1.2 F360.0 E3742.213
G1 X-4.11 Y-4.77 Z1.2 F360.0 E3742.777
G1 X-3.93 Y-4.95 Z1.2 F360.0 E3743.097
;M103
G1 X-5.05 Y17.49 Z1.2 F3600.0
;M101
G1 X-5.1 Y17.54 Z1.2 F360.0 E3743.195
G1 X-5.22 Y17.07 Z1.2 F360.0 E3743.809
G1 X-4.77 Y16.62 Z1.2 F360.0 E3744.596
G1 X-5.33 Y16.59 Z1.2 F360.0 E3745.296
G1 X-5.45 Y16.11 Z1.2 F360.0 E3745.911
G1 X-5.04 Y16.01 Z1.2 F360.0 E3746.434
G1 X-4.49 Y15.75 Z1.2 F360.0 E3747.199
G1 X-5.56 Y15.63 Z1.2 F360.0 E3748.547
G1 X-6.0 Y13.7 Z1.2 F360.0 E3751.02
G1 X-4.21 Y14.87 Z1.2 F360.0 E3753.699
G1 X-3.96 Y14.03 Z1.2 F360.0 E3754.798
G1 X-3.7 Y10.81 Z1.2 F360.0 E3758.831
G1 X-6.06 Y13.17 Z1.2 F360.0 E3762.999
G1 X-6.35 Y10.5 Z1.2 F360.0 E3766.363
G1 X-3.71 Y10.23 Z1.2 F360.0 E3769.683
G1 X-3.64 Y9.57 Z1.2 F360.0 E3770.51
G1 X-3.48 Y8.81 Z1.2 F360.0 E3771.474
G1 X-3.52 Y8.25 Z1.2 F360.0 E3772.175
G1 X-3.68 Y7.24 Z1.2 F360.0 E3773.464
G1 X-3.69 Y6.65 Z1.2 F360.0 E3774.194
G1 X-6.49 Y10.04 Z1.2 F360.0 E3779.689
G1 X-6.66 Y9.62 Z1.2 F360.0 E3780.257
G1 X-7.11 Y8.88 Z1.2 F360.0 E3781.337
G1 X-7.27 Y8.46 Z1.2 F360.0 E3781.911
G1 X-7.24 Y7.83 Z1.2 F360.0 E3782.688
G1 X-7.11 Y7.11 Z1.2 F360.0 E3783.606
G1 X-3.7 Y6.07 Z1.2 F360.0 E3788.068
G1 X-3.73 Y3.73 Z1.2 F360.0 E3790.99
G1 X-3.8 Y3.21 Z1.2 F360.0 E3791.65
G1 X-3.92 Y2.73 Z1.2 F360.0 E3792.267
G1 X-6.85 Y6.26 Z1.2 F360.0 E3798.014
;M103
G1 X-7.23 Y6.37 Z1.2 F3600.0
;M101
G1 X-7.22 Y6.34 Z1.2 F360.0 E3798.043
G1 X-7.16 Y5.83 Z1.2 F360.0 E3798.692
G1 X-6.78 Y5.28 Z1.2 F360.0 E3799.531
G1 X-6.53 Y4.48 Z1.2 F360.0 E3800.571
G1 X-5.22 Y-2.35 Z1.2 F360.0 E3809.278
G1 X-3.91 Y-6.66 Z1.2 F360.0 E3814.908
G1 X-3.57 Y-6.63 Z1.2 F360.0 E3815.34
G1 X-3.6 Y2.5 Z1.2 F360.0 E3826.764
G1 X-3.38 Y3.45 Z1.2 F360.0 E3827.973
G1 X-3.32 Y7.53 Z1.2 F360.0 E3833.081
G1 X-3.19 Y7.78 Z1.2 F360.0 E3833.441
G1 X-3.09 Y9.38 Z1.2 F360.0 E3835.45
G1 X-3.36 Y9.78 Z1.2 F360.0 E3836.046
G1 X-3.35 Y11.19 Z1.2 F360.0 E3837.81
G1 X-3.61 Y14.2 Z1.2 F360.0 E3841.586
G1 X-4.91 Y18.2 Z1.2 F360.0 E3846.847
G1 X-5.38 Y17.87 Z1.2 F360.0 E3847.56
G1 X-6.34 Y13.9 Z1.2 F360.0 E3852.669
G1 X-6.7 Y10.58 Z1.2 F360.0 E3856.846
G1 X-6.9 Y9.92 Z1.2 F360.0 E3857.713
G1 X-7.52 Y8.87 Z1.2 F360.0 E3859.238
G1 X-7.64 Y8.74 Z1.2 F360.0 E3859.46
G1 X-7.58 Y7.37 Z1.2 F360.0 E3861.183
G1 X-7.23 Y6.37 Z1.2 F360.0 E3862.506
;M103
G1 X-7.63 Y6.25 Z1.2 F3600.0
;M101
G1 X-7.56 Y5.67 Z1.2 F360.0 E3863.23
G1 X-7.16 Y5.09 Z1.2 F360.0 E3864.117
G1 X-6.94 Y4.38 Z1.2 F360.0 E3865.046
G1 X-5.63 Y-2.45 Z1.2 F360.0 E3873.752
G1 X-3.36 Y-9.94 Z1.2 F360.0 E3883.538
G1 X-2.96 Y-10.13 Z1.2 F360.0 E3884.098
G1 X-3.19 Y-5.96 Z1.2 F360.0 E3889.331
G1 X-3.18 Y2.46 Z1.2 F360.0 E3899.854
G1 X-2.96 Y3.39 Z1.2 F360.0 E3901.058
G1 X-2.91 Y7.42 Z1.2 F360.0 E3906.095
G1 X-2.77 Y7.66 Z1.2 F360.0 E3906.443
G1 X-2.67 Y9.5 Z1.2 F360.0 E3908.745
G1 X-2.94 Y9.9 Z1.2 F360.0 E3909.354
G1 X-2.93 Y11.21 Z1.2 F360.0 E3910.983
G1 X-3.2 Y14.28 Z1.2 F360.0 E3914.843
G1 X-4.46 Y18.18 Z1.2 F360.0 E3919.967
G1 X-5.07 Y19.32 Z1.2 F360.0 E3921.585
G1 X-5.49 Y19.16 Z1.2 F360.0 E3922.157
G1 X-6.75 Y13.97 Z1.2 F360.0 E3928.832
G1 X-7.11 Y10.67 Z1.2 F360.0 E3932.994
G1 X-7.28 Y10.09 Z1.2 F360.0 E3933.75
G1 X-7.85 Y9.12 Z1.2 F360.0 E3935.148
G1 X-8.07 Y8.9 Z1.2 F360.0 E3935.534
G1 X-7.99 Y7.29 Z1.2 F360.0 E3937.56
G1 X-7.63 Y6.25 Z1.2 F360.0 E3938.934
;M103
;M108 S5.629
G1 X-8.04 Y6.15 Z1.2 F3600.0
;M101
G1 X-7.96 Y5.52 Z1.2 F270.0 E3939.732
G1 X-7.54 Y4.91 Z1.2 F270.0 E3940.666
G1 X-7.35 Y4.28 Z1.2 F270.0 E3941.484
G1 X-6.03 Y-2.55 Z1.2 F270.0 E3950.188
G1 X-3.69 Y-10.28 Z1.2 F270.0 E3960.284
G1 X-2.88 Y-11.52 Z1.2 F270.0 E3962.143
G1 X-2.76 Y-11.49 Z1.2 F270.0 E3962.298
G1 X-2.56 Y-9.67 Z1.2 F270.0 E3964.585
G1 X-2.77 Y-5.94 Z1.2 F270.0 E3969.257
G1 X-2.77 Y2.41 Z1.2 F270.0 E3979.702
G1 X-2.55 Y3.34 Z1.2 F270.0 E3980.903
G1 X-2.49 Y7.31 Z1.2 F270.0 E3985.867
G1 X-2.36 Y7.55 Z1.2 F270.0 E3986.203
G1 X-2.24 Y9.62 Z1.2 F270.0 E3988.797
G1 X-2.52 Y10.03 Z1.2 F270.0 E3989.422
G1 X-2.51 Y11.22 Z1.2 F270.0 E3990.904
G1 X-2.6 Y12.88 Z1.2 F270.0 E3992.986
G1 X-2.79 Y14.37 Z1.2 F270.0 E3994.871
G1 X-4.07 Y18.34 Z1.2 F270.0 E4000.089
G1 X-4.87 Y19.84 Z1.2 F270.0 E4002.213
G1 X-5.2 Y20.14 Z1.2 F270.0 E4002.766
G1 X-5.4 Y20.22 Z1.2 F270.0 E4003.045
G1 X-5.53 Y20.19 Z1.2 F270.0 E4003.21
G1 X-5.85 Y19.47 Z1.2 F270.0 E4004.183
G1 X-6.81 Y15.8 Z1.2 F270.0 E4008.934
G1 X-7.17 Y14.04 Z1.2 F270.0 E4011.183
G1 X-7.52 Y10.75 Z1.2 F270.0 E4015.321
G1 X-7.67 Y10.26 Z1.2 F270.0 E4015.965
G1 X-8.18 Y9.39 Z1.2 F270.0 E4017.226
G1 X-8.34 Y9.24 Z1.2 F270.0 E4017.503
G1 X-8.5 Y9.03 Z1.2 F270.0 E4017.829
G1 X-8.4 Y7.79 Z1.2 F270.0 E4019.384
G1 X-8.41 Y7.22 Z1.2 F270.0 E4020.093
G1 X-8.04 Y6.15 Z1.2 F270.0 E4021.504
;M103
;M108 S7.506
G1 X-3.71 Y5.76 Z1.5 F3600.0
;M101
G1 X-3.74 Y3.96 Z1.5 F360.0 E4023.76
G1 X-5.67 Y2.04 Z1.5 F360.0 E4027.167
G1 X-6.39 Y5.46 Z1.5 F360.0 E4031.547
G1 X-6.63 Y5.81 Z1.5 F360.0 E4032.08
G1 X-3.71 Y6.37 Z1.5 F360.0 E4035.8
G1 X-3.64 Y7.62 Z1.5 F360.0 E4037.366
G1 X-3.48 Y8.36 Z1.5 F360.0 E4038.322
G1 X-3.45 Y8.99 Z1.5 F360.0 E4039.107
G1 X-3.57 Y9.46 Z1.5 F360.0 E4039.715
G1 X-3.77 Y9.86 Z1.5 F360.0 E4040.267
G1 X-6.78 Y6.26 Z1.5 F360.0 E4046.138
G1 X-6.93 Y7.29 Z1.5 F360.0 E4047.448
G1 X-6.91 Y9.08 Z1.5 F360.0 E4049.685
G1 X-6.37 Y10.22 Z1.5 F360.0 E4051.267
G1 X-3.79 Y10.43 Z1.5 F360.0 E4054.508
G1 X-3.91 Y13.27 Z1.5 F360.0 E4058.056
G1 X-6.24 Y10.94 Z1.5 F360.0 E4062.178
G1 X-5.81 Y14.33 Z1.5 F360.0 E4066.458
G1 X-3.98 Y13.79 Z1.5 F360.0 E4068.844
G1 X-4.36 Y15.19 Z1.5 F360.0 E4070.656
G1 X-5.62 Y15.11 Z1.5 F360.0 E4072.239
G1 X-5.43 Y15.89 Z1.5 F360.0 E4073.246
G1 X-4.5 Y15.64 Z1.5 F360.0 E4074.454
G1 X-4.92 Y16.99 Z1.5 F360.0 E4076.228
G1 X-5.24 Y16.67 Z1.5 F360.0 E4076.795
G1 X-5.05 Y17.46 Z1.5 F360.0 E4077.81
;M103
G1 X-3.86 Y3.25 Z1.5 F3600.0
;M101
G1 X-4.03 Y2.49 Z1.5 F360.0 E4078.787
G1 X-4.03 Y1.9 Z1.5 F360.0 E4079.528
G1 X-5.57 Y1.54 Z1.5 F360.0 E4081.503
G1 X-5.27 Y0.07 Z1.5 F360.0 E4083.39
G1 X-4.03 Y1.31 Z1.5 F360.0 E4085.584
G1 X-4.02 Y-1.06 Z1.5 F360.0 E4088.545
G1 X-5.17 Y-0.43 Z1.5 F360.0 E4090.179
G1 X-4.76 Y-2.39 Z1.5 F360.0 E4092.685
G1 X-4.02 Y-1.65 Z1.5 F360.0 E4093.985
G1 X-4.02 Y-2.84 Z1.5 F360.0 E4095.466
G1 X-4.63 Y-2.85 Z1.5 F360.0 E4096.223
G1 X-4.37 Y-3.77 Z1.5 F360.0 E4097.425
G1 X-4.02 Y-3.43 Z1.5 F360.0 E4098.034
G1 X-4.02 Y-4.02 Z1.5 F360.0 E4098.775
G1 X-4.24 Y-4.24 Z1.5 F360.0 E4099.155
G1 X-4.02 Y-4.61 Z1.5 F360.0 E4099.698
G1 X-4.1 Y-4.7 Z1.5 F360.0 E4099.847
;M103
G1 X-4.52 Y-4.46 Z1.5 F3600.0
;M101
G1 X-4.43 Y-4.79 Z1.5 F360.0 E4100.277
G1 X-3.97 Y-6.35 Z1.5 F360.0 E4102.312
G1 X-3.66 Y-6.21 Z1.5 F360.0 E4102.741
G1 X-3.67 Y2.49 Z1.5 F360.0 E4113.621
G1 X-3.39 Y3.69 Z1.5 F360.0 E4115.174
G1 X-3.33 Y7.43 Z1.5 F360.0 E4119.852
G1 X-3.16 Y7.75 Z1.5 F360.0 E4120.302
G1 X-3.07 Y9.36 Z1.5 F360.0 E4122.315
G1 X-3.41 Y9.86 Z1.5 F360.0 E4123.079
G1 X-3.49 Y12.8 Z1.5 F360.0 E4126.754
G1 X-3.67 Y14.19 Z1.5 F360.0 E4128.505
G1 X-4.89 Y18.07 Z1.5 F360.0 E4133.594
G1 X-4.9 Y18.23 Z1.5 F360.0 E4133.789
G1 X-5.33 Y17.86 Z1.5 F360.0 E4134.491
G1 X-6.28 Y13.91 Z1.5 F360.0 E4139.574
G1 X-6.65 Y10.53 Z1.5 F360.0 E4143.824
G1 X-6.83 Y9.91 Z1.5 F360.0 E4144.629
G1 X-7.32 Y9.1 Z1.5 F360.0 E4145.815
G1 X-7.31 Y7.49 Z1.5 F360.0 E4147.833
G1 X-7.08 Y5.84 Z1.5 F360.0 E4149.908
G1 X-6.69 Y5.27 Z1.5 F360.0 E4150.782
G1 X-5.14 Y-2.34 Z1.5 F360.0 E4160.486
G1 X-4.52 Y-4.46 Z1.5 F360.0 E4163.255
;M103
G1 X-4.91 Y-4.58 Z1.5 F3600.0
;M101
G1 X-4.82 Y-4.91 Z1.5 F360.0 E4163.684
G1 X-3.93 Y-7.88 Z1.5 F360.0 E4167.563
G1 X-3.7 Y-8.18 Z1.5 F360.0 E4168.04
G1 X-3.42 Y-8.02 Z1.5 F360.0 E4168.458
G1 X-3.24 Y-6.51 Z1.5 F360.0 E4170.359
G1 X-3.25 Y2.44 Z1.5 F360.0 E4181.544
G1 X-2.97 Y3.64 Z1.5 F360.0 E4183.094
G1 X-2.92 Y7.32 Z1.5 F360.0 E4187.701
G1 X-2.75 Y7.63 Z1.5 F360.0 E4188.14
G1 X-2.65 Y9.47 Z1.5 F360.0 E4190.445
G1 X-3.0 Y10.0 Z1.5 F360.0 E4191.235
G1 X-3.08 Y12.83 Z1.5 F360.0 E4194.784
G1 X-3.26 Y14.28 Z1.5 F360.0 E4196.606
G1 X-4.5 Y18.23 Z1.5 F360.0 E4201.788
G1 X-5.05 Y19.29 Z1.5 F360.0 E4203.284
G1 X-5.45 Y19.13 Z1.5 F360.0 E4203.816
G1 X-6.69 Y13.98 Z1.5 F360.0 E4210.45
G1 X-7.06 Y10.61 Z1.5 F360.0 E4214.684
G1 X-7.22 Y10.08 Z1.5 F360.0 E4215.377
G1 X-7.74 Y9.21 Z1.5 F360.0 E4216.643
G1 X-7.73 Y7.46 Z1.5 F360.0 E4218.842
G1 X-7.48 Y5.69 Z1.5 F360.0 E4221.076
G1 X-7.08 Y5.1 Z1.5 F360.0 E4221.966
G1 X-5.55 Y-2.44 Z1.5 F360.0 E4231.587
G1 X-4.91 Y-4.58 Z1.5 F360.0 E4234.38
;M103
;M108 S5.629
G1 X-5.32 Y-4.7 Z1.5 F3600.0
;M101
G1 X-5.22 Y-5.03 Z1.5 F270.0 E4234.809
G1 X-4.31 Y-8.07 Z1.5 F270.0 E4238.781
G1 X-3.82 Y-8.74 Z1.5 F270.0 E4239.821
G1 X-3.19 Y-9.73 Z1.5 F270.0 E4241.291
G1 X-2.82 Y-6.53 Z1.5 F270.0 E4245.322
G1 X-2.83 Y2.39 Z1.5 F270.0 E4256.477
G1 X-2.55 Y3.59 Z1.5 F270.0 E4258.022
G1 X-2.5 Y7.22 Z1.5 F270.0 E4262.556
G1 X-2.34 Y7.52 Z1.5 F270.0 E4262.984
G1 X-2.22 Y9.59 Z1.5 F270.0 E4265.581
G1 X-2.58 Y10.12 Z1.5 F270.0 E4266.384
G1 X-2.57 Y11.2 Z1.5 F270.0 E4267.731
G1 X-2.66 Y12.87 Z1.5 F270.0 E4269.825
G1 X-2.85 Y14.37 Z1.5 F270.0 E4271.714
G1 X-4.11 Y18.38 Z1.5 F270.0 E4276.977
G1 X-4.41 Y19.02 Z1.5 F270.0 E4277.851
G1 X-4.87 Y19.82 Z1.5 F270.0 E4279.008
G1 X-5.32 Y20.19 Z1.5 F270.0 E4279.735
G1 X-5.49 Y20.15 Z1.5 F270.0 E4279.965
G1 X-5.8 Y19.44 Z1.5 F270.0 E4280.924
G1 X-6.75 Y15.8 Z1.5 F270.0 E4285.637
G1 X-7.11 Y14.04 Z1.5 F270.0 E4287.877
G1 X-7.47 Y10.7 Z1.5 F270.0 E4292.085
G1 X-7.6 Y10.25 Z1.5 F270.0 E4292.664
G1 X-8.16 Y9.33 Z1.5 F270.0 E4294.012
G1 X-8.15 Y7.39 Z1.5 F270.0 E4296.444
G1 X-8.09 Y7.22 Z1.5 F270.0 E4296.663
G1 X-7.88 Y5.54 Z1.5 F270.0 E4298.786
G1 X-7.46 Y4.92 Z1.5 F270.0 E4299.722
G1 X-7.3 Y4.38 Z1.5 F270.0 E4300.427
G1 X-5.96 Y-2.54 Z1.5 F270.0 E4309.239
G1 X-5.32 Y-4.7 Z1.5 F270.0 E4312.055
;M103
;M108 S7.506
G1 X6.27 Y-17.43 Z1.5 F3600.0
;M101
G1 X6.28 Y-17.41 Z1.5 F360.0 E4312.086
G1 X6.15 Y-16.95 Z1.5 F360.0 E4312.684
G1 X6.53 Y-16.57 Z1.5 F360.0 E4313.365
G1 X6.03 Y-16.48 Z1.5 F360.0 E4314.001
G1 X5.92 Y-16.0 Z1.5 F360.0 E4314.615
G1 X6.8 Y-15.71 Z1.5 F360.0 E4315.782
G1 X5.8 Y-15.52 Z1.5 F360.0 E4317.055
G1 X5.37 Y-13.59 Z1.5 F360.0 E4319.536
G1 X7.08 Y-14.84 Z1.5 F360.0 E4322.186
G1 X7.32 Y-14.01 Z1.5 F360.0 E4323.272
G1 X7.48 Y-12.66 Z1.5 F360.0 E4324.969
G1 X7.53 Y-10.83 Z1.5 F360.0 E4327.257
G1 X5.31 Y-13.05 Z1.5 F360.0 E4331.181
G1 X5.01 Y-10.39 Z1.5 F360.0 E4334.531
G1 X7.15 Y-10.1 Z1.5 F360.0 E4337.231
G1 X7.83 Y-9.35 Z1.5 F360.0 E4338.494
G1 X7.83 Y-8.16 Z1.5 F360.0 E4339.979
G1 X7.63 Y-7.18 Z1.5 F360.0 E4341.237
G1 X7.62 Y-6.59 Z1.5 F360.0 E4341.968
G1 X4.87 Y-9.94 Z1.5 F360.0 E4347.385
G1 X4.46 Y-9.16 Z1.5 F360.0 E4348.481
G1 X4.37 Y-8.67 Z1.5 F360.0 E4349.113
G1 X4.37 Y-7.47 Z1.5 F360.0 E4350.608
G1 X4.47 Y-6.78 Z1.5 F360.0 E4351.481
G1 X7.62 Y-6.01 Z1.5 F360.0 E4355.53
G1 X7.57 Y-3.69 Z1.5 F360.0 E4358.438
G1 X7.35 Y-2.73 Z1.5 F360.0 E4359.672
G1 X4.57 Y-6.09 Z1.5 F360.0 E4365.127
;M103
G1 X5.06 Y-5.02 Z1.5 F3600.0
;M101
G1 X5.81 Y-1.3 Z1.5 F360.0 E4369.872
G1 X7.3 Y-2.18 Z1.5 F360.0 E4372.037
G1 X7.3 Y-0.4 Z1.5 F360.0 E4374.262
G1 X5.96 Y-0.56 Z1.5 F360.0 E4375.951
G1 X6.11 Y0.19 Z1.5 F360.0 E4376.9
G1 X7.3 Y0.19 Z1.5 F360.0 E4378.39
G1 X7.3 Y1.38 Z1.5 F360.0 E4379.873
G1 X6.26 Y0.93 Z1.5 F360.0 E4381.292
G1 X6.58 Y2.44 Z1.5 F360.0 E4383.218
G1 X7.3 Y1.97 Z1.5 F360.0 E4384.291
G1 X7.31 Y3.16 Z1.5 F360.0 E4385.775
G1 X6.82 Y3.26 Z1.5 F360.0 E4386.401
G1 X7.31 Y3.75 Z1.5 F360.0 E4387.267
G1 X7.05 Y4.09 Z1.5 F360.0 E4387.796
G1 X7.31 Y4.34 Z1.5 F360.0 E4388.249
;M103
G1 X7.66 Y4.0 Z1.5 F3600.0
;M101
G1 X7.66 Y4.34 Z1.5 F360.0 E4388.678
G1 X7.66 Y6.21 Z1.5 F360.0 E4391.015
G1 X7.35 Y6.35 Z1.5 F360.0 E4391.443
G1 X6.18 Y2.34 Z1.5 F360.0 E4396.677
G1 X4.64 Y-5.27 Z1.5 F360.0 E4406.381
G1 X4.25 Y-5.84 Z1.5 F360.0 E4407.255
G1 X4.01 Y-7.49 Z1.5 F360.0 E4409.33
G1 X4.01 Y-9.1 Z1.5 F360.0 E4411.349
G1 X4.49 Y-9.91 Z1.5 F360.0 E4412.534
G1 X4.68 Y-10.53 Z1.5 F360.0 E4413.34
G1 X5.05 Y-13.91 Z1.5 F360.0 E4417.589
G1 X6.0 Y-17.86 Z1.5 F360.0 E4422.673
G1 X6.42 Y-18.23 Z1.5 F360.0 E4423.374
G1 X6.44 Y-18.07 Z1.5 F360.0 E4423.569
G1 X7.65 Y-14.19 Z1.5 F360.0 E4428.655
G1 X7.83 Y-12.8 Z1.5 F360.0 E4430.411
G1 X7.91 Y-9.86 Z1.5 F360.0 E4434.086
G1 X8.26 Y-9.36 Z1.5 F360.0 E4434.852
G1 X8.16 Y-7.75 Z1.5 F360.0 E4436.863
G1 X7.99 Y-7.43 Z1.5 F360.0 E4437.317
G1 X7.94 Y-3.69 Z1.5 F360.0 E4441.992
G1 X7.66 Y-2.49 Z1.5 F360.0 E4443.545
G1 X7.66 Y4.0 Z1.5 F360.0 E4451.659
;M103
G1 X8.08 Y4.0 Z1.5 F3600.0
;M101
G1 X8.08 Y4.34 Z1.5 F360.0 E4452.088
G1 X8.08 Y6.51 Z1.5 F360.0 E4454.793
G1 X7.91 Y8.02 Z1.5 F360.0 E4456.695
G1 X7.62 Y8.18 Z1.5 F360.0 E4457.112
G1 X7.4 Y7.88 Z1.5 F360.0 E4457.589
G1 X5.78 Y2.44 Z1.5 F360.0 E4464.69
G1 X4.25 Y-5.1 Z1.5 F360.0 E4474.311
G1 X3.85 Y-5.69 Z1.5 F360.0 E4475.201
G1 X3.59 Y-7.46 Z1.5 F360.0 E4477.435
G1 X3.59 Y-9.22 Z1.5 F360.0 E4479.636
G1 X4.11 Y-10.08 Z1.5 F360.0 E4480.902
G1 X4.27 Y-10.61 Z1.5 F360.0 E4481.594
G1 X4.63 Y-13.98 Z1.5 F360.0 E4485.828
G1 X5.88 Y-19.13 Z1.5 F360.0 E4492.462
G1 X6.27 Y-19.29 Z1.5 F360.0 E4492.993
G1 X6.83 Y-18.23 Z1.5 F360.0 E4494.487
G1 X8.06 Y-14.28 Z1.5 F360.0 E4499.666
G1 X8.25 Y-12.83 Z1.5 F360.0 E4501.493
G1 X8.33 Y-10.0 Z1.5 F360.0 E4505.042
G1 X8.68 Y-9.47 Z1.5 F360.0 E4505.834
G1 X8.58 Y-7.63 Z1.5 F360.0 E4508.136
G1 X8.41 Y-7.32 Z1.5 F360.0 E4508.578
G1 X8.36 Y-3.64 Z1.5 F360.0 E4513.183
G1 X8.07 Y-2.44 Z1.5 F360.0 E4514.733
G1 X8.08 Y4.0 Z1.5 F360.0 E4522.784
;M103
;M108 S5.629
G1 X8.5 Y4.0 Z1.5 F3600.0
;M101
G1 X8.5 Y4.34 Z1.5 F270.0 E4523.214
G1 X8.5 Y6.53 Z1.5 F270.0 E4525.948
G1 X8.13 Y9.73 Z1.5 F270.0 E4529.98
G1 X7.51 Y8.74 Z1.5 F270.0 E4531.449
G1 X7.01 Y8.07 Z1.5 F270.0 E4532.49
G1 X5.37 Y2.54 Z1.5 F270.0 E4539.706
G1 X4.03 Y-4.38 Z1.5 F270.0 E4548.518
G1 X3.87 Y-4.92 Z1.5 F270.0 E4549.223
G1 X3.44 Y-5.54 Z1.5 F270.0 E4550.16
G1 X3.23 Y-7.22 Z1.5 F270.0 E4552.283
G1 X3.18 Y-7.39 Z1.5 F270.0 E4552.501
G1 X3.17 Y-9.33 Z1.5 F270.0 E4554.933
G1 X3.72 Y-10.25 Z1.5 F270.0 E4556.281
G1 X3.86 Y-10.7 Z1.5 F270.0 E4556.86
G1 X4.22 Y-14.04 Z1.5 F270.0 E4561.069
G1 X4.58 Y-15.8 Z1.5 F270.0 E4563.308
G1 X5.53 Y-19.44 Z1.5 F270.0 E4568.021
G1 X5.83 Y-20.15 Z1.5 F270.0 E4568.98
G1 X6.01 Y-20.19 Z1.5 F270.0 E4569.21
G1 X6.45 Y-19.82 Z1.5 F270.0 E4569.937
G1 X6.92 Y-19.02 Z1.5 F270.0 E4571.094
G1 X7.22 Y-18.38 Z1.5 F270.0 E4571.968
G1 X7.83 Y-16.38 Z1.5 F270.0 E4574.586
G1 X8.01 Y-15.97 Z1.5 F270.0 E4575.153
G1 X8.47 Y-14.37 Z1.5 F270.0 E4577.234
G1 X8.67 Y-12.87 Z1.5 F270.0 E4579.122
G1 X8.76 Y-11.2 Z1.5 F270.0 E4581.217
G1 X8.75 Y-10.12 Z1.5 F270.0 E4582.564
G1 X9.11 Y-9.59 Z1.5 F270.0 E4583.37
G1 X8.99 Y-7.52 Z1.5 F270.0 E4585.963
G1 X8.83 Y-7.21 Z1.5 F270.0 E4586.394
G1 X8.78 Y-3.59 Z1.5 F270.0 E4590.926
G1 X8.49 Y-2.39 Z1.5 F270.0 E4592.472
G1 X8.5 Y4.0 Z1.5 F270.0 E4600.463
;M103
;M108 S7.506
G1 X4.96 Y-5.55 Z1.8 F3600.0
;M101
G1 X4.72 Y-5.91 Z1.8 F360.0 E4600.996
G1 X4.63 Y-6.41 Z1.8 F360.0 E4601.63
G1 X7.91 Y-9.09 Z1.8 F360.0 E4606.933
G1 X7.84 Y-7.84 Z1.8 F360.0 E4608.501
G1 X7.62 Y-7.03 Z1.8 F360.0 E4609.551
G1 X7.6 Y-5.83 Z1.8 F360.0 E4611.056
G1 X5.12 Y-5.12 Z1.8 F360.0 E4614.295
G1 X5.51 Y-3.15 Z1.8 F360.0 E4616.809
G1 X7.6 Y-5.23 Z1.8 F360.0 E4620.491
G1 X7.58 Y-4.02 Z1.8 F360.0 E4621.996
G1 X7.23 Y-2.49 Z1.8 F360.0 E4623.958
G1 X7.23 Y-1.9 Z1.8 F360.0 E4624.705
G1 X5.61 Y-2.65 Z1.8 F360.0 E4626.934
G1 X6.01 Y-0.68 Z1.8 F360.0 E4629.448
G1 X7.22 Y-1.3 Z1.8 F360.0 E4631.146
G1 X7.21 Y-0.11 Z1.8 F360.0 E4632.64
G1 X6.11 Y-0.19 Z1.8 F360.0 E4634.02
G1 X6.31 Y0.8 Z1.8 F360.0 E4635.278
G1 X7.21 Y0.49 Z1.8 F360.0 E4636.461
G1 X7.21 Y1.09 Z1.8 F360.0 E4637.208
G1 X6.41 Y1.29 Z1.8 F360.0 E4638.229
G1 X6.62 Y2.27 Z1.8 F360.0 E4639.485
G1 X7.2 Y1.69 Z1.8 F360.0 E4640.522
G1 X7.2 Y2.28 Z1.8 F360.0 E4641.269
G1 X6.74 Y2.74 Z1.8 F360.0 E4642.075
G1 X7.19 Y2.88 Z1.8 F360.0 E4642.668
G1 X6.87 Y3.21 Z1.8 F360.0 E4643.246
G1 X7.19 Y3.48 Z1.8 F360.0 E4643.772
G1 X6.99 Y3.67 Z1.8 F360.0 E4644.124
G1 X7.14 Y4.12 Z1.8 F360.0 E4644.707
G1 X7.11 Y4.14 Z1.8 F360.0 E4644.753
;M103
G1 X4.56 Y-6.93 Z1.8 F3600.0
;M101
G1 X4.48 Y-8.63 Z1.8 F360.0 E4646.877
G1 X4.67 Y-9.41 Z1.8 F360.0 E4647.885
G1 X7.73 Y-9.5 Z1.8 F360.0 E4651.713
G1 X7.51 Y-9.87 Z1.8 F360.0 E4652.253
G1 X7.41 Y-12.75 Z1.8 F360.0 E4655.846
G1 X5.08 Y-10.41 Z1.8 F360.0 E4659.971
G1 X5.45 Y-13.74 Z1.8 F360.0 E4664.156
G1 X7.35 Y-13.27 Z1.8 F360.0 E4666.607
G1 X7.18 Y-14.29 Z1.8 F360.0 E4667.9
G1 X7.04 Y-14.74 Z1.8 F360.0 E4668.491
G1 X5.61 Y-14.5 Z1.8 F360.0 E4670.303
G1 X5.8 Y-15.28 Z1.8 F360.0 E4671.306
G1 X6.9 Y-15.19 Z1.8 F360.0 E4672.684
G1 X6.47 Y-16.54 Z1.8 F360.0 E4674.456
G1 X5.99 Y-16.06 Z1.8 F360.0 E4675.311
G1 X6.18 Y-16.84 Z1.8 F360.0 E4676.315
G1 X6.33 Y-16.99 Z1.8 F360.0 E4676.586
;M103
G1 X6.72 Y-16.93 Z1.8 F3600.0
;M101
G1 X7.59 Y-14.19 Z1.8 F360.0 E4680.186
G1 X7.77 Y-12.8 Z1.8 F360.0 E4681.941
G1 X7.86 Y-9.95 Z1.8 F360.0 E4685.51
G1 X8.28 Y-9.32 Z1.8 F360.0 E4686.449
G1 X8.19 Y-7.72 Z1.8 F360.0 E4688.456
G1 X7.98 Y-7.34 Z1.8 F360.0 E4689.001
G1 X7.93 Y-3.94 Z1.8 F360.0 E4693.248
G1 X7.59 Y-2.47 Z1.8 F360.0 E4695.14
G1 X7.54 Y3.91 Z1.8 F360.0 E4703.118
G1 X7.34 Y5.0 Z1.8 F360.0 E4704.505
G1 X7.03 Y5.19 Z1.8 F360.0 E4704.963
G1 X6.26 Y2.33 Z1.8 F360.0 E4708.668
G1 X4.72 Y-5.27 Z1.8 F360.0 E4718.359
G1 X4.34 Y-5.84 Z1.8 F360.0 E4719.216
G1 X4.12 Y-7.51 Z1.8 F360.0 E4721.319
G1 X4.12 Y-9.2 Z1.8 F360.0 E4723.437
G1 X4.56 Y-9.9 Z1.8 F360.0 E4724.475
G1 X4.73 Y-10.48 Z1.8 F360.0 E4725.221
G1 X5.11 Y-13.91 Z1.8 F360.0 E4729.543
G1 X6.05 Y-17.86 Z1.8 F360.0 E4734.626
G1 X6.11 Y-18.52 Z1.8 F360.0 E4735.447
G1 X6.28 Y-18.32 Z1.8 F360.0 E4735.775
G1 X6.67 Y-17.1 Z1.8 F360.0 E4737.373
G1 X6.72 Y-16.93 Z1.8 F360.0 E4737.591
;M103
G1 X7.07 Y-17.23 Z1.8 F3600.0
;M101
G1 X8.0 Y-14.28 Z1.8 F360.0 E4741.456
G1 X8.19 Y-12.83 Z1.8 F360.0 E4743.285
G1 X8.27 Y-10.08 Z1.8 F360.0 E4746.728
G1 X8.7 Y-9.44 Z1.8 F360.0 E4747.691
G1 X8.6 Y-7.61 Z1.8 F360.0 E4749.99
G1 X8.4 Y-7.23 Z1.8 F360.0 E4750.526
G1 X8.35 Y-3.89 Z1.8 F360.0 E4754.701
G1 X8.01 Y-2.42 Z1.8 F360.0 E4756.591
G1 X7.96 Y3.95 Z1.8 F360.0 E4764.556
G1 X7.52 Y6.33 Z1.8 F360.0 E4767.592
G1 X7.22 Y6.3 Z1.8 F360.0 E4767.962
G1 X6.79 Y5.69 Z1.8 F360.0 E4768.905
G1 X5.85 Y2.42 Z1.8 F360.0 E4773.15
G1 X4.33 Y-5.1 Z1.8 F360.0 E4782.76
G1 X3.94 Y-5.69 Z1.8 F360.0 E4783.635
G1 X3.71 Y-7.48 Z1.8 F360.0 E4785.894
G1 X3.7 Y-9.32 Z1.8 F360.0 E4788.194
G1 X4.17 Y-10.08 Z1.8 F360.0 E4789.313
G1 X4.32 Y-10.56 Z1.8 F360.0 E4789.943
G1 X4.69 Y-13.98 Z1.8 F360.0 E4794.249
G1 X5.89 Y-18.99 Z1.8 F360.0 E4800.686
G1 X6.4 Y-18.98 Z1.8 F360.0 E4801.324
G1 X6.63 Y-18.61 Z1.8 F360.0 E4801.862
G1 X7.07 Y-17.23 Z1.8 F360.0 E4803.678
;M103
;M108 S5.629
G1 X7.49 Y-17.35 Z1.8 F3600.0
;M101
G1 X7.68 Y-16.68 Z1.8 F270.0 E4804.546
G1 X8.1 Y-15.51 Z1.8 F270.0 E4806.102
G1 X8.41 Y-14.36 Z1.8 F270.0 E4807.589
G1 X8.6 Y-12.86 Z1.8 F270.0 E4809.479
G1 X8.69 Y-10.21 Z1.8 F270.0 E4812.797
G1 X9.13 Y-9.56 Z1.8 F270.0 E4813.784
G1 X9.02 Y-7.49 Z1.8 F270.0 E4816.376
G1 X8.82 Y-7.12 Z1.8 F270.0 E4816.901
G1 X8.77 Y-3.84 Z1.8 F270.0 E4821.003
G1 X8.43 Y-2.37 Z1.8 F270.0 E4822.891
G1 X8.38 Y3.99 Z1.8 F270.0 E4830.847
G1 X7.98 Y6.01 Z1.8 F270.0 E4833.425
G1 X7.78 Y7.7 Z1.8 F270.0 E4835.555
G1 X7.8 Y7.83 Z1.8 F270.0 E4835.717
G1 X7.58 Y7.52 Z1.8 F270.0 E4836.193
G1 X6.4 Y5.87 Z1.8 F270.0 E4838.727
G1 X5.45 Y2.52 Z1.8 F270.0 E4843.084
G1 X4.08 Y-4.48 Z1.8 F270.0 E4852.004
G1 X3.94 Y-4.92 Z1.8 F270.0 E4852.589
G1 X3.54 Y-5.54 Z1.8 F270.0 E4853.511
G1 X3.29 Y-7.45 Z1.8 F270.0 E4855.917
G1 X3.25 Y-8.76 Z1.8 F270.0 E4857.558
G1 X3.29 Y-9.45 Z1.8 F270.0 E4858.422
G1 X3.79 Y-10.25 Z1.8 F270.0 E4859.606
G1 X3.91 Y-10.64 Z1.8 F270.0 E4860.119
G1 X4.28 Y-14.05 Z1.8 F270.0 E4864.401
G1 X4.63 Y-15.79 Z1.8 F270.0 E4866.628
G1 X5.57 Y-19.41 Z1.8 F270.0 E4871.303
G1 X5.87 Y-20.11 Z1.8 F270.0 E4872.251
G1 X5.96 Y-20.13 Z1.8 F270.0 E4872.359
G1 X6.22 Y-20.0 Z1.8 F270.0 E4872.73
G1 X6.45 Y-19.79 Z1.8 F270.0 E4873.117
G1 X6.68 Y-19.39 Z1.8 F270.0 E4873.691
G1 X6.82 Y-19.06 Z1.8 F270.0 E4874.139
G1 X6.99 Y-18.82 Z1.8 F270.0 E4874.507
G1 X7.18 Y-18.43 Z1.8 F270.0 E4875.054
G1 X7.49 Y-17.35 Z1.8 F270.0 E4876.457
;M103
;M108 S7.506
G1 X-4.93 Y16.78 Z1.8 F3600.0
;M101
G1 X-5.12 Y16.97 Z1.8 F360.0 E4876.796
G1 X-5.24 Y16.49 Z1.8 F360.0 E4877.411
G1 X-4.65 Y15.91 Z1.8 F360.0 E4878.441
G1 X-5.35 Y16.01 Z1.8 F360.0 E4879.321
G1 X-5.46 Y15.53 Z1.8 F360.0 E4879.936
G1 X-4.38 Y15.04 Z1.8 F360.0 E4881.428
G1 X-5.17 Y14.96 Z1.8 F360.0 E4882.426
G1 X-5.69 Y14.58 Z1.8 F360.0 E4883.233
G1 X-5.95 Y13.06 Z1.8 F360.0 E4885.158
G1 X-4.1 Y14.17 Z1.8 F360.0 E4887.858
G1 X-3.92 Y12.8 Z1.8 F360.0 E4889.589
G1 X-3.84 Y10.35 Z1.8 F360.0 E4892.655
G1 X-6.01 Y12.53 Z1.8 F360.0 E4896.508
G1 X-6.25 Y10.4 Z1.8 F360.0 E4899.194
G1 X-3.64 Y9.56 Z1.8 F360.0 E4902.626
G1 X-3.44 Y8.77 Z1.8 F360.0 E4903.647
G1 X-3.47 Y8.21 Z1.8 F360.0 E4904.351
G1 X-6.39 Y9.94 Z1.8 F360.0 E4908.601
G1 X-6.8 Y9.17 Z1.8 F360.0 E4909.695
G1 X-6.85 Y8.03 Z1.8 F360.0 E4911.123
G1 X-3.55 Y7.7 Z1.8 F360.0 E4915.265
G1 X-3.7 Y7.26 Z1.8 F360.0 E4915.851
G1 X-3.74 Y4.34 Z1.8 F360.0 E4919.504
G1 X-6.83 Y7.42 Z1.8 F360.0 E4924.969
G1 X-6.65 Y6.06 Z1.8 F360.0 E4926.689
G1 X-6.19 Y5.0 Z1.8 F360.0 E4928.133
G1 X-5.74 Y2.78 Z1.8 F360.0 E4930.978
G1 X-3.79 Y3.79 Z1.8 F360.0 E4933.723
G1 X-4.1 Y2.32 Z1.8 F360.0 E4935.607
G1 X-4.1 Y1.73 Z1.8 F360.0 E4936.343
G1 X-5.59 Y2.03 Z1.8 F360.0 E4938.24
G1 X-5.28 Y0.55 Z1.8 F360.0 E4940.137
G1 X-4.1 Y1.14 Z1.8 F360.0 E4941.791
G1 X-4.11 Y-0.03 Z1.8 F360.0 E4943.262
G1 X-5.13 Y-0.2 Z1.8 F360.0 E4944.555
G1 X-4.98 Y-0.94 Z1.8 F360.0 E4945.503
G1 X-4.12 Y-0.62 Z1.8 F360.0 E4946.657
G1 X-4.12 Y-1.21 Z1.8 F360.0 E4947.393
G1 X-4.83 Y-1.68 Z1.8 F360.0 E4948.462
G1 X-4.13 Y-1.8 Z1.8 F360.0 E4949.358
G1 X-4.13 Y-2.39 Z1.8 F360.0 E4950.095
G1 X-4.67 Y-2.44 Z1.8 F360.0 E4950.768
G1 X-4.13 Y-2.98 Z1.8 F360.0 E4951.707
G1 X-4.45 Y-3.25 Z1.8 F360.0 E4952.232
G1 X-4.14 Y-3.56 Z1.8 F360.0 E4952.782
G1 X-4.23 Y-4.06 Z1.8 F360.0 E4953.415
G1 X-4.18 Y-4.11 Z1.8 F360.0 E4953.502
;M103
G1 X-3.8 Y-4.0 Z1.8 F3600.0
;M101
G1 X-3.79 Y-3.91 Z1.8 F360.0 E4953.623
G1 X-3.74 Y2.47 Z1.8 F360.0 E4961.601
G1 X-3.39 Y3.94 Z1.8 F360.0 E4963.493
G1 X-3.34 Y7.34 Z1.8 F360.0 E4967.74
G1 X-3.14 Y7.72 Z1.8 F360.0 E4968.286
G1 X-3.05 Y9.32 Z1.8 F360.0 E4970.293
G1 X-3.47 Y9.95 Z1.8 F360.0 E4971.232
G1 X-3.56 Y12.8 Z1.8 F360.0 E4974.8
G1 X-3.74 Y14.19 Z1.8 F360.0 E4976.556
G1 X-5.04 Y18.32 Z1.8 F360.0 E4981.971
G1 X-5.22 Y18.52 Z1.8 F360.0 E4982.3
G1 X-5.27 Y17.86 Z1.8 F360.0 E4983.122
G1 X-6.22 Y13.91 Z1.8 F360.0 E4988.205
G1 X-6.6 Y10.48 Z1.8 F360.0 E4992.526
G1 X-6.77 Y9.9 Z1.8 F360.0 E4993.273
G1 X-7.2 Y9.2 Z1.8 F360.0 E4994.311
G1 X-7.2 Y7.51 Z1.8 F360.0 E4996.428
G1 X-6.98 Y5.84 Z1.8 F360.0 E4998.531
G1 X-6.61 Y5.27 Z1.8 F360.0 E4999.388
G1 X-5.07 Y-2.33 Z1.8 F360.0 E5009.079
G1 X-4.3 Y-5.19 Z1.8 F360.0 E5012.784
G1 X-3.99 Y-5.0 Z1.8 F360.0 E5013.242
G1 X-3.83 Y-4.17 Z1.8 F360.0 E5014.29
G1 X-3.8 Y-4.0 Z1.8 F360.0 E5014.508
;M103
G1 X-3.37 Y-3.95 Z1.8 F3600.0
;M101
G1 X-3.32 Y2.42 Z1.8 F360.0 E5022.474
G1 X-2.97 Y3.89 Z1.8 F360.0 E5024.364
G1 X-2.93 Y7.23 Z1.8 F360.0 E5028.539
G1 X-2.72 Y7.61 Z1.8 F360.0 E5029.075
G1 X-2.62 Y9.44 Z1.8 F360.0 E5031.374
G1 X-3.05 Y10.08 Z1.8 F360.0 E5032.337
G1 X-3.14 Y12.83 Z1.8 F360.0 E5035.78
G1 X-3.32 Y14.28 Z1.8 F360.0 E5037.609
G1 X-4.7 Y18.61 Z1.8 F360.0 E5043.289
G1 X-4.92 Y18.98 Z1.8 F360.0 E5043.829
G1 X-5.43 Y18.99 Z1.8 F360.0 E5044.467
G1 X-6.63 Y13.98 Z1.8 F360.0 E5050.904
G1 X-7.01 Y10.56 Z1.8 F360.0 E5055.21
G1 X-7.15 Y10.08 Z1.8 F360.0 E5055.839
G1 X-7.62 Y9.32 Z1.8 F360.0 E5056.958
G1 X-7.62 Y7.48 Z1.8 F360.0 E5059.259
G1 X-7.39 Y5.69 Z1.8 F360.0 E5061.517
G1 X-7.0 Y5.1 Z1.8 F360.0 E5062.393
G1 X-5.47 Y-2.42 Z1.8 F360.0 E5072.003
G1 X-4.54 Y-5.69 Z1.8 F360.0 E5076.248
G1 X-4.1 Y-6.3 Z1.8 F360.0 E5077.191
G1 X-3.81 Y-6.33 Z1.8 F360.0 E5077.561
G1 X-3.42 Y-4.25 Z1.8 F360.0 E5080.211
G1 X-3.37 Y-3.95 Z1.8 F360.0 E5080.597
;M103
;M108 S5.629
G1 X-2.95 Y-3.99 Z1.8 F3600.0
;M101
G1 X-2.9 Y2.37 Z1.8 F270.0 E5088.552
G1 X-2.56 Y3.84 Z1.8 F270.0 E5090.441
G1 X-2.51 Y7.12 Z1.8 F270.0 E5094.543
G1 X-2.31 Y7.49 Z1.8 F270.0 E5095.068
G1 X-2.2 Y9.56 Z1.8 F270.0 E5097.66
G1 X-2.64 Y10.21 Z1.8 F270.0 E5098.647
G1 X-2.72 Y12.86 Z1.8 F270.0 E5101.965
G1 X-2.91 Y14.36 Z1.8 F270.0 E5103.855
G1 X-3.23 Y15.51 Z1.8 F270.0 E5105.341
G1 X-3.64 Y16.68 Z1.8 F270.0 E5106.896
G1 X-4.15 Y18.43 Z1.8 F270.0 E5109.168
G1 X-4.33 Y18.82 Z1.8 F270.0 E5109.715
G1 X-4.5 Y19.06 Z1.8 F270.0 E5110.083
G1 X-4.64 Y19.39 Z1.8 F270.0 E5110.532
G1 X-4.88 Y19.79 Z1.8 F270.0 E5111.106
G1 X-5.11 Y20.0 Z1.8 F270.0 E5111.493
G1 X-5.37 Y20.13 Z1.8 F270.0 E5111.863
G1 X-5.46 Y20.11 Z1.8 F270.0 E5111.973
G1 X-5.76 Y19.41 Z1.8 F270.0 E5112.921
G1 X-6.69 Y15.79 Z1.8 F270.0 E5117.595
G1 X-7.05 Y14.05 Z1.8 F270.0 E5119.822
G1 X-7.42 Y10.64 Z1.8 F270.0 E5124.104
G1 X-7.54 Y10.25 Z1.8 F270.0 E5124.617
G1 X-8.04 Y9.45 Z1.8 F270.0 E5125.801
G1 X-8.07 Y8.76 Z1.8 F270.0 E5126.666
G1 X-8.04 Y7.45 Z1.8 F270.0 E5128.306
G1 X-7.79 Y5.54 Z1.8 F270.0 E5130.712
G1 X-7.38 Y4.92 Z1.8 F270.0 E5131.634
G1 X-7.25 Y4.48 Z1.8 F270.0 E5132.219
G1 X-5.88 Y-2.52 Z1.8 F270.0 E5141.139
G1 X-4.92 Y-5.87 Z1.8 F270.0 E5145.496
G1 X-3.74 Y-7.52 Z1.8 F270.0 E5148.03
G1 X-3.55 Y-7.7 Z1.8 F270.0 E5148.365
G1 X-3.52 Y-7.83 Z1.8 F270.0 E5148.527
G1 X-3.35 Y-6.01 Z1.8 F270.0 E5150.813
G1 X-3.02 Y-4.33 Z1.8 F270.0 E5152.955
G1 X-2.95 Y-3.99 Z1.8 F270.0 E5153.39
;M103
;M108 S7.506
G1 X-3.84 Y3.86 Z2.1 F3600.0
;M101
G1 X-4.16 Y2.35 Z2.1 F360.0 E5155.316
G1 X-5.51 Y2.19 Z2.1 F360.0 E5157.009
G1 X-5.3 Y1.22 Z2.1 F360.0 E5158.261
G1 X-4.17 Y1.75 Z2.1 F360.0 E5159.822
G1 X-4.19 Y0.55 Z2.1 F360.0 E5161.329
G1 X-5.2 Y0.73 Z2.1 F360.0 E5162.606
G1 X-5.1 Y0.24 Z2.1 F360.0 E5163.232
G1 X-4.21 Y-0.06 Z2.1 F360.0 E5164.404
G1 X-4.89 Y-0.74 Z2.1 F360.0 E5165.615
G1 X-4.79 Y-1.23 Z2.1 F360.0 E5166.241
G1 X-4.22 Y-0.66 Z2.1 F360.0 E5167.251
G1 X-4.23 Y-1.26 Z2.1 F360.0 E5168.005
G1 X-4.68 Y-1.72 Z2.1 F360.0 E5168.814
G1 X-4.31 Y-1.94 Z2.1 F360.0 E5169.356
G1 X-4.58 Y-2.21 Z2.1 F360.0 E5169.838
G1 X-4.46 Y-2.68 Z2.1 F360.0 E5170.446
G1 X-4.48 Y-2.7 Z2.1 F360.0 E5170.478
;M103
G1 X-5.61 Y2.68 Z2.1 F3600.0
;M101
G1 X-6.13 Y5.13 Z2.1 F360.0 E5173.608
G1 X-3.75 Y4.54 Z2.1 F360.0 E5176.668
G1 X-3.72 Y6.95 Z2.1 F360.0 E5179.676
G1 X-3.46 Y7.79 Z2.1 F360.0 E5180.779
G1 X-3.43 Y8.42 Z2.1 F360.0 E5181.562
G1 X-6.29 Y5.56 Z2.1 F360.0 E5186.618
G1 X-6.5 Y5.94 Z2.1 F360.0 E5187.162
G1 X-6.75 Y7.47 Z2.1 F360.0 E5189.101
G1 X-6.76 Y8.05 Z2.1 F360.0 E5189.833
G1 X-3.4 Y9.04 Z2.1 F360.0 E5194.215
G1 X-3.57 Y9.46 Z2.1 F360.0 E5194.783
G1 X-3.81 Y9.82 Z2.1 F360.0 E5195.317
G1 X-3.89 Y10.33 Z2.1 F360.0 E5195.961
G1 X-3.95 Y12.04 Z2.1 F360.0 E5198.112
G1 X-6.61 Y9.39 Z2.1 F360.0 E5202.812
G1 X-6.74 Y8.66 Z2.1 F360.0 E5203.738
;M103
G1 X-6.19 Y10.4 Z2.1 F3600.0
;M101
G1 X-5.9 Y13.06 Z2.1 F360.0 E5207.09
G1 X-3.97 Y12.62 Z2.1 F360.0 E5209.562
G1 X-4.17 Y14.2 Z2.1 F360.0 E5211.554
G1 X-4.43 Y15.12 Z2.1 F360.0 E5212.754
G1 X-5.82 Y13.73 Z2.1 F360.0 E5215.217
G1 X-5.29 Y16.04 Z2.1 F360.0 E5218.185
G1 X-4.56 Y15.58 Z2.1 F360.0 E5219.259
G1 X-4.82 Y16.5 Z2.1 F360.0 E5220.459
G1 X-5.1 Y16.82 Z2.1 F360.0 E5220.984
G1 X-4.95 Y16.97 Z2.1 F360.0 E5221.247
;M103
G1 X-4.57 Y16.92 Z2.1 F3600.0
;M101
G1 X-4.61 Y17.06 Z2.1 F360.0 E5221.429
G1 X-4.81 Y17.78 Z2.1 F360.0 E5222.362
G1 X-5.3 Y17.54 Z2.1 F360.0 E5223.034
G1 X-6.16 Y13.92 Z2.1 F360.0 E5227.697
G1 X-6.55 Y10.42 Z2.1 F360.0 E5232.097
G1 X-6.71 Y9.9 Z2.1 F360.0 E5232.783
G1 X-7.09 Y9.3 Z2.1 F360.0 E5233.667
G1 X-7.12 Y7.56 Z2.1 F360.0 E5235.843
G1 X-6.83 Y5.74 Z2.1 F360.0 E5238.154
G1 X-6.52 Y5.26 Z2.1 F360.0 E5238.867
G1 X-4.75 Y-3.12 Z2.1 F360.0 E5249.585
G1 X-4.55 Y-3.43 Z2.1 F360.0 E5250.043
G1 X-4.21 Y-3.67 Z2.1 F360.0 E5250.561
G1 X-4.16 Y-3.02 Z2.1 F360.0 E5251.375
G1 X-3.88 Y-1.6 Z2.1 F360.0 E5253.184
G1 X-3.81 Y2.46 Z2.1 F360.0 E5258.256
G1 X-3.4 Y4.19 Z2.1 F360.0 E5260.488
G1 X-3.35 Y7.24 Z2.1 F360.0 E5264.301
G1 X-3.11 Y7.69 Z2.1 F360.0 E5264.942
G1 X-3.03 Y9.29 Z2.1 F360.0 E5266.949
G1 X-3.53 Y10.04 Z2.1 F360.0 E5268.068
G1 X-3.62 Y12.79 Z2.1 F360.0 E5271.517
G1 X-3.8 Y14.19 Z2.1 F360.0 E5273.276
G1 X-4.57 Y16.92 Z2.1 F360.0 E5276.832
;M103
G1 X-4.24 Y17.17 Z2.1 F3600.0
;M101
G1 X-4.57 Y18.29 Z2.1 F360.0 E5278.285
G1 X-4.89 Y18.75 Z2.1 F360.0 E5278.991
G1 X-5.41 Y18.88 Z2.1 F360.0 E5279.663
G1 X-6.57 Y13.99 Z2.1 F360.0 E5285.949
G1 X-6.96 Y10.51 Z2.1 F360.0 E5290.331
G1 X-7.09 Y10.07 Z2.1 F360.0 E5290.898
G1 X-7.5 Y9.42 Z2.1 F360.0 E5291.858
G1 X-7.54 Y7.53 Z2.1 F360.0 E5294.227
G1 X-7.23 Y5.58 Z2.1 F360.0 E5296.699
G1 X-6.91 Y5.1 Z2.1 F360.0 E5297.426
G1 X-5.15 Y-3.29 Z2.1 F360.0 E5308.145
G1 X-4.51 Y-4.24 Z2.1 F360.0 E5309.575
G1 X-3.96 Y-4.13 Z2.1 F360.0 E5310.277
G1 X-3.46 Y-1.64 Z2.1 F360.0 E5313.456
G1 X-3.39 Y2.4 Z2.1 F360.0 E5318.52
G1 X-2.98 Y4.14 Z2.1 F360.0 E5320.753
G1 X-2.94 Y7.13 Z2.1 F360.0 E5324.493
G1 X-2.7 Y7.58 Z2.1 F360.0 E5325.125
G1 X-2.6 Y9.41 Z2.1 F360.0 E5327.424
G1 X-3.11 Y10.17 Z2.1 F360.0 E5328.568
G1 X-3.2 Y12.83 Z2.1 F360.0 E5331.891
G1 X-3.38 Y14.27 Z2.1 F360.0 E5333.717
G1 X-4.24 Y17.17 Z2.1 F360.0 E5337.498
;M103
;M108 S5.629
G1 X-3.84 Y17.29 Z2.1 F3600.0
;M101
G1 X-4.18 Y18.47 Z2.1 F270.0 E5339.033
G1 X-4.63 Y19.12 Z2.1 F270.0 E5340.026
G1 X-4.88 Y19.7 Z2.1 F270.0 E5340.813
G1 X-5.45 Y19.99 Z2.1 F270.0 E5341.611
G1 X-5.71 Y19.38 Z2.1 F270.0 E5342.446
G1 X-6.64 Y15.79 Z2.1 F270.0 E5347.083
G1 X-6.99 Y14.05 Z2.1 F270.0 E5349.299
G1 X-7.37 Y10.59 Z2.1 F270.0 E5353.655
G1 X-7.47 Y10.25 Z2.1 F270.0 E5354.101
G1 X-7.91 Y9.56 Z2.1 F270.0 E5355.128
G1 X-7.98 Y8.3 Z2.1 F270.0 E5356.698
G1 X-7.96 Y7.5 Z2.1 F270.0 E5357.704
G1 X-7.82 Y6.38 Z2.1 F270.0 E5359.111
G1 X-7.62 Y5.42 Z2.1 F270.0 E5360.346
G1 X-7.3 Y4.93 Z2.1 F270.0 E5361.072
G1 X-5.8 Y-2.51 Z2.1 F270.0 E5370.566
G1 X-5.53 Y-3.47 Z2.1 F270.0 E5371.812
G1 X-3.9 Y-5.93 Z2.1 F270.0 E5375.505
G1 X-3.04 Y-1.69 Z2.1 F270.0 E5380.915
G1 X-2.97 Y2.35 Z2.1 F270.0 E5385.97
G1 X-2.56 Y4.09 Z2.1 F270.0 E5388.204
G1 X-2.52 Y7.02 Z2.1 F270.0 E5391.872
G1 X-2.28 Y7.46 Z2.1 F270.0 E5392.493
G1 X-2.18 Y9.53 Z2.1 F270.0 E5395.085
G1 X-2.7 Y10.3 Z2.1 F270.0 E5396.253
G1 X-2.78 Y12.86 Z2.1 F270.0 E5399.449
G1 X-2.97 Y14.36 Z2.1 F270.0 E5401.342
G1 X-3.84 Y17.29 Z2.1 F270.0 E5405.165
;M103
;M108 S7.506
G1 X7.6 Y-6.03 Z2.1 F3600.0
;M101
G1 X7.62 Y-7.2 Z2.1 F360.0 E5406.626
G1 X7.78 Y-7.63 Z2.1 F360.0 E5407.201
G1 X5.11 Y-10.29 Z2.1 F360.0 E5411.913
G1 X4.97 Y-9.84 Z2.1 F360.0 E5412.506
G1 X4.59 Y-9.03 Z2.1 F360.0 E5413.617
G1 X4.61 Y-7.23 Z2.1 F360.0 E5415.871
G1 X4.91 Y-5.75 Z2.1 F360.0 E5417.759
G1 X7.59 Y-5.44 Z2.1 F360.0 E5421.133
G1 X7.57 Y-4.28 Z2.1 F360.0 E5422.594
G1 X7.16 Y-2.32 Z2.1 F360.0 E5425.098
G1 X5.27 Y-4.8 Z2.1 F360.0 E5429.005
G1 X6.06 Y-1.05 Z2.1 F360.0 E5433.802
G1 X7.15 Y-1.73 Z2.1 F360.0 E5435.415
G1 X7.13 Y-0.57 Z2.1 F360.0 E5436.873
G1 X6.22 Y-0.3 Z2.1 F360.0 E5438.066
G1 X7.12 Y0.01 Z2.1 F360.0 E5439.264
G1 X7.1 Y1.18 Z2.1 F360.0 E5440.722
G1 X6.38 Y0.45 Z2.1 F360.0 E5442.008
G1 X6.53 Y1.2 Z2.1 F360.0 E5442.968
G1 X7.06 Y1.73 Z2.1 F360.0 E5443.901
G1 X6.69 Y1.95 Z2.1 F360.0 E5444.441
G1 X6.96 Y2.22 Z2.1 F360.0 E5444.917
G1 X6.85 Y2.7 Z2.1 F360.0 E5445.535
G1 X6.86 Y2.71 Z2.1 F360.0 E5445.549
;M103
G1 X6.33 Y-17.36 Z2.1 F3600.0
;M101
G1 X6.35 Y-17.35 Z2.1 F360.0 E5445.578
G1 X6.22 Y-16.88 Z2.1 F360.0 E5446.18
G1 X6.48 Y-16.62 Z2.1 F360.0 E5446.642
G1 X6.11 Y-16.4 Z2.1 F360.0 E5447.183
G1 X5.89 Y-15.44 Z2.1 F360.0 E5448.418
G1 X6.71 Y-15.8 Z2.1 F360.0 E5449.543
G1 X6.94 Y-14.98 Z2.1 F360.0 E5450.611
G1 X5.77 Y-14.96 Z2.1 F360.0 E5452.069
G1 X5.55 Y-14.0 Z2.1 F360.0 E5453.304
G1 X5.42 Y-12.95 Z2.1 F360.0 E5454.63
G1 X7.17 Y-14.16 Z2.1 F360.0 E5457.294
G1 X7.35 Y-12.79 Z2.1 F360.0 E5459.013
G1 X7.43 Y-10.34 Z2.1 F360.0 E5462.086
G1 X5.36 Y-12.41 Z2.1 F360.0 E5465.756
G1 X5.18 Y-10.81 Z2.1 F360.0 E5467.771
G1 X7.83 Y-9.35 Z2.1 F360.0 E5471.559
G1 X7.91 Y-8.68 Z2.1 F360.0 E5472.4
G1 X7.88 Y-8.11 Z2.1 F360.0 E5473.107
;M103
G1 X8.24 Y-8.24 Z2.1 F3600.0
;M101
G1 X8.24 Y-8.1 Z2.1 F360.0 E5473.288
G1 X8.22 Y-7.69 Z2.1 F360.0 E5473.796
G1 X7.97 Y-7.24 Z2.1 F360.0 E5474.437
G1 X7.93 Y-4.19 Z2.1 F360.0 E5478.25
G1 X7.52 Y-2.46 Z2.1 F360.0 E5480.482
G1 X7.45 Y1.6 Z2.1 F360.0 E5485.554
G1 X7.16 Y3.02 Z2.1 F360.0 E5487.363
G1 X7.12 Y3.67 Z2.1 F360.0 E5488.177
G1 X6.78 Y3.43 Z2.1 F360.0 E5488.695
G1 X6.57 Y3.12 Z2.1 F360.0 E5489.153
G1 X4.81 Y-5.26 Z2.1 F360.0 E5499.871
G1 X4.5 Y-5.74 Z2.1 F360.0 E5500.583
G1 X4.2 Y-7.56 Z2.1 F360.0 E5502.896
G1 X4.24 Y-9.3 Z2.1 F360.0 E5505.07
G1 X4.62 Y-9.9 Z2.1 F360.0 E5505.955
G1 X4.78 Y-10.42 Z2.1 F360.0 E5506.641
G1 X5.17 Y-13.92 Z2.1 F360.0 E5511.041
G1 X6.03 Y-17.56 Z2.1 F360.0 E5515.726
G1 X6.51 Y-17.86 Z2.1 F360.0 E5516.423
G1 X7.53 Y-14.19 Z2.1 F360.0 E5521.191
G1 X7.71 Y-12.79 Z2.1 F360.0 E5522.948
G1 X7.8 Y-10.04 Z2.1 F360.0 E5526.397
G1 X8.3 Y-9.29 Z2.1 F360.0 E5527.517
G1 X8.24 Y-8.24 Z2.1 F360.0 E5528.834
;M103
G1 X8.65 Y-8.07 Z2.1 F3600.0
;M101
G1 X8.63 Y-7.58 Z2.1 F360.0 E5529.459
G1 X8.39 Y-7.13 Z2.1 F360.0 E5530.091
G1 X8.35 Y-4.14 Z2.1 F360.0 E5533.832
G1 X7.94 Y-2.4 Z2.1 F360.0 E5536.065
G1 X7.87 Y1.64 Z2.1 F360.0 E5541.128
G1 X7.36 Y4.13 Z2.1 F360.0 E5544.307
G1 X6.81 Y4.24 Z2.1 F360.0 E5545.009
G1 X6.18 Y3.29 Z2.1 F360.0 E5546.438
G1 X4.42 Y-5.1 Z2.1 F360.0 E5557.156
G1 X4.1 Y-5.58 Z2.1 F360.0 E5557.882
G1 X3.78 Y-7.53 Z2.1 F360.0 E5560.355
G1 X3.82 Y-9.42 Z2.1 F360.0 E5562.724
G1 X4.24 Y-10.07 Z2.1 F360.0 E5563.685
G1 X4.37 Y-10.51 Z2.1 F360.0 E5564.251
G1 X4.75 Y-13.99 Z2.1 F360.0 E5568.634
G1 X5.92 Y-18.88 Z2.1 F360.0 E5574.921
G1 X6.45 Y-18.75 Z2.1 F360.0 E5575.598
G1 X6.73 Y-18.35 Z2.1 F360.0 E5576.208
G1 X7.94 Y-14.27 Z2.1 F360.0 E5581.537
G1 X8.12 Y-12.83 Z2.1 F360.0 E5583.361
G1 X8.21 Y-10.17 Z2.1 F360.0 E5586.683
G1 X8.72 Y-9.41 Z2.1 F360.0 E5587.828
G1 X8.65 Y-8.07 Z2.1 F360.0 E5589.502
;M103
;M108 S5.629
G1 X9.07 Y-8.05 Z2.1 F3600.0
;M101
G1 X9.04 Y-7.46 Z2.1 F270.0 E5590.246
G1 X8.81 Y-7.02 Z2.1 F270.0 E5590.867
G1 X8.76 Y-4.09 Z2.1 F270.0 E5594.535
G1 X8.36 Y-2.35 Z2.1 F270.0 E5596.769
G1 X8.29 Y1.69 Z2.1 F270.0 E5601.825
G1 X7.43 Y5.93 Z2.1 F270.0 E5607.235
G1 X5.8 Y3.47 Z2.1 F270.0 E5610.927
G1 X5.52 Y2.51 Z2.1 F270.0 E5612.174
G1 X4.02 Y-4.93 Z2.1 F270.0 E5621.668
G1 X3.7 Y-5.42 Z2.1 F270.0 E5622.393
G1 X3.5 Y-6.38 Z2.1 F270.0 E5623.628
G1 X3.36 Y-7.5 Z2.1 F270.0 E5625.035
G1 X3.34 Y-8.3 Z2.1 F270.0 E5626.041
G1 X3.41 Y-9.56 Z2.1 F270.0 E5627.611
G1 X3.85 Y-10.25 Z2.1 F270.0 E5628.639
G1 X3.96 Y-10.59 Z2.1 F270.0 E5629.084
G1 X4.34 Y-14.05 Z2.1 F270.0 E5633.441
G1 X4.69 Y-15.79 Z2.1 F270.0 E5635.656
G1 X5.61 Y-19.38 Z2.1 F270.0 E5640.293
G1 X5.88 Y-19.99 Z2.1 F270.0 E5641.128
G1 X6.45 Y-19.7 Z2.1 F270.0 E5641.927
G1 X6.7 Y-19.12 Z2.1 F270.0 E5642.713
G1 X7.11 Y-18.54 Z2.1 F270.0 E5643.607
G1 X8.35 Y-14.36 Z2.1 F270.0 E5649.063
G1 X8.54 Y-12.86 Z2.1 F270.0 E5650.956
G1 X8.63 Y-10.3 Z2.1 F270.0 E5654.152
G1 X9.15 Y-9.53 Z2.1 F270.0 E5655.32
G1 X9.07 Y-8.05 Z2.1 F270.0 E5657.168
;M103
;M108 S7.506
G1 X5.76 Y-2.79 Z2.4 F3600.0
;M101
G1 X5.46 Y-4.27 Z2.4 F360.0 E5659.053
G1 X7.42 Y-3.87 Z2.4 F360.0 E5661.565
G1 X7.57 Y-4.61 Z2.4 F360.0 E5662.507
G1 X7.59 Y-5.81 Z2.4 F360.0 E5664.01
G1 X5.36 Y-4.76 Z2.4 F360.0 E5667.093
G1 X5.26 Y-5.26 Z2.4 F360.0 E5667.722
G1 X5.06 Y-5.65 Z2.4 F360.0 E5668.276
G1 X4.93 Y-6.11 Z2.4 F360.0 E5668.875
G1 X7.59 Y-6.41 Z2.4 F360.0 E5672.228
G1 X7.6 Y-7.01 Z2.4 F360.0 E5672.98
G1 X7.9 Y-7.9 Z2.4 F360.0 E5674.147
G1 X7.96 Y-9.14 Z2.4 F360.0 E5675.707
G1 X7.49 Y-9.86 Z2.4 F360.0 E5676.779
G1 X4.84 Y-6.61 Z2.4 F360.0 E5682.027
G1 X4.65 Y-7.61 Z2.4 F360.0 E5683.294
G1 X4.7 Y-8.85 Z2.4 F360.0 E5684.849
G1 X5.21 Y-10.54 Z2.4 F360.0 E5687.058
G1 X7.38 Y-10.34 Z2.4 F360.0 E5689.781
G1 X7.24 Y-13.16 Z2.4 F360.0 E5693.318
G1 X5.28 Y-11.21 Z2.4 F360.0 E5696.776
G1 X5.58 Y-13.88 Z2.4 F360.0 E5700.139
G1 X5.77 Y-14.65 Z2.4 F360.0 E5701.134
G1 X7.17 Y-13.69 Z2.4 F360.0 E5703.266
G1 X7.1 Y-14.2 Z2.4 F360.0 E5703.917
G1 X6.7 Y-15.59 Z2.4 F360.0 E5705.715
G1 X5.95 Y-15.43 Z2.4 F360.0 E5706.677
G1 X6.13 Y-16.2 Z2.4 F360.0 E5707.672
G1 X6.44 Y-16.51 Z2.4 F360.0 E5708.214
G1 X6.57 Y-16.05 Z2.4 F360.0 E5708.814
;M103
G1 X5.96 Y-1.81 Z2.4 F3600.0
;M101
G1 X5.86 Y-2.3 Z2.4 F360.0 E5709.442
G1 X7.24 Y-3.09 Z2.4 F360.0 E5711.44
G1 X7.1 Y-2.36 Z2.4 F360.0 E5712.381
G1 X6.06 Y-1.32 Z2.4 F360.0 E5714.221
G1 X6.16 Y-0.82 Z2.4 F360.0 E5714.85
G1 X7.09 Y-1.75 Z2.4 F360.0 E5716.496
G1 X7.07 Y-1.15 Z2.4 F360.0 E5717.249
G1 X6.26 Y-0.33 Z2.4 F360.0 E5718.699
G1 X6.36 Y0.16 Z2.4 F360.0 E5719.328
G1 X7.06 Y-0.55 Z2.4 F360.0 E5720.583
G1 X6.93 Y0.18 Z2.4 F360.0 E5721.503
G1 X6.5 Y0.61 Z2.4 F360.0 E5722.268
;M103
G1 X6.04 Y0.38 Z2.4 F3600.0
;M101
G1 X6.03 Y0.34 Z2.4 F360.0 E5722.322
G1 X4.89 Y-5.27 Z2.4 F360.0 E5729.473
G1 X4.66 Y-5.61 Z2.4 F360.0 E5729.984
G1 X4.28 Y-7.61 Z2.4 F360.0 E5732.535
G1 X4.37 Y-9.41 Z2.4 F360.0 E5734.785
G1 X4.68 Y-9.89 Z2.4 F360.0 E5735.503
G1 X4.83 Y-10.37 Z2.4 F360.0 E5736.128
G1 X5.23 Y-13.92 Z2.4 F360.0 E5740.594
G1 X6.05 Y-17.43 Z2.4 F360.0 E5745.106
G1 X6.55 Y-17.39 Z2.4 F360.0 E5745.734
G1 X7.47 Y-14.19 Z2.4 F360.0 E5749.896
G1 X7.64 Y-12.78 Z2.4 F360.0 E5751.674
G1 X7.74 Y-10.13 Z2.4 F360.0 E5755.001
G1 X8.32 Y-9.26 Z2.4 F360.0 E5756.3
G1 X8.24 Y-7.66 Z2.4 F360.0 E5758.306
G1 X7.96 Y-7.15 Z2.4 F360.0 E5759.042
G1 X7.92 Y-4.44 Z2.4 F360.0 E5762.426
G1 X7.45 Y-2.44 Z2.4 F360.0 E5765.001
G1 X7.41 Y-0.04 Z2.4 F360.0 E5767.999
G1 X7.07 Y0.76 Z2.4 F360.0 E5769.09
G1 X6.88 Y1.52 Z2.4 F360.0 E5770.068
G1 X6.56 Y1.69 Z2.4 F360.0 E5770.526
G1 X6.45 Y1.52 Z2.4 F360.0 E5770.783
G1 X6.17 Y0.73 Z2.4 F360.0 E5771.84
G1 X6.04 Y0.38 Z2.4 F360.0 E5772.305
;M103
G1 X5.62 Y0.45 Z2.4 F3600.0
;M101
G1 X4.5 Y-5.1 Z2.4 F360.0 E5779.393
G1 X4.27 Y-5.45 Z2.4 F360.0 E5779.907
G1 X3.86 Y-7.58 Z2.4 F360.0 E5782.626
G1 X3.96 Y-9.54 Z2.4 F360.0 E5785.079
G1 X4.3 Y-10.07 Z2.4 F360.0 E5785.864
G1 X4.42 Y-10.45 Z2.4 F360.0 E5786.367
G1 X4.81 Y-13.99 Z2.4 F360.0 E5790.815
G1 X5.97 Y-18.9 Z2.4 F360.0 E5797.124
G1 X6.32 Y-18.82 Z2.4 F360.0 E5797.573
G1 X6.55 Y-18.49 Z2.4 F360.0 E5798.074
G1 X6.88 Y-17.79 Z2.4 F360.0 E5799.037
G1 X7.88 Y-14.28 Z2.4 F360.0 E5803.606
G1 X8.06 Y-12.82 Z2.4 F360.0 E5805.448
G1 X8.15 Y-10.26 Z2.4 F360.0 E5808.65
G1 X8.74 Y-9.38 Z2.4 F360.0 E5809.974
G1 X8.65 Y-7.55 Z2.4 F360.0 E5812.271
G1 X8.38 Y-7.04 Z2.4 F360.0 E5812.997
G1 X8.34 Y-4.39 Z2.4 F360.0 E5816.309
G1 X7.87 Y-2.38 Z2.4 F360.0 E5818.885
G1 X7.83 Y0.05 Z2.4 F360.0 E5821.928
G1 X7.47 Y0.9 Z2.4 F360.0 E5823.08
G1 X7.02 Y2.71 Z2.4 F360.0 E5825.424
G1 X6.77 Y2.77 Z2.4 F360.0 E5825.745
G1 X6.07 Y1.71 Z2.4 F360.0 E5827.338
G1 X5.77 Y0.87 Z2.4 F360.0 E5828.458
G1 X5.62 Y0.45 Z2.4 F360.0 E5829.015
;M103
;M108 S5.629
G1 X5.22 Y0.56 Z2.4 F3600.0
;M101
G1 X4.1 Y-4.94 Z2.4 F270.0 E5836.034
G1 X3.87 Y-5.29 Z2.4 F270.0 E5836.552
G1 X3.44 Y-7.55 Z2.4 F270.0 E5839.439
G1 X3.55 Y-9.67 Z2.4 F270.0 E5842.094
G1 X3.92 Y-10.25 Z2.4 F270.0 E5842.947
G1 X4.01 Y-10.54 Z2.4 F270.0 E5843.328
G1 X4.4 Y-14.06 Z2.4 F270.0 E5847.758
G1 X5.4 Y-18.47 Z2.4 F270.0 E5853.418
G1 X5.68 Y-19.39 Z2.4 F270.0 E5854.62
G1 X6.03 Y-19.72 Z2.4 F270.0 E5855.228
G1 X6.42 Y-19.52 Z2.4 F270.0 E5855.777
G1 X6.57 Y-19.19 Z2.4 F270.0 E5856.231
G1 X6.91 Y-18.7 Z2.4 F270.0 E5856.978
G1 X7.27 Y-17.93 Z2.4 F270.0 E5858.034
G1 X7.63 Y-16.56 Z2.4 F270.0 E5859.816
G1 X7.99 Y-15.52 Z2.4 F270.0 E5861.193
G1 X8.29 Y-14.36 Z2.4 F270.0 E5862.689
G1 X8.48 Y-12.85 Z2.4 F270.0 E5864.589
G1 X8.57 Y-10.4 Z2.4 F270.0 E5867.663
G1 X9.17 Y-9.5 Z2.4 F270.0 E5869.011
G1 X9.07 Y-7.43 Z2.4 F270.0 E5871.602
G1 X8.8 Y-6.93 Z2.4 F270.0 E5872.317
G1 X8.76 Y-4.34 Z2.4 F270.0 E5875.557
G1 X8.29 Y-2.33 Z2.4 F270.0 E5878.134
G1 X8.25 Y0.14 Z2.4 F270.0 E5881.223
G1 X7.87 Y1.03 Z2.4 F270.0 E5882.444
G1 X7.58 Y2.02 Z2.4 F270.0 E5883.729
G1 X7.17 Y4.13 Z2.4 F270.0 E5886.415
G1 X7.17 Y4.13 Z2.4 F270.0 E5886.423
G1 X5.69 Y1.9 Z2.4 F270.0 E5889.769
G1 X5.38 Y1.01 Z2.4 F270.0 E5890.954
G1 X5.22 Y0.56 Z2.4 F270.0 E5891.547
;M103
;M108 S7.506
G1 X-4.98 Y16.83 Z2.4 F3600.0
;M101
G1 X-5.03 Y16.88 Z2.4 F360.0 E5891.629
G1 X-5.14 Y16.4 Z2.4 F360.0 E5892.245
G1 X-4.74 Y16.0 Z2.4 F360.0 E5892.949
G1 X-5.26 Y15.92 Z2.4 F360.0 E5893.597
G1 X-5.48 Y14.96 Z2.4 F360.0 E5894.827
G1 X-4.51 Y15.17 Z2.4 F360.0 E5896.076
G1 X-4.27 Y14.34 Z2.4 F360.0 E5897.156
G1 X-5.19 Y14.39 Z2.4 F360.0 E5898.311
G1 X-5.71 Y14.01 Z2.4 F360.0 E5899.12
G1 X-5.85 Y12.96 Z2.4 F360.0 E5900.443
G1 X-4.14 Y13.62 Z2.4 F360.0 E5902.73
G1 X-4.0 Y11.7 Z2.4 F360.0 E5905.143
G1 X-5.91 Y12.42 Z2.4 F360.0 E5907.697
G1 X-6.09 Y10.83 Z2.4 F360.0 E5909.71
G1 X-3.98 Y11.09 Z2.4 F360.0 E5912.369
G1 X-3.95 Y10.47 Z2.4 F360.0 E5913.139
G1 X-3.39 Y8.72 Z2.4 F360.0 E5915.437
G1 X-3.5 Y7.65 Z2.4 F360.0 E5916.79
G1 X-6.15 Y10.29 Z2.4 F360.0 E5921.471
G1 X-6.28 Y9.84 Z2.4 F360.0 E5922.064
G1 X-6.5 Y9.46 Z2.4 F360.0 E5922.609
G1 X-6.62 Y8.99 Z2.4 F360.0 E5923.218
G1 X-6.67 Y7.86 Z2.4 F360.0 E5924.631
G1 X-6.6 Y7.19 Z2.4 F360.0 E5925.467
G1 X-3.71 Y7.26 Z2.4 F360.0 E5929.09
G1 X-3.78 Y4.38 Z2.4 F360.0 E5932.699
G1 X-3.9 Y3.9 Z2.4 F360.0 E5933.316
G1 X-6.46 Y6.46 Z2.4 F360.0 E5937.856
G1 X-6.31 Y5.71 Z2.4 F360.0 E5938.815
G1 X-5.98 Y4.79 Z2.4 F360.0 E5940.036
G1 X-5.68 Y3.31 Z2.4 F360.0 E5941.934
G1 X-4.01 Y3.42 Z2.4 F360.0 E5944.024
G1 X-4.23 Y2.45 Z2.4 F360.0 E5945.262
G1 X-4.25 Y1.29 Z2.4 F360.0 E5946.72
G1 X-5.53 Y2.56 Z2.4 F360.0 E5948.978
G1 X-5.37 Y1.82 Z2.4 F360.0 E5949.927
G1 X-4.26 Y0.71 Z2.4 F360.0 E5951.899
G1 X-4.27 Y0.12 Z2.4 F360.0 E5952.627
G1 X-5.22 Y1.08 Z2.4 F360.0 E5954.314
G1 X-5.07 Y0.33 Z2.4 F360.0 E5955.263
G1 X-4.44 Y-0.3 Z2.4 F360.0 E5956.375
G1 X-4.61 Y-0.72 Z2.4 F360.0 E5956.948
G1 X-4.88 Y-0.45 Z2.4 F360.0 E5957.427
;M103
G1 X-5.09 Y-0.92 Z2.4 F3600.0
;M101
G1 X-4.88 Y-1.52 Z2.4 F360.0 E5958.226
G1 X-4.76 Y-1.69 Z2.4 F360.0 E5958.483
G1 X-4.44 Y-1.52 Z2.4 F360.0 E5958.942
G1 X-4.25 Y-0.76 Z2.4 F360.0 E5959.92
G1 X-3.92 Y0.04 Z2.4 F360.0 E5961.01
G1 X-3.87 Y2.44 Z2.4 F360.0 E5964.009
G1 X-3.4 Y4.44 Z2.4 F360.0 E5966.585
G1 X-3.37 Y7.15 Z2.4 F360.0 E5969.968
G1 X-3.09 Y7.66 Z2.4 F360.0 E5970.704
G1 X-3.01 Y9.26 Z2.4 F360.0 E5972.709
G1 X-3.59 Y10.13 Z2.4 F360.0 E5974.008
G1 X-3.68 Y12.78 Z2.4 F360.0 E5977.335
G1 X-3.86 Y14.2 Z2.4 F360.0 E5979.114
G1 X-4.77 Y17.39 Z2.4 F360.0 E5983.274
G1 X-5.26 Y17.42 Z2.4 F360.0 E5983.888
G1 X-6.1 Y13.92 Z2.4 F360.0 E5988.395
G1 X-6.5 Y10.37 Z2.4 F360.0 E5992.867
G1 X-6.64 Y9.89 Z2.4 F360.0 E5993.492
G1 X-6.95 Y9.41 Z2.4 F360.0 E5994.21
G1 X-7.04 Y7.61 Z2.4 F360.0 E5996.461
G1 X-6.66 Y5.61 Z2.4 F360.0 E5999.011
G1 X-6.44 Y5.27 Z2.4 F360.0 E5999.522
G1 X-5.3 Y-0.34 Z2.4 F360.0 E6006.673
G1 X-5.22 Y-0.57 Z2.4 F360.0 E6006.985
G1 X-5.09 Y-0.92 Z2.4 F360.0 E6007.45
;M103
G1 X-5.49 Y-1.06 Z2.4 F3600.0
;M101
G1 X-5.26 Y-1.71 Z2.4 F360.0 E6008.313
G1 X-4.55 Y-2.77 Z2.4 F360.0 E6009.907
G1 X-4.31 Y-2.71 Z2.4 F360.0 E6010.227
G1 X-3.86 Y-0.9 Z2.4 F360.0 E6012.572
G1 X-3.5 Y-0.05 Z2.4 F360.0 E6013.722
G1 X-3.46 Y2.38 Z2.4 F360.0 E6016.766
G1 X-2.99 Y4.39 Z2.4 F360.0 E6019.342
G1 X-2.95 Y7.04 Z2.4 F360.0 E6022.654
G1 X-2.67 Y7.55 Z2.4 F360.0 E6023.379
G1 X-2.58 Y9.38 Z2.4 F360.0 E6025.677
G1 X-3.17 Y10.26 Z2.4 F360.0 E6027.0
G1 X-3.26 Y12.82 Z2.4 F360.0 E6030.201
G1 X-3.45 Y14.28 Z2.4 F360.0 E6032.042
G1 X-4.45 Y17.79 Z2.4 F360.0 E6036.613
G1 X-4.78 Y18.49 Z2.4 F360.0 E6037.576
G1 X-5.01 Y18.82 Z2.4 F360.0 E6038.076
G1 X-5.34 Y18.89 Z2.4 F360.0 E6038.507
G1 X-6.51 Y13.99 Z2.4 F360.0 E6044.807
G1 X-6.91 Y10.45 Z2.4 F360.0 E6049.264
G1 X-7.03 Y10.07 Z2.4 F360.0 E6049.766
G1 X-7.37 Y9.54 Z2.4 F360.0 E6050.552
G1 X-7.47 Y7.58 Z2.4 F360.0 E6053.006
G1 X-7.06 Y5.45 Z2.4 F360.0 E6055.723
G1 X-6.83 Y5.1 Z2.4 F360.0 E6056.238
G1 X-5.7 Y-0.45 Z2.4 F360.0 E6063.325
G1 X-5.61 Y-0.71 Z2.4 F360.0 E6063.673
G1 X-5.49 Y-1.06 Z2.4 F360.0 E6064.139
;M103
;M108 S5.629
G1 X-5.88 Y-1.2 Z2.4 F3600.0
;M101
G1 X-5.63 Y-1.9 Z2.4 F270.0 E6065.066
G1 X-4.16 Y-4.13 Z2.4 F270.0 E6068.412
G1 X-4.15 Y-4.13 Z2.4 F270.0 E6068.419
G1 X-3.74 Y-2.02 Z2.4 F270.0 E6071.106
G1 X-3.46 Y-1.03 Z2.4 F270.0 E6072.391
G1 X-3.08 Y-0.14 Z2.4 F270.0 E6073.611
G1 X-3.04 Y2.33 Z2.4 F270.0 E6076.7
G1 X-2.57 Y4.34 Z2.4 F270.0 E6079.277
G1 X-2.53 Y6.93 Z2.4 F270.0 E6082.516
G1 X-2.26 Y7.43 Z2.4 F270.0 E6083.231
G1 X-2.16 Y9.5 Z2.4 F270.0 E6085.823
G1 X-2.76 Y10.4 Z2.4 F270.0 E6087.17
G1 X-2.85 Y12.85 Z2.4 F270.0 E6090.244
G1 X-3.03 Y14.36 Z2.4 F270.0 E6092.143
G1 X-3.34 Y15.51 Z2.4 F270.0 E6093.639
G1 X-3.69 Y16.56 Z2.4 F270.0 E6095.017
G1 X-4.06 Y17.93 Z2.4 F270.0 E6096.8
G1 X-4.42 Y18.7 Z2.4 F270.0 E6097.854
G1 X-4.76 Y19.19 Z2.4 F270.0 E6098.602
G1 X-4.9 Y19.52 Z2.4 F270.0 E6099.057
G1 X-5.29 Y19.72 Z2.4 F270.0 E6099.605
G1 X-5.65 Y19.39 Z2.4 F270.0 E6100.212
G1 X-6.58 Y15.78 Z2.4 F270.0 E6104.871
G1 X-6.93 Y14.06 Z2.4 F270.0 E6107.074
G1 X-7.32 Y10.54 Z2.4 F270.0 E6111.505
G1 X-7.41 Y10.25 Z2.4 F270.0 E6111.886
G1 X-7.78 Y9.67 Z2.4 F270.0 E6112.738
G1 X-7.89 Y7.55 Z2.4 F270.0 E6115.393
G1 X-7.45 Y5.29 Z2.4 F270.0 E6118.28
G1 X-7.23 Y4.94 Z2.4 F270.0 E6118.799
G1 X-6.11 Y-0.56 Z2.4 F270.0 E6125.818
G1 X-6.01 Y-0.85 Z2.4 F270.0 E6126.203
G1 X-5.88 Y-1.2 Z2.4 F270.0 E6126.669
;M103
;M108 S7.506
G1 X-4.35 Y1.57 Z2.7 F3600.0
